TanmayH/CS269-RL-project-code/MetaDrive-td3combine-expt_with_safe_fix/MetaDrive-Gen-Next-v0/td3/progress.csv
,log_dir,frame_per_second,episode_reward,total_steps,total_episodes,total_time,target_q,actor_loss,critic_loss,success_rate
0,MetaDrive-td3combine-expt_with_safe_fix,427,12.90128147822537,2001,2,4.68185019493103,,,,0.0
1,MetaDrive-td3combine-expt_with_safe_fix,453,9.896606970885484,3567,4,7.866313695907593,,,,0.0
2,MetaDrive-td3combine-expt_with_safe_fix,425,9.286024224008045,4568,5,10.742626190185547,,,,0.0
3,MetaDrive-td3combine-expt_with_safe_fix,384,9.022001892008541,5135,6,13.371523141860962,-0.08282546699047089,0.05256872624158859,0.0018775381613522768,0.0
4,MetaDrive-td3combine-expt_with_safe_fix,243,-0.28742321848726454,6564,26,26.978692770004272,-0.03671310096979141,,0.008722914382815361,0.0
5,MetaDrive-td3combine-expt_with_safe_fix,213,-0.237457999565135,7565,27,35.36308979988098,-0.024272359907627106,0.012988036498427391,0.003628365695476532,0.0
6,MetaDrive-td3combine-expt_with_safe_fix,191,-0.535482122431506,8829,30,46.21997547149658,-0.015016045421361923,0.008920158259570599,0.0027270230930298567,0.0
7,MetaDrive-td3combine-expt_with_safe_fix,182,-0.5513363615112532,9830,31,54.00011444091797,-0.024780569598078728,,0.006615499034523964,0.0
8,MetaDrive-td3combine-expt_with_safe_fix,174,-0.6376293071750615,10945,33,62.65894269943237,-0.021820280700922012,-0.00016756076365709305,0.009665192104876041,0.0
9,MetaDrive-td3combine-expt_with_safe_fix,173,-0.7906029822017625,11177,34,64.50423002243042,0.0012677033664658666,-9.163343929685652e-05,0.01308007538318634,0.0
10,MetaDrive-td3combine-expt_with_safe_fix,169,-0.678336756177177,12178,35,72.00219058990479,0.0013742309529334307,,0.007279824465513229,0.0
11,MetaDrive-td3combine-expt_with_safe_fix,161,-0.6726161418595956,13574,37,83.898273229599,-0.04929402470588684,,0.4789178967475891,0.0
12,MetaDrive-td3combine-expt_with_safe_fix,156,-0.4790083022590609,14923,40,95.48726391792297,0.0700325071811676,-0.09361561387777328,0.00483491737395525,0.0
13,MetaDrive-td3combine-expt_with_safe_fix,154,-0.544213924916777,15423,41,99.67487335205078,0.08400741964578629,-0.09569385647773743,0.0008718377794139087,0.0
14,MetaDrive-td3combine-expt_with_safe_fix,152,-0.5306530654510367,16226,42,106.1111912727356,0.10351863503456116,,0.003352783853188157,0.0
15,MetaDrive-td3combine-expt_with_safe_fix,150,-0.38441207564845303,17227,43,114.38059639930725,0.11001450568437576,-0.10619895160198212,0.002362004481256008,0.0
16,MetaDrive-td3combine-expt_with_safe_fix,148,-0.371728451108031,18327,45,123.6013662815094,0.14629898965358734,-0.1700528860092163,0.0012061605229973793,0.0
17,MetaDrive-td3combine-expt_with_safe_fix,147,-0.3383221532608247,19074,46,129.50955891609192,0.1306716650724411,,0.004827728495001793,0.0
18,MetaDrive-td3combine-expt_with_safe_fix,145,-0.44679901101519987,20131,49,138.11670541763306,0.1637115329504013,-0.16634850203990936,0.004021726083010435,0.0
19,MetaDrive-td3combine-expt_with_safe_fix,144,-0.5387127483125856,21134,52,146.55449771881104,0.16943402588367462,,0.008004486560821533,0.0
20,MetaDrive-td3combine-expt_with_safe_fix,142,-0.6063250649152073,22165,57,155.4940242767334,0.17956990003585815,-0.20619262754917145,0.0037593687884509563,0.0
21,MetaDrive-td3combine-expt_with_safe_fix,142,-0.5982928236695714,23070,58,162.36115741729736,0.21564586460590363,,0.0008947179303504527,0.0
22,MetaDrive-td3combine-expt_with_safe_fix,141,-0.6671135300219452,24012,62,169.97405529022217,0.22334235906600952,,0.00781289767473936,0.0
23,MetaDrive-td3combine-expt_with_safe_fix,139,-0.2997329176970702,25140,69,180.00110626220703,0.25115513801574707,,0.0015965155325829983,0.0
24,MetaDrive-td3combine-expt_with_safe_fix,138,-0.22912032952810613,26418,72,190.21038579940796,0.27000272274017334,,0.0005327167455106974,0.0
25,MetaDrive-td3combine-expt_with_safe_fix,137,-0.2949199437226516,27143,77,197.0858118534088,0.29129883646965027,-0.2563171982765198,0.006639538332819939,0.0
26,MetaDrive-td3combine-expt_with_safe_fix,137,-0.2547948428079477,28075,81,204.75017285346985,0.20313148200511932,-0.2687978148460388,0.8339828252792358,0.0
27,MetaDrive-td3combine-expt_with_safe_fix,136,0.33269058244503796,29405,84,215.22636008262634,0.32597896456718445,-0.32654333114624023,0.005221704486757517,0.0
28,MetaDrive-td3combine-expt_with_safe_fix,135,0.8043647659591182,30067,93,221.36080265045166,0.34093785285949707,-0.35805779695510864,0.005366108380258083,0.0
29,MetaDrive-td3combine-expt_with_safe_fix,134,2.0110777319766235,31035,112,231.3565661907196,0.4092675745487213,-0.40441128611564636,0.012843672186136246,0.0
30,MetaDrive-td3combine-expt_with_safe_fix,132,3.246797016873235,32015,131,241.3387839794159,0.4856926202774048,-0.5023017525672913,0.008521628566086292,0.0
31,MetaDrive-td3combine-expt_with_safe_fix,130,5.040092519251667,33001,153,252.3973536491394,0.4182206988334656,-0.6379249095916748,1.9844043254852295,0.0
32,MetaDrive-td3combine-expt_with_safe_fix,128,6.041646189889912,34030,179,264.2689039707184,0.7764356732368469,,0.023343272507190704,0.0
33,MetaDrive-td3combine-expt_with_safe_fix,127,6.195006489370705,35017,199,274.05395007133484,0.906805157661438,-0.9565763473510742,0.04468211531639099,0.0
34,MetaDrive-td3combine-expt_with_safe_fix,126,7.7722897608286265,36038,220,284.48942494392395,1.020553469657898,,1.1924934387207031,0.0
35,MetaDrive-td3combine-expt_with_safe_fix,125,8.700143309963725,37028,243,295.5414865016937,1.2262028455734253,,1.20062255859375,0.0
36,MetaDrive-td3combine-expt_with_safe_fix,124,9.73345808881047,38133,260,306.8245646953583,1.4915528297424316,-1.6518508195877075,1.3332629203796387,0.0
37,MetaDrive-td3combine-expt_with_safe_fix,123,10.919843526767899,39014,279,315.24526476860046,1.9071941375732422,,0.21603724360466003,0.0
38,MetaDrive-td3combine-expt_with_safe_fix,123,10.64481074912288,40022,299,324.93422532081604,2.1810364723205566,,0.05738544464111328,0.0
39,MetaDrive-td3combine-expt_with_safe_fix,122,12.708252736564834,41006,314,334.64733815193176,2.365776538848877,,1.65250825881958,0.0
40,MetaDrive-td3combine-expt_with_safe_fix,122,16.07574414615389,42005,327,343.84261679649353,2.794753313064575,-2.8956775665283203,0.05431819707155228,0.0
41,MetaDrive-td3combine-expt_with_safe_fix,121,17.14268884382346,43027,341,352.92980790138245,3.0097761154174805,-3.041982889175415,4.153206825256348,0.0
42,MetaDrive-td3combine-expt_with_safe_fix,121,18.977043003921313,44006,355,362.5628356933594,3.4937868118286133,,2.164860486984253,0.0
43,MetaDrive-td3combine-expt_with_safe_fix,121,21.233837987956882,45061,367,371.88237738609314,3.8315541744232178,-4.1937079429626465,5.229531288146973,0.0
44,MetaDrive-td3combine-expt_with_safe_fix,121,22.270944160240354,46008,378,380.18319869041443,4.317458629608154,,2.901763439178467,0.0
45,MetaDrive-td3combine-expt_with_safe_fix,121,26.3019999495765,47842,388,395.1819312572479,5.357836723327637,,0.4040180742740631,0.0
46,MetaDrive-td3combine-expt_with_safe_fix,121,26.426245453653294,48045,390,396.8646433353424,5.299694538116455,-5.491907119750977,0.261276513338089,0.0
47,MetaDrive-td3combine-expt_with_safe_fix,120,26.580339004137386,49024,400,405.1878447532654,5.861431121826172,,0.19671234488487244,0.0
48,MetaDrive-td3combine-expt_with_safe_fix,120,28.138333187224926,50356,406,417.2099931240082,6.488425254821777,,0.4720279574394226,0.0
49,MetaDrive-td3combine-expt_with_safe_fix,120,27.42137848182002,51030,415,423.67934560775757,6.3104634284973145,,4.932483196258545,0.0
50,MetaDrive-td3combine-expt_with_safe_fix,120,27.0225048611766,52132,417,432.784197807312,7.256427764892578,,0.3135220408439636,0.0
51,MetaDrive-td3combine-expt_with_safe_fix,120,29.391109614713706,53044,424,441.3126971721649,7.256673812866211,,0.539609432220459,0.01
52,MetaDrive-td3combine-expt_with_safe_fix,120,32.096940602199666,54005,432,449.699542760849,7.0950026512146,-7.6376447677612305,11.07858943939209,0.01
53,MetaDrive-td3combine-expt_with_safe_fix,119,36.04980385918057,55096,438,459.3168954849243,8.197811126708984,,1.0949493646621704,0.03
54,MetaDrive-td3combine-expt_with_safe_fix,120,38.47825260036047,56054,447,467.10285806655884,8.979615211486816,,3.762470245361328,0.03
55,MetaDrive-td3combine-expt_with_safe_fix,119,44.89758321023504,57346,451,478.7602016925812,9.708608627319336,,8.22005558013916,0.06
56,MetaDrive-td3combine-expt_with_safe_fix,119,45.2383632287402,58585,454,488.68011474609375,9.593897819519043,-10.100554466247559,7.744173526763916,0.06
57,MetaDrive-td3combine-expt_with_safe_fix,119,48.609517291230844,59198,457,494.2308611869812,10.048405647277832,,4.6263957023620605,0.07
58,MetaDrive-td3combine-expt_with_safe_fix,119,51.60936191638404,60303,461,503.6770033836365,10.800078392028809,-10.76793098449707,0.9399656057357788,0.09
59,MetaDrive-td3combine-expt_with_safe_fix,119,54.67481800859906,61047,466,510.1127278804779,11.149554252624512,-11.525083541870117,0.9269585609436035,0.1
60,MetaDrive-td3combine-expt_with_safe_fix,119,54.14742279515915,62048,467,518.875871181488,10.984829902648926,,0.7147576808929443,0.1
61,MetaDrive-td3combine-expt_with_safe_fix,119,59.54277580874578,63133,472,528.5668423175812,11.747966766357422,-11.981606483459473,0.5754876136779785,0.12
62,MetaDrive-td3combine-expt_with_safe_fix,119,61.17966009099936,64292,474,538.2260820865631,11.837732315063477,,2.06705904006958,0.12
63,MetaDrive-td3combine-expt_with_safe_fix,119,62.33982310840955,65114,480,545.413938999176,11.842069625854492,,10.308116912841797,0.12
64,MetaDrive-td3combine-expt_with_safe_fix,119,66.11115520972979,66157,486,554.7305328845978,12.708454132080078,-13.37131118774414,1.0591322183609009,0.13
65,MetaDrive-td3combine-expt_with_safe_fix,119,69.71694309450933,67724,490,567.720935344696,13.002062797546387,,1.1036230325698853,0.14
66,MetaDrive-td3combine-expt_with_safe_fix,119,70.7964414557757,68074,493,570.8041665554047,12.936480522155762,,25.160945892333984,0.14
67,MetaDrive-td3combine-expt_with_safe_fix,119,74.26809460412137,69998,500,585.7054727077484,12.54158878326416,,8.935800552368164,0.14
68,MetaDrive-td3combine-expt_with_safe_fix,119,74.38124765934617,70083,501,586.4137198925018,14.215255737304688,-14.025409698486328,1.4237568378448486,0.14
69,MetaDrive-td3combine-expt_with_safe_fix,119,77.17919915038158,71079,506,594.7782974243164,13.955015182495117,-14.226045608520508,2.0780930519104004,0.15
70,MetaDrive-td3combine-expt_with_safe_fix,119,82.3867164622508,72720,511,608.2343285083771,12.469412803649902,,10.85340690612793,0.15
71,MetaDrive-td3combine-expt_with_safe_fix,119,82.7430318852011,73010,513,610.5966110229492,14.74305534362793,,1.0284388065338135,0.15
72,MetaDrive-td3combine-expt_with_safe_fix,119,83.63931852352061,74082,516,619.0526945590973,14.803336143493652,,2.40891432762146,0.15
73,MetaDrive-td3combine-expt_with_safe_fix,119,84.9246006185614,75817,521,633.5918221473694,15.614751815795898,-15.554994583129883,8.940805435180664,0.15
74,MetaDrive-td3combine-expt_with_safe_fix,119,85.82155875428796,76952,523,642.7818176746368,14.587800979614258,,3.705270290374756,0.15
75,MetaDrive-td3combine-expt_with_safe_fix,119,86.20526235553339,77066,524,643.7410807609558,14.508384704589844,,10.047614097595215,0.15
76,MetaDrive-td3combine-expt_with_safe_fix,119,88.49346141323173,78756,528,657.0955471992493,15.464184761047363,,2.5911855697631836,0.17
77,MetaDrive-td3combine-expt_with_safe_fix,119,90.13013376204746,79611,530,663.4328315258026,14.748708724975586,-15.232337951660156,0.9835070371627808,0.17
78,MetaDrive-td3combine-expt_with_safe_fix,119,91.33595711952161,80228,533,669.2098197937012,14.166997909545898,,2.4737486839294434,0.16
79,MetaDrive-td3combine-expt_with_safe_fix,119,95.97916470310469,81790,535,683.0165207386017,13.378108978271484,,2.606687068939209,0.17
80,MetaDrive-td3combine-expt_with_safe_fix,119,96.08174305087529,82078,537,685.3035538196564,14.473445892333984,,2.443647861480713,0.17
81,MetaDrive-td3combine-expt_with_safe_fix,119,94.71411409929794,83079,538,692.3458456993103,14.832342147827148,-15.101982116699219,25.94463348388672,0.16
82,MetaDrive-td3combine-expt_with_safe_fix,119,97.088374965419,84408,541,704.4962410926819,16.79111099243164,,3.2537524700164795,0.16
83,MetaDrive-td3combine-expt_with_safe_fix,119,98.83906295605543,85144,542,711.2283535003662,16.808021545410156,,1.005455493927002,0.17
84,MetaDrive-td3combine-expt_with_safe_fix,119,100.94279066024734,86168,545,720.0796957015991,17.186874389648438,,1.1395792961120605,0.18
85,MetaDrive-td3combine-expt_with_safe_fix,119,97.89649130144868,87555,550,730.2624070644379,16.936655044555664,-17.526561737060547,14.049694061279297,0.16
86,MetaDrive-td3combine-expt_with_safe_fix,119,97.88268509442683,88205,553,736.3128690719604,15.519796371459961,-15.977073669433594,30.738361358642578,0.16
87,MetaDrive-td3combine-expt_with_safe_fix,119,95.41112032973271,89902,558,749.8320362567902,15.984713554382324,,1.737008810043335,0.15
88,MetaDrive-td3combine-expt_with_safe_fix,119,95.66355272349243,90130,559,751.8286554813385,17.526464462280273,,3.0736916065216064,0.15
89,MetaDrive-td3combine-expt_with_safe_fix,120,96.24683632778489,91423,562,761.5584509372711,15.653449058532715,-16.4527587890625,11.639337539672852,0.14
90,MetaDrive-td3combine-expt_with_safe_fix,120,95.68151822019114,92812,565,771.6436851024628,15.901395797729492,,1.2723636627197266,0.14
91,MetaDrive-td3combine-expt_with_safe_fix,120,95.90824695313837,93400,566,776.4110400676727,15.40677261352539,,4.733298301696777,0.14
92,MetaDrive-td3combine-expt_with_safe_fix,120,97.45457498206457,94199,569,782.9161021709442,20.80500602722168,-20.59298324584961,6.239104747772217,0.15
93,MetaDrive-td3combine-expt_with_safe_fix,120,97.4119743558269,95200,570,790.6797800064087,17.78731918334961,,3.160849094390869,0.15
94,MetaDrive-td3combine-expt_with_safe_fix,120,97.63894646237664,96201,571,798.4969382286072,17.290924072265625,-17.925539016723633,4.683316230773926,0.15
95,MetaDrive-td3combine-expt_with_safe_fix,120,95.63784490636108,97342,573,806.7287633419037,17.673603057861328,,10.788278579711914,0.14
96,MetaDrive-td3combine-expt_with_safe_fix,120,96.41020240721349,98343,574,814.6741199493408,21.332672119140625,-21.846031188964844,6.415449619293213,0.14
97,MetaDrive-td3combine-expt_with_safe_fix,120,97.02779404835573,99344,575,822.4548077583313,17.456226348876953,,2.8304567337036133,0.14
98,MetaDrive-td3combine-expt_with_safe_fix,120,97.66794180880359,100004,580,828.2224733829498,18.873027801513672,,2.6875033378601074,0.14
99,MetaDrive-td3combine-expt_with_safe_fix,120,97.29126155482044,101273,583,837.5194175243378,17.520069122314453,-18.048742294311523,3.0939412117004395,0.14
100,MetaDrive-td3combine-expt_with_safe_fix,120,95.6416696631686,102710,587,848.9785025119781,21.40271759033203,,17.708345413208008,0.13
101,MetaDrive-td3combine-expt_with_safe_fix,120,96.34677400496702,103711,588,858.0346179008484,20.097675323486328,-19.83030128479004,1.5432194471359253,0.12
102,MetaDrive-td3combine-expt_with_safe_fix,120,96.30053000726367,104325,590,863.0744621753693,21.122812271118164,-21.142749786376953,12.468426704406738,0.13
103,MetaDrive-td3combine-expt_with_safe_fix,120,100.02860257387795,105594,592,873.3791329860687,19.38335418701172,,6.030867576599121,0.13
104,MetaDrive-td3combine-expt_with_safe_fix,120,99.23202342263814,106060,593,877.2395482063293,22.429672241210938,,5.096101760864258,0.13
105,MetaDrive-td3combine-expt_with_safe_fix,120,104.8921114750979,107246,597,886.9977252483368,18.861175537109375,,6.380128860473633,0.16
106,MetaDrive-td3combine-expt_with_safe_fix,121,106.66389061894841,108619,600,897.4722127914429,20.703426361083984,-20.986160278320312,1.4392008781433105,0.17
107,MetaDrive-td3combine-expt_with_safe_fix,121,110.19120300392328,109620,601,905.6926345825195,19.849628448486328,,5.779344081878662,0.17
108,MetaDrive-td3combine-expt_with_safe_fix,120,110.58666201175149,110315,603,911.909996509552,20.744380950927734,-21.70673370361328,36.028648376464844,0.17
109,MetaDrive-td3combine-expt_with_safe_fix,121,108.46804155948684,111442,605,920.9598982334137,19.345394134521484,,2.396716594696045,0.16
110,MetaDrive-td3combine-expt_with_safe_fix,121,110.0400388724634,112801,607,931.4383766651154,22.724929809570312,-23.15108871459961,16.812572479248047,0.17
111,MetaDrive-td3combine-expt_with_safe_fix,121,109.63473003785757,113802,608,939.1726899147034,20.29657745361328,,1.9814951419830322,0.17
112,MetaDrive-td3combine-expt_with_safe_fix,121,110.25272548001156,114803,609,947.3348588943481,24.685428619384766,-25.123247146606445,4.907125949859619,0.17
113,MetaDrive-td3combine-expt_with_safe_fix,121,107.59688095799298,115006,611,948.9390938282013,22.644079208374023,,20.33431625366211,0.17
114,MetaDrive-td3combine-expt_with_safe_fix,121,110.91162035258309,116899,614,963.6569466590881,24.262340545654297,-24.245223999023438,2.4983808994293213,0.19
115,MetaDrive-td3combine-expt_with_safe_fix,121,111.07577322666135,117900,615,971.5542221069336,20.35607147216797,,4.943977355957031,0.19
116,MetaDrive-td3combine-expt_with_safe_fix,121,110.9920283480585,118137,616,973.4741613864899,23.69781494140625,-24.472148895263672,34.347076416015625,0.19
117,MetaDrive-td3combine-expt_with_safe_fix,121,110.85835723424323,119415,618,983.3281297683716,23.87091064453125,-23.973554611206055,2.2395715713500977,0.19
118,MetaDrive-td3combine-expt_with_safe_fix,121,111.09498282731718,120076,619,988.1182880401611,16.895641326904297,,29.70781707763672,0.19
119,MetaDrive-td3combine-expt_with_safe_fix,121,111.71629288512636,121077,620,995.7074749469757,20.72625160217285,-20.39773941040039,68.3839111328125,0.19
120,MetaDrive-td3combine-expt_with_safe_fix,121,111.925940087042,122507,624,1006.7776992321014,20.136581420898438,-20.482919692993164,8.75784683227539,0.19
121,MetaDrive-td3combine-expt_with_safe_fix,121,114.33663457566927,123157,625,1012.9122836589813,20.07284164428711,-19.657894134521484,5.428825378417969,0.2
122,MetaDrive-td3combine-expt_with_safe_fix,121,114.53457805920645,124011,629,1020.0454115867615,18.680950164794922,-19.170555114746094,7.999323844909668,0.19
123,MetaDrive-td3combine-expt_with_safe_fix,121,113.62736153324218,125542,633,1032.2698934078217,21.907421112060547,,4.910673141479492,0.2
124,MetaDrive-td3combine-expt_with_safe_fix,121,111.31891208491339,126035,635,1036.429764509201,25.2181396484375,-25.22201919555664,14.083023071289062,0.19
125,MetaDrive-td3combine-expt_with_safe_fix,121,112.9101545928913,127302,638,1046.9196717739105,23.338516235351562,,2.505734443664551,0.19
126,MetaDrive-td3combine-expt_with_safe_fix,121,111.68030396961097,128636,641,1057.3918545246124,25.14060401916504,,2.218210220336914,0.19
127,MetaDrive-td3combine-expt_with_safe_fix,121,110.45526100481212,129064,643,1060.7988650798798,25.12384033203125,,7.75997257232666,0.18
128,MetaDrive-td3combine-expt_with_safe_fix,121,112.03213392973676,130020,644,1067.4806051254272,24.311355590820312,,10.837557792663574,0.18
129,MetaDrive-td3combine-expt_with_safe_fix,121,115.44878095801137,131399,646,1077.448627948761,24.509532928466797,-25.131288528442383,7.686349391937256,0.19
130,MetaDrive-td3combine-expt_with_safe_fix,121,117.31981100144203,132244,651,1084.0885109901428,22.09478759765625,,7.133581161499023,0.2
131,MetaDrive-td3combine-expt_with_safe_fix,121,120.06972314391628,133215,653,1092.2756841182709,23.802915573120117,-24.945371627807617,12.003273010253906,0.21
132,MetaDrive-td3combine-expt_with_safe_fix,122,122.31418403108525,134749,655,1104.422367811203,25.875370025634766,-26.92117691040039,3.3053853511810303,0.21
133,MetaDrive-td3combine-expt_with_safe_fix,122,122.963954659123,135199,657,1108.1208310127258,20.952220916748047,-22.796140670776367,46.344539642333984,0.21
134,MetaDrive-td3combine-expt_with_safe_fix,122,123.05696801757057,136200,658,1115.9327774047852,20.40610122680664,,17.18880844116211,0.21
135,MetaDrive-td3combine-expt_with_safe_fix,122,123.68705397469218,137012,659,1122.5368919372559,17.683757781982422,,3.80043888092041,0.22
136,MetaDrive-td3combine-expt_with_safe_fix,121,124.9985241869429,138013,660,1131.7035429477692,27.210906982421875,-28.359203338623047,5.857358932495117,0.22
137,MetaDrive-td3combine-expt_with_safe_fix,121,124.77467819247322,139030,665,1140.4020223617554,24.760759353637695,,7.726534843444824,0.23
138,MetaDrive-td3combine-expt_with_safe_fix,121,122.74439369147761,140769,669,1155.5831820964813,24.770889282226562,-25.00674057006836,2.9328854084014893,0.21
139,MetaDrive-td3combine-expt_with_safe_fix,121,124.2329690405964,141770,670,1163.1436154842377,25.54693031311035,,3.435105800628662,0.21
140,MetaDrive-td3combine-expt_with_safe_fix,121,126.42678424615335,142265,671,1167.2639784812927,20.858102798461914,-21.73526954650879,6.0278425216674805,0.22
141,MetaDrive-td3combine-expt_with_safe_fix,121,126.58231211595343,143305,675,1175.204606294632,25.969987869262695,-26.043075561523438,3.083664894104004,0.23
142,MetaDrive-td3combine-expt_with_safe_fix,121,128.22394106344532,144274,679,1183.3683750629425,26.847450256347656,,4.136899948120117,0.24
143,MetaDrive-td3combine-expt_with_safe_fix,122,128.672239709287,145520,682,1192.764687538147,24.537006378173828,,12.681652069091797,0.24
144,MetaDrive-td3combine-expt_with_safe_fix,122,128.7726201574527,146521,683,1200.205857038498,28.322725296020508,-28.701068878173828,3.6578285694122314,0.24
145,MetaDrive-td3combine-expt_with_safe_fix,122,128.0483980336676,147092,687,1204.9146990776062,22.351335525512695,,3.601513624191284,0.24
146,MetaDrive-td3combine-expt_with_safe_fix,122,126.75476409930407,148484,690,1215.7321300506592,26.098371505737305,,10.591696739196777,0.23
147,MetaDrive-td3combine-expt_with_safe_fix,122,128.45204654240237,149053,691,1220.6938588619232,28.06365203857422,-28.638206481933594,10.423009872436523,0.24
148,MetaDrive-td3combine-expt_with_safe_fix,122,131.11988306008732,150799,694,1235.3151595592499,27.44137191772461,-27.900928497314453,30.651268005371094,0.24
149,MetaDrive-td3combine-expt_with_safe_fix,122,126.67622250403687,151009,696,1236.8940584659576,24.739185333251953,-25.175201416015625,7.65894889831543,0.22
150,MetaDrive-td3combine-expt_with_safe_fix,122,125.09162706222588,152885,700,1252.0478973388672,24.539487838745117,-25.02371597290039,7.8831000328063965,0.21
151,MetaDrive-td3combine-expt_with_safe_fix,122,123.66165491346686,153265,701,1254.9987878799438,22.965890884399414,-23.403732299804688,17.033836364746094,0.22
152,MetaDrive-td3combine-expt_with_safe_fix,122,122.63766316949042,154266,702,1262.8765659332275,26.48696517944336,,6.510570049285889,0.22
153,MetaDrive-td3combine-expt_with_safe_fix,122,122.30856443118935,155565,705,1274.0421109199524,23.46656036376953,-23.35077476501465,3.98935604095459,0.22
154,MetaDrive-td3combine-expt_with_safe_fix,122,120.68210718728984,156566,706,1282.1335108280182,27.01323127746582,,7.238522529602051,0.21
155,MetaDrive-td3combine-expt_with_safe_fix,122,119.15666379320592,157730,709,1291.179037809372,21.20856475830078,,6.342898368835449,0.21
156,MetaDrive-td3combine-expt_with_safe_fix,122,121.54765079441178,158169,710,1294.7730867862701,26.647907257080078,-26.576332092285156,2.319392204284668,0.22
157,MetaDrive-td3combine-expt_with_safe_fix,122,123.21362340025196,159146,712,1302.2945022583008,29.422792434692383,,3.594846725463867,0.23
158,MetaDrive-td3combine-expt_with_safe_fix,122,124.32360101052582,160775,715,1315.7281637191772,32.81621551513672,-34.1863899230957,25.35262680053711,0.22
159,MetaDrive-td3combine-expt_with_safe_fix,122,125.92519484244299,161231,716,1319.618777513504,26.654911041259766,-27.214279174804688,8.009382247924805,0.23
160,MetaDrive-td3combine-expt_with_safe_fix,122,123.8153231592819,162527,719,1330.4143106937408,29.661052703857422,-30.213075637817383,2.1814181804656982,0.22
161,MetaDrive-td3combine-expt_with_safe_fix,122,123.50551243013861,163623,721,1339.1337668895721,27.27359390258789,-27.180606842041016,56.96336364746094,0.22
162,MetaDrive-td3combine-expt_with_safe_fix,122,126.55924329371307,164563,723,1346.9225873947144,22.274763107299805,-23.128442764282227,4.651330947875977,0.23
163,MetaDrive-td3combine-expt_with_safe_fix,122,123.77490575060742,165208,726,1351.9820919036865,24.683589935302734,,6.849523544311523,0.22
164,MetaDrive-td3combine-expt_with_safe_fix,122,121.90343972266668,166327,728,1361.1401364803314,27.49675750732422,-28.435726165771484,7.3682169914245605,0.21
165,MetaDrive-td3combine-expt_with_safe_fix,122,121.84983920384445,167328,729,1368.301275730133,26.16230583190918,,6.38212251663208,0.21
166,MetaDrive-td3combine-expt_with_safe_fix,122,122.4493505759355,168034,731,1374.0289266109467,25.5350341796875,,37.405494689941406,0.21
167,MetaDrive-td3combine-expt_with_safe_fix,122,125.09819250097888,169072,733,1382.8175525665283,25.175886154174805,,11.396872520446777,0.23
168,MetaDrive-td3combine-expt_with_safe_fix,122,125.66990959024001,170992,736,1397.1820681095123,27.647193908691406,,6.8090009689331055,0.24
169,MetaDrive-td3combine-expt_with_safe_fix,122,127.7839249798471,171370,737,1400.0235857963562,24.498741149902344,,8.971818923950195,0.25
170,MetaDrive-td3combine-expt_with_safe_fix,122,126.91586930750401,172155,739,1406.065517425537,23.565250396728516,-24.292694091796875,11.388738632202148,0.26
171,MetaDrive-td3combine-expt_with_safe_fix,122,128.58438727372854,173263,742,1415.1223735809326,26.429872512817383,-26.681076049804688,5.078488826751709,0.27
172,MetaDrive-td3combine-expt_with_safe_fix,122,127.53887372172571,174444,744,1424.1478888988495,26.55379295349121,,11.164264678955078,0.27
173,MetaDrive-td3combine-expt_with_safe_fix,122,125.28246747460163,175445,745,1431.5191040039062,22.863235473632812,-22.622352600097656,6.939634323120117,0.26
174,MetaDrive-td3combine-expt_with_safe_fix,122,125.00904336956395,176071,746,1436.4390797615051,27.330066680908203,-27.28628921508789,6.458364486694336,0.27
175,MetaDrive-td3combine-expt_with_safe_fix,122,125.24939237929628,177072,747,1444.5773146152496,28.520183563232422,,42.67115783691406,0.27
176,MetaDrive-td3combine-expt_with_safe_fix,122,127.03825759531215,178545,749,1456.074517250061,22.70159149169922,-22.89842987060547,44.48179626464844,0.28
177,MetaDrive-td3combine-expt_with_safe_fix,122,127.23791239438668,179546,750,1463.6371471881866,27.2783145904541,,3.9308528900146484,0.28
178,MetaDrive-td3combine-expt_with_safe_fix,122,126.0017780409097,180547,751,1472.245934009552,24.009620666503906,-24.515296936035156,4.205845355987549,0.27
179,MetaDrive-td3combine-expt_with_safe_fix,122,124.2389314151258,181548,752,1479.673452615738,25.72667121887207,,9.07666301727295,0.26
180,MetaDrive-td3combine-expt_with_safe_fix,122,121.15688729253978,182612,754,1488.083277463913,24.023212432861328,,8.712774276733398,0.25
181,MetaDrive-td3combine-expt_with_safe_fix,122,123.63933840243118,183153,755,1492.6336953639984,23.60513687133789,-22.79788589477539,6.032374858856201,0.26
182,MetaDrive-td3combine-expt_with_safe_fix,122,123.33676020879699,184282,757,1500.865534067154,20.38170051574707,,13.85683822631836,0.26
183,MetaDrive-td3combine-expt_with_safe_fix,122,122.2206060474679,185688,760,1511.54469704628,24.494159698486328,,7.354101181030273,0.25
184,MetaDrive-td3combine-expt_with_safe_fix,122,120.75191782582135,186939,763,1521.296061515808,25.161434173583984,-25.333507537841797,7.004485130310059,0.25
185,MetaDrive-td3combine-expt_with_safe_fix,122,121.55620327792101,187940,764,1528.9000787734985,31.149761199951172,,3.146282196044922,0.25
186,MetaDrive-td3combine-expt_with_safe_fix,122,120.45366727904202,188941,765,1537.1810364723206,30.057483673095703,-29.849143981933594,5.830634117126465,0.24
187,MetaDrive-td3combine-expt_with_safe_fix,122,120.9638391603933,189942,766,1544.712272644043,28.701683044433594,,6.77410888671875,0.24
188,MetaDrive-td3combine-expt_with_safe_fix,122,121.36676919189878,190943,767,1552.55087184906,23.88715171813965,-23.68045425415039,21.005653381347656,0.24
189,MetaDrive-td3combine-expt_with_safe_fix,122,119.43937238933903,191944,768,1560.7693371772766,25.846858978271484,,4.725431442260742,0.23
190,MetaDrive-td3combine-expt_with_safe_fix,122,121.32003335794091,192359,769,1564.4981694221497,21.979759216308594,-22.271366119384766,4.485673904418945,0.23
191,MetaDrive-td3combine-expt_with_safe_fix,122,120.47734152281647,193360,770,1572.3789904117584,23.437049865722656,,5.015809059143066,0.23
192,MetaDrive-td3combine-expt_with_safe_fix,122,119.44694485642616,194361,771,1580.1960079669952,28.931074142456055,-28.616880416870117,2.898076295852661,0.22
193,MetaDrive-td3combine-expt_with_safe_fix,122,120.00275379495581,195908,774,1593.0030002593994,23.02434730529785,,2.1183366775512695,0.23
194,MetaDrive-td3combine-expt_with_safe_fix,123,119.5629609566383,196909,775,1600.2369470596313,23.859130859375,-23.438495635986328,5.065526008605957,0.22
195,MetaDrive-td3combine-expt_with_safe_fix,123,119.70944789573514,197224,776,1602.9277007579803,22.05551528930664,,3.0650157928466797,0.22
196,MetaDrive-td3combine-expt_with_safe_fix,123,119.63739046358069,198225,777,1611.2837677001953,19.056804656982422,-19.241214752197266,7.919561862945557,0.22
197,MetaDrive-td3combine-expt_with_safe_fix,123,119.04170319311332,199226,778,1618.515165567398,21.50189971923828,,2.611023426055908,0.22
198,MetaDrive-td3combine-expt_with_safe_fix,123,118.20253194427556,200227,779,1626.7038316726685,26.57654571533203,-26.75481605529785,6.672617435455322,0.21
199,MetaDrive-td3combine-expt_with_safe_fix,123,119.22147388394632,201228,780,1634.3324143886566,26.347423553466797,,5.838604927062988,0.21
200,MetaDrive-td3combine-expt_with_safe_fix,123,119.34884254736727,202377,782,1643.0533473491669,22.680728912353516,-23.445369720458984,4.715179443359375,0.21
201,MetaDrive-td3combine-expt_with_safe_fix,123,121.22954242864373,203067,783,1648.559722661972,24.808605194091797,-25.052881240844727,5.826318740844727,0.22
202,MetaDrive-td3combine-expt_with_safe_fix,123,121.20436642282318,204068,784,1656.4757845401764,23.577430725097656,,11.09547233581543,0.22
203,MetaDrive-td3combine-expt_with_safe_fix,123,121.52218779274688,205069,785,1664.2183282375336,21.828704833984375,-22.319854736328125,6.674050807952881,0.22
204,MetaDrive-td3combine-expt_with_safe_fix,123,121.97063509489968,206070,786,1672.0742263793945,25.060379028320312,,39.52748489379883,0.22
205,MetaDrive-td3combine-expt_with_safe_fix,123,126.4167681235974,207706,788,1685.131909608841,23.00616455078125,,36.5102424621582,0.23
206,MetaDrive-td3combine-expt_with_safe_fix,123,125.73992837825455,208707,789,1693.4795048236847,21.6527156829834,-22.12401008605957,5.404898166656494,0.23
207,MetaDrive-td3combine-expt_with_safe_fix,123,124.6041644380732,209322,790,1698.5670764446259,24.3175048828125,,5.72288179397583,0.23
208,MetaDrive-td3combine-expt_with_safe_fix,123,124.72335719007313,210893,792,1712.3156933784485,20.344139099121094,-20.475032806396484,8.347394943237305,0.23
209,MetaDrive-td3combine-expt_with_safe_fix,123,124.4737662392754,211894,793,1720.1754386425018,19.463661193847656,,8.059819221496582,0.23
210,MetaDrive-td3combine-expt_with_safe_fix,123,124.68708013691793,212895,794,1727.4706172943115,22.09344482421875,-22.562538146972656,4.137102127075195,0.23
211,MetaDrive-td3combine-expt_with_safe_fix,123,125.8505912890775,213394,795,1731.0781190395355,14.284797668457031,,24.299898147583008,0.24
212,MetaDrive-td3combine-expt_with_safe_fix,123,127.13729157580015,214395,796,1738.418401479721,25.1009464263916,-25.187545776367188,5.573666572570801,0.24
213,MetaDrive-td3combine-expt_with_safe_fix,123,130.38574210426026,215762,798,1749.1850881576538,24.376117706298828,,3.08603835105896,0.24
214,MetaDrive-td3combine-expt_with_safe_fix,123,131.00832229732947,216283,799,1753.1767857074738,21.682283401489258,-22.346622467041016,6.6858696937561035,0.25
215,MetaDrive-td3combine-expt_with_safe_fix,123,130.95986896205872,217284,800,1761.4605939388275,21.863445281982422,,5.568643569946289,0.25
216,MetaDrive-td3combine-expt_with_safe_fix,123,133.9269869548107,218863,802,1773.89865732193,26.745758056640625,-27.269046783447266,10.333983421325684,0.25
217,MetaDrive-td3combine-expt_with_safe_fix,123,137.22658516252162,219864,803,1782.3437583446503,24.6650390625,,4.744992733001709,0.25
218,MetaDrive-td3combine-expt_with_safe_fix,123,137.00428580044047,220865,804,1790.5961227416992,22.697349548339844,-22.954627990722656,2.9349918365478516,0.25
219,MetaDrive-td3combine-expt_with_safe_fix,123,138.0421105190303,221866,805,1798.2931129932404,24.853870391845703,,3.8235013484954834,0.25
220,MetaDrive-td3combine-expt_with_safe_fix,123,138.84024644849467,222492,806,1803.0364000797272,21.607696533203125,,4.016496658325195,0.26
221,MetaDrive-td3combine-expt_with_safe_fix,123,139.0576622145524,223001,807,1807.3647301197052,27.163976669311523,-28.122318267822266,5.228185653686523,0.26
222,MetaDrive-td3combine-expt_with_safe_fix,123,141.52405334508768,224606,809,1820.9128634929657,17.282798767089844,,6.748097896575928,0.27
223,MetaDrive-td3combine-expt_with_safe_fix,123,138.98341312665224,225515,810,1828.6756339073181,23.795879364013672,-23.889110565185547,41.463233947753906,0.26
224,MetaDrive-td3combine-expt_with_safe_fix,123,135.42818331351023,226686,812,1837.7887020111084,26.163925170898438,,4.968571662902832,0.24
225,MetaDrive-td3combine-expt_with_safe_fix,123,136.3960881438201,227523,813,1844.2907915115356,18.43993377685547,-17.894268035888672,6.892459869384766,0.25
226,MetaDrive-td3combine-expt_with_safe_fix,123,137.3991109433152,228998,815,1855.3269219398499,23.990367889404297,,6.279576301574707,0.26
227,MetaDrive-td3combine-expt_with_safe_fix,123,134.81792688390775,229335,816,1858.0453605651855,21.591209411621094,-22.70720672607422,37.12213134765625,0.25
228,MetaDrive-td3combine-expt_with_safe_fix,123,134.86468129875186,230533,818,1867.1068897247314,21.429447174072266,-21.595365524291992,10.606193542480469,0.25
229,MetaDrive-td3combine-expt_with_safe_fix,123,136.6709277131274,231534,819,1875.129233598709,24.112873077392578,,43.03285217285156,0.25
230,MetaDrive-td3combine-expt_with_safe_fix,123,137.48890420544282,232535,820,1882.6913940906525,25.075162887573242,-25.970943450927734,5.253414154052734,0.25
231,MetaDrive-td3combine-expt_with_safe_fix,123,139.33042147410598,233076,821,1887.0184741020203,20.863731384277344,,8.059394836425781,0.26
232,MetaDrive-td3combine-expt_with_safe_fix,123,136.0465176990685,234204,823,1896.0377502441406,22.429096221923828,,4.717930793762207,0.25
233,MetaDrive-td3combine-expt_with_safe_fix,123,139.06158916979132,235050,825,1902.9413192272186,22.72696304321289,,3.277562141418457,0.26
234,MetaDrive-td3combine-expt_with_safe_fix,123,142.44803661685066,236989,827,1918.7464673519135,24.071928024291992,-24.402507781982422,13.217491149902344,0.27
235,MetaDrive-td3combine-expt_with_safe_fix,123,144.6686632961225,237429,828,1921.9291512966156,26.002304077148438,-26.294353485107422,3.7866086959838867,0.28
236,MetaDrive-td3combine-expt_with_safe_fix,123,143.2210675697231,238430,829,1929.6432979106903,19.145679473876953,,3.694032669067383,0.28
237,MetaDrive-td3combine-expt_with_safe_fix,123,141.53059534441863,239431,830,1937.9235174655914,19.649333953857422,-20.533615112304688,8.70060920715332,0.27
238,MetaDrive-td3combine-expt_with_safe_fix,123,142.11138037711996,240432,831,1946.134244441986,22.662120819091797,,9.310030937194824,0.27
239,MetaDrive-td3combine-expt_with_safe_fix,123,141.42941444490646,241433,832,1954.5168647766113,17.007217407226562,-17.607257843017578,5.674323081970215,0.26
240,MetaDrive-td3combine-expt_with_safe_fix,123,139.05820716013864,242434,833,1962.592877626419,17.624122619628906,,7.567839622497559,0.25
241,MetaDrive-td3combine-expt_with_safe_fix,123,137.9932614669972,243435,834,1970.0190744400024,21.216861724853516,-22.170265197753906,8.129060745239258,0.24
242,MetaDrive-td3combine-expt_with_safe_fix,123,136.74709345749972,244073,836,1975.4646201133728,26.487163543701172,-27.045570373535156,11.767902374267578,0.24
243,MetaDrive-td3combine-expt_with_safe_fix,123,140.4670980956613,245709,838,1988.4036705493927,26.197742462158203,-27.45892906188965,6.776322841644287,0.24
244,MetaDrive-td3combine-expt_with_safe_fix,123,140.45000469518644,246710,839,1996.5180039405823,25.86215591430664,,3.2167909145355225,0.23
245,MetaDrive-td3combine-expt_with_safe_fix,123,140.49717391055975,247711,840,2003.7765138149261,23.89437484741211,-24.48362922668457,8.833822250366211,0.23
246,MetaDrive-td3combine-expt_with_safe_fix,123,138.7300467009785,248029,841,2006.4565558433533,24.037057876586914,-24.886444091796875,5.02387809753418,0.22
247,MetaDrive-td3combine-expt_with_safe_fix,123,140.23711303228941,249649,843,2018.3273708820343,25.63829803466797,-25.62213897705078,3.191084861755371,0.22
248,MetaDrive-td3combine-expt_with_safe_fix,123,140.9070354105251,250650,844,2025.9337303638458,21.341800689697266,,2.861384868621826,0.22
249,MetaDrive-td3combine-expt_with_safe_fix,123,141.69295998133472,251320,845,2031.2621603012085,25.940662384033203,,5.088481426239014,0.22
250,MetaDrive-td3combine-expt_with_safe_fix,123,140.52986780433636,252321,846,2039.6240475177765,23.445558547973633,-23.669288635253906,4.961409568786621,0.21
251,MetaDrive-td3combine-expt_with_safe_fix,123,142.40851418815603,253322,847,2047.3099970817566,19.317359924316406,,11.410268783569336,0.21
252,MetaDrive-td3combine-expt_with_safe_fix,123,141.1181387904237,254515,849,2056.4652993679047,24.513092041015625,-25.57518768310547,8.534542083740234,0.2
253,MetaDrive-td3combine-expt_with_safe_fix,123,141.98214295249215,255516,850,2064.2688970565796,19.49966049194336,,5.149195671081543,0.2
254,MetaDrive-td3combine-expt_with_safe_fix,123,141.36202230556134,256517,851,2071.7689270973206,24.383716583251953,-23.718666076660156,22.375627517700195,0.2
255,MetaDrive-td3combine-expt_with_safe_fix,123,140.89778241788397,257518,852,2079.842056751251,22.93032455444336,,5.972792625427246,0.2
256,MetaDrive-td3combine-expt_with_safe_fix,123,140.9609544362934,258519,853,2087.3376173973083,21.0146427154541,-21.488689422607422,3.399280071258545,0.2
257,MetaDrive-td3combine-expt_with_safe_fix,123,135.40812932953267,259898,855,2097.3539776802063,22.389026641845703,,4.063878059387207,0.18
258,MetaDrive-td3combine-expt_with_safe_fix,123,137.5245531101203,260519,856,2102.2819702625275,22.81328773498535,-23.103981018066406,3.195934295654297,0.19
259,MetaDrive-td3combine-expt_with_safe_fix,123,137.57311775372855,261176,857,2107.0021276474,22.7896785736084,,47.164825439453125,0.19
260,MetaDrive-td3combine-expt_with_safe_fix,123,139.01221947882703,262177,858,2114.9914684295654,20.744556427001953,-20.513240814208984,22.10611343383789,0.19
261,MetaDrive-td3combine-expt_with_safe_fix,124,141.08382019197555,263857,860,2127.3053431510925,27.075416564941406,-27.39971160888672,3.9187777042388916,0.2
262,MetaDrive-td3combine-expt_with_safe_fix,124,141.1997233477222,264858,861,2135.4483110904694,23.394424438476562,,5.4663543701171875,0.2
263,MetaDrive-td3combine-expt_with_safe_fix,123,142.0856197805119,265859,862,2144.0499618053436,20.602853775024414,-21.47589111328125,26.056045532226562,0.2
264,MetaDrive-td3combine-expt_with_safe_fix,124,143.1594961541778,266822,863,2150.8330092430115,16.725563049316406,,6.5058488845825195,0.2
265,MetaDrive-td3combine-expt_with_safe_fix,124,143.57389442472126,267823,864,2158.4544727802277,23.271560668945312,-23.17503547668457,7.098526954650879,0.2
266,MetaDrive-td3combine-expt_with_safe_fix,124,143.76878418732855,268824,865,2165.6350886821747,22.06148338317871,,4.685099124908447,0.2
267,MetaDrive-td3combine-expt_with_safe_fix,124,143.9379936943111,269825,866,2173.0841012001038,22.075450897216797,-22.652191162109375,4.652447700500488,0.2
268,MetaDrive-td3combine-expt_with_safe_fix,124,145.04835611555492,270315,867,2176.825760602951,22.098703384399414,-22.937576293945312,4.905745506286621,0.21
269,MetaDrive-td3combine-expt_with_safe_fix,124,145.01908055011518,271316,868,2184.857629299164,19.89820098876953,,7.6003828048706055,0.21
270,MetaDrive-td3combine-expt_with_safe_fix,124,143.11503670049896,272317,869,2193.076614379883,22.06138038635254,-22.37855339050293,33.410850524902344,0.21
271,MetaDrive-td3combine-expt_with_safe_fix,124,143.01280697330338,273318,870,2201.4082238674164,21.55059242248535,,2.4267396926879883,0.21
272,MetaDrive-td3combine-expt_with_safe_fix,124,143.83924649150947,274110,871,2207.7876558303833,23.332828521728516,,5.9527482986450195,0.22
273,MetaDrive-td3combine-expt_with_safe_fix,124,141.61624267842777,275111,872,2214.9150791168213,20.667888641357422,-20.986827850341797,6.4334893226623535,0.21
274,MetaDrive-td3combine-expt_with_safe_fix,124,143.43004455199133,276390,874,2224.9004452228546,19.55923843383789,,4.707381248474121,0.21
275,MetaDrive-td3combine-expt_with_safe_fix,124,143.7137562563748,277143,875,2230.3451828956604,17.586830139160156,-17.56568717956543,5.739782333374023,0.22
276,MetaDrive-td3combine-expt_with_safe_fix,124,148.43853370895593,278862,877,2243.822803735733,19.772274017333984,,3.913299083709717,0.23
277,MetaDrive-td3combine-expt_with_safe_fix,124,149.21485927690637,279863,878,2252.0829787254333,19.503665924072266,-19.849651336669922,4.624534606933594,0.23
278,MetaDrive-td3combine-expt_with_safe_fix,124,151.92029190738057,280525,879,2257.5438776016235,19.472797393798828,-19.515724182128906,13.801689147949219,0.24
279,MetaDrive-td3combine-expt_with_safe_fix,124,151.47146233875353,281003,880,2261.4594843387604,19.862049102783203,-20.395095825195312,11.875638961791992,0.24
280,MetaDrive-td3combine-expt_with_safe_fix,124,151.15968177443895,282725,883,2274.455806493759,18.83181381225586,-18.985736846923828,10.449220657348633,0.24
281,MetaDrive-td3combine-expt_with_safe_fix,124,151.23319507825485,283138,884,2277.3334488868713,16.79042625427246,,4.573879718780518,0.24
282,MetaDrive-td3combine-expt_with_safe_fix,124,151.47021828747972,284333,886,2286.291865348816,20.678482055664062,-21.53624153137207,4.561086654663086,0.24
283,MetaDrive-td3combine-expt_with_safe_fix,124,148.89898281104323,285334,887,2294.9264340400696,17.791738510131836,,13.094712257385254,0.23
284,MetaDrive-td3combine-expt_with_safe_fix,124,148.11287341818493,286335,888,2302.6844742298126,11.915481567382812,-12.90674877166748,5.9129743576049805,0.23
285,MetaDrive-td3combine-expt_with_safe_fix,124,149.3128074756673,287336,889,2309.8427588939667,21.105690002441406,,5.150367736816406,0.23
286,MetaDrive-td3combine-expt_with_safe_fix,124,144.88826547697144,288253,891,2317.9332563877106,22.880495071411133,-23.165531158447266,23.443052291870117,0.22
287,MetaDrive-td3combine-expt_with_safe_fix,124,145.23749658337582,289366,893,2326.8506548404694,16.724634170532227,,7.808123588562012,0.24
288,MetaDrive-td3combine-expt_with_safe_fix,124,145.95615479933056,290367,894,2334.232939004898,19.65984344482422,-20.201168060302734,7.05324649810791,0.24
289,MetaDrive-td3combine-expt_with_safe_fix,124,144.49329724106894,291368,895,2341.9618258476257,22.318801879882812,,12.736711502075195,0.23
290,MetaDrive-td3combine-expt_with_safe_fix,124,143.58986719965023,292565,897,2351.019799232483,16.12449073791504,-17.09809112548828,7.324202060699463,0.24
291,MetaDrive-td3combine-expt_with_safe_fix,124,140.7911620311452,293007,899,2354.3267319202423,21.385534286499023,-22.015541076660156,6.982742786407471,0.23
292,MetaDrive-td3combine-expt_with_safe_fix,124,140.71067497785978,294008,900,2361.5383925437927,21.334308624267578,,5.7286176681518555,0.23
293,MetaDrive-td3combine-expt_with_safe_fix,124,139.44330950851884,295639,902,2374.066618204117,18.933719635009766,-19.96128273010254,9.711893081665039,0.23
294,MetaDrive-td3combine-expt_with_safe_fix,124,138.4792707847458,296059,903,2377.2147164344788,17.965456008911133,-18.774383544921875,3.1729841232299805,0.24
295,MetaDrive-td3combine-expt_with_safe_fix,124,137.66318017793768,297474,906,2388.253623485565,21.035200119018555,,4.7924909591674805,0.23
296,MetaDrive-td3combine-expt_with_safe_fix,124,137.95819593093285,298475,907,2395.945675611496,24.0789852142334,-24.273536682128906,5.821412086486816,0.23
297,MetaDrive-td3combine-expt_with_safe_fix,124,135.66563814735798,299498,909,2405.2857015132904,18.81418228149414,,5.856289863586426,0.22
298,MetaDrive-td3combine-expt_with_safe_fix,124,136.78021294657216,300613,911,2414.245496034622,16.02261734008789,-16.696487426757812,1.789526104927063,0.22
299,MetaDrive-td3combine-expt_with_safe_fix,124,139.27130728064694,301129,912,2418.6174738407135,22.06709098815918,-23.328384399414062,47.460487365722656,0.23
300,MetaDrive-td3combine-expt_with_safe_fix,124,138.49160101064822,302130,913,2426.087592124939,21.19241714477539,,37.75635528564453,0.22
301,MetaDrive-td3combine-expt_with_safe_fix,124,139.84369813851507,303201,915,2433.8886001110077,16.05124282836914,-16.31692886352539,6.249085426330566,0.23
302,MetaDrive-td3combine-expt_with_safe_fix,124,141.8471217355044,304202,916,2441.4075758457184,16.8022403717041,,2.952711820602417,0.23
303,MetaDrive-td3combine-expt_with_safe_fix,124,145.45969814441236,305402,918,2450.8272104263306,23.242752075195312,,4.995194435119629,0.24
304,MetaDrive-td3combine-expt_with_safe_fix,124,145.10156947215916,306403,919,2459.1220610141754,17.17708969116211,-17.037662506103516,14.253263473510742,0.24
305,MetaDrive-td3combine-expt_with_safe_fix,124,146.38074798371971,307270,920,2465.458312511444,14.94033432006836,,5.863763809204102,0.25
306,MetaDrive-td3combine-expt_with_safe_fix,124,146.32182595418556,308857,924,2477.7535758018494,22.587827682495117,-22.14832878112793,11.597969055175781,0.24
307,MetaDrive-td3combine-expt_with_safe_fix,124,143.56377888338372,309858,925,2485.4431009292603,15.579751014709473,,7.83544397354126,0.23
308,MetaDrive-td3combine-expt_with_safe_fix,124,142.34907692559898,310859,926,2493.0683221817017,20.535009384155273,-19.6097354888916,14.592550277709961,0.22
309,MetaDrive-td3combine-expt_with_safe_fix,124,142.09605816644853,311860,927,2500.2974684238434,20.26752471923828,,5.226325988769531,0.22
310,MetaDrive-td3combine-expt_with_safe_fix,124,140.81956370729574,312313,928,2503.946919441223,19.228660583496094,-18.799983978271484,2.7633914947509766,0.21
311,MetaDrive-td3combine-expt_with_safe_fix,124,141.04600225995748,313314,929,2511.5471193790436,15.46567153930664,,66.20074462890625,0.21
312,MetaDrive-td3combine-expt_with_safe_fix,124,141.03358053708908,314738,931,2522.485859155655,17.711410522460938,,6.221316814422607,0.22
313,MetaDrive-td3combine-expt_with_safe_fix,124,139.85146303632084,315739,932,2529.921852350235,17.082056045532227,-17.701473236083984,6.9758405685424805,0.22
314,MetaDrive-td3combine-expt_with_safe_fix,124,143.8926509264926,316374,933,2534.9687161445618,19.7442684173584,,5.117571830749512,0.23
315,MetaDrive-td3combine-expt_with_safe_fix,124,144.9368407096407,317980,935,2546.6710336208344,20.80032730102539,,10.80588436126709,0.24
316,MetaDrive-td3combine-expt_with_safe_fix,124,144.83675727459627,318981,936,2554.114087343216,14.800207138061523,-15.641318321228027,5.0444746017456055,0.24
317,MetaDrive-td3combine-expt_with_safe_fix,124,142.01466065737907,319982,937,2561.765832424164,16.26165199279785,,4.74365234375,0.23
318,MetaDrive-td3combine-expt_with_safe_fix,124,141.73639536494107,320983,938,2569.388722896576,19.32223129272461,-19.971942901611328,7.432785987854004,0.23
319,MetaDrive-td3combine-expt_with_safe_fix,124,142.63304062180194,321840,939,2576.728434085846,16.71070671081543,,54.540374755859375,0.24
320,MetaDrive-td3combine-expt_with_safe_fix,124,145.90900575746156,322648,940,2583.107112646103,17.140235900878906,,4.0337443351745605,0.25
321,MetaDrive-td3combine-expt_with_safe_fix,124,146.26963670053354,323128,941,2587.508424758911,18.846389770507812,,7.693115234375,0.25
322,MetaDrive-td3combine-expt_with_safe_fix,124,145.2503272229001,324873,943,2600.4832599163055,18.416431427001953,-18.655887603759766,3.790709972381592,0.25
323,MetaDrive-td3combine-expt_with_safe_fix,124,146.58538903571326,325568,944,2605.579791545868,11.700040817260742,,39.61636734008789,0.26
324,MetaDrive-td3combine-expt_with_safe_fix,124,147.3619195344042,326627,946,2613.263138771057,19.96791648864746,-19.29572105407715,11.590597152709961,0.27
325,MetaDrive-td3combine-expt_with_safe_fix,125,145.75099474149152,327628,947,2620.9472422599792,23.908126831054688,,7.6269378662109375,0.27
326,MetaDrive-td3combine-expt_with_safe_fix,125,148.49776207732884,328566,948,2628.3047292232513,17.912490844726562,,6.697689056396484,0.28
327,MetaDrive-td3combine-expt_with_safe_fix,125,148.93024935602241,329567,949,2635.631754875183,18.327014923095703,-19.58277130126953,12.007553100585938,0.28
328,MetaDrive-td3combine-expt_with_safe_fix,125,148.8156953147035,330219,950,2640.1437134742737,17.13623046875,-17.02967643737793,3.7622365951538086,0.28
329,MetaDrive-td3combine-expt_with_safe_fix,125,153.87584444913261,331014,951,2646.8884420394897,19.044137954711914,,6.102434158325195,0.29
330,MetaDrive-td3combine-expt_with_safe_fix,125,155.84244205998795,332587,953,2658.4471344947815,21.9598331451416,-22.939931869506836,4.788109302520752,0.29
331,MetaDrive-td3combine-expt_with_safe_fix,125,157.5393631613739,333420,955,2665.35586977005,22.549856185913086,,3.8147900104522705,0.29
332,MetaDrive-td3combine-expt_with_safe_fix,125,158.94069153498413,334666,957,2675.5357434749603,15.516800880432129,,5.905104160308838,0.29
333,MetaDrive-td3combine-expt_with_safe_fix,125,156.88864160653563,335880,959,2685.8187997341156,18.887805938720703,,1.936514139175415,0.28
334,MetaDrive-td3combine-expt_with_safe_fix,125,158.98700987612244,336386,960,2689.850942850113,19.16864585876465,,5.131450653076172,0.29
335,MetaDrive-td3combine-expt_with_safe_fix,125,163.07316626961506,337440,962,2698.7341055870056,19.90728759765625,,11.16976261138916,0.3
336,MetaDrive-td3combine-expt_with_safe_fix,125,163.22093964633947,338084,963,2703.391590118408,17.42363166809082,,22.149250030517578,0.31
337,MetaDrive-td3combine-expt_with_safe_fix,125,163.39755753927625,339060,965,2710.981592655182,14.890569686889648,,11.138710975646973,0.32
338,MetaDrive-td3combine-expt_with_safe_fix,125,162.74232089699316,340572,968,2722.3199167251587,22.280746459960938,,36.6657829284668,0.32
339,MetaDrive-td3combine-expt_with_safe_fix,125,162.58666481338432,341573,969,2729.7402124404907,16.863792419433594,-16.330528259277344,9.62143325805664,0.32
340,MetaDrive-td3combine-expt_with_safe_fix,125,164.636535842056,342574,970,2737.074280977249,19.061038970947266,,4.710121154785156,0.32
341,MetaDrive-td3combine-expt_with_safe_fix,125,162.6742137979254,343575,971,2744.7552983760834,16.087142944335938,-17.535396575927734,5.651167869567871,0.31
342,MetaDrive-td3combine-expt_with_safe_fix,125,162.9340568503549,344576,972,2751.9154980182648,20.419076919555664,,5.950173377990723,0.31
343,MetaDrive-td3combine-expt_with_safe_fix,125,163.68003426135806,345552,973,2759.9553215503693,21.69583511352539,,3.7649378776550293,0.31
344,MetaDrive-td3combine-expt_with_safe_fix,125,164.28541760013155,346242,974,2765.3317198753357,26.464778900146484,,5.20986270904541,0.32
345,MetaDrive-td3combine-expt_with_safe_fix,125,163.9182242611739,347350,976,2773.4185383319855,21.35761260986328,,9.547966003417969,0.31
346,MetaDrive-td3combine-expt_with_safe_fix,125,162.51835183037943,348792,978,2785.129558324814,18.109323501586914,,8.391375541687012,0.32
347,MetaDrive-td3combine-expt_with_safe_fix,125,163.11089810249834,349360,979,2789.615241765976,15.030566215515137,,5.298947334289551,0.32
348,MetaDrive-td3combine-expt_with_safe_fix,125,165.43931096051946,350111,980,2795.9220283031464,22.243831634521484,-22.118762969970703,9.098438262939453,0.33
349,MetaDrive-td3combine-expt_with_safe_fix,125,165.19916651966238,351653,982,2807.8576657772064,20.907302856445312,-21.2928409576416,32.75027084350586,0.32
350,MetaDrive-td3combine-expt_with_safe_fix,125,167.76704022596326,352129,983,2811.9948995113373,20.015949249267578,-20.68167495727539,12.197652816772461,0.33
351,MetaDrive-td3combine-expt_with_safe_fix,125,168.56892992758057,353130,984,2819.455904483795,14.434240341186523,,16.04825210571289,0.33
352,MetaDrive-td3combine-expt_with_safe_fix,125,170.59569508236746,354245,986,2828.0500280857086,18.496540069580078,-18.575416564941406,12.759011268615723,0.34
353,MetaDrive-td3combine-expt_with_safe_fix,125,170.8069210004447,355246,987,2835.3070068359375,19.80640411376953,,4.378988265991211,0.34
354,MetaDrive-td3combine-expt_with_safe_fix,125,170.9706594458204,356247,988,2842.7555882930756,21.317167282104492,-21.893943786621094,5.97116231918335,0.34
355,MetaDrive-td3combine-expt_with_safe_fix,125,172.38896705811771,357400,990,2851.6459245681763,18.473888397216797,,4.220732688903809,0.34
356,MetaDrive-td3combine-expt_with_safe_fix,125,173.74838922230185,358263,992,2858.4964537620544,19.35430145263672,-19.37327766418457,5.883996486663818,0.34
357,MetaDrive-td3combine-expt_with_safe_fix,125,171.7079581495581,359264,993,2866.466093301773,22.60969352722168,,9.472261428833008,0.33
358,MetaDrive-td3combine-expt_with_safe_fix,125,170.35073324987243,360265,994,2874.002594470978,21.978057861328125,-21.75545310974121,10.335739135742188,0.33
359,MetaDrive-td3combine-expt_with_safe_fix,125,170.5430989120749,361266,995,2881.410596847534,24.234607696533203,,4.231449604034424,0.33
