TanmayH/CS269-RL-project-code/MetaDrive-test-no-noise2-td3/td3/progress.csv
,log_dir,frame_per_second,episode_reward,total_steps,total_episodes,total_time,target_q,actor_loss,critic_loss,success_rate
0,MetaDrive-test-no-noise2-td3,497,11.834003420890395,2001,2,4.021249771118164,,,,0.0
1,MetaDrive-test-no-noise2-td3,579,11.509560241184436,3002,3,5.17888069152832,,,,0.0
2,MetaDrive-test-no-noise2-td3,584,10.777296044004512,4003,4,6.843657970428467,,,,0.0
3,MetaDrive-test-no-noise2-td3,548,10.123241815353111,5930,6,10.814918994903564,,,,0.0
4,MetaDrive-test-no-noise2-td3,574,10.507575157417245,6931,7,12.057235956192017,,,,0.0
5,MetaDrive-test-no-noise2-td3,581,10.370731474780198,7932,8,13.638485670089722,,,,0.0
6,MetaDrive-test-no-noise2-td3,586,9.388943184542459,8590,9,14.654119968414307,,,,0.0
7,MetaDrive-test-no-noise2-td3,559,9.614330455137571,9591,10,17.137528896331787,,,,0.0
8,MetaDrive-test-no-noise2-td3,541,9.349312311681034,10057,11,18.58661675453186,0.014269258826971054,-0.025680148974061012,0.003374506253749132,0.0
9,MetaDrive-test-no-noise2-td3,307,0.16674157754899957,11026,49,35.89146876335144,0.0506548248231411,,0.009158425033092499,0.0
10,MetaDrive-test-no-noise2-td3,215,-0.23372980028428353,12844,54,59.73132872581482,0.07875271141529083,,0.011757737956941128,0.0
11,MetaDrive-test-no-noise2-td3,188,-0.352643678836745,13959,56,74.25000977516174,0.08679158240556717,-0.08748556673526764,0.0021537509746849537,0.0
12,MetaDrive-test-no-noise2-td3,172,-0.365780413410588,14960,57,86.84684181213379,-0.0008766278624534607,,0.7427164316177368,0.0
13,MetaDrive-test-no-noise2-td3,171,-0.4450990966705351,15026,58,87.67960977554321,0.08330858498811722,,0.0036392295733094215,0.0
14,MetaDrive-test-no-noise2-td3,160,-0.47070216300943324,16027,59,99.96857285499573,0.07521888613700867,-0.056459423154592514,0.014386509545147419,0.0
15,MetaDrive-test-no-noise2-td3,152,-0.4100778804381627,17028,60,111.56636190414429,0.06490007787942886,,0.011486563831567764,0.0
16,MetaDrive-test-no-noise2-td3,147,-0.34642978668949587,18029,61,122.58708786964417,0.058392077684402466,-0.08073372393846512,0.012494618073105812,0.0
17,MetaDrive-test-no-noise2-td3,141,-0.2825450036835671,19030,62,134.2604947090149,0.04767775908112526,,0.0157163143157959,0.0
18,MetaDrive-test-no-noise2-td3,133,-0.39461753607804756,20371,74,152.53953576087952,0.08129200339317322,-0.07298445701599121,0.0051625510677695274,0.0
19,MetaDrive-test-no-noise2-td3,129,0.9733975790018209,21024,81,161.8631649017334,0.08498672395944595,,0.02095658704638481,0.0
20,MetaDrive-test-no-noise2-td3,124,2.478142549818875,22132,94,177.78222179412842,0.1867690235376358,,0.01437779888510704,0.0
21,MetaDrive-test-no-noise2-td3,120,2.6696418793071985,23050,116,191.75116086006165,0.28667300939559937,,0.021962715312838554,0.0
22,MetaDrive-test-no-noise2-td3,115,4.088593875141791,24016,142,207.86763501167297,0.3159855604171753,,0.9116904735565186,0.0
23,MetaDrive-test-no-noise2-td3,111,5.724106231130494,25044,165,223.87326073646545,0.5469582080841064,,0.026394499465823174,0.0
24,MetaDrive-test-no-noise2-td3,108,4.48545442292404,26029,188,239.77430081367493,0.7341580390930176,-0.7177265882492065,0.049829453229904175,0.0
25,MetaDrive-test-no-noise2-td3,106,3.6484353166009895,27036,210,254.4029598236084,0.8362060189247131,,0.020023208111524582,0.0
26,MetaDrive-test-no-noise2-td3,103,4.398497546425173,28045,229,270.15382194519043,1.001041054725647,-0.9953432083129883,0.013618091121315956,0.0
27,MetaDrive-test-no-noise2-td3,102,5.706576199441133,29004,247,284.17055678367615,1.1997840404510498,,0.17505139112472534,0.0
28,MetaDrive-test-no-noise2-td3,100,7.032899240021516,30008,262,298.15672397613525,1.396751880645752,,0.07097461819648743,0.0
29,MetaDrive-test-no-noise2-td3,98,8.083763675089495,31055,277,314.0398187637329,1.5644186735153198,-1.6068378686904907,0.06693853437900543,0.0
30,MetaDrive-test-no-noise2-td3,97,10.109565571429968,32059,292,328.11340498924255,1.8409054279327393,-1.8707828521728516,0.06578424572944641,0.0
31,MetaDrive-test-no-noise2-td3,96,10.87744637844216,33065,312,341.8223297595978,2.00128436088562,-2.0691211223602295,0.07585117965936661,0.0
32,MetaDrive-test-no-noise2-td3,95,11.077523393975163,34009,329,355.17645478248596,2.304483413696289,-2.3189780712127686,0.11792412400245667,0.0
33,MetaDrive-test-no-noise2-td3,94,12.987163974195834,35101,343,370.38937282562256,2.5445973873138428,-2.562633514404297,0.17511719465255737,0.0
34,MetaDrive-test-no-noise2-td3,93,12.305959490831736,36035,361,383.45794796943665,2.812582015991211,-2.8592681884765625,0.2298252433538437,0.0
35,MetaDrive-test-no-noise2-td3,93,13.285041674381402,37040,376,397.54353284835815,3.145226240158081,,0.10702021420001984,0.0
36,MetaDrive-test-no-noise2-td3,92,14.558415959491633,38031,385,411.5431418418884,3.3953347206115723,-3.5003156661987305,0.5654460191726685,0.0
37,MetaDrive-test-no-noise2-td3,91,20.08554514268755,39791,394,435.215363740921,3.9691321849823,-4.331147193908691,3.0556159019470215,0.01
38,MetaDrive-test-no-noise2-td3,91,22.673555291755388,40345,396,442.7953088283539,4.26407527923584,-4.22312068939209,0.19122177362442017,0.01
39,MetaDrive-test-no-noise2-td3,90,25.528497064514717,41206,402,453.92482900619507,4.839447498321533,,0.2224804013967514,0.01
40,MetaDrive-test-no-noise2-td3,90,28.99550929989231,42026,408,465.37616062164307,4.972723007202148,,0.09342531859874725,0.01
41,MetaDrive-test-no-noise2-td3,89,34.08194837834847,43361,411,485.27569580078125,5.717255592346191,-5.857672691345215,0.1982840746641159,0.02
42,MetaDrive-test-no-noise2-td3,89,36.95730216014353,44007,413,492.9379048347473,6.086730003356934,-6.376204013824463,4.618005752563477,0.03
43,MetaDrive-test-no-noise2-td3,88,42.81860094859579,45174,420,509.5423219203949,6.600856781005859,,5.236259460449219,0.03
44,MetaDrive-test-no-noise2-td3,88,46.571952148998214,46020,422,520.7884528636932,6.8921709060668945,,0.9169766902923584,0.03
45,MetaDrive-test-no-noise2-td3,87,50.28354029380223,47031,429,534.9422316551208,7.602831840515137,-7.71511173248291,6.168224334716797,0.03
46,MetaDrive-test-no-noise2-td3,87,55.84614092299134,48332,435,552.7036979198456,8.530831336975098,,0.1868835836648941,0.03
47,MetaDrive-test-no-noise2-td3,87,60.68118430690005,49231,438,564.1895527839661,9.471749305725098,-9.840442657470703,0.382098913192749,0.04
48,MetaDrive-test-no-noise2-td3,86,65.2697836464538,50148,442,576.4302327632904,9.814825057983398,,9.047477722167969,0.05
49,MetaDrive-test-no-noise2-td3,86,71.21939043001372,51261,447,591.1197187900543,10.998994827270508,-11.21235466003418,0.6053218841552734,0.06
50,MetaDrive-test-no-noise2-td3,86,76.14482532697372,52093,451,601.8921537399292,11.17204475402832,-11.392882347106934,0.4108787178993225,0.07
51,MetaDrive-test-no-noise2-td3,86,82.63260763631472,53254,455,617.5488498210907,11.898011207580566,,0.9661444425582886,0.08
52,MetaDrive-test-no-noise2-td3,86,87.07237798547818,54084,459,628.3565418720245,12.532431602478027,,9.949317932128906,0.09
53,MetaDrive-test-no-noise2-td3,85,91.65780679192396,55049,464,641.4006259441376,13.068780899047852,-13.05115032196045,0.4610707461833954,0.1
54,MetaDrive-test-no-noise2-td3,85,96.76895606946768,56043,468,654.1510708332062,14.271088600158691,-14.484444618225098,0.5186259746551514,0.11
55,MetaDrive-test-no-noise2-td3,85,101.7990000367431,57088,474,669.6645958423615,15.062396049499512,,0.6840013861656189,0.11
56,MetaDrive-test-no-noise2-td3,84,108.08737736163013,58172,477,684.9264378547668,15.076122283935547,,33.54527282714844,0.13
57,MetaDrive-test-no-noise2-td3,84,111.12145981099145,59097,481,696.4476199150085,16.24189567565918,-16.81264305114746,1.2192035913467407,0.14
58,MetaDrive-test-no-noise2-td3,84,116.39249360941358,60005,485,708.3961329460144,16.874677658081055,-16.845369338989258,1.3943965435028076,0.14
59,MetaDrive-test-no-noise2-td3,84,122.11754601367164,61151,488,726.0962047576904,18.147594451904297,-18.412132263183594,2.583970546722412,0.16
60,MetaDrive-test-no-noise2-td3,83,122.01573618683413,62028,494,738.9058978557587,19.534147262573242,,1.773470401763916,0.15
61,MetaDrive-test-no-noise2-td3,83,127.4965930742829,63311,497,757.1909127235413,19.666685104370117,-20.455909729003906,11.568673133850098,0.17
62,MetaDrive-test-no-noise2-td3,83,129.81319817978795,64114,500,767.568630695343,20.17474365234375,,3.501101016998291,0.17
63,MetaDrive-test-no-noise2-td3,83,131.63278509970658,65087,505,783.1702527999878,20.348413467407227,-21.15445327758789,22.870529174804688,0.17
64,MetaDrive-test-no-noise2-td3,82,135.0750714160703,66099,509,798.7091147899628,22.22403907775879,-22.562578201293945,18.212574005126953,0.18
65,MetaDrive-test-no-noise2-td3,82,136.8687963847963,67837,512,823.5338659286499,23.169897079467773,-24.280960083007812,13.359748840332031,0.19
66,MetaDrive-test-no-noise2-td3,82,137.39218325131137,68426,513,833.23756980896,23.31038475036621,,13.44198989868164,0.19
67,MetaDrive-test-no-noise2-td3,81,138.480146583278,69186,515,845.9643096923828,25.09121322631836,,3.5459530353546143,0.19
68,MetaDrive-test-no-noise2-td3,81,141.63296696256205,70319,517,862.4734468460083,24.233539581298828,-24.98827362060547,1.7395579814910889,0.2
69,MetaDrive-test-no-noise2-td3,81,146.08597554251006,71113,518,875.6503477096558,24.72939682006836,-24.90852165222168,19.856172561645508,0.21
70,MetaDrive-test-no-noise2-td3,80,149.24607618614883,72309,521,893.2912299633026,24.860681533813477,-25.26088523864746,2.2251992225646973,0.23
71,MetaDrive-test-no-noise2-td3,80,150.69617296788664,73202,526,906.1336886882782,24.638866424560547,,2.3359689712524414,0.23
72,MetaDrive-test-no-noise2-td3,80,154.73678203516945,74327,529,921.3738770484924,26.563488006591797,-27.625225067138672,19.071685791015625,0.24
73,MetaDrive-test-no-noise2-td3,80,157.13965630451136,75355,533,935.2660708427429,28.092269897460938,-28.0289249420166,2.036068916320801,0.25
74,MetaDrive-test-no-noise2-td3,80,157.67756582923022,76034,535,944.5265307426453,27.877891540527344,,23.81121826171875,0.25
75,MetaDrive-test-no-noise2-td3,80,159.01927764879414,77464,539,964.4635467529297,29.283775329589844,,3.0026450157165527,0.25
76,MetaDrive-test-no-noise2-td3,80,160.12482177817395,78050,541,972.3685119152069,29.678205490112305,,2.4291300773620605,0.26
77,MetaDrive-test-no-noise2-td3,80,164.47670119824318,79030,543,985.7069048881531,29.583202362060547,,5.605008602142334,0.27
78,MetaDrive-test-no-noise2-td3,80,167.00672982013714,80017,545,998.8936357498169,29.738723754882812,-30.176006317138672,16.353679656982422,0.27
79,MetaDrive-test-no-noise2-td3,80,169.8068588008664,81111,548,1013.6202397346497,31.310407638549805,-30.863510131835938,18.64645767211914,0.28
80,MetaDrive-test-no-noise2-td3,79,171.658416441354,82927,551,1039.9927990436554,30.694908142089844,-31.23708724975586,3.495220184326172,0.27
81,MetaDrive-test-no-noise2-td3,79,169.19602675689492,83022,552,1041.5552289485931,30.896411895751953,,3.1577587127685547,0.26
82,MetaDrive-test-no-noise2-td3,79,172.38722141391688,84077,555,1057.795520067215,31.578807830810547,-31.44203758239746,9.531721115112305,0.28
83,MetaDrive-test-no-noise2-td3,79,175.90193467018548,85451,557,1077.3783068656921,32.05902862548828,-32.50028991699219,1.9743520021438599,0.28
84,MetaDrive-test-no-noise2-td3,79,179.2715600121892,86738,559,1097.1503880023956,31.24917984008789,,39.927974700927734,0.28
85,MetaDrive-test-no-noise2-td3,78,180.62528444808103,87123,560,1102.9714677333832,32.22649383544922,-33.12239456176758,2.7101616859436035,0.28
86,MetaDrive-test-no-noise2-td3,78,182.1033778882563,88293,564,1120.15096783638,31.857891082763672,-32.06783676147461,28.607006072998047,0.28
87,MetaDrive-test-no-noise2-td3,78,183.10925532631697,89567,569,1138.0971047878265,32.977020263671875,-33.807891845703125,8.453004837036133,0.29
88,MetaDrive-test-no-noise2-td3,78,184.04285949328707,90489,572,1151.1996507644653,32.89041519165039,-33.54997253417969,4.996993064880371,0.3
89,MetaDrive-test-no-noise2-td3,78,186.66720028912684,91255,575,1162.7508659362793,33.06832504272461,-32.67976379394531,6.991063117980957,0.3
90,MetaDrive-test-no-noise2-td3,78,185.5389142660718,92137,578,1175.0305268764496,34.480525970458984,-35.21939468383789,43.599632263183594,0.29
91,MetaDrive-test-no-noise2-td3,78,186.6254388062511,93402,583,1193.8032410144806,33.4739875793457,,3.5765280723571777,0.3
92,MetaDrive-test-no-noise2-td3,78,187.868566084604,94237,585,1205.5646867752075,37.658809661865234,-38.807430267333984,10.702102661132812,0.31
93,MetaDrive-test-no-noise2-td3,78,188.58428763931823,95027,587,1217.3020918369293,38.78190612792969,-38.93077087402344,2.4428277015686035,0.3
94,MetaDrive-test-no-noise2-td3,77,190.4755331416965,96100,592,1234.0522949695587,35.74741744995117,,5.395707607269287,0.3
95,MetaDrive-test-no-noise2-td3,77,193.045646210163,97305,595,1253.4251437187195,37.85382843017578,-38.77674102783203,43.35267639160156,0.3
96,MetaDrive-test-no-noise2-td3,77,193.99573283324673,98527,598,1273.3334007263184,39.380523681640625,-39.60537338256836,57.46067428588867,0.3
97,MetaDrive-test-no-noise2-td3,77,194.7739641730977,99016,600,1280.999881029129,38.656856536865234,,7.504550933837891,0.3
98,MetaDrive-test-no-noise2-td3,77,200.03808966079148,100279,603,1298.8880410194397,36.88561248779297,-38.12199783325195,52.12530517578125,0.31
99,MetaDrive-test-no-noise2-td3,77,200.28717590814082,101042,607,1310.1561388969421,39.927406311035156,,3.5974607467651367,0.31
100,MetaDrive-test-no-noise2-td3,76,201.50613020415534,102043,608,1325.4536378383636,38.64839172363281,-38.62265396118164,6.594169616699219,0.31
101,MetaDrive-test-no-noise2-td3,76,193.9591700507074,103330,614,1343.6519696712494,38.12724304199219,,3.641310214996338,0.28
102,MetaDrive-test-no-noise2-td3,76,192.07091599819523,104080,617,1353.968258857727,38.0595588684082,,4.510658264160156,0.28
103,MetaDrive-test-no-noise2-td3,76,187.95682242786404,105027,620,1367.4985837936401,40.38709259033203,-40.76244354248047,4.653088092803955,0.27
104,MetaDrive-test-no-noise2-td3,76,186.88450393654963,106439,626,1388.6531138420105,41.43380355834961,-40.43292236328125,8.764253616333008,0.27
105,MetaDrive-test-no-noise2-td3,76,189.21549707420897,107440,627,1408.714050769806,37.43501281738281,,5.961679458618164,0.27
106,MetaDrive-test-no-noise2-td3,76,189.05482156464038,108506,631,1424.0530047416687,42.169219970703125,,3.3062477111816406,0.27
107,MetaDrive-test-no-noise2-td3,76,188.77230513675127,109075,633,1432.89071393013,40.02149200439453,-39.71952819824219,8.267098426818848,0.26
108,MetaDrive-test-no-noise2-td3,75,187.75233678659464,110418,637,1454.4438297748566,41.19793701171875,,6.442093849182129,0.25
109,MetaDrive-test-no-noise2-td3,75,188.37876784953463,111370,640,1467.6939148902893,38.18571853637695,,8.830780029296875,0.26
110,MetaDrive-test-no-noise2-td3,75,184.20264521290784,112196,643,1480.0841398239136,41.314178466796875,,3.778137683868408,0.24
111,MetaDrive-test-no-noise2-td3,75,185.7793863008552,113072,645,1491.8856756687164,39.672733306884766,,7.368908882141113,0.26
112,MetaDrive-test-no-noise2-td3,75,183.05987424194254,114067,649,1506.9094808101654,40.28604507446289,-40.661643981933594,6.119112968444824,0.25
113,MetaDrive-test-no-noise2-td3,75,184.53798595321803,115150,651,1522.486000776291,40.9835205078125,,68.31575012207031,0.26
114,MetaDrive-test-no-noise2-td3,75,188.58694039639536,116268,653,1539.6311450004578,41.13288879394531,,9.547863006591797,0.27
115,MetaDrive-test-no-noise2-td3,75,191.18293906352739,117269,654,1556.698165655136,40.778255462646484,-41.51688003540039,106.77237701416016,0.27
116,MetaDrive-test-no-noise2-td3,75,189.782827300229,118134,656,1569.088931798935,39.985721588134766,,4.503363132476807,0.27
117,MetaDrive-test-no-noise2-td3,75,189.49363873635525,119018,658,1583.7571737766266,39.365394592285156,,8.658327102661133,0.27
118,MetaDrive-test-no-noise2-td3,75,190.56098234250297,120123,660,1601.066145658493,43.607662200927734,-44.69548416137695,6.162727355957031,0.28
119,MetaDrive-test-no-noise2-td3,74,195.73663466872316,121485,662,1620.904914855957,41.108909606933594,-40.94528579711914,11.086979866027832,0.3
120,MetaDrive-test-no-noise2-td3,74,197.4587789871408,122472,664,1636.2279088497162,40.23553466796875,,5.064983367919922,0.3
121,MetaDrive-test-no-noise2-td3,74,200.47704057711107,123096,665,1644.6077456474304,40.03217315673828,,50.726253509521484,0.31
122,MetaDrive-test-no-noise2-td3,74,204.87816443134133,124286,667,1663.5259840488434,45.29592514038086,,6.711221694946289,0.32
123,MetaDrive-test-no-noise2-td3,74,208.80031497660175,125980,670,1691.5115389823914,44.708824157714844,,7.717893600463867,0.32
124,MetaDrive-test-no-noise2-td3,74,210.86454364057133,126463,671,1698.064265012741,43.935264587402344,-44.747562408447266,11.183456420898438,0.33
125,MetaDrive-test-no-noise2-td3,74,210.70190555916236,127121,672,1707.313678741455,43.40837860107422,-44.6173210144043,54.1033935546875,0.33
126,MetaDrive-test-no-noise2-td3,74,213.85546655064462,128192,674,1723.4097728729248,44.308963775634766,,3.4773080348968506,0.35
127,MetaDrive-test-no-noise2-td3,74,218.32743336723476,129324,676,1740.1078929901123,45.34950256347656,,6.648456573486328,0.37
128,MetaDrive-test-no-noise2-td3,74,217.18513660194,130209,678,1754.4948348999023,43.74366760253906,-44.97190475463867,95.60260009765625,0.37
129,MetaDrive-test-no-noise2-td3,73,219.42132134294033,131210,679,1773.4437839984894,47.55659103393555,,5.098794460296631,0.37
130,MetaDrive-test-no-noise2-td3,73,224.25222449465412,132465,681,1792.5943839550018,43.68132781982422,-44.42151641845703,3.310586452484131,0.39
131,MetaDrive-test-no-noise2-td3,73,222.04893822871648,133173,683,1803.1931238174438,42.658939361572266,-43.03654098510742,11.19705581665039,0.38
132,MetaDrive-test-no-noise2-td3,73,223.310646747856,134539,685,1823.3087267875671,46.36780548095703,-46.88017272949219,4.234380722045898,0.38
133,MetaDrive-test-no-noise2-td3,73,224.1479790329139,135069,686,1831.3828928470612,48.28156280517578,-49.50116729736328,34.123905181884766,0.38
134,MetaDrive-test-no-noise2-td3,73,226.0535736282144,136190,689,1849.7179288864136,42.29841613769531,,8.056184768676758,0.39
135,MetaDrive-test-no-noise2-td3,73,228.05447596866676,137753,691,1875.6838290691376,46.95066833496094,-47.568931579589844,103.72012329101562,0.39
136,MetaDrive-test-no-noise2-td3,73,230.3627352491456,138391,692,1887.8654296398163,45.36082077026367,-46.363224029541016,3.1626698970794678,0.39
137,MetaDrive-test-no-noise2-td3,73,234.15812100968145,139119,693,1899.5999467372894,50.866676330566406,-49.60911560058594,12.0343656539917,0.4
138,MetaDrive-test-no-noise2-td3,73,233.91669160487083,140413,695,1921.9873988628387,48.13571548461914,-48.426170349121094,6.044084548950195,0.4
139,MetaDrive-test-no-noise2-td3,72,236.59627627342448,141616,697,1940.4975168704987,47.500465393066406,,75.64689636230469,0.41
140,MetaDrive-test-no-noise2-td3,72,235.29496520663753,142111,698,1947.5365467071533,48.949222564697266,-49.29973602294922,4.436731338500977,0.41
141,MetaDrive-test-no-noise2-td3,72,236.44804887794257,143074,700,1962.5237798690796,41.32354736328125,,12.754634857177734,0.42
142,MetaDrive-test-no-noise2-td3,72,236.55025369780975,144075,701,1979.150872707367,49.50286102294922,-49.481597900390625,6.315620422363281,0.42
143,MetaDrive-test-no-noise2-td3,72,236.1852521232942,145612,705,2005.5901508331299,46.831871032714844,,69.81950378417969,0.42
144,MetaDrive-test-no-noise2-td3,72,237.49524641311652,146084,706,2012.3834068775177,47.823001861572266,,3.7669339179992676,0.43
145,MetaDrive-test-no-noise2-td3,72,239.93742814250953,147585,708,2038.9581518173218,48.82872009277344,-49.472312927246094,3.3157057762145996,0.44
146,MetaDrive-test-no-noise2-td3,72,241.1886227507,148225,709,2049.9296107292175,46.768917083740234,-46.503543853759766,7.432092189788818,0.45
147,MetaDrive-test-no-noise2-td3,72,244.70489027667583,149226,710,2066.817710876465,47.029052734375,,4.385663986206055,0.45
148,MetaDrive-test-no-noise2-td3,72,246.9529728627262,150014,712,2079.954116821289,48.46289825439453,,7.045499801635742,0.45
149,MetaDrive-test-no-noise2-td3,72,249.41259428354843,151225,715,2099.0685336589813,48.73332977294922,-48.94546890258789,7.115930080413818,0.46
150,MetaDrive-test-no-noise2-td3,71,251.67783472341674,152372,717,2117.217314720154,50.01351547241211,,3.838385581970215,0.47
151,MetaDrive-test-no-noise2-td3,71,252.44487192923768,153057,718,2129.216894865036,44.619014739990234,-44.14632797241211,80.94284057617188,0.47
152,MetaDrive-test-no-noise2-td3,71,253.05805479880712,154173,720,2148.7043447494507,49.13862609863281,-50.135894775390625,4.709877014160156,0.47
153,MetaDrive-test-no-noise2-td3,71,257.28941997297306,155022,721,2164.0479378700256,52.160552978515625,,4.611919403076172,0.48
154,MetaDrive-test-no-noise2-td3,71,261.0629337003237,156023,722,2182.4225177764893,45.92204284667969,-47.66692352294922,121.54338073730469,0.48
155,MetaDrive-test-no-noise2-td3,71,264.6855179739806,157024,723,2203.0617468357086,45.73017120361328,,63.07633590698242,0.48
156,MetaDrive-test-no-noise2-td3,71,264.99909250394893,158269,726,2223.0394880771637,50.33037567138672,-50.95220184326172,2.617382049560547,0.48
157,MetaDrive-test-no-noise2-td3,71,268.0055505463813,159526,728,2241.6998479366302,49.22150421142578,,22.75048828125,0.5
158,MetaDrive-test-no-noise2-td3,71,269.15082345191223,160008,729,2249.103231906891,49.35206985473633,,8.50642204284668,0.51
159,MetaDrive-test-no-noise2-td3,71,271.2939561473957,161434,731,2270.285113811493,52.56452178955078,,3.6014485359191895,0.52
160,MetaDrive-test-no-noise2-td3,71,270.9830608909569,162053,734,2279.4148139953613,49.94114303588867,-51.27906036376953,21.446029663085938,0.53
161,MetaDrive-test-no-noise2-td3,71,270.9307522707175,163337,737,2298.662841796875,49.53303146362305,-49.99269485473633,3.581385850906372,0.54
162,MetaDrive-test-no-noise2-td3,70,273.6088001207009,164364,739,2315.804471731186,47.57443618774414,,5.049571990966797,0.55
163,MetaDrive-test-no-noise2-td3,70,275.3429042279549,165357,741,2331.800328016281,46.99131774902344,-48.067100524902344,5.951042175292969,0.55
164,MetaDrive-test-no-noise2-td3,70,274.43469571859185,166322,744,2347.798848628998,46.605567932128906,,8.606795310974121,0.54
165,MetaDrive-test-no-noise2-td3,70,275.9676782676213,167225,746,2360.0263040065765,50.62199401855469,-50.45431137084961,4.981557846069336,0.55
166,MetaDrive-test-no-noise2-td3,70,279.9333147696402,168585,748,2385.197502851486,48.34442138671875,-48.7138557434082,4.2531023025512695,0.56
167,MetaDrive-test-no-noise2-td3,70,280.48351539258977,169250,749,2395.7012679576874,50.28606414794922,,3.1391117572784424,0.56
168,MetaDrive-test-no-noise2-td3,70,281.5670214300224,170116,750,2412.1858887672424,48.375144958496094,,7.941249847412109,0.56
169,MetaDrive-test-no-noise2-td3,70,280.6358625790841,171057,752,2425.8384289741516,43.978851318359375,-45.17888641357422,8.337060928344727,0.57
170,MetaDrive-test-no-noise2-td3,70,281.28658002417495,172648,755,2455.2063839435577,44.8660774230957,,13.139385223388672,0.57
171,MetaDrive-test-no-noise2-td3,70,279.49652803747483,173107,756,2462.874137878418,49.0532341003418,-49.06929397583008,5.733765602111816,0.56
172,MetaDrive-test-no-noise2-td3,70,279.15301844132284,174133,758,2479.953249692917,52.268795013427734,-52.87409973144531,4.168996810913086,0.56
173,MetaDrive-test-no-noise2-td3,70,278.6948853766606,175142,760,2499.472338914871,49.43695831298828,,76.46173095703125,0.56
174,MetaDrive-test-no-noise2-td3,69,277.88616711170505,176143,761,2519.9052460193634,51.33706283569336,-51.06036376953125,4.753070831298828,0.55
175,MetaDrive-test-no-noise2-td3,69,280.1967940849881,177548,763,2545.0767686367035,46.92779541015625,,6.3628034591674805,0.56
176,MetaDrive-test-no-noise2-td3,69,276.28639153301145,178439,765,2560.3207879066467,51.098358154296875,-51.16357421875,5.265655517578125,0.55
177,MetaDrive-test-no-noise2-td3,69,277.4019168778215,179302,766,2577.222329854965,48.98878860473633,,141.15814208984375,0.55
178,MetaDrive-test-no-noise2-td3,69,276.5340478548882,180115,767,2592.618966817856,49.52229309082031,-49.30721664428711,5.49520206451416,0.55
179,MetaDrive-test-no-noise2-td3,69,279.0526232965199,181468,769,2615.7538888454437,49.00260925292969,,55.645652770996094,0.55
180,MetaDrive-test-no-noise2-td3,69,280.10133715770354,182397,770,2635.3658788204193,50.74066925048828,-51.19709396362305,10.57399845123291,0.56
181,MetaDrive-test-no-noise2-td3,69,275.36688359332345,183282,773,2649.9329948425293,51.30758285522461,,3.8769073486328125,0.54
182,MetaDrive-test-no-noise2-td3,69,274.15222111043005,184190,775,2667.0544908046722,48.53135681152344,,4.154173851013184,0.53
183,MetaDrive-test-no-noise2-td3,69,276.7234972661936,185256,777,2684.5881328582764,51.30633544921875,,5.952726364135742,0.54
184,MetaDrive-test-no-noise2-td3,68,273.12505420664087,186545,780,2707.8472537994385,50.65738296508789,-50.55211639404297,5.150592803955078,0.52
185,MetaDrive-test-no-noise2-td3,68,273.7007720603195,187251,781,2721.5946187973022,49.873661041259766,-49.48872375488281,95.6192626953125,0.52
186,MetaDrive-test-no-noise2-td3,68,276.5853918163676,188281,783,2739.0853497982025,43.1229133605957,-42.722137451171875,4.754419326782227,0.53
187,MetaDrive-test-no-noise2-td3,68,277.0690040664507,189450,785,2759.620080947876,52.36386489868164,,5.409486293792725,0.54
188,MetaDrive-test-no-noise2-td3,68,276.56633173295455,190035,787,2771.763646841049,51.7139892578125,-52.18419647216797,3.3322434425354004,0.54
189,MetaDrive-test-no-noise2-td3,68,277.2861643320058,191324,789,2793.6045389175415,49.916446685791016,,4.480311393737793,0.54
190,MetaDrive-test-no-noise2-td3,68,278.6471779312568,192458,791,2816.5816309452057,54.54592514038086,,8.07895278930664,0.54
191,MetaDrive-test-no-noise2-td3,68,276.0509324227081,193248,793,2830.3702919483185,43.795387268066406,,105.56327819824219,0.54
192,MetaDrive-test-no-noise2-td3,68,275.6729133516216,194175,795,2846.305641889572,46.50679397583008,-47.285491943359375,2.4376440048217773,0.54
193,MetaDrive-test-no-noise2-td3,68,276.2844156339567,195043,796,2862.02433180809,49.94153594970703,-51.42491149902344,35.34288024902344,0.54
194,MetaDrive-test-no-noise2-td3,68,277.5970590790466,196276,798,2882.95614695549,49.337669372558594,,41.560874938964844,0.55
195,MetaDrive-test-no-noise2-td3,68,276.01194101323864,197277,799,2900.903771877289,52.586578369140625,-53.32235336303711,10.011541366577148,0.54
196,MetaDrive-test-no-noise2-td3,67,278.8131381333403,198506,801,2922.159262895584,48.53391647338867,,5.268963813781738,0.55
197,MetaDrive-test-no-noise2-td3,67,280.4572183784254,199063,802,2933.6340386867523,52.964698791503906,-52.319740295410156,10.361869812011719,0.55
198,MetaDrive-test-no-noise2-td3,67,278.74953201629313,200425,806,2957.051677942276,48.803897857666016,-48.94148635864258,7.586569786071777,0.54
199,MetaDrive-test-no-noise2-td3,67,280.30955032245737,201561,808,2975.4614238739014,44.299827575683594,-45.28736114501953,5.508887767791748,0.55
200,MetaDrive-test-no-noise2-td3,67,278.6693810591862,202562,809,2994.3523259162903,49.466148376464844,,130.5157470703125,0.54
201,MetaDrive-test-no-noise2-td3,67,277.71252551140714,203147,810,3004.0904200077057,49.71516418457031,-50.38447570800781,6.435337066650391,0.55
202,MetaDrive-test-no-noise2-td3,67,277.3213099050256,204202,813,3022.6015298366547,50.93490219116211,,7.96590518951416,0.56
203,MetaDrive-test-no-noise2-td3,67,278.11745722001467,205025,815,3036.244426012039,50.6864013671875,-51.47504806518555,9.242668151855469,0.56
204,MetaDrive-test-no-noise2-td3,67,276.22127929253077,206175,818,3055.042052745819,50.198020935058594,-49.90038299560547,5.568305969238281,0.55
205,MetaDrive-test-no-noise2-td3,67,276.43015931835083,207451,821,3077.5605928897858,49.063255310058594,-49.44869613647461,74.58890533447266,0.56
206,MetaDrive-test-no-noise2-td3,67,272.18851393652915,208316,823,3093.312394618988,52.486663818359375,,8.16580867767334,0.57
207,MetaDrive-test-no-noise2-td3,67,276.4682085578894,209043,824,3107.908143758774,47.17737579345703,-48.33245086669922,51.78374481201172,0.58
208,MetaDrive-test-no-noise2-td3,67,275.2378317672514,210454,826,3134.8927030563354,52.30455780029297,,5.6713972091674805,0.58
209,MetaDrive-test-no-noise2-td3,67,273.3347070690887,211273,828,3148.6902887821198,49.949737548828125,-51.7674560546875,122.04206848144531,0.57
210,MetaDrive-test-no-noise2-td3,67,275.1933091226154,212562,830,3170.7848477363586,50.894107818603516,,6.366556167602539,0.57
211,MetaDrive-test-no-noise2-td3,66,275.1684828972858,213277,831,3183.9761958122253,51.31306838989258,-51.90767288208008,8.05532455444336,0.56
212,MetaDrive-test-no-noise2-td3,66,277.865431140137,214278,832,3201.409955739975,49.68180847167969,,128.20144653320312,0.56
213,MetaDrive-test-no-noise2-td3,66,276.54107632894903,215279,833,3218.670232772827,46.279361724853516,-46.1977424621582,7.509219169616699,0.55
214,MetaDrive-test-no-noise2-td3,66,278.6666570702684,216326,835,3238.7254190444946,52.88637924194336,,9.404195785522461,0.56
215,MetaDrive-test-no-noise2-td3,66,280.9616670023893,217417,837,3259.2377779483795,50.46673583984375,-50.71196746826172,7.374843120574951,0.57
216,MetaDrive-test-no-noise2-td3,66,280.3338302206606,218251,838,3275.144896030426,54.619873046875,-55.25392532348633,3.9815874099731445,0.56
217,MetaDrive-test-no-noise2-td3,66,279.0134037127725,219252,839,3294.38237285614,53.55877685546875,,3.324275493621826,0.55
218,MetaDrive-test-no-noise2-td3,66,280.9972979041458,220426,841,3315.701052904129,53.47941589355469,,6.404618263244629,0.55
219,MetaDrive-test-no-noise2-td3,66,283.28740907032744,221453,843,3333.4789538383484,51.275184631347656,-51.829742431640625,5.073387622833252,0.57
220,MetaDrive-test-no-noise2-td3,66,279.1477871675324,222128,846,3346.7861456871033,52.383758544921875,,5.888116359710693,0.55
221,MetaDrive-test-no-noise2-td3,66,271.779382897208,223998,851,3386.5208718776703,51.746177673339844,,3.589224338531494,0.51
222,MetaDrive-test-no-noise2-td3,66,272.3394212268773,224527,852,3396.4371967315674,54.12537384033203,-54.069908142089844,8.84762191772461,0.5
223,MetaDrive-test-no-noise2-td3,66,272.9362522022638,225085,853,3405.6651747226715,51.33354949951172,-51.34669876098633,6.498418807983398,0.51
224,MetaDrive-test-no-noise2-td3,65,273.7799499299828,226673,856,3437.2520728111267,53.95155715942383,-53.64015579223633,7.437430381774902,0.52
225,MetaDrive-test-no-noise2-td3,65,274.43285158561366,227089,857,3444.5834109783173,51.46565628051758,-52.30986785888672,6.129242897033691,0.52
226,MetaDrive-test-no-noise2-td3,65,276.6857540550016,228451,859,3471.467093706131,50.01277542114258,-50.96126937866211,111.23786926269531,0.54
227,MetaDrive-test-no-noise2-td3,65,277.3644638701947,229432,860,3492.2404618263245,52.17719268798828,,5.856446266174316,0.54
228,MetaDrive-test-no-noise2-td3,65,276.49185444498283,230211,862,3505.7737498283386,51.53318405151367,-51.284217834472656,5.659249305725098,0.54
229,MetaDrive-test-no-noise2-td3,65,279.5779187513789,231382,864,3527.0485968589783,51.66300582885742,,11.33656120300293,0.55
230,MetaDrive-test-no-noise2-td3,65,277.51196714137944,232378,866,3543.291302919388,51.33353042602539,,6.943316459655762,0.55
231,MetaDrive-test-no-noise2-td3,65,276.4548562754772,233860,868,3571.50733089447,54.176002502441406,,6.033476829528809,0.55
232,MetaDrive-test-no-noise2-td3,65,275.5263856347581,234861,869,3590.8478457927704,47.83698272705078,-48.38751983642578,6.9717817306518555,0.54
233,MetaDrive-test-no-noise2-td3,65,275.29088357914924,235862,870,3611.880923986435,48.47759246826172,,7.628358364105225,0.53
234,MetaDrive-test-no-noise2-td3,65,278.3342567917631,236767,871,3629.32412981987,52.645259857177734,-53.40153121948242,11.239503860473633,0.54
235,MetaDrive-test-no-noise2-td3,65,281.6237802745891,237654,872,3648.68714094162,51.83485412597656,,9.335962295532227,0.54
236,MetaDrive-test-no-noise2-td3,65,280.28038235056874,238563,874,3666.369500875473,51.58001708984375,-51.494903564453125,7.949745178222656,0.53
237,MetaDrive-test-no-noise2-td3,65,282.42991924040166,239253,875,3680.139404773712,50.688941955566406,-51.33333969116211,6.77658224105835,0.54
238,MetaDrive-test-no-noise2-td3,64,281.87252410605595,240095,877,3695.3499279022217,52.27671813964844,-52.671875,7.81539249420166,0.53
239,MetaDrive-test-no-noise2-td3,64,284.8548979155199,241335,879,3718.513888835907,53.19180679321289,-54.12879943847656,5.7648773193359375,0.55
240,MetaDrive-test-no-noise2-td3,64,283.6814383349316,242393,881,3736.2309958934784,47.892982482910156,-49.40038299560547,20.96707534790039,0.56
241,MetaDrive-test-no-noise2-td3,64,282.61619496398686,243371,883,3753.9970948696136,50.950279235839844,-50.96690368652344,4.7415337562561035,0.56
242,MetaDrive-test-no-noise2-td3,64,285.50589122948236,244295,884,3775.1652936935425,56.765586853027344,-57.13888931274414,8.077693939208984,0.56
243,MetaDrive-test-no-noise2-td3,64,283.4139387585716,245096,886,3788.9661288261414,49.87335205078125,,32.16593933105469,0.56
244,MetaDrive-test-no-noise2-td3,64,285.45669516863563,246387,888,3811.7793679237366,50.946128845214844,-50.85514450073242,12.2547025680542,0.57
245,MetaDrive-test-no-noise2-td3,64,285.05851133655085,247115,889,3825.7395856380463,51.448177337646484,-52.66641616821289,13.719913482666016,0.57
246,MetaDrive-test-no-noise2-td3,64,286.9620721720876,248116,890,3843.8910558223724,51.06364059448242,,10.084186553955078,0.57
247,MetaDrive-test-no-noise2-td3,64,284.8942738564811,249117,891,3867.184117794037,53.6295280456543,-53.8852424621582,7.91484260559082,0.56
248,MetaDrive-test-no-noise2-td3,64,287.4371208151595,250014,892,3885.1554629802704,51.28843307495117,,9.901105880737305,0.56
249,MetaDrive-test-no-noise2-td3,64,286.901605418396,251359,894,3909.0537798404694,51.143218994140625,-50.89734649658203,7.663125038146973,0.56
250,MetaDrive-test-no-noise2-td3,64,284.02642239221274,252223,896,3923.3249158859253,50.70927047729492,-50.60096740722656,9.494354248046875,0.57
251,MetaDrive-test-no-noise2-td3,64,283.55102745321904,253404,898,3947.8092818260193,47.009124755859375,,9.611679077148438,0.56
252,MetaDrive-test-no-noise2-td3,64,287.20857968413713,254459,900,3966.6936116218567,50.89469909667969,-51.52202606201172,100.34210205078125,0.57
253,MetaDrive-test-no-noise2-td3,64,284.67936145056336,255111,902,3979.343501806259,50.99191665649414,-51.81141662597656,7.911588668823242,0.56
254,MetaDrive-test-no-noise2-td3,64,288.43804177984714,256398,905,4002.7907190322876,52.209739685058594,,130.53097534179688,0.58
255,MetaDrive-test-no-noise2-td3,64,287.96666732506344,257053,906,4014.6136288642883,53.61835479736328,-54.34608840942383,7.308331489562988,0.58
256,MetaDrive-test-no-noise2-td3,63,282.9384761253448,258186,910,4035.430286884308,52.1092414855957,,13.59150505065918,0.56
257,MetaDrive-test-no-noise2-td3,63,283.25496277280325,259036,912,4050.577633857727,52.36781692504883,,7.343611240386963,0.55
258,MetaDrive-test-no-noise2-td3,63,279.5231644671171,260189,914,4073.7522299289703,49.87812042236328,-50.68724822998047,7.766427040100098,0.53
259,MetaDrive-test-no-noise2-td3,63,280.9331576298642,261209,917,4090.395403623581,54.646427154541016,-55.4212646484375,5.294974327087402,0.53
260,MetaDrive-test-no-noise2-td3,63,279.85045621696094,262304,919,4110.153183937073,51.38278579711914,,9.545422554016113,0.52
261,MetaDrive-test-no-noise2-td3,63,280.5701925845992,263407,922,4128.873459815979,51.923004150390625,-52.516353607177734,8.359476089477539,0.53
262,MetaDrive-test-no-noise2-td3,63,277.82925457433555,264117,924,4140.8089599609375,51.04297637939453,-52.10588455200195,6.326020240783691,0.52
263,MetaDrive-test-no-noise2-td3,63,276.3726344104349,265152,927,4160.383219957352,54.0825080871582,,4.5778374671936035,0.5
264,MetaDrive-test-no-noise2-td3,63,275.91833862215776,266470,929,4185.103823900223,53.61827850341797,,12.070947647094727,0.5
265,MetaDrive-test-no-noise2-td3,63,274.70854345555983,267356,931,4200.232414007187,48.02378845214844,,12.426606178283691,0.51
266,MetaDrive-test-no-noise2-td3,63,275.47287859356044,268509,934,4220.967038869858,48.20481491088867,-48.95114517211914,11.618453979492188,0.53
267,MetaDrive-test-no-noise2-td3,63,272.45270255165525,269498,936,4238.360749721527,50.850257873535156,,5.62006139755249,0.52
268,MetaDrive-test-no-noise2-td3,63,270.2344171553525,270597,938,4257.952754974365,52.44179153442383,-53.2920036315918,6.337252616882324,0.51
269,MetaDrive-test-no-noise2-td3,63,269.79319018663125,271598,939,4275.839880943298,49.25618362426758,,7.457650661468506,0.51
270,MetaDrive-test-no-noise2-td3,63,268.88363770709054,272170,940,4285.197865009308,55.6583366394043,,9.455617904663086,0.51
271,MetaDrive-test-no-noise2-td3,63,268.256878875227,273402,942,4306.856547832489,51.461395263671875,,7.346436977386475,0.51
272,MetaDrive-test-no-noise2-td3,63,268.94840944123933,274239,943,4321.5071477890015,50.82427978515625,-50.82794189453125,7.434715270996094,0.51
273,MetaDrive-test-no-noise2-td3,63,269.00138138745547,275240,944,4339.530019760132,51.209354400634766,,51.70521545410156,0.51
274,MetaDrive-test-no-noise2-td3,63,272.8761401028568,276447,946,4360.636555671692,49.22364044189453,-48.77492904663086,9.902273178100586,0.53
275,MetaDrive-test-no-noise2-td3,63,274.0024853423873,277448,947,4378.459143877029,53.093833923339844,,8.61819076538086,0.53
276,MetaDrive-test-no-noise2-td3,63,278.2546886008863,278597,949,4397.638217926025,50.53425979614258,-50.909244537353516,33.465667724609375,0.55
277,MetaDrive-test-no-noise2-td3,63,279.7423872528963,279301,950,4410.700059890747,48.75359344482422,-49.46434783935547,7.4011335372924805,0.56
278,MetaDrive-test-no-noise2-td3,63,276.4710611075953,280455,953,4429.47932600975,51.62095642089844,-52.9782600402832,14.015296936035156,0.57
279,MetaDrive-test-no-noise2-td3,63,272.4221380114326,281414,956,4445.516304969788,48.5103874206543,,12.61349105834961,0.56
280,MetaDrive-test-no-noise2-td3,63,272.9841975281839,282131,957,4458.996532917023,50.324710845947266,-49.95582962036133,8.74979019165039,0.56
281,MetaDrive-test-no-noise2-td3,63,266.93009114524443,283442,960,4481.839232683182,54.2107048034668,,13.384967803955078,0.54
282,MetaDrive-test-no-noise2-td3,63,262.09955495086376,284110,963,4495.0415687561035,52.166263580322266,,10.434738159179688,0.52
283,MetaDrive-test-no-noise2-td3,63,261.5831469176355,285107,965,4511.805336713791,51.25292205810547,-50.5722541809082,14.327878952026367,0.51
284,MetaDrive-test-no-noise2-td3,63,257.5575262988325,286368,969,4532.639199972153,49.775306701660156,,28.601303100585938,0.5
285,MetaDrive-test-no-noise2-td3,63,248.9243791558245,287138,972,4544.769145727158,44.68852233886719,,9.927507400512695,0.5
286,MetaDrive-test-no-noise2-td3,63,250.30440822105737,288362,974,4565.956843852997,53.495296478271484,,5.812459945678711,0.51
287,MetaDrive-test-no-noise2-td3,63,248.66949260111448,289206,976,4581.0858409404755,53.791831970214844,,9.612527847290039,0.51
288,MetaDrive-test-no-noise2-td3,63,246.40683143711718,290533,979,4602.695847988129,52.056114196777344,-52.74838638305664,31.324228286743164,0.5
289,MetaDrive-test-no-noise2-td3,63,243.7372238600277,291142,981,4613.939474821091,52.24303436279297,,8.537662506103516,0.48
290,MetaDrive-test-no-noise2-td3,63,242.87450765381527,292687,983,4643.6760149002075,49.82177734375,-49.435054779052734,14.361526489257812,0.47
291,MetaDrive-test-no-noise2-td3,63,238.86690204613333,293071,984,4650.335749864578,50.85325241088867,-51.31892013549805,79.20460510253906,0.46
292,MetaDrive-test-no-noise2-td3,63,240.69297453475568,294052,985,4667.390299797058,49.31059646606445,,8.118310928344727,0.46
293,MetaDrive-test-no-noise2-td3,62,240.32868561611807,295050,987,4686.051625967026,54.884864807128906,,6.727908611297607,0.45
294,MetaDrive-test-no-noise2-td3,62,238.3093504065695,296034,989,4703.281646728516,51.13085174560547,,36.24843978881836,0.44
295,MetaDrive-test-no-noise2-td3,62,236.50707682370398,297071,991,4720.040601730347,49.04060363769531,-49.70610809326172,55.255638122558594,0.45
296,MetaDrive-test-no-noise2-td3,62,233.97773552408006,298324,994,4740.992283821106,53.692840576171875,,11.403318405151367,0.45
297,MetaDrive-test-no-noise2-td3,62,233.09319777987005,299416,997,4759.251561880112,48.20658874511719,,7.793131351470947,0.44
298,MetaDrive-test-no-noise2-td3,62,231.79000256858694,300418,999,4775.690533876419,52.724884033203125,,9.69921875,0.45
299,MetaDrive-test-no-noise2-td3,62,230.8044913548512,301010,1000,4785.509649991989,50.597747802734375,,21.485164642333984,0.45
300,MetaDrive-test-no-noise2-td3,62,228.74691597589756,302061,1003,4804.044646978378,53.006900787353516,-52.57597351074219,7.846894264221191,0.45
301,MetaDrive-test-no-noise2-td3,62,227.40573011853937,303677,1006,4835.892155885696,49.844757080078125,-51.2464714050293,43.31980895996094,0.44
302,MetaDrive-test-no-noise2-td3,62,230.94709521640598,304565,1007,4852.716037750244,45.95818328857422,-46.56499481201172,25.856290817260742,0.45
303,MetaDrive-test-no-noise2-td3,62,234.61120781869914,305744,1009,4875.862961769104,54.823970794677734,,3.822563648223877,0.46
304,MetaDrive-test-no-noise2-td3,62,233.20637151084802,306020,1010,4880.65630698204,54.197715759277344,,10.253679275512695,0.45
305,MetaDrive-test-no-noise2-td3,62,233.10417739409752,307066,1013,4900.62965297699,54.012020111083984,,6.582561492919922,0.45
306,MetaDrive-test-no-noise2-td3,62,234.80671841500697,308685,1016,4929.352858781815,50.87577438354492,-51.58798599243164,84.94976043701172,0.47
307,MetaDrive-test-no-noise2-td3,62,229.26460061551396,309063,1019,4936.032993793488,53.226844787597656,-54.3411979675293,7.060085296630859,0.45
308,MetaDrive-test-no-noise2-td3,62,232.85597629127145,310997,1021,4970.757785797119,52.439430236816406,-52.88895034790039,10.41815185546875,0.45
309,MetaDrive-test-no-noise2-td3,62,232.69266150883738,311471,1022,4979.016330003738,53.56523132324219,-53.116844177246094,4.159811019897461,0.44
310,MetaDrive-test-no-noise2-td3,62,231.52493817848327,312099,1024,4989.541034936905,51.673789978027344,-51.84209060668945,37.369476318359375,0.44
311,MetaDrive-test-no-noise2-td3,62,235.76102033296513,313047,1025,5007.944649934769,51.45423889160156,-52.35955810546875,5.437527179718018,0.45
312,MetaDrive-test-no-noise2-td3,62,236.00114192625085,314421,1028,5030.523326873779,45.573829650878906,-47.28232955932617,74.10050964355469,0.47
313,MetaDrive-test-no-noise2-td3,62,234.31229551168326,315174,1030,5043.661026716232,48.7310905456543,,7.126029014587402,0.46
314,MetaDrive-test-no-noise2-td3,62,234.946281901124,316055,1032,5060.389022827148,52.19761657714844,-51.86156463623047,10.513559341430664,0.46
315,MetaDrive-test-no-noise2-td3,62,235.23871026769524,317240,1035,5080.494642972946,47.02500534057617,,13.735618591308594,0.46
316,MetaDrive-test-no-noise2-td3,62,236.24348447565933,318078,1036,5095.249664783478,49.63447189331055,,124.78750610351562,0.46
317,MetaDrive-test-no-noise2-td3,62,237.29314542859075,319092,1039,5114.19788479805,51.95028305053711,,5.1566162109375,0.47
318,MetaDrive-test-no-noise2-td3,62,236.09887461682345,320006,1041,5129.051769733429,50.975860595703125,,63.49074935913086,0.46
319,MetaDrive-test-no-noise2-td3,62,235.03623648295104,321155,1043,5148.346170902252,55.7982063293457,-56.311553955078125,27.75735092163086,0.47
320,MetaDrive-test-no-noise2-td3,62,234.04975361290974,322418,1046,5172.271091938019,51.560081481933594,,65.19993591308594,0.46
321,MetaDrive-test-no-noise2-td3,62,233.16588279317878,323133,1048,5186.036247730255,49.87224197387695,-49.8194465637207,45.610633850097656,0.46
322,MetaDrive-test-no-noise2-td3,62,234.49592153752673,324607,1050,5212.356374740601,53.742618560791016,-53.900962829589844,14.820829391479492,0.45
323,MetaDrive-test-no-noise2-td3,62,236.11408895079887,325138,1051,5221.058286905289,50.7085075378418,,7.012428283691406,0.45
324,MetaDrive-test-no-noise2-td3,62,237.04746461195373,326215,1053,5241.147164821625,52.36656188964844,-53.03693771362305,7.048521995544434,0.44
325,MetaDrive-test-no-noise2-td3,62,241.2797909953687,327451,1055,5263.671417713165,49.844905853271484,-49.59832763671875,9.168220520019531,0.45
326,MetaDrive-test-no-noise2-td3,62,240.27469791040042,328452,1056,5284.932415962219,49.72528839111328,,7.006720542907715,0.44
327,MetaDrive-test-no-noise2-td3,62,239.3777905750581,329156,1058,5297.088160037994,47.56941223144531,,10.468461990356445,0.44
328,MetaDrive-test-no-noise2-td3,62,238.92335751439632,330815,1060,5326.990076780319,52.86406707763672,-52.46727752685547,17.8403263092041,0.44
329,MetaDrive-test-no-noise2-td3,62,242.3086840542071,331670,1061,5344.725700855255,53.554908752441406,,7.0830535888671875,0.45
330,MetaDrive-test-no-noise2-td3,62,243.77308208236238,332387,1063,5357.227940797806,45.923439025878906,-46.15753936767578,7.763134956359863,0.46
331,MetaDrive-test-no-noise2-td3,62,244.03086539639716,333731,1065,5382.348874807358,50.512630462646484,-50.58351135253906,5.301790714263916,0.45
332,MetaDrive-test-no-noise2-td3,61,246.1923932132417,334509,1066,5395.762193918228,51.31333923339844,-50.86974334716797,12.180059432983398,0.46
333,MetaDrive-test-no-noise2-td3,61,247.06319626095225,335510,1067,5419.08206486702,47.05690002441406,,9.236839294433594,0.45
334,MetaDrive-test-no-noise2-td3,61,249.74492258848156,336113,1068,5428.846321821213,53.92435836791992,-54.30653381347656,11.015165328979492,0.46
335,MetaDrive-test-no-noise2-td3,61,251.3632605611718,337114,1069,5448.358290910721,52.94057083129883,,5.211572170257568,0.46
336,MetaDrive-test-no-noise2-td3,61,255.88853356342574,338685,1071,5479.128010749817,46.01700973510742,-46.579341888427734,37.837188720703125,0.47
337,MetaDrive-test-no-noise2-td3,61,255.16944823136214,339498,1072,5496.334427833557,52.50933074951172,,3.7566909790039062,0.46
338,MetaDrive-test-no-noise2-td3,61,255.74552847395069,340258,1073,5509.1710658073425,49.84856414794922,,19.706256866455078,0.46
339,MetaDrive-test-no-noise2-td3,61,252.82890537079697,341474,1075,5530.373610019684,53.71958541870117,,45.222110748291016,0.44
340,MetaDrive-test-no-noise2-td3,61,254.32145681639983,342191,1076,5542.20893907547,43.9604606628418,-45.193260192871094,104.37496948242188,0.45
341,MetaDrive-test-no-noise2-td3,61,253.3742069850216,343395,1079,5564.239732980728,50.29955291748047,-50.29689025878906,34.82977294921875,0.44
342,MetaDrive-test-no-noise2-td3,61,255.0005294560719,344199,1081,5578.347112894058,51.61745071411133,-51.38334655761719,17.051788330078125,0.45
343,MetaDrive-test-no-noise2-td3,61,256.5327428059,345200,1082,5599.0518317222595,48.804542541503906,,30.759859085083008,0.44
344,MetaDrive-test-no-noise2-td3,61,257.7005330076008,346040,1083,5614.186920881271,52.81330108642578,,7.349725246429443,0.44
345,MetaDrive-test-no-noise2-td3,61,259.54759354291275,347041,1084,5630.984554052353,51.731082916259766,-52.453216552734375,10.500431060791016,0.44
346,MetaDrive-test-no-noise2-td3,61,262.50185009354885,348189,1086,5654.624652862549,55.521968841552734,-55.307952880859375,7.871530532836914,0.45
347,MetaDrive-test-no-noise2-td3,61,263.49717636562525,349470,1088,5677.29510474205,45.60482406616211,,11.269292831420898,0.47
348,MetaDrive-test-no-noise2-td3,61,263.1458330724121,350471,1089,5696.237113714218,46.94615936279297,-47.14244079589844,15.002473831176758,0.46
349,MetaDrive-test-no-noise2-td3,61,263.7413380120181,351245,1090,5710.254321813583,47.489139556884766,-48.33522415161133,23.93069076538086,0.46
350,MetaDrive-test-no-noise2-td3,61,262.982492992695,352544,1093,5732.79306769371,49.51004409790039,,11.198150634765625,0.47
351,MetaDrive-test-no-noise2-td3,61,263.23116637096626,353433,1094,5749.358909845352,45.12841796875,-45.46918869018555,10.355419158935547,0.47
352,MetaDrive-test-no-noise2-td3,61,264.22669267666237,354201,1096,5763.086953878403,47.53974533081055,-48.341373443603516,13.542649269104004,0.48
353,MetaDrive-test-no-noise2-td3,61,264.46400725775476,355772,1098,5790.316909790039,49.47719192504883,,55.116825103759766,0.47
354,MetaDrive-test-no-noise2-td3,61,263.576686312264,356320,1099,5800.675529956818,52.27712631225586,,10.602875709533691,0.46
355,MetaDrive-test-no-noise2-td3,61,262.6314840916668,357502,1102,5823.085822820663,51.20418167114258,,5.744433403015137,0.45
356,MetaDrive-test-no-noise2-td3,61,264.3478710026799,358473,1105,5840.7223999500275,47.55604934692383,-47.908958435058594,25.547718048095703,0.45
357,MetaDrive-test-no-noise2-td3,61,259.1901913922084,359017,1107,5850.015982866287,44.448829650878906,-45.04986572265625,14.925451278686523,0.44
358,MetaDrive-test-no-noise2-td3,61,259.56684423800084,360535,1110,5877.983549833298,48.36324691772461,-49.26231384277344,12.746305465698242,0.45
359,MetaDrive-test-no-noise2-td3,61,260.1774260487229,361536,1111,5896.915255784988,46.765384674072266,,154.9853973388672,0.45
360,MetaDrive-test-no-noise2-td3,61,263.16696538380353,362478,1113,5911.644610881805,47.12662887573242,,14.371381759643555,0.47
361,MetaDrive-test-no-noise2-td3,61,266.2145543278958,363243,1114,5925.691556930542,53.21795654296875,-52.286006927490234,22.819204330444336,0.48
362,MetaDrive-test-no-noise2-td3,61,268.64381890211934,364060,1115,5939.885392904282,47.43902587890625,,8.219278335571289,0.48
363,MetaDrive-test-no-noise2-td3,61,269.8488057673127,365023,1117,5957.716320037842,52.106178283691406,-52.73255920410156,8.4501953125,0.48
364,MetaDrive-test-no-noise2-td3,61,274.33131275847916,366291,1119,5979.670422792435,52.30213165283203,-53.02597427368164,9.164743423461914,0.5
365,MetaDrive-test-no-noise2-td3,61,272.8202554302138,367939,1121,6009.668080806732,52.541168212890625,-53.857200622558594,17.50811004638672,0.5
366,MetaDrive-test-no-noise2-td3,61,273.4758358590946,368495,1122,6019.599873781204,47.58688735961914,-48.0591926574707,6.7585859298706055,0.51
367,MetaDrive-test-no-noise2-td3,61,273.6343507086119,369286,1124,6032.326035022736,55.579689025878906,,5.425549507141113,0.51
368,MetaDrive-test-no-noise2-td3,61,272.31431383483755,370369,1126,6050.035677909851,53.295658111572266,-53.42394256591797,37.57675552368164,0.52
369,MetaDrive-test-no-noise2-td3,61,272.4103096031663,371045,1127,6062.742629766464,47.546791076660156,-49.72500991821289,191.68194580078125,0.52
370,MetaDrive-test-no-noise2-td3,61,274.25487039050773,372276,1129,6082.846127748489,51.220855712890625,,7.382189750671387,0.53
371,MetaDrive-test-no-noise2-td3,61,272.5362235842275,373296,1131,6102.659254789352,55.24912643432617,,12.05422592163086,0.52
372,MetaDrive-test-no-noise2-td3,61,275.7239726198143,374297,1132,6125.06477189064,53.88850784301758,-54.00212860107422,6.70332145690918,0.52
373,MetaDrive-test-no-noise2-td3,61,277.49082919592445,375841,1134,6152.863789796829,56.28413009643555,-56.4161262512207,5.296266555786133,0.51
374,MetaDrive-test-no-noise2-td3,61,277.63031467821384,376585,1135,6166.7867159843445,46.83137893676758,-46.440608978271484,9.46683120727539,0.51
375,MetaDrive-test-no-noise2-td3,61,275.7157703778276,377008,1136,6173.127035856247,50.31360626220703,,78.06935119628906,0.51
376,MetaDrive-test-no-noise2-td3,61,277.816500143078,378009,1137,6194.569472789764,53.15790557861328,-53.814170837402344,10.932463645935059,0.51
377,MetaDrive-test-no-noise2-td3,60,277.03264930229335,379550,1139,6222.527609825134,50.3547248840332,,11.73133659362793,0.51
378,MetaDrive-test-no-noise2-td3,60,277.8251537759805,380145,1140,6233.392658948898,53.99897003173828,-54.529449462890625,4.477323532104492,0.52
379,MetaDrive-test-no-noise2-td3,60,278.1999596375992,381246,1142,6253.600682020187,51.12727737426758,,11.439794540405273,0.52
380,MetaDrive-test-no-noise2-td3,60,279.49382599965236,382053,1143,6269.064346790314,50.662254333496094,-50.687740325927734,6.262359619140625,0.52
381,MetaDrive-test-no-noise2-td3,60,281.86946840458023,383679,1145,6303.195270776749,49.29997253417969,-49.20716094970703,11.498939514160156,0.53
382,MetaDrive-test-no-noise2-td3,60,283.4672829816085,384347,1146,6316.352754831314,48.36251449584961,-48.91790771484375,14.466629028320312,0.54
383,MetaDrive-test-no-noise2-td3,60,283.5540129256572,385334,1147,6335.395877838135,47.70344924926758,,8.865674018859863,0.54
384,MetaDrive-test-no-noise2-td3,60,285.3878191832532,386499,1149,6356.483027935028,49.83942794799805,-50.375484466552734,12.11199951171875,0.55
385,MetaDrive-test-no-noise2-td3,60,284.1706892197954,387202,1150,6370.146214962006,52.89202880859375,,16.927112579345703,0.56
386,MetaDrive-test-no-noise2-td3,60,282.68891331152093,388203,1151,6389.965324878693,46.116844177246094,-48.31058883666992,16.679492950439453,0.56
387,MetaDrive-test-no-noise2-td3,60,282.5577143310228,389204,1152,6415.212060928345,50.977272033691406,,10.104907989501953,0.55
388,MetaDrive-test-no-noise2-td3,60,284.4789480147398,390230,1154,6434.530279874802,44.69377899169922,,10.858198165893555,0.57
389,MetaDrive-test-no-noise2-td3,60,282.5643614784951,391230,1156,6453.844387769699,50.328330993652344,,11.964618682861328,0.57
390,MetaDrive-test-no-noise2-td3,60,283.9609495677932,392108,1157,6470.276090860367,51.310333251953125,,8.0383939743042,0.57
391,MetaDrive-test-no-noise2-td3,60,286.4302686345998,393295,1159,6492.791427850723,45.41592788696289,-45.966636657714844,11.518178939819336,0.57
392,MetaDrive-test-no-noise2-td3,60,284.85414133368306,394320,1161,6511.822647809982,48.85847473144531,,8.531244277954102,0.57
393,MetaDrive-test-no-noise2-td3,60,288.43697327590405,395957,1163,6541.972697734833,49.425697326660156,-50.25971603393555,5.0558295249938965,0.58
394,MetaDrive-test-no-noise2-td3,60,289.0670246516356,396491,1164,6551.243607759476,49.766292572021484,-50.769805908203125,6.270792007446289,0.58
395,MetaDrive-test-no-noise2-td3,60,288.6286723427236,397156,1165,6563.034580945969,41.95598602294922,,147.3096923828125,0.59
396,MetaDrive-test-no-noise2-td3,60,280.0687193258854,398327,1169,6585.329288005829,47.574073791503906,-48.56133270263672,6.824760437011719,0.58
397,MetaDrive-test-no-noise2-td3,60,280.7088812415161,399047,1170,6598.780469655991,49.26636505126953,-49.46480178833008,6.612855911254883,0.58
398,MetaDrive-test-no-noise2-td3,60,282.827577407933,400705,1172,6629.418398857117,48.63690185546875,-49.1060905456543,103.41156768798828,0.6
399,MetaDrive-test-no-noise2-td3,60,282.0304850716345,401450,1173,6640.311143875122,42.77875900268555,,10.172932624816895,0.6
400,MetaDrive-test-no-noise2-td3,60,283.88060163128455,402020,1174,6649.613365650177,48.84034729003906,,9.057575225830078,0.61
401,MetaDrive-test-no-noise2-td3,60,286.58023833083985,403804,1176,6678.828191995621,48.29930877685547,,4.891162395477295,0.62
402,MetaDrive-test-no-noise2-td3,60,289.90054429061513,404774,1177,6693.99952173233,40.614349365234375,,9.9389009475708,0.63
403,MetaDrive-test-no-noise2-td3,60,289.818503298169,405325,1178,6701.836693048477,50.20384216308594,-50.55683135986328,5.878127098083496,0.64
404,MetaDrive-test-no-noise2-td3,60,287.249860803165,406044,1180,6713.696999788284,51.0462646484375,,9.35873031616211,0.63
405,MetaDrive-test-no-noise2-td3,60,288.12394395738625,407375,1182,6735.640017986298,49.350242614746094,-49.80561065673828,8.770999908447266,0.65
406,MetaDrive-test-no-noise2-td3,60,288.30008723072,408376,1183,6752.24488568306,47.42875671386719,,12.586177825927734,0.65
407,MetaDrive-test-no-noise2-td3,60,287.5734236288022,409053,1184,6762.168159008026,45.21139907836914,-46.28825378417969,10.49105453491211,0.66
408,MetaDrive-test-no-noise2-td3,60,288.3931248139767,410054,1185,6778.410795688629,49.77150344848633,,7.115263938903809,0.65
409,MetaDrive-test-no-noise2-td3,60,287.07588361219837,411077,1187,6794.587915658951,49.31965637207031,-50.32911682128906,9.586847305297852,0.65
410,MetaDrive-test-no-noise2-td3,60,286.57448152619514,412658,1190,6820.702615737915,49.13456726074219,,24.423145294189453,0.64
411,MetaDrive-test-no-noise2-td3,60,286.6994128461487,413049,1191,6826.56328868866,48.380218505859375,-48.48070526123047,14.04879379272461,0.63
412,MetaDrive-test-no-noise2-td3,60,289.79038939343525,414231,1193,6844.428397893906,46.287010192871094,-45.45928192138672,13.254135131835938,0.64
413,MetaDrive-test-no-noise2-td3,60,290.8727708811063,415222,1194,6859.030020713806,54.6422119140625,,5.015295505523682,0.64
414,MetaDrive-test-no-noise2-td3,60,289.2565051656683,416275,1197,6874.708427667618,43.76560592651367,-44.125816345214844,6.1579790115356445,0.63
415,MetaDrive-test-no-noise2-td3,60,288.03027154731063,417548,1200,6896.8854060173035,53.45847702026367,,6.194246768951416,0.64
416,MetaDrive-test-no-noise2-td3,60,290.0698429426998,418114,1201,6905.877504825592,49.980560302734375,,6.174455165863037,0.64
417,MetaDrive-test-no-noise2-td3,60,289.4518669109324,419441,1203,6930.525531768799,42.601802825927734,-42.35089111328125,105.83192443847656,0.63
418,MetaDrive-test-no-noise2-td3,60,292.54115926608904,420426,1204,6947.750289916992,50.33164596557617,,20.847501754760742,0.64
419,MetaDrive-test-no-noise2-td3,60,292.4961682639295,421024,1205,6956.789139986038,46.23351287841797,,12.065912246704102,0.64
420,MetaDrive-test-no-noise2-td3,60,295.3913102343626,422778,1207,6988.046021938324,47.80295944213867,,12.613591194152832,0.64
421,MetaDrive-test-no-noise2-td3,60,296.9166854685907,423779,1208,7004.454174995422,43.962242126464844,-44.92951202392578,8.581829071044922,0.64
422,MetaDrive-test-no-noise2-td3,60,297.6506204893913,424574,1209,7016.918856859207,44.95428466796875,,11.199091911315918,0.63
423,MetaDrive-test-no-noise2-td3,60,294.981992829532,425500,1211,7032.4926879405975,44.346343994140625,,11.625530242919922,0.62
424,MetaDrive-test-no-noise2-td3,60,294.4665917859019,426699,1213,7052.161910772324,47.27924728393555,-47.159263610839844,12.02766227722168,0.61
425,MetaDrive-test-no-noise2-td3,60,293.1728970565053,427190,1214,7059.780305862427,45.32898712158203,,6.200206756591797,0.6
426,MetaDrive-test-no-noise2-td3,60,291.56990601390646,428110,1215,7074.590043783188,44.089969635009766,,16.348175048828125,0.6
427,MetaDrive-test-no-noise2-td3,60,291.2073961773902,429044,1217,7088.696782827377,50.69795227050781,,20.370771408081055,0.6
428,MetaDrive-test-no-noise2-td3,60,290.73166495594455,430891,1220,7116.763872623444,45.34718704223633,-45.46428298950195,18.042484283447266,0.59
429,MetaDrive-test-no-noise2-td3,60,291.0080774826447,431616,1221,7127.633186817169,41.27043151855469,,13.146438598632812,0.6
430,MetaDrive-test-no-noise2-td3,60,289.5327248450682,432389,1223,7139.083639860153,47.40787124633789,-47.562889099121094,3.5783867835998535,0.59
431,MetaDrive-test-no-noise2-td3,60,292.45139233455876,433390,1224,7156.128588676453,40.757381439208984,,12.014287948608398,0.59
432,MetaDrive-test-no-noise2-td3,60,293.7518214490817,434391,1225,7175.908190011978,47.12104797363281,-47.875179290771484,13.458057403564453,0.58
433,MetaDrive-test-no-noise2-td3,60,294.7184809972774,435339,1226,7190.085511922836,49.579627990722656,-50.142662048339844,7.820138931274414,0.58
434,MetaDrive-test-no-noise2-td3,60,294.81885749137246,436011,1227,7199.782667636871,50.13011932373047,-50.01355743408203,3.2899084091186523,0.58
435,MetaDrive-test-no-noise2-td3,60,294.00426268878135,437291,1229,7219.578027009964,47.86122131347656,-47.33625411987305,11.415809631347656,0.58
436,MetaDrive-test-no-noise2-td3,60,295.5948809136057,438703,1231,7242.860376834869,42.271217346191406,-42.97077178955078,3.5786385536193848,0.59
437,MetaDrive-test-no-noise2-td3,60,295.74997276048674,439704,1232,7260.665355682373,48.86400604248047,,4.683315753936768,0.59
438,MetaDrive-test-no-noise2-td3,60,295.71948104103717,440397,1233,7271.39472079277,45.985252380371094,-46.59020233154297,18.502723693847656,0.6
439,MetaDrive-test-no-noise2-td3,60,296.82381249460525,441034,1234,7281.675078868866,49.76090621948242,,8.558601379394531,0.61
440,MetaDrive-test-no-noise2-td3,60,297.07157017978363,442207,1236,7299.560653686523,44.99662399291992,-46.016544342041016,6.667265892028809,0.61
441,MetaDrive-test-no-noise2-td3,60,295.25894000110463,443186,1238,7315.027771949768,41.76029968261719,,45.07243347167969,0.61
442,MetaDrive-test-no-noise2-td3,60,294.8312519525611,444758,1241,7340.336021661758,46.078617095947266,,8.161575317382812,0.61
443,MetaDrive-test-no-noise2-td3,60,293.947216487609,445281,1242,7348.391357898712,44.31074523925781,-45.19873046875,60.441593170166016,0.6
444,MetaDrive-test-no-noise2-td3,60,291.9876920043041,446169,1244,7363.503747701645,43.45500946044922,-44.49481201171875,106.80937194824219,0.59
445,MetaDrive-test-no-noise2-td3,60,288.0614175578196,447680,1247,7387.407116651535,41.32386779785156,,8.566047668457031,0.58
446,MetaDrive-test-no-noise2-td3,60,288.3198668969515,448370,1248,7398.251621961594,48.6362419128418,,15.954883575439453,0.58
447,MetaDrive-test-no-noise2-td3,60,288.821244386312,449023,1249,7409.148650884628,46.32815933227539,-46.025360107421875,7.302631378173828,0.58
448,MetaDrive-test-no-noise2-td3,60,289.73419732159084,450024,1250,7429.277788877487,45.910186767578125,,10.64999008178711,0.57
449,MetaDrive-test-no-noise2-td3,60,288.745720932199,451346,1253,7449.013357877731,45.29499816894531,,18.625099182128906,0.58
450,MetaDrive-test-no-noise2-td3,60,288.8335221538948,452453,1255,7468.392424821854,50.8121223449707,-51.41160583496094,4.533379077911377,0.57
451,MetaDrive-test-no-noise2-td3,60,288.53638575578793,453032,1256,7478.973337888718,42.55200958251953,,10.758193969726562,0.57
452,MetaDrive-test-no-noise2-td3,60,288.6621371548558,454033,1257,7499.82487487793,45.452144622802734,-45.66149139404297,9.69174575805664,0.56
453,MetaDrive-test-no-noise2-td3,60,288.2962654087624,455649,1260,7525.474026918411,43.3591194152832,-43.50339126586914,6.936341285705566,0.56
454,MetaDrive-test-no-noise2-td3,60,286.49221863891785,456650,1261,7539.38453578949,43.14453125,,9.312694549560547,0.55
455,MetaDrive-test-no-noise2-td3,60,285.89979469480676,457651,1262,7558.946997642517,47.46397399902344,-48.06045150756836,7.388388633728027,0.54
456,MetaDrive-test-no-noise2-td3,60,284.94687242340626,458209,1263,7567.850656747818,49.42343521118164,-49.696651458740234,30.739641189575195,0.53
457,MetaDrive-test-no-noise2-td3,60,284.4173139819884,459210,1264,7585.1257066726685,43.287506103515625,,18.52713966369629,0.53
458,MetaDrive-test-no-noise2-td3,60,284.28141476473616,460171,1266,7599.456131696701,49.0411491394043,-49.793434143066406,7.973130226135254,0.53
459,MetaDrive-test-no-noise2-td3,60,285.8384074733257,461336,1269,7619.175551891327,45.439388275146484,,8.33099365234375,0.53
460,MetaDrive-test-no-noise2-td3,60,285.52104343845537,462226,1270,7632.970995903015,39.93507385253906,,24.705589294433594,0.53
461,MetaDrive-test-no-noise2-td3,60,284.6816099041582,463082,1271,7644.911960840225,43.65455627441406,,9.014566421508789,0.53
462,MetaDrive-test-no-noise2-td3,60,282.8410796714609,464083,1272,7662.108236789703,48.10620880126953,-48.12409973144531,8.988588333129883,0.52
463,MetaDrive-test-no-noise2-td3,60,283.0799223431931,465700,1275,7689.37432384491,42.99238204956055,,9.203662872314453,0.51
464,MetaDrive-test-no-noise2-td3,60,282.25445475942297,466556,1276,7702.295428752899,41.800838470458984,,17.620121002197266,0.51
465,MetaDrive-test-no-noise2-td3,60,281.8752508105608,467482,1277,7717.716237783432,43.96867370605469,,8.086949348449707,0.51
466,MetaDrive-test-no-noise2-td3,60,281.9324247050615,468581,1279,7738.351199865341,48.58453369140625,-47.468170166015625,28.61832046508789,0.5
467,MetaDrive-test-no-noise2-td3,60,281.7333041052797,469228,1280,7747.9548597335815,43.45121765136719,,20.267311096191406,0.5
468,MetaDrive-test-no-noise2-td3,60,277.8618215783658,470248,1283,7763.28963470459,45.14208984375,,4.301460266113281,0.49
469,MetaDrive-test-no-noise2-td3,60,276.0894608896109,471929,1285,7780.575398921967,43.71827697753906,-44.02960205078125,14.273348808288574,0.49
470,MetaDrive-test-no-noise2-td3,60,276.0021534930977,472101,1286,7782.5167927742,47.313934326171875,-46.158851623535156,18.131986618041992,0.49
471,MetaDrive-test-no-noise2-td3,60,274.4679715285428,473239,1289,7793.659047842026,40.13383483886719,-40.94666290283203,6.5190629959106445,0.49
472,MetaDrive-test-no-noise2-td3,60,275.844681424838,474820,1291,7810.876960039139,45.47986602783203,,14.796628952026367,0.51
473,MetaDrive-test-no-noise2-td3,60,273.7573011428743,475075,1292,7813.824686765671,46.41074752807617,-46.193214416503906,4.842437744140625,0.5
474,MetaDrive-test-no-noise2-td3,60,271.42517063902613,476354,1295,7828.1389038562775,49.179840087890625,,8.416303634643555,0.49
475,MetaDrive-test-no-noise2-td3,60,273.0372627522212,477475,1297,7839.2829377651215,41.607505798339844,-41.87722396850586,8.798491477966309,0.5
476,MetaDrive-test-no-noise2-td3,60,275.95612794255555,478353,1299,7848.1066110134125,47.23857879638672,-45.960235595703125,9.8489351272583,0.52
477,MetaDrive-test-no-noise2-td3,60,273.02577451521404,479382,1301,7859.724192619324,43.2540168762207,,4.812088966369629,0.51
478,MetaDrive-test-no-noise2-td3,61,275.2252760257307,480218,1302,7869.974850893021,45.59117889404297,,24.177425384521484,0.52
479,MetaDrive-test-no-noise2-td3,61,272.88800701220583,481271,1304,7880.455650806427,45.03599548339844,-46.43187713623047,18.706335067749023,0.52
480,MetaDrive-test-no-noise2-td3,61,274.3362595228402,482791,1306,7899.667377948761,42.60672378540039,-43.48606872558594,4.795883655548096,0.51
481,MetaDrive-test-no-noise2-td3,61,274.29055366837287,483138,1307,7904.410405874252,42.7159423828125,,97.98857116699219,0.51
482,MetaDrive-test-no-noise2-td3,61,272.20268991288884,484080,1309,7915.224154949188,50.123226165771484,,9.26174259185791,0.52
483,MetaDrive-test-no-noise2-td3,61,269.52845627707933,485201,1311,7927.704347848892,44.35173034667969,-44.051307678222656,8.61596965789795,0.52
484,MetaDrive-test-no-noise2-td3,61,270.8150737688358,486741,1313,7944.862858772278,43.810359954833984,-44.701904296875,11.335603713989258,0.52
485,MetaDrive-test-no-noise2-td3,61,271.2773542936214,487440,1314,7951.996784925461,44.759864807128906,,10.347118377685547,0.53
486,MetaDrive-test-no-noise2-td3,61,268.794813255027,488189,1316,7960.733460903168,44.0864143371582,-44.077396392822266,46.39506149291992,0.52
487,MetaDrive-test-no-noise2-td3,61,272.30091093507457,489190,1317,7972.22527885437,44.64299774169922,,4.753485202789307,0.52
488,MetaDrive-test-no-noise2-td3,61,271.9866245340456,490173,1319,7982.739682674408,45.033775329589844,-44.81599807739258,12.576327323913574,0.52
489,MetaDrive-test-no-noise2-td3,61,272.1306074142986,491855,1321,8001.220513820648,43.44537353515625,-44.06416702270508,10.136348724365234,0.51
490,MetaDrive-test-no-noise2-td3,61,273.91339183288835,492424,1322,8007.484994888306,42.78720474243164,,7.458849906921387,0.52
491,MetaDrive-test-no-noise2-td3,61,273.87933647142637,493012,1323,8013.402562856674,45.22237014770508,,12.877232551574707,0.52
492,MetaDrive-test-no-noise2-td3,61,271.265283810048,494119,1325,8026.092909812927,45.54694366455078,-44.96807861328125,8.464822769165039,0.53
493,MetaDrive-test-no-noise2-td3,61,273.21729336817464,495785,1327,8045.67529296875,43.9404296875,-44.052982330322266,34.33497619628906,0.52
494,MetaDrive-test-no-noise2-td3,61,269.7483422178218,496095,1329,8049.06661772728,46.5981330871582,-46.64424133300781,5.956406116485596,0.5
495,MetaDrive-test-no-noise2-td3,61,265.8272790346754,497328,1332,8061.285275936127,42.908302307128906,,11.355121612548828,0.49
496,MetaDrive-test-no-noise2-td3,61,263.5408922406599,498157,1334,8069.116786956787,42.897850036621094,-42.79867935180664,22.448898315429688,0.48
497,MetaDrive-test-no-noise2-td3,61,265.4267774459279,499672,1336,8084.146687984467,45.0435676574707,,14.296213150024414,0.48
