TanmayH/CS269-RL-project-code/MetaDrive-td3combine-expt_with_safe-alt-env/MetaDrive-Alt-Next-v2/td3/progress.csv
,log_dir,frame_per_second,episode_reward,total_steps,total_episodes,total_time,actor_loss,critic_loss,target_q,success_rate
0,MetaDrive-td3combine-expt_with_safe-alt-env,124,271.4794747781912,2743,2,22.065717935562134,-38.28874206542969,6.616647720336914,37.86899948120117,0.0
1,MetaDrive-td3combine-expt_with_safe-alt-env,109,227.42852344784623,3771,3,34.48576784133911,-46.11629867553711,4.656979560852051,45.9591064453125,0.0
2,MetaDrive-td3combine-expt_with_safe-alt-env,105,155.2204322838555,4140,5,39.15560293197632,,10.98961067199707,43.28256607055664,0.0
3,MetaDrive-td3combine-expt_with_safe-alt-env,98,177.42603734328284,5043,7,51.35096502304077,-46.067996978759766,9.494895935058594,47.226776123046875,0.0
4,MetaDrive-td3combine-expt_with_safe-alt-env,93,187.47183919877446,6972,9,74.51009202003479,,4.294873237609863,46.1330680847168,0.1111111111111111
5,MetaDrive-td3combine-expt_with_safe-alt-env,91,190.61553468067945,8973,10,98.11832594871521,-41.69873809814453,9.065633773803711,42.78708267211914,0.1
6,MetaDrive-td3combine-expt_with_safe-alt-env,90,205.9974268809946,9393,11,103.26697111129761,-45.242218017578125,6.480395317077637,43.764259338378906,0.18181818181818182
7,MetaDrive-td3combine-expt_with_safe-alt-env,90,200.1486049112634,10015,12,110.5751678943634,-45.2180290222168,14.233621597290039,43.85093307495117,0.16666666666666666
8,MetaDrive-td3combine-expt_with_safe-alt-env,89,193.16343165366283,12016,13,134.23485207557678,,15.688413619995117,46.012054443359375,0.15384615384615385
9,MetaDrive-td3combine-expt_with_safe-alt-env,88,186.41811951610308,13920,14,157.37720394134521,,2.4122238159179688,35.53846740722656,0.14285714285714285
10,MetaDrive-td3combine-expt_with_safe-alt-env,88,195.8732284337146,14284,15,161.918203830719,,2.7752318382263184,33.016204833984375,0.2
11,MetaDrive-td3combine-expt_with_safe-alt-env,87,187.17744473170424,16197,18,185.6205689907074,-34.433082580566406,5.0129218101501465,33.99003982543945,0.2222222222222222
12,MetaDrive-td3combine-expt_with_safe-alt-env,86,185.44819173590741,18494,20,213.69316291809082,,4.81540584564209,32.371299743652344,0.25
13,MetaDrive-td3combine-expt_with_safe-alt-env,86,180.98465150107018,20495,21,237.91742992401123,-17.706878662109375,4.191789150238037,17.747682571411133,0.23809523809523808
14,MetaDrive-td3combine-expt_with_safe-alt-env,85,172.367455064083,22551,23,263.19236302375793,-18.827144622802734,4.376325607299805,19.04778289794922,0.21739130434782608
15,MetaDrive-td3combine-expt_with_safe-alt-env,85,159.61996337642697,24666,26,287.0606589317322,,5.729191780090332,23.67671012878418,0.19230769230769232
16,MetaDrive-td3combine-expt_with_safe-alt-env,86,145.6439261577405,26891,30,310.8386301994324,-18.08087921142578,5.759653091430664,18.599666595458984,0.16666666666666666
17,MetaDrive-td3combine-expt_with_safe-alt-env,86,143.77960505817106,28892,31,332.83592081069946,,13.714056015014648,15.14037799835205,0.16129032258064516
18,MetaDrive-td3combine-expt_with_safe-alt-env,87,148.53590726025533,30607,32,350.92640686035156,-16.9588623046875,6.9791259765625,16.18357276916504,0.15625
19,MetaDrive-td3combine-expt_with_safe-alt-env,87,149.37669843805423,32667,34,373.1926951408386,-16.083209991455078,5.5363616943359375,15.894892692565918,0.14705882352941177
20,MetaDrive-td3combine-expt_with_safe-alt-env,87,149.01081865640435,33803,35,386.7254111766815,-10.65174674987793,11.563972473144531,11.493812561035156,0.14285714285714285
21,MetaDrive-td3combine-expt_with_safe-alt-env,87,131.6720890607272,34019,40,389.829222202301,-25.379043579101562,7.013514041900635,24.465965270996094,0.125
22,MetaDrive-td3combine-expt_with_safe-alt-env,87,132.35012986069765,36020,41,411.6667799949646,,8.619823455810547,12.26483154296875,0.12195121951219512
23,MetaDrive-td3combine-expt_with_safe-alt-env,87,132.68279927164193,38021,42,434.33257699012756,-12.836450576782227,8.383955001831055,13.11244010925293,0.11904761904761904
24,MetaDrive-td3combine-expt_with_safe-alt-env,87,138.09293828936637,40022,43,455.94040393829346,,14.026750564575195,15.292912483215332,0.11627906976744186
25,MetaDrive-td3combine-expt_with_safe-alt-env,87,136.71783299023684,42023,44,477.8844060897827,-18.649822235107422,2.2281672954559326,18.84415054321289,0.11363636363636363
26,MetaDrive-td3combine-expt_with_safe-alt-env,88,140.8896639896132,44024,45,499.31721591949463,,9.399444580078125,19.261680603027344,0.1111111111111111
27,MetaDrive-td3combine-expt_with_safe-alt-env,88,140.3311494389932,46025,46,520.8607668876648,-2.0776350498199463,5.370119094848633,3.0039515495300293,0.10869565217391304
28,MetaDrive-td3combine-expt_with_safe-alt-env,88,141.168300951535,48026,47,543.500097990036,,6.7139410972595215,7.738384246826172,0.10638297872340426
29,MetaDrive-td3combine-expt_with_safe-alt-env,88,140.4676383358416,50027,48,565.3346738815308,-16.17694854736328,9.41147232055664,16.2409725189209,0.10416666666666667
30,MetaDrive-td3combine-expt_with_safe-alt-env,88,145.10664835786665,52952,50,597.2486479282379,,4.167346477508545,2.356926441192627,0.1
31,MetaDrive-td3combine-expt_with_safe-alt-env,88,146.4682584546189,53282,51,601.1314799785614,,3.676459312438965,8.695418357849121,0.09803921568627451
32,MetaDrive-td3combine-expt_with_safe-alt-env,88,146.3423811608467,55334,53,623.8891608715057,,6.091503143310547,9.49526596069336,0.09433962264150944
33,MetaDrive-td3combine-expt_with_safe-alt-env,88,148.952458232554,57675,55,649.5048549175262,-11.935223579406738,3.7177677154541016,11.638116836547852,0.10909090909090909
34,MetaDrive-td3combine-expt_with_safe-alt-env,88,156.19897032890125,59676,56,672.4369530677795,,3.733944892883301,9.2364501953125,0.10714285714285714
35,MetaDrive-td3combine-expt_with_safe-alt-env,88,153.16488161726673,61782,58,696.4007620811462,,5.313344955444336,9.484532356262207,0.10344827586206896
36,MetaDrive-td3combine-expt_with_safe-alt-env,88,153.6233121840779,63935,60,720.4200229644775,-13.859746932983398,7.766003131866455,12.757954597473145,0.1
37,MetaDrive-td3combine-expt_with_safe-alt-env,88,160.3817903933619,65936,61,743.9994690418243,,6.912292003631592,17.375839233398438,0.09836065573770492
38,MetaDrive-td3combine-expt_with_safe-alt-env,88,159.75269345896635,67421,62,761.0149471759796,-8.443574905395508,13.669801712036133,8.039244651794434,0.0967741935483871
39,MetaDrive-td3combine-expt_with_safe-alt-env,88,165.85095733478823,69911,64,789.6866381168365,-8.880853652954102,3.211954355239868,8.831435203552246,0.109375
40,MetaDrive-td3combine-expt_with_safe-alt-env,88,164.455131420481,71912,65,812.067703962326,,7.516806602478027,11.647683143615723,0.1076923076923077
41,MetaDrive-td3combine-expt_with_safe-alt-env,88,163.93012107009233,73913,66,834.6773281097412,-9.756572723388672,6.647704124450684,8.865180015563965,0.10606060606060606
42,MetaDrive-td3combine-expt_with_safe-alt-env,88,163.50128960280875,75914,67,858.6356558799744,,3.212636709213257,4.483059883117676,0.1044776119402985
43,MetaDrive-td3combine-expt_with_safe-alt-env,88,161.72549868348756,76003,68,859.8312790393829,-7.1623640060424805,2.162266254425049,7.147644519805908,0.10294117647058823
44,MetaDrive-td3combine-expt_with_safe-alt-env,88,159.4259844351157,78152,70,884.175938129425,,1.1728301048278809,6.5004401206970215,0.1
45,MetaDrive-td3combine-expt_with_safe-alt-env,88,167.0321326541787,79283,72,898.2127211093903,-6.453946113586426,7.64677619934082,5.911395072937012,0.1111111111111111
46,MetaDrive-td3combine-expt_with_safe-alt-env,88,166.02025920060325,81284,73,921.9865400791168,,4.076519012451172,5.220757961273193,0.1095890410958904
47,MetaDrive-td3combine-expt_with_safe-alt-env,88,168.3680701879393,83556,75,948.5455229282379,,3.42844557762146,3.1333510875701904,0.12
48,MetaDrive-td3combine-expt_with_safe-alt-env,88,168.7927271829887,85557,76,971.1505069732666,-18.137760162353516,8.246480941772461,17.52079200744629,0.11842105263157894
49,MetaDrive-td3combine-expt_with_safe-alt-env,88,167.9371683089589,87558,77,993.9710729122162,,3.2106339931488037,8.103053092956543,0.11688311688311688
50,MetaDrive-td3combine-expt_with_safe-alt-env,88,166.38240376573629,88239,80,1002.1514279842377,-8.007704734802246,14.910477638244629,7.981215953826904,0.125
51,MetaDrive-td3combine-expt_with_safe-alt-env,87,167.1286553876522,90387,82,1028.1334898471832,-8.180639266967773,10.035966873168945,8.684978485107422,0.13414634146341464
52,MetaDrive-td3combine-expt_with_safe-alt-env,87,167.48901197717154,92388,83,1051.316866159439,,2.338667869567871,7.9919753074646,0.13253012048192772
53,MetaDrive-td3combine-expt_with_safe-alt-env,87,166.5048728530577,94389,84,1075.6396510601044,-6.734795570373535,5.239027976989746,6.707371711730957,0.13095238095238096
54,MetaDrive-td3combine-expt_with_safe-alt-env,87,170.08152000930056,95023,85,1083.8436830043793,-4.887202739715576,11.875181198120117,5.593526840209961,0.1411764705882353
55,MetaDrive-td3combine-expt_with_safe-alt-env,87,169.4807319735915,97024,86,1107.5108709335327,,119.10823059082031,1.9161617755889893,0.13953488372093023
56,MetaDrive-td3combine-expt_with_safe-alt-env,87,170.24707805843605,99025,87,1131.3301041126251,-8.987112998962402,16.514015197753906,9.339136123657227,0.13793103448275862
57,MetaDrive-td3combine-expt_with_safe-alt-env,87,169.87325960254904,101026,88,1155.4141881465912,,3.105015277862549,8.772200584411621,0.13636363636363635
58,MetaDrive-td3combine-expt_with_safe-alt-env,87,169.46557148512053,103027,89,1179.7025442123413,-6.551207542419434,4.037243366241455,5.988493919372559,0.1348314606741573
59,MetaDrive-td3combine-expt_with_safe-alt-env,87,168.21183263498713,104865,91,1201.908124923706,-9.775758743286133,3.6148617267608643,9.834668159484863,0.13186813186813187
60,MetaDrive-td3combine-expt_with_safe-alt-env,87,167.61977056330608,106866,92,1226.9137370586395,,4.955961227416992,9.930011749267578,0.13043478260869565
61,MetaDrive-td3combine-expt_with_safe-alt-env,87,168.81961620000254,107201,93,1231.0845820903778,-10.584437370300293,4.768581867218018,10.458147048950195,0.13978494623655913
62,MetaDrive-td3combine-expt_with_safe-alt-env,86,168.13876141456356,109202,94,1255.5105230808258,,16.58584213256836,11.038803100585938,0.13829787234042554
63,MetaDrive-td3combine-expt_with_safe-alt-env,86,167.77006189485232,111203,95,1280.3666999340057,-4.401571750640869,4.595157623291016,4.98431921005249,0.1368421052631579
64,MetaDrive-td3combine-expt_with_safe-alt-env,86,165.64952040056176,112751,97,1299.8620841503143,-3.646810293197632,7.675770282745361,3.631242036819458,0.13402061855670103
65,MetaDrive-td3combine-expt_with_safe-alt-env,86,166.0535457809886,114752,98,1324.6128389835358,,3.9369938373565674,1.4943456649780273,0.1326530612244898
66,MetaDrive-td3combine-expt_with_safe-alt-env,86,165.50250875185108,116753,99,1348.5433459281921,-6.874711990356445,6.199870586395264,7.253105640411377,0.13131313131313133
67,MetaDrive-td3combine-expt_with_safe-alt-env,86,165.01427353315697,118754,100,1373.4061198234558,,7.313056468963623,12.864374160766602,0.13
68,MetaDrive-td3combine-expt_with_safe-alt-env,86,161.9575846518955,120755,101,1398.0735440254211,0.8714483976364136,9.986797332763672,-0.14189088344573975,0.13
69,MetaDrive-td3combine-expt_with_safe-alt-env,86,163.39077847466714,121127,102,1403.0281620025635,-4.922633171081543,5.011754989624023,4.426945686340332,0.13
70,MetaDrive-td3combine-expt_with_safe-alt-env,86,164.39202072603152,123234,104,1429.5820670127869,,4.817233562469482,11.414944648742676,0.13
71,MetaDrive-td3combine-expt_with_safe-alt-env,86,164.22723318022534,124880,106,1450.3722748756409,,9.189155578613281,5.458020210266113,0.13
72,MetaDrive-td3combine-expt_with_safe-alt-env,86,162.02738455027935,126970,108,1476.101578950882,,182.01480102539062,5.4965643882751465,0.13
73,MetaDrive-td3combine-expt_with_safe-alt-env,85,160.82476124199985,128971,109,1500.8096361160278,-5.831683158874512,2.6969571113586426,5.644639492034912,0.12
74,MetaDrive-td3combine-expt_with_safe-alt-env,85,160.09087227186043,130972,110,1527.0826439857483,,9.769760131835938,7.954557418823242,0.12
75,MetaDrive-td3combine-expt_with_safe-alt-env,85,157.58254518183014,132973,111,1551.779475927353,-12.591606140136719,10.304250717163086,12.992366790771484,0.11
76,MetaDrive-td3combine-expt_with_safe-alt-env,85,159.03917963097965,134974,112,1577.0490000247955,,23.69487762451172,13.7340087890625,0.11
77,MetaDrive-td3combine-expt_with_safe-alt-env,85,161.73614303840358,135481,113,1583.7613718509674,-0.9665160775184631,1.6099004745483398,0.10788428783416748,0.12
78,MetaDrive-td3combine-expt_with_safe-alt-env,85,161.29918717866394,137646,115,1611.536613225937,,40.610103607177734,9.578118324279785,0.11
79,MetaDrive-td3combine-expt_with_safe-alt-env,85,162.31496913701537,139647,116,1637.322825908661,-14.112422943115234,2.2324185371398926,13.999614715576172,0.11
80,MetaDrive-td3combine-expt_with_safe-alt-env,85,162.17607766411004,141648,117,1661.3994150161743,,2.7017641067504883,5.99763298034668,0.1
81,MetaDrive-td3combine-expt_with_safe-alt-env,85,161.00609593401296,142004,119,1665.828073978424,,7.405329704284668,8.174382209777832,0.09
82,MetaDrive-td3combine-expt_with_safe-alt-env,85,161.36447160123916,144005,120,1688.7224230766296,-7.208942890167236,8.95622444152832,7.289632320404053,0.09
83,MetaDrive-td3combine-expt_with_safe-alt-env,85,162.18120502280814,146006,121,1711.8880031108856,,10.5984525680542,17.337261199951172,0.09
84,MetaDrive-td3combine-expt_with_safe-alt-env,85,167.1376066064978,147099,124,1724.901601076126,-21.68171501159668,12.43038558959961,21.30420684814453,0.1
85,MetaDrive-td3combine-expt_with_safe-alt-env,85,167.4475523446705,149100,125,1747.0878219604492,,3.9088683128356934,3.6094813346862793,0.1
86,MetaDrive-td3combine-expt_with_safe-alt-env,85,171.12050153772554,151738,129,1776.198588848114,,3.490870475769043,12.808348655700684,0.11
87,MetaDrive-td3combine-expt_with_safe-alt-env,85,171.2998026110506,153739,130,1797.5095059871674,-3.784472942352295,14.161447525024414,3.1890244483947754,0.11
88,MetaDrive-td3combine-expt_with_safe-alt-env,85,171.34809847361055,155740,131,1818.5675818920135,,9.33145523071289,5.403040885925293,0.11
89,MetaDrive-td3combine-expt_with_safe-alt-env,85,169.30409502237293,157741,132,1839.846769809723,-5.446168422698975,242.1103515625,4.279200077056885,0.11
90,MetaDrive-td3combine-expt_with_safe-alt-env,85,171.21912265513592,159742,133,1862.2369849681854,,5.105634689331055,7.262863636016846,0.11
91,MetaDrive-td3combine-expt_with_safe-alt-env,85,168.88339022601957,161849,135,1884.7440659999847,-11.103798866271973,5.688874244689941,10.857192993164062,0.11
92,MetaDrive-td3combine-expt_with_safe-alt-env,85,171.1573296958253,162101,136,1887.4514210224152,-11.77786636352539,7.807016372680664,12.485467910766602,0.11
93,MetaDrive-td3combine-expt_with_safe-alt-env,85,177.06727876177786,164690,140,1915.75421500206,,11.213903427124023,3.1662204265594482,0.11
94,MetaDrive-td3combine-expt_with_safe-alt-env,86,177.31410909442948,166691,141,1937.5504140853882,-5.908162593841553,8.0426025390625,5.199763774871826,0.11
95,MetaDrive-td3combine-expt_with_safe-alt-env,86,174.47673595113355,168972,143,1962.3544969558716,,8.557514190673828,13.408256530761719,0.11
96,MetaDrive-td3combine-expt_with_safe-alt-env,86,174.63468738337434,170973,144,1984.0013659000397,-9.770236015319824,8.026018142700195,9.632568359375,0.11
97,MetaDrive-td3combine-expt_with_safe-alt-env,86,172.74244106219064,171162,145,1986.4433448314667,,5.1280951499938965,-2.2980360984802246,0.11
98,MetaDrive-td3combine-expt_with_safe-alt-env,86,172.9344695589283,173163,146,2008.3064398765564,-7.8864850997924805,15.473043441772461,7.458840847015381,0.11
99,MetaDrive-td3combine-expt_with_safe-alt-env,86,172.3301046618752,174396,147,2021.727301120758,,15.19205093383789,3.2226386070251465,0.11
100,MetaDrive-td3combine-expt_with_safe-alt-env,86,172.292551709229,176397,148,2043.2643070220947,-6.238851547241211,21.095500946044922,6.143380641937256,0.11
101,MetaDrive-td3combine-expt_with_safe-alt-env,86,169.9338486735104,178398,149,2064.750513076782,,9.205591201782227,7.9706525802612305,0.11
102,MetaDrive-td3combine-expt_with_safe-alt-env,86,171.9846136794327,180087,150,2083.7618210315704,-11.964902877807617,14.523761749267578,10.70641040802002,0.12
103,MetaDrive-td3combine-expt_with_safe-alt-env,86,172.43618091558253,182088,151,2105.524950027466,,5.909735679626465,8.298188209533691,0.12
104,MetaDrive-td3combine-expt_with_safe-alt-env,86,173.0326979061255,184089,152,2127.596206188202,-2.8549609184265137,3.8979549407958984,2.995743989944458,0.12
105,MetaDrive-td3combine-expt_with_safe-alt-env,86,170.91794826007288,186090,153,2149.7624719142914,,6.582945346832275,6.793676853179932,0.12
106,MetaDrive-td3combine-expt_with_safe-alt-env,86,168.7898700667781,187859,154,2169.9138638973236,-6.993908882141113,13.689322471618652,6.496091365814209,0.11
107,MetaDrive-td3combine-expt_with_safe-alt-env,86,169.6618046424211,189860,155,2192.2072830200195,,3.1716504096984863,5.059757232666016,0.11
108,MetaDrive-td3combine-expt_with_safe-alt-env,86,165.59502628563754,191861,156,2214.4377012252808,-6.00986909866333,9.766361236572266,5.599891185760498,0.11
109,MetaDrive-td3combine-expt_with_safe-alt-env,86,168.24388274702724,192322,157,2219.572532892227,,5.415555953979492,4.822595119476318,0.12
110,MetaDrive-td3combine-expt_with_safe-alt-env,86,168.7666206408088,193119,158,2228.539547920227,-15.046449661254883,31.728363037109375,14.041498184204102,0.12
111,MetaDrive-td3combine-expt_with_safe-alt-env,86,170.13423601537863,195120,159,2251.220878124237,,2.937328577041626,9.424100875854492,0.12
112,MetaDrive-td3combine-expt_with_safe-alt-env,86,168.9076686162872,197121,160,2273.8863439559937,-2.7464237213134766,7.035675048828125,3.2353405952453613,0.12
113,MetaDrive-td3combine-expt_with_safe-alt-env,86,164.2204876407979,199374,162,2298.458081007004,,20.786325454711914,4.1721601486206055,0.12
114,MetaDrive-td3combine-expt_with_safe-alt-env,86,162.0894859141361,201375,163,2321.3262991905212,-17.051841735839844,14.341419219970703,17.1916561126709,0.11
115,MetaDrive-td3combine-expt_with_safe-alt-env,86,163.28051551831197,203376,164,2343.399936914444,,6.259037017822266,9.823233604431152,0.11
116,MetaDrive-td3combine-expt_with_safe-alt-env,86,162.89861698003563,205377,165,2366.076144218445,-6.7375922203063965,8.966931343078613,6.447507858276367,0.11
117,MetaDrive-td3combine-expt_with_safe-alt-env,86,162.43758960312837,207378,166,2388.5311920642853,,15.909059524536133,10.715599060058594,0.11
118,MetaDrive-td3combine-expt_with_safe-alt-env,86,161.7242604710038,209259,167,2410.067668914795,-3.165980100631714,3.1035549640655518,3.0616326332092285,0.11
119,MetaDrive-td3combine-expt_with_safe-alt-env,86,162.7372450220146,211260,168,2432.8915939331055,,20.302215576171875,5.673625469207764,0.11
120,MetaDrive-td3combine-expt_with_safe-alt-env,86,165.14864080186248,213261,169,2455.4296040534973,-11.62053394317627,4.20829963684082,11.529948234558105,0.11
121,MetaDrive-td3combine-expt_with_safe-alt-env,86,165.41858949022338,215262,170,2478.674991130829,,52.391265869140625,0.9870882630348206,0.11
122,MetaDrive-td3combine-expt_with_safe-alt-env,86,161.1956482645666,217263,171,2501.56147313118,-18.303424835205078,18.649253845214844,17.639184951782227,0.11
123,MetaDrive-td3combine-expt_with_safe-alt-env,86,159.29191697034267,219264,172,2524.266720056534,,8.482536315917969,12.263216018676758,0.1
124,MetaDrive-td3combine-expt_with_safe-alt-env,86,160.60676995288145,221651,174,2552.7472381591797,-5.271552085876465,22.457727432250977,6.100051403045654,0.1
125,MetaDrive-td3combine-expt_with_safe-alt-env,86,161.83934889736656,222163,175,2558.926115989685,-10.831138610839844,16.36949920654297,9.770174980163574,0.11
126,MetaDrive-td3combine-expt_with_safe-alt-env,86,161.16585793478546,224164,176,2581.6140830516815,,3.863391160964966,9.26034164428711,0.11
127,MetaDrive-td3combine-expt_with_safe-alt-env,86,161.2681807318665,226379,179,2606.558310985565,-13.39432430267334,11.382293701171875,12.434759140014648,0.11
128,MetaDrive-td3combine-expt_with_safe-alt-env,86,160.13071096400938,228380,180,2629.700517177582,,11.998626708984375,16.28839111328125,0.1
129,MetaDrive-td3combine-expt_with_safe-alt-env,86,162.9267481418182,230319,182,2653.4358100891113,-3.8925626277923584,4.096992015838623,3.0814595222473145,0.1
130,MetaDrive-td3combine-expt_with_safe-alt-env,86,162.18893446494286,232320,183,2676.798666000366,,2.7401318550109863,9.05235767364502,0.1
131,MetaDrive-td3combine-expt_with_safe-alt-env,86,162.6601943368112,234321,184,2700.477219104767,-12.985466957092285,9.08999252319336,14.024894714355469,0.1
132,MetaDrive-td3combine-expt_with_safe-alt-env,86,161.92094163259287,236782,186,2729.672360897064,,29.719036102294922,8.362299919128418,0.1
133,MetaDrive-td3combine-expt_with_safe-alt-env,86,160.48678610463224,237334,187,2735.994022130966,,14.766324996948242,6.308622360229492,0.1
134,MetaDrive-td3combine-expt_with_safe-alt-env,86,161.91888917720146,239335,188,2760.6698620319366,-16.698715209960938,18.18890380859375,16.065141677856445,0.1
135,MetaDrive-td3combine-expt_with_safe-alt-env,86,161.28495420114075,241336,189,2784.3408761024475,,6.37492561340332,1.4542155265808105,0.1
136,MetaDrive-td3combine-expt_with_safe-alt-env,86,162.89412298161488,243337,190,2808.7914831638336,-5.863997459411621,10.181328773498535,5.10191535949707,0.1
137,MetaDrive-td3combine-expt_with_safe-alt-env,86,165.3519758067296,245603,192,2835.7749400138855,-12.99479866027832,25.15454864501953,13.231146812438965,0.1
138,MetaDrive-td3combine-expt_with_safe-alt-env,86,164.60580979757626,247604,193,2860.291437149048,,11.272764205932617,6.333220958709717,0.09
139,MetaDrive-td3combine-expt_with_safe-alt-env,86,164.9337201667796,249605,194,2883.4051361083984,5.113944053649902,4.189136505126953,-6.143959999084473,0.09
140,MetaDrive-td3combine-expt_with_safe-alt-env,86,164.81471336794036,251606,195,2908.751816034317,,10.24551773071289,17.727214813232422,0.09
141,MetaDrive-td3combine-expt_with_safe-alt-env,86,167.07033414606897,253607,196,2932.9681680202484,-5.703458786010742,3.411794662475586,4.568142414093018,0.09
142,MetaDrive-td3combine-expt_with_safe-alt-env,86,166.81737069245017,255360,197,2954.452667951584,,11.574396133422852,5.9991655349731445,0.09
143,MetaDrive-td3combine-expt_with_safe-alt-env,86,165.7477153088375,257361,198,2979.559108018875,-10.431516647338867,4.2699408531188965,10.951729774475098,0.09
144,MetaDrive-td3combine-expt_with_safe-alt-env,86,165.32660932360258,259362,199,3003.9566168785095,,4.119634628295898,1.0329265594482422,0.09
145,MetaDrive-td3combine-expt_with_safe-alt-env,86,165.4647928329077,261363,200,3028.084797859192,-8.637855529785156,10.612881660461426,8.242805480957031,0.09
146,MetaDrive-td3combine-expt_with_safe-alt-env,86,168.86745966883612,262248,201,3039.390823841095,,8.928218841552734,7.035776138305664,0.1
147,MetaDrive-td3combine-expt_with_safe-alt-env,86,166.45389888375675,264362,203,3065.8070590496063,,19.47862434387207,17.136737823486328,0.1
148,MetaDrive-td3combine-expt_with_safe-alt-env,86,165.36445882463215,266436,205,3092.0662038326263,,22.44101905822754,6.167510986328125,0.1
149,MetaDrive-td3combine-expt_with_safe-alt-env,86,168.21646185602702,268437,206,3117.404218196869,-17.61638069152832,13.818965911865234,17.08216667175293,0.1
150,MetaDrive-td3combine-expt_with_safe-alt-env,86,168.3317077579699,270438,207,3142.1519300937653,,26.771432876586914,5.451384544372559,0.1
151,MetaDrive-td3combine-expt_with_safe-alt-env,85,167.9987723864767,272439,208,3169.093304157257,-7.749558448791504,5.565532684326172,7.280269145965576,0.1
152,MetaDrive-td3combine-expt_with_safe-alt-env,85,166.4920987840661,273193,209,3178.649829149246,-2.1180169582366943,7.4944891929626465,1.3768761157989502,0.1
153,MetaDrive-td3combine-expt_with_safe-alt-env,85,167.29280901862705,275194,210,3203.170044898987,,2.9140491485595703,6.876895904541016,0.1
154,MetaDrive-td3combine-expt_with_safe-alt-env,85,166.42147569444336,277342,212,3231.70330119133,,7.073328018188477,0.504854679107666,0.1
155,MetaDrive-td3combine-expt_with_safe-alt-env,85,163.8473575919279,279343,213,3257.2888860702515,-2.5957775115966797,15.502618789672852,3.043976068496704,0.09
156,MetaDrive-td3combine-expt_with_safe-alt-env,85,163.44026663741127,280313,216,3269.984827041626,-8.089742660522461,6.940271377563477,8.514633178710938,0.1
157,MetaDrive-td3combine-expt_with_safe-alt-env,85,160.82638410826678,282501,218,3298.209753036499,-3.2791337966918945,2.682584285736084,3.205124616622925,0.1
158,MetaDrive-td3combine-expt_with_safe-alt-env,85,162.04535220406385,284502,219,3323.962839126587,,19.6881103515625,12.02767562866211,0.1
159,MetaDrive-td3combine-expt_with_safe-alt-env,85,161.46974009916738,285337,220,3334.973478078842,-11.613090515136719,8.325250625610352,12.435694694519043,0.1
160,MetaDrive-td3combine-expt_with_safe-alt-env,85,160.720586506726,286990,221,3355.8397240638733,,6.800653457641602,10.053003311157227,0.1
161,MetaDrive-td3combine-expt_with_safe-alt-env,85,159.7628882115745,288991,222,3381.6048860549927,-10.358835220336914,6.806193828582764,10.760330200195312,0.1
162,MetaDrive-td3combine-expt_with_safe-alt-env,85,157.16097229223294,290992,223,3407.363620042801,,4.160246849060059,9.87582015991211,0.09
163,MetaDrive-td3combine-expt_with_safe-alt-env,85,156.9934751993244,292993,224,3432.3081560134888,-4.70668888092041,2.9251320362091064,4.529301643371582,0.09
164,MetaDrive-td3combine-expt_with_safe-alt-env,85,157.53513766465002,294554,225,3451.816736936569,,16.13800811767578,15.609115600585938,0.09
165,MetaDrive-td3combine-expt_with_safe-alt-env,85,157.36164381751695,295028,227,3457.952028989792,,10.261414527893066,13.593836784362793,0.09
166,MetaDrive-td3combine-expt_with_safe-alt-env,85,162.64377502467767,296552,228,3478.1435220241547,,4.8975348472595215,12.276531219482422,0.09
167,MetaDrive-td3combine-expt_with_safe-alt-env,85,161.33492360390525,297138,230,3486.3136460781097,,7.91252326965332,4.438387870788574,0.09
168,MetaDrive-td3combine-expt_with_safe-alt-env,85,165.70191543767706,298342,232,3502.7924239635468,,7.283856391906738,5.328746795654297,0.1
169,MetaDrive-td3combine-expt_with_safe-alt-env,85,166.5882736052563,299576,233,3518.5651919841766,,15.875457763671875,6.764073371887207,0.1
170,MetaDrive-td3combine-expt_with_safe-alt-env,85,169.90824560605157,300076,234,3525.135993003845,,22.871135711669922,4.036566734313965,0.11
171,MetaDrive-td3combine-expt_with_safe-alt-env,85,171.7786549330305,301869,235,3547.650182247162,-14.631345748901367,11.412357330322266,13.19059944152832,0.12
172,MetaDrive-td3combine-expt_with_safe-alt-env,85,169.8771303503419,302967,237,3563.2487049102783,-6.541862964630127,13.069454193115234,6.895726203918457,0.12
173,MetaDrive-td3combine-expt_with_safe-alt-env,84,168.73543055077243,304968,238,3589.534567832947,,7.874436378479004,8.75346851348877,0.12
174,MetaDrive-td3combine-expt_with_safe-alt-env,84,171.1897403235612,305620,239,3597.933902025223,,5.543150901794434,5.373325824737549,0.13
175,MetaDrive-td3combine-expt_with_safe-alt-env,84,171.45664753572078,307867,241,3627.8733501434326,-10.4180908203125,10.601966857910156,10.846305847167969,0.13
176,MetaDrive-td3combine-expt_with_safe-alt-env,84,173.86086284465324,309868,242,3654.5058710575104,,14.007342338562012,10.82424545288086,0.13
177,MetaDrive-td3combine-expt_with_safe-alt-env,84,176.02968472083455,310353,243,3661.256646156311,-11.832501411437988,12.282825469970703,10.913171768188477,0.14
178,MetaDrive-td3combine-expt_with_safe-alt-env,84,176.324319640339,312354,244,3689.2701239585876,,15.29843521118164,12.82351016998291,0.14
179,MetaDrive-td3combine-expt_with_safe-alt-env,84,179.58023212599343,313354,247,3703.6564059257507,,12.173909187316895,10.129261016845703,0.15
180,MetaDrive-td3combine-expt_with_safe-alt-env,84,181.5093400684035,315437,249,3731.3382489681244,-4.860121726989746,6.842557907104492,5.206630706787109,0.15
181,MetaDrive-td3combine-expt_with_safe-alt-env,84,179.1762161263285,317438,250,3759.367115020752,,8.224263191223145,7.096827507019043,0.14
182,MetaDrive-td3combine-expt_with_safe-alt-env,84,177.73628240739043,319300,251,3784.0565209388733,,2.6807732582092285,10.395275115966797,0.14
183,MetaDrive-td3combine-expt_with_safe-alt-env,84,178.93826827408958,321718,254,3816.4601578712463,,4.463354110717773,16.67609214782715,0.14
184,MetaDrive-td3combine-expt_with_safe-alt-env,84,177.62105099471617,323839,256,3846.102068901062,-4.526250839233398,10.674067497253418,4.25013542175293,0.14
185,MetaDrive-td3combine-expt_with_safe-alt-env,84,177.99553135907468,324388,257,3853.786943912506,,10.88937759399414,7.749041557312012,0.14
186,MetaDrive-td3combine-expt_with_safe-alt-env,84,177.71196918937122,325053,260,3863.3899660110474,-10.424264907836914,4.952424049377441,9.387194633483887,0.14
187,MetaDrive-td3combine-expt_with_safe-alt-env,84,181.7369112176396,326115,263,3878.3255879879,-3.233325242996216,5.697009086608887,3.2791507244110107,0.15
188,MetaDrive-td3combine-expt_with_safe-alt-env,84,182.1056456473474,328466,265,3909.9370307922363,,8.335909843444824,8.710501670837402,0.16
189,MetaDrive-td3combine-expt_with_safe-alt-env,83,183.9131889686242,330467,266,3936.2198100090027,-3.329643964767456,9.689367294311523,3.8937292098999023,0.16
190,MetaDrive-td3combine-expt_with_safe-alt-env,83,185.19500041070035,331777,268,3953.9622251987457,-10.39013671875,14.163156509399414,10.262947082519531,0.16
191,MetaDrive-td3combine-expt_with_safe-alt-env,83,183.30300015734326,333778,269,3980.507453918457,,12.485712051391602,5.979689598083496,0.16
192,MetaDrive-td3combine-expt_with_safe-alt-env,83,184.09487698230635,335014,270,3997.5856351852417,,4.325407981872559,8.566164016723633,0.16
193,MetaDrive-td3combine-expt_with_safe-alt-env,83,183.57838502844265,337015,271,4024.8755588531494,-10.717743873596191,7.884259223937988,10.484850883483887,0.16
194,MetaDrive-td3combine-expt_with_safe-alt-env,83,182.22256512165796,338866,273,4049.620304107666,,5.606020450592041,5.099409103393555,0.15
195,MetaDrive-td3combine-expt_with_safe-alt-env,83,184.98549536540352,339343,274,4056.5860369205475,-18.645587921142578,4.21323299407959,18.636608123779297,0.16
196,MetaDrive-td3combine-expt_with_safe-alt-env,83,187.85844432766373,341905,276,4090.282860994339,-3.756014585494995,12.597553253173828,3.996657609939575,0.16
197,MetaDrive-td3combine-expt_with_safe-alt-env,83,189.58640006148457,343906,277,4118.01894402504,,16.717018127441406,10.311038970947266,0.16
198,MetaDrive-td3combine-expt_with_safe-alt-env,83,189.59343294094467,344018,278,4119.729094028473,,17.67894744873047,15.753044128417969,0.16
199,MetaDrive-td3combine-expt_with_safe-alt-env,83,188.73137173134853,345555,282,4140.649798154831,-7.326457977294922,6.485126495361328,6.589986324310303,0.17
200,MetaDrive-td3combine-expt_with_safe-alt-env,83,190.66615606406904,346006,283,4146.87154006958,,10.862476348876953,9.663458824157715,0.18
201,MetaDrive-td3combine-expt_with_safe-alt-env,83,190.34817718575505,348007,284,4173.523803949356,-5.2237749099731445,2.551856517791748,5.120218753814697,0.18
202,MetaDrive-td3combine-expt_with_safe-alt-env,83,189.12184121555137,350008,285,4200.393203020096,,2.540827751159668,5.0095062255859375,0.17
203,MetaDrive-td3combine-expt_with_safe-alt-env,83,189.2591139719404,352009,286,4227.379508018494,-11.297248840332031,7.55706262588501,10.808300018310547,0.17
204,MetaDrive-td3combine-expt_with_safe-alt-env,83,190.94879929324546,353018,289,4241.821766138077,,7.838149070739746,6.32493782043457,0.18
205,MetaDrive-td3combine-expt_with_safe-alt-env,83,187.05189797871054,354497,292,4263.126015901566,-10.30689525604248,5.5432281494140625,10.417460441589355,0.18
206,MetaDrive-td3combine-expt_with_safe-alt-env,83,186.67257005515756,355169,295,4272.3142631053925,-0.46892017126083374,7.516884803771973,-0.41260260343551636,0.19
207,MetaDrive-td3combine-expt_with_safe-alt-env,83,186.1237683730885,357936,298,4311.769839048386,,3.5493111610412598,14.304136276245117,0.19
208,MetaDrive-td3combine-expt_with_safe-alt-env,82,186.42045896512124,359937,299,4339.8901200294495,-10.689568519592285,5.617124557495117,10.570755004882812,0.19
209,MetaDrive-td3combine-expt_with_safe-alt-env,82,189.42435636915997,360572,300,4348.753498077393,,20.902280807495117,3.6902291774749756,0.2
210,MetaDrive-td3combine-expt_with_safe-alt-env,82,187.2911963910647,362573,301,4375.650416135788,-15.915742874145508,9.092952728271484,15.325393676757812,0.19
211,MetaDrive-td3combine-expt_with_safe-alt-env,82,187.3187644978736,364574,302,4402.379044055939,,12.267070770263672,13.71993637084961,0.19
212,MetaDrive-td3combine-expt_with_safe-alt-env,82,187.12440279666885,366575,303,4430.498024940491,-15.118179321289062,15.324472427368164,14.566320419311523,0.19
213,MetaDrive-td3combine-expt_with_safe-alt-env,82,187.58018710621727,367149,305,4438.2370529174805,-16.948562622070312,5.433176040649414,16.795991897583008,0.19
214,MetaDrive-td3combine-expt_with_safe-alt-env,82,187.09929649068107,369150,306,4464.429935216904,,13.653799057006836,15.760557174682617,0.19
215,MetaDrive-td3combine-expt_with_safe-alt-env,82,188.5577616623436,371495,308,4496.036535024643,-5.178161144256592,20.423843383789062,5.214138984680176,0.19
216,MetaDrive-td3combine-expt_with_safe-alt-env,82,190.68263848795712,373496,309,4522.439522027969,,4.809426307678223,9.812875747680664,0.19
217,MetaDrive-td3combine-expt_with_safe-alt-env,82,189.0345379705082,375497,310,4549.772844076157,-16.102426528930664,6.7855119705200195,15.266365051269531,0.19
218,MetaDrive-td3combine-expt_with_safe-alt-env,82,191.32289164833324,376061,311,4557.424400091171,-8.557828903198242,13.239227294921875,8.703153610229492,0.2
219,MetaDrive-td3combine-expt_with_safe-alt-env,82,189.53879597043257,378281,313,4588.361562013626,-18.07530975341797,21.309289932250977,17.401058197021484,0.2
220,MetaDrive-td3combine-expt_with_safe-alt-env,82,190.83674842796714,380282,314,4614.647808074951,,14.959291458129883,4.760164260864258,0.2
221,MetaDrive-td3combine-expt_with_safe-alt-env,82,193.4791344179522,382749,316,4648.943305969238,-1.7901177406311035,6.966363906860352,2.6914734840393066,0.2
222,MetaDrive-td3combine-expt_with_safe-alt-env,82,194.51560710834707,384750,317,4675.789106845856,,31.360885620117188,13.913772583007812,0.2
223,MetaDrive-td3combine-expt_with_safe-alt-env,82,194.49256272853913,386751,318,4703.18116402626,-8.477327346801758,10.715448379516602,8.80644416809082,0.2
224,MetaDrive-td3combine-expt_with_safe-alt-env,82,194.12029360815774,388872,320,4732.723441123962,,9.60371208190918,7.058951377868652,0.2
225,MetaDrive-td3combine-expt_with_safe-alt-env,82,194.1569147296341,389524,321,4741.415234088898,,42.6820068359375,17.18496322631836,0.2
226,MetaDrive-td3combine-expt_with_safe-alt-env,82,195.48909116831427,390922,322,4761.034969091415,,91.96379089355469,11.282346725463867,0.2
227,MetaDrive-td3combine-expt_with_safe-alt-env,82,196.1754033176117,392923,323,4788.6583371162415,-7.753281593322754,7.5791168212890625,7.7114410400390625,0.2
228,MetaDrive-td3combine-expt_with_safe-alt-env,82,195.6745823641514,394924,324,4815.193722009659,,11.573009490966797,9.483784675598145,0.2
229,MetaDrive-td3combine-expt_with_safe-alt-env,82,195.3310301985447,395075,325,4817.4772799015045,-16.66581916809082,5.032052040100098,16.461200714111328,0.2
230,MetaDrive-td3combine-expt_with_safe-alt-env,81,192.55734077110552,396081,329,4832.287585020065,-6.82670259475708,55.91212463378906,6.714569568634033,0.2
231,MetaDrive-td3combine-expt_with_safe-alt-env,81,192.76225432860366,398235,332,4863.377339839935,-14.56120491027832,5.285275936126709,15.239439010620117,0.2
232,MetaDrive-td3combine-expt_with_safe-alt-env,81,188.26906039191607,399090,335,4875.3059940338135,,12.415146827697754,12.454131126403809,0.19
