TanmayH/CS269-RL-project-code/MetaDrive-td3combine-new-expt/MetaDrive-New-Next-v1/td3/progress.csv
,log_dir,frame_per_second,episode_reward,total_steps,total_episodes,total_time,target_q,actor_loss,critic_loss,success_rate
0,MetaDrive-td3combine-new-expt,112,90.089357439593,1500,1,13.36014437675476,,,,0.0
1,MetaDrive-td3combine-new-expt,137,97.0887888030503,3001,2,21.80771017074585,,,,0.0
2,MetaDrive-td3combine-new-expt,152,100.34859253124411,5012,4,32.80654764175415,38.2624626159668,,10.173995971679688,0.0
3,MetaDrive-td3combine-new-expt,138,102.04807905587639,6513,5,47.160277366638184,35.674903869628906,-36.6839599609375,14.503549575805664,0.0
4,MetaDrive-td3combine-new-expt,114,90.03755120085802,8076,7,70.58466863632202,39.971282958984375,,5.69894552230835,0.0
5,MetaDrive-td3combine-new-expt,105,83.33630430138331,9615,10,91.40902638435364,33.21118927001953,-34.224884033203125,3.891256332397461,0.0
6,MetaDrive-td3combine-new-expt,104,74.32955289016353,10012,12,96.00537991523743,33.95000457763672,,8.132797241210938,0.0
7,MetaDrive-td3combine-new-expt,97,72.15749999692117,11513,13,118.05503439903259,34.32920837402344,-33.80085754394531,10.590323448181152,0.0
8,MetaDrive-td3combine-new-expt,92,71.94955804255355,13014,14,140.03952074050903,29.10676383972168,,2.6526548862457275,0.0
9,MetaDrive-td3combine-new-expt,90,64.17528022263564,14904,17,163.9611577987671,34.77853775024414,,3.7970149517059326,0.0
10,MetaDrive-td3combine-new-expt,87,69.38226637634347,15522,18,177.30001997947693,33.27165603637695,,4.638884544372559,0.0
11,MetaDrive-td3combine-new-expt,84,67.49093984993546,17023,19,201.5276370048523,26.400897979736328,-26.434316635131836,6.164695739746094,0.0
12,MetaDrive-td3combine-new-expt,85,64.18572639132996,18524,20,217.8916311264038,31.105693817138672,,5.340148448944092,0.0
13,MetaDrive-td3combine-new-expt,84,62.617252702502284,19166,22,227.89384388923645,26.496490478515625,,10.240938186645508,0.0
14,MetaDrive-td3combine-new-expt,81,64.0219698631936,20667,23,254.09588837623596,32.573211669921875,-32.22325134277344,1.903267502784729,0.0
15,MetaDrive-td3combine-new-expt,75,66.05328139574557,22168,24,293.8232433795929,30.12394905090332,,4.91962194442749,0.0
16,MetaDrive-td3combine-new-expt,73,66.26075137760837,23120,26,313.0059278011322,27.564491271972656,,3.0015289783477783,0.0
17,MetaDrive-td3combine-new-expt,72,65.47082164308111,24809,29,342.92295384407043,29.496936798095703,-30.483373641967773,2.8921589851379395,0.0
18,MetaDrive-td3combine-new-expt,72,65.9686958473373,26310,30,364.8783209323883,29.054428100585938,,5.209423542022705,0.0
19,MetaDrive-td3combine-new-expt,69,71.37898296414508,27811,31,398.98731422424316,27.605764389038086,-27.561477661132812,3.097492218017578,0.0
20,MetaDrive-td3combine-new-expt,69,72.57530263276564,29312,32,421.6257917881012,27.392305374145508,,1.600986361503601,0.0
21,MetaDrive-td3combine-new-expt,69,69.22073196035878,30034,34,435.2706871032715,29.34608268737793,,2.285604238510132,0.0
22,MetaDrive-td3combine-new-expt,67,71.49132064625267,31121,36,459.69093203544617,29.657976150512695,-29.917390823364258,3.7807493209838867,0.0
23,MetaDrive-td3combine-new-expt,67,72.39710271514892,32167,37,475.44430804252625,23.590885162353516,-23.820465087890625,5.19382905960083,0.0
24,MetaDrive-td3combine-new-expt,65,79.3038872817303,33668,38,512.4567606449127,24.024187088012695,,15.446603775024414,0.0
25,MetaDrive-td3combine-new-expt,65,77.60096263085318,34066,39,519.780412197113,27.15496063232422,,3.734834909439087,0.0
26,MetaDrive-td3combine-new-expt,64,78.53460638904811,35567,40,550.4493691921234,24.234893798828125,-24.533199310302734,6.237244606018066,0.0
27,MetaDrive-td3combine-new-expt,62,80.35456865181706,37324,42,592.6638283729553,22.09378433227539,,44.23187255859375,0.0
28,MetaDrive-td3combine-new-expt,62,79.36423754233255,39333,46,633.1039788722992,24.498981475830078,-24.08843231201172,5.124741554260254,0.0
29,MetaDrive-td3combine-new-expt,61,79.5686520658868,41007,48,661.8662483692169,22.527868270874023,-22.899761199951172,2.4287030696868896,0.0
30,MetaDrive-td3combine-new-expt,61,78.95533261261977,42618,50,690.3775606155396,22.337486267089844,,2.59999418258667,0.0
31,MetaDrive-td3combine-new-expt,61,78.85843590416899,44119,51,718.7161438465118,21.765064239501953,-21.83169174194336,2.3933494091033936,0.0
32,MetaDrive-td3combine-new-expt,61,82.3952144597459,45168,53,735.6003706455231,21.779190063476562,,1.885557770729065,0.0
33,MetaDrive-td3combine-new-expt,61,80.14981915774398,46160,57,752.9805586338043,20.71315574645996,,4.215763092041016,0.0
34,MetaDrive-td3combine-new-expt,61,80.90812346268265,47206,59,770.8853611946106,23.147247314453125,,4.964015483856201,0.0
35,MetaDrive-td3combine-new-expt,61,81.23937413326105,48707,60,792.9917912483215,21.832542419433594,-22.049713134765625,2.039213180541992,0.0
36,MetaDrive-td3combine-new-expt,61,81.35752744136177,49240,62,802.2022697925568,21.223363876342773,,2.4931044578552246,0.0
37,MetaDrive-td3combine-new-expt,61,85.03952870645442,50201,63,820.9510643482208,23.10222625732422,-23.400461196899414,1.4148938655853271,0.0
38,MetaDrive-td3combine-new-expt,61,86.79783540682348,51475,65,838.4681923389435,18.01879119873047,-17.478519439697266,7.111701488494873,0.0
39,MetaDrive-td3combine-new-expt,61,87.00456021400986,52053,67,849.2613468170166,17.860349655151367,-18.4837703704834,6.2256598472595215,0.0
40,MetaDrive-td3combine-new-expt,60,85.06389137561058,53001,70,871.173656463623,19.370960235595703,-19.132251739501953,4.151287078857422,0.0
41,MetaDrive-td3combine-new-expt,60,83.25999937687034,54496,74,900.955164194107,18.418426513671875,,2.359170436859131,0.0
42,MetaDrive-td3combine-new-expt,60,83.03482839376879,55084,76,911.2345585823059,18.45537567138672,,7.657331466674805,0.0
43,MetaDrive-td3combine-new-expt,60,83.15975057023024,56585,77,936.8842368125916,18.580394744873047,-18.500516891479492,4.890547752380371,0.0
44,MetaDrive-td3combine-new-expt,60,81.81203940680294,57129,80,944.8521385192871,17.455791473388672,-17.645479202270508,3.51495361328125,0.0
45,MetaDrive-td3combine-new-expt,60,82.79394840770435,58228,83,962.8370187282562,17.364551544189453,,5.961610794067383,0.0
46,MetaDrive-td3combine-new-expt,60,82.1737644054732,59872,85,996.850165605545,14.66088581085205,,5.062356948852539,0.0
47,MetaDrive-td3combine-new-expt,60,82.30822079614619,61373,86,1022.5096142292023,13.745841979980469,-13.457159042358398,5.705756664276123,0.0
48,MetaDrive-td3combine-new-expt,59,80.34805617135643,62024,90,1035.3532564640045,16.94996452331543,,26.607242584228516,0.0
49,MetaDrive-td3combine-new-expt,59,81.22107531712831,64271,92,1071.279392004013,15.753159523010254,-15.796302795410156,2.19966197013855,0.0
50,MetaDrive-td3combine-new-expt,59,79.16940457806204,65235,97,1090.7529394626617,15.400906562805176,-15.219429016113281,5.147385120391846,0.0
51,MetaDrive-td3combine-new-expt,59,77.23589455724368,66126,102,1104.2909154891968,15.906007766723633,,5.391427040100098,0.0
52,MetaDrive-td3combine-new-expt,59,76.14807109428617,67627,103,1135.7856118679047,15.902410507202148,-16.584789276123047,3.541351795196533,0.0
53,MetaDrive-td3combine-new-expt,59,77.40596939099544,69494,106,1170.2685487270355,16.26184844970703,,3.0254175662994385,0.0
54,MetaDrive-td3combine-new-expt,58,78.40046557882057,70995,107,1204.698558330536,12.687074661254883,-13.802127838134766,7.251559257507324,0.0
55,MetaDrive-td3combine-new-expt,58,77.95392473878007,71128,108,1206.5461447238922,16.142316818237305,,3.225321054458618,0.0
56,MetaDrive-td3combine-new-expt,59,78.49975697793768,73115,111,1238.4051823616028,12.279228210449219,-12.551377296447754,2.703416109085083,0.0
57,MetaDrive-td3combine-new-expt,58,80.1180499878675,75383,116,1287.6371521949768,17.24108123779297,-17.189865112304688,3.933046340942383,0.0
58,MetaDrive-td3combine-new-expt,58,81.23840133590028,76329,120,1302.0876264572144,13.751969337463379,-13.372282028198242,2.557168483734131,0.0
59,MetaDrive-td3combine-new-expt,58,80.72430514917511,77824,123,1331.0471518039703,12.80339527130127,,4.089371204376221,0.0
60,MetaDrive-td3combine-new-expt,58,80.65558409498267,78245,124,1337.6812372207642,14.374141693115234,-14.988354682922363,5.302314758300781,0.0
61,MetaDrive-td3combine-new-expt,58,79.68293818020935,79108,128,1351.0692791938782,13.190166473388672,,2.8478403091430664,0.0
62,MetaDrive-td3combine-new-expt,58,77.68273020073788,80014,134,1366.4166271686554,11.26975154876709,,2.8022377490997314,0.0
63,MetaDrive-td3combine-new-expt,58,74.8303429153563,81340,139,1396.8227961063385,12.901609420776367,,2.277808666229248,0.0
64,MetaDrive-td3combine-new-expt,58,72.49800157700122,82038,143,1407.2197749614716,10.281207084655762,,33.513282775878906,0.0
65,MetaDrive-td3combine-new-expt,58,72.36203181634647,83881,146,1443.0855424404144,9.83330249786377,-9.834853172302246,2.768176555633545,0.0
66,MetaDrive-td3combine-new-expt,58,72.36143295800751,84010,147,1444.9926927089691,11.342754364013672,,5.067276954650879,0.0
67,MetaDrive-td3combine-new-expt,58,71.37048656949479,85106,151,1462.6688477993011,11.143951416015625,,6.701062202453613,0.0
68,MetaDrive-td3combine-new-expt,57,69.36389208425547,86282,155,1491.0749909877777,11.811115264892578,,5.291203022003174,0.0
69,MetaDrive-td3combine-new-expt,57,67.26448199252056,87072,160,1503.2420489788055,13.920421600341797,,3.2776386737823486,0.0
70,MetaDrive-td3combine-new-expt,57,58.90282975621709,88070,168,1520.3498208522797,16.16278839111328,,3.7649147510528564,0.0
71,MetaDrive-td3combine-new-expt,57,59.29241560557689,89083,173,1536.0980887413025,10.537467956542969,-10.236146926879883,2.414937973022461,0.0
72,MetaDrive-td3combine-new-expt,57,59.12758159003244,91165,177,1577.9445004463196,14.923008918762207,-14.915515899658203,5.604224681854248,0.0
73,MetaDrive-td3combine-new-expt,57,57.46457752023547,93460,183,1622.0240075588226,12.321562767028809,,7.086864471435547,0.0
74,MetaDrive-td3combine-new-expt,57,57.1449519109414,94017,186,1629.1984379291534,12.953228950500488,-13.522979736328125,3.609992504119873,0.0
75,MetaDrive-td3combine-new-expt,57,57.34583897229829,95731,189,1659.0371725559235,12.35588264465332,-13.100436210632324,4.390025615692139,0.0
76,MetaDrive-td3combine-new-expt,57,60.06102390385735,96309,190,1666.6881589889526,11.34089469909668,-11.26003646850586,17.93480682373047,0.01
77,MetaDrive-td3combine-new-expt,57,59.487998450205374,98038,193,1695.8487644195557,15.447574615478516,,4.421166896820068,0.01
78,MetaDrive-td3combine-new-expt,57,61.57802162927278,99075,198,1713.9450838565826,12.609587669372559,-12.333602905273438,4.663732528686523,0.01
79,MetaDrive-td3combine-new-expt,57,61.40322771710037,100903,202,1765.7738449573517,13.363361358642578,-13.343523979187012,2.92791748046875,0.01
80,MetaDrive-td3combine-new-expt,57,61.79076388188937,101178,203,1769.3235702514648,14.14209270477295,,3.2617712020874023,0.01
81,MetaDrive-td3combine-new-expt,57,61.985686918428264,102096,206,1790.1933670043945,8.73748779296875,,2.9722602367401123,0.01
82,MetaDrive-td3combine-new-expt,56,60.494445353920284,104422,211,1836.842490196228,14.183527946472168,,3.9585506916046143,0.01
83,MetaDrive-td3combine-new-expt,56,60.811784299947455,105036,213,1846.1098897457123,13.601850509643555,,5.650325775146484,0.01
84,MetaDrive-td3combine-new-expt,56,60.961732578067,106537,214,1872.343156337738,11.929703712463379,-11.694726943969727,3.7686376571655273,0.01
85,MetaDrive-td3combine-new-expt,56,61.98363491487606,108038,215,1897.7789647579193,10.924134254455566,,4.760014533996582,0.01
86,MetaDrive-td3combine-new-expt,56,61.49959058886008,109663,217,1924.1646010875702,11.793251037597656,-12.45145034790039,2.842771053314209,0.01
87,MetaDrive-td3combine-new-expt,57,63.72337191536449,110568,218,1936.6496057510376,11.38726806640625,,9.08731460571289,0.01
88,MetaDrive-td3combine-new-expt,56,63.06499137440141,112420,220,1982.8436377048492,12.370527267456055,,3.4179704189300537,0.01
89,MetaDrive-td3combine-new-expt,56,63.906366407667576,113068,223,1995.830941915512,12.801530838012695,,2.6659908294677734,0.01
90,MetaDrive-td3combine-new-expt,56,64.74256751940096,114261,226,2013.5430438518524,10.904571533203125,-11.81763744354248,2.2295010089874268,0.01
91,MetaDrive-td3combine-new-expt,56,65.89038906729401,115040,229,2024.1571464538574,11.374944686889648,,3.2613134384155273,0.01
92,MetaDrive-td3combine-new-expt,56,67.97155891555839,116566,233,2050.009451150894,12.364788055419922,,2.985393524169922,0.02
93,MetaDrive-td3combine-new-expt,56,69.46239581200687,117069,234,2055.6608300209045,11.671119689941406,-11.843994140625,3.305267572402954,0.02
94,MetaDrive-td3combine-new-expt,56,69.59474383339722,118037,237,2072.9627826213837,13.73015308380127,-13.477296829223633,3.8002407550811768,0.02
95,MetaDrive-td3combine-new-expt,57,69.30957134916703,119563,240,2096.033525466919,13.32518196105957,-13.571728706359863,13.964937210083008,0.02
96,MetaDrive-td3combine-new-expt,57,69.43391902350444,120040,243,2104.3446385860443,11.14071273803711,,1.5568788051605225,0.02
97,MetaDrive-td3combine-new-expt,56,71.27211947248713,121171,246,2126.9221239089966,10.993173599243164,-10.456096649169922,8.005724906921387,0.02
98,MetaDrive-td3combine-new-expt,57,71.38319668723845,122187,249,2141.3856177330017,12.969120979309082,-13.646193504333496,2.3395097255706787,0.02
99,MetaDrive-td3combine-new-expt,57,73.2593269822147,123235,251,2160.247693300247,13.190126419067383,-13.127311706542969,5.531381130218506,0.02
100,MetaDrive-td3combine-new-expt,57,72.5228456297961,124046,256,2173.094081401825,11.174677848815918,,1.4333888292312622,0.02
101,MetaDrive-td3combine-new-expt,57,73.41400204510063,125114,260,2191.563559293747,12.147577285766602,,3.403724193572998,0.02
102,MetaDrive-td3combine-new-expt,57,76.85768965495184,126504,263,2212.617671251297,15.150371551513672,,3.7963619232177734,0.03
103,MetaDrive-td3combine-new-expt,57,77.08287597922659,127273,268,2226.1833987236023,11.835721969604492,-10.936687469482422,2.9955239295959473,0.03
104,MetaDrive-td3combine-new-expt,57,76.90183357589211,128025,273,2237.75670838356,15.057241439819336,-15.51119613647461,3.380841016769409,0.03
105,MetaDrive-td3combine-new-expt,57,76.44065505603612,129031,279,2252.239648580551,12.092720031738281,-12.116881370544434,4.788707733154297,0.03
106,MetaDrive-td3combine-new-expt,57,78.88235044089721,130006,281,2271.464113712311,14.124741554260254,,5.139586448669434,0.03
107,MetaDrive-td3combine-new-expt,57,80.83289923217998,131502,284,2298.7723581790924,13.532962799072266,,3.2580227851867676,0.03
108,MetaDrive-td3combine-new-expt,57,81.43562285069076,132227,287,2309.1370108127594,14.284774780273438,-14.128342628479004,2.1068294048309326,0.03
109,MetaDrive-td3combine-new-expt,57,82.16566365261293,133003,289,2327.1061556339264,13.25800895690918,-12.926461219787598,3.6600303649902344,0.03
110,MetaDrive-td3combine-new-expt,57,82.23931646823054,134319,292,2351.957500934601,15.163369178771973,-15.518171310424805,2.64837908744812,0.02
111,MetaDrive-td3combine-new-expt,57,80.14154372904618,135219,296,2367.189348936081,11.816770553588867,-12.349482536315918,7.254495620727539,0.02
112,MetaDrive-td3combine-new-expt,57,81.60784774236726,136015,300,2383.7430622577667,12.492793083190918,-12.025754928588867,3.1773681640625,0.02
113,MetaDrive-td3combine-new-expt,57,82.07224881093194,137516,301,2409.2748472690582,12.766398429870605,,4.627993583679199,0.02
114,MetaDrive-td3combine-new-expt,57,80.2069427847913,138086,304,2417.16423535347,17.597942352294922,,3.4383559226989746,0.02
115,MetaDrive-td3combine-new-expt,57,81.13096965084398,139001,308,2429.717678785324,11.141716957092285,-11.408037185668945,2.1842784881591797,0.02
116,MetaDrive-td3combine-new-expt,57,81.18717902793622,140502,309,2449.4511511325836,15.398481369018555,,3.242065191268921,0.02
117,MetaDrive-td3combine-new-expt,57,80.13612829757024,141104,312,2462.182693004608,11.835765838623047,,3.8843255043029785,0.02
118,MetaDrive-td3combine-new-expt,57,80.57173109406202,142081,315,2480.659099817276,13.016088485717773,-13.390141487121582,3.381723642349243,0.02
119,MetaDrive-td3combine-new-expt,57,78.76242104875404,143092,319,2496.860034227371,13.401070594787598,,2.3630266189575195,0.02
120,MetaDrive-td3combine-new-expt,57,79.39623093068461,144004,322,2512.8902344703674,15.47977066040039,,2.540628433227539,0.02
121,MetaDrive-td3combine-new-expt,57,78.84192758565308,145225,327,2538.9013199806213,11.939447402954102,-12.020503997802734,4.928826332092285,0.02
122,MetaDrive-td3combine-new-expt,57,79.12397481055523,146014,332,2550.5121240615845,14.656489372253418,,4.780237197875977,0.02
123,MetaDrive-td3combine-new-expt,57,77.74232208245945,147151,336,2568.0209863185883,11.610648155212402,-11.23959732055664,2.390268325805664,0.01
124,MetaDrive-td3combine-new-expt,57,78.22052469292363,148064,340,2580.9926838874817,11.66923713684082,,3.43082857131958,0.01
125,MetaDrive-td3combine-new-expt,57,81.49173862627643,149982,342,2610.0829813480377,12.244126319885254,,3.3129258155822754,0.02
126,MetaDrive-td3combine-new-expt,57,82.97129353986585,150436,343,2621.5276923179626,14.555512428283691,,3.904212474822998,0.02
127,MetaDrive-td3combine-new-expt,57,84.16048464308506,151028,344,2631.155859231949,11.537910461425781,,1.768508791923523,0.02
128,MetaDrive-td3combine-new-expt,57,82.26340035608507,152080,349,2648.5680599212646,12.31655502319336,,3.5223145484924316,0.02
129,MetaDrive-td3combine-new-expt,57,81.29649670891459,153039,354,2662.711416244507,13.457608222961426,-13.39211654663086,4.3239922523498535,0.02
130,MetaDrive-td3combine-new-expt,57,84.1490006898767,154501,359,2686.626572370529,14.627647399902344,-15.236305236816406,4.075908660888672,0.02
131,MetaDrive-td3combine-new-expt,57,82.80196013357437,156495,363,2718.851177215576,13.650352478027344,-14.20857048034668,3.4634852409362793,0.01
132,MetaDrive-td3combine-new-expt,57,83.79442523328987,157014,365,2728.125245809555,16.024621963500977,,3.767066478729248,0.01
133,MetaDrive-td3combine-new-expt,57,86.70011818028244,158056,368,2747.5783021450043,15.221915245056152,,3.913917064666748,0.01
134,MetaDrive-td3combine-new-expt,57,87.87277557446934,159039,375,2765.353345632553,12.713085174560547,-12.656453132629395,4.346630096435547,0.01
135,MetaDrive-td3combine-new-expt,57,89.1041086720704,161384,379,2804.6089329719543,14.950456619262695,,1.7975627183914185,0.01
136,MetaDrive-td3combine-new-expt,57,88.0440234233503,162115,381,2820.4932527542114,13.922121047973633,-13.834318161010742,4.56682014465332,0.01
137,MetaDrive-td3combine-new-expt,57,86.21700172314827,163047,386,2840.739278078079,16.828115463256836,-16.923992156982422,5.7230095863342285,0.01
138,MetaDrive-td3combine-new-expt,57,83.33621661858935,164041,391,2859.9008255004883,20.73249053955078,-21.714027404785156,3.6451992988586426,0.01
139,MetaDrive-td3combine-new-expt,57,83.25277328893856,165009,397,2871.926831960678,15.777912139892578,-16.189926147460938,3.7887508869171143,0.01
140,MetaDrive-td3combine-new-expt,57,85.04256797457013,166138,401,2890.962456226349,14.976646423339844,,1.9181458950042725,0.01
141,MetaDrive-td3combine-new-expt,57,84.9092519267832,167052,405,2906.8127880096436,17.693801879882812,,3.1920719146728516,0.01
142,MetaDrive-td3combine-new-expt,57,85.49103529508189,168289,412,2926.5493845939636,16.380451202392578,-16.038673400878906,2.072155475616455,0.01
143,MetaDrive-td3combine-new-expt,57,83.94529512315111,169172,417,2943.1418805122375,16.52576446533203,,4.784873962402344,0.01
144,MetaDrive-td3combine-new-expt,57,82.18138946673322,170002,423,2957.4059319496155,17.43842124938965,,1.989446759223938,0.01
145,MetaDrive-td3combine-new-expt,57,79.00335731455345,171032,431,2973.5148317813873,10.936319351196289,,1.8669660091400146,0.01
146,MetaDrive-td3combine-new-expt,57,77.9748375830828,172064,436,2995.7178149223328,16.29278564453125,,4.584179878234863,0.01
147,MetaDrive-td3combine-new-expt,57,77.0605440647439,173106,440,3012.764727115631,14.903217315673828,,2.641244888305664,0.01
148,MetaDrive-td3combine-new-expt,57,69.27234030603786,174209,447,3030.1883919239044,15.313545227050781,-15.327655792236328,2.2210988998413086,0.0
149,MetaDrive-td3combine-new-expt,57,68.94901565238388,175092,451,3045.246346473694,13.690869331359863,,3.3016443252563477,0.0
150,MetaDrive-td3combine-new-expt,57,69.55628968520898,176029,455,3062.286471605301,16.200130462646484,-17.054325103759766,2.895310878753662,0.0
151,MetaDrive-td3combine-new-expt,57,67.37783556483183,177006,460,3078.700492143631,16.260093688964844,,3.379765272140503,0.0
152,MetaDrive-td3combine-new-expt,57,62.78951826368424,178092,468,3094.657657623291,14.994550704956055,,3.197510004043579,0.0
153,MetaDrive-td3combine-new-expt,57,63.54311701486145,179248,474,3113.581130504608,15.738455772399902,,4.854267597198486,0.0
154,MetaDrive-td3combine-new-expt,57,60.256613398062065,180173,480,3130.789674758911,16.706743240356445,-17.497953414916992,2.8022215366363525,0.0
155,MetaDrive-td3combine-new-expt,57,60.34876495208595,181187,484,3151.880813598633,14.796087265014648,-14.419753074645996,2.2399845123291016,0.0
156,MetaDrive-td3combine-new-expt,57,59.807146656221796,182022,490,3164.855173110962,16.380882263183594,,2.7997026443481445,0.0
157,MetaDrive-td3combine-new-expt,57,62.118663598570926,183191,495,3184.5628645420074,16.91359519958496,-17.366928100585938,3.2112526893615723,0.0
158,MetaDrive-td3combine-new-expt,57,59.06064536659865,184173,500,3198.177117586136,17.571205139160156,-18.18022918701172,2.7790937423706055,0.0
159,MetaDrive-td3combine-new-expt,57,59.282873841473766,185123,503,3215.7430379390717,16.15375328063965,-16.343685150146484,2.225940227508545,0.0
160,MetaDrive-td3combine-new-expt,57,59.694908097605186,186074,509,3233.232500076294,15.810453414916992,,3.6989846229553223,0.0
161,MetaDrive-td3combine-new-expt,57,55.7319147112931,187023,518,3249.1796638965607,18.91236114501953,-19.16746711730957,2.5414459705352783,0.0
162,MetaDrive-td3combine-new-expt,57,54.37999017223471,188069,526,3266.775017976761,15.550775527954102,-16.047992706298828,5.764805316925049,0.0
163,MetaDrive-td3combine-new-expt,57,57.52334403657807,189437,532,3283.1120948791504,17.443212509155273,-17.63678741455078,2.5758461952209473,0.0
164,MetaDrive-td3combine-new-expt,57,57.33139095405681,190168,536,3301.239336013794,16.606525421142578,,3.984160900115967,0.0
165,MetaDrive-td3combine-new-expt,57,57.704222415804736,191008,540,3318.4579825401306,16.618305206298828,,4.205896377563477,0.0
166,MetaDrive-td3combine-new-expt,57,58.83589364275977,192056,547,3335.967139482498,18.605667114257812,,5.054953575134277,0.0
167,MetaDrive-td3combine-new-expt,57,60.52386454905874,193133,552,3351.0842328071594,22.35269546508789,-22.724071502685547,2.4835622310638428,0.0
168,MetaDrive-td3combine-new-expt,57,64.46063387229411,195030,557,3384.993619441986,19.380653381347656,,3.939207077026367,0.01
169,MetaDrive-td3combine-new-expt,57,64.41826248318488,196166,563,3406.233918905258,17.165834426879883,,2.556530475616455,0.01
170,MetaDrive-td3combine-new-expt,57,63.17608940471443,197126,569,3420.8187968730927,15.641633987426758,,2.4703402519226074,0.01
171,MetaDrive-td3combine-new-expt,57,67.30585197398027,198213,571,3436.7761516571045,16.98456573486328,-17.23568344116211,1.944403052330017,0.02
172,MetaDrive-td3combine-new-expt,57,69.88737737799633,199165,574,3451.2179024219513,16.870264053344727,-16.767162322998047,3.8835113048553467,0.03
173,MetaDrive-td3combine-new-expt,57,71.41191060153527,200065,578,3464.8955960273743,19.53528594970703,-20.561534881591797,4.525938510894775,0.03
174,MetaDrive-td3combine-new-expt,57,74.76465695811262,201360,581,3491.9530482292175,18.460556030273438,,28.72967529296875,0.03
175,MetaDrive-td3combine-new-expt,57,77.99783668769138,202192,583,3504.02840924263,19.539907455444336,,5.156686305999756,0.04
176,MetaDrive-td3combine-new-expt,57,78.69615353760581,203052,586,3517.8159551620483,19.498363494873047,,2.7150073051452637,0.04
177,MetaDrive-td3combine-new-expt,57,81.82030856482996,204160,589,3538.275792837143,17.632732391357422,,3.191134452819824,0.04
178,MetaDrive-td3combine-new-expt,57,80.24234500825266,205017,595,3553.319654941559,18.55253791809082,-18.683094024658203,3.1379871368408203,0.04
179,MetaDrive-td3combine-new-expt,57,80.855695662498,206155,600,3574.2108302116394,20.77226448059082,-21.56077003479004,4.747960090637207,0.04
180,MetaDrive-td3combine-new-expt,57,79.94508674130715,207053,604,3589.2354924678802,19.532106399536133,-19.61498260498047,2.077566623687744,0.04
181,MetaDrive-td3combine-new-expt,57,81.09616409398838,208049,609,3602.833052635193,20.345661163330078,-20.131805419921875,1.7639636993408203,0.04
182,MetaDrive-td3combine-new-expt,57,83.30285514810461,209075,614,3622.770452260971,18.932607650756836,-19.594791412353516,2.260796546936035,0.04
183,MetaDrive-td3combine-new-expt,57,84.27907727161131,210059,620,3638.924873352051,20.87586784362793,-20.569561004638672,17.3846492767334,0.04
184,MetaDrive-td3combine-new-expt,57,86.95704074532739,211290,625,3657.376407623291,21.028921127319336,,3.8277692794799805,0.04
185,MetaDrive-td3combine-new-expt,57,89.49500768377604,212364,629,3675.88454580307,18.55072784423828,,2.333977222442627,0.04
186,MetaDrive-td3combine-new-expt,57,87.80304837511738,213037,633,3685.471960067749,16.216129302978516,-16.2630615234375,2.3192124366760254,0.04
187,MetaDrive-td3combine-new-expt,57,87.27878541013933,214116,638,3707.8122141361237,17.050765991210938,,3.2374417781829834,0.04
188,MetaDrive-td3combine-new-expt,57,88.6346965749629,215019,643,3722.6486308574677,19.32935333251953,-19.600971221923828,3.930222988128662,0.04
189,MetaDrive-td3combine-new-expt,57,88.87577187001891,216373,649,3743.0917205810547,18.713178634643555,-19.276866912841797,2.86073637008667,0.04
190,MetaDrive-td3combine-new-expt,57,88.6990999295247,217056,653,3754.1557092666626,18.140106201171875,,2.921088695526123,0.04
191,MetaDrive-td3combine-new-expt,57,84.30709376803969,219097,658,3778.0574531555176,18.710966110229492,-18.439260482788086,4.202853202819824,0.03
192,MetaDrive-td3combine-new-expt,57,84.50228871066379,220004,664,3795.0649144649506,17.930742263793945,,2.127081871032715,0.03
193,MetaDrive-td3combine-new-expt,58,82.02255626323009,221174,672,3812.537868499756,19.614849090576172,,1.9574649333953857,0.02
194,MetaDrive-td3combine-new-expt,57,80.86741440936737,222226,676,3832.7086889743805,18.829566955566406,,2.3766250610351562,0.01
195,MetaDrive-td3combine-new-expt,58,81.86445749306253,223015,679,3843.094792366028,19.134660720825195,-19.50697135925293,4.587984085083008,0.02
196,MetaDrive-td3combine-new-expt,58,76.06282769211572,224095,685,3860.561802625656,18.82342529296875,-18.98391342163086,3.0625529289245605,0.01
197,MetaDrive-td3combine-new-expt,58,72.77683100067388,225176,690,3881.9981701374054,20.886714935302734,,5.087699890136719,0.01
198,MetaDrive-td3combine-new-expt,57,74.47585577977823,226103,693,3899.0173552036285,20.373516082763672,-20.58254623413086,6.95529842376709,0.01
199,MetaDrive-td3combine-new-expt,57,75.53577368773031,227071,698,3916.2098100185394,17.86330795288086,-18.3027286529541,3.4561572074890137,0.01
200,MetaDrive-td3combine-new-expt,58,77.78125891938181,228224,701,3931.9400696754456,20.08445167541504,,6.203141689300537,0.01
201,MetaDrive-td3combine-new-expt,58,77.25531666283459,229090,706,3945.5492372512817,17.555252075195312,,3.118997812271118,0.01
202,MetaDrive-td3combine-new-expt,58,79.30985000622314,230150,709,3962.6060123443604,16.472919464111328,,2.3055012226104736,0.01
203,MetaDrive-td3combine-new-expt,58,80.8617463406891,231054,712,3975.5832726955414,20.427406311035156,,3.4641873836517334,0.01
204,MetaDrive-td3combine-new-expt,58,81.82887831997634,232050,716,3992.7100007534027,17.72861671447754,,2.3959336280822754,0.01
205,MetaDrive-td3combine-new-expt,58,83.31116121131126,233077,721,4009.9931449890137,20.61306381225586,-21.160099029541016,7.263121604919434,0.01
206,MetaDrive-td3combine-new-expt,58,82.40414097792525,234170,727,4025.066956758499,21.7047119140625,,1.9346680641174316,0.01
207,MetaDrive-td3combine-new-expt,58,80.07794445891399,235052,733,4035.9969189167023,17.285675048828125,,2.7108139991760254,0.01
208,MetaDrive-td3combine-new-expt,58,81.39289386757534,236079,738,4051.2356486320496,18.00713348388672,-18.00028419494629,1.9406312704086304,0.01
209,MetaDrive-td3combine-new-expt,58,82.86714093379983,237017,742,4067.4792742729187,18.372520446777344,-19.05010414123535,2.3290810585021973,0.01
210,MetaDrive-td3combine-new-expt,58,85.36858172955166,238014,744,4085.175152540207,20.60909080505371,,7.75794792175293,0.01
211,MetaDrive-td3combine-new-expt,58,84.58894341771332,239130,750,4101.442008972168,19.709882736206055,,1.7263606786727905,0.01
212,MetaDrive-td3combine-new-expt,58,85.84300593655854,240110,753,4117.924490690231,19.876358032226562,,4.260774612426758,0.01
213,MetaDrive-td3combine-new-expt,58,88.65070602153386,241100,756,4136.659072637558,21.902305603027344,,5.533873558044434,0.01
214,MetaDrive-td3combine-new-expt,58,91.05790584882219,242409,761,4157.287727832794,19.216894149780273,-19.97783851623535,18.442222595214844,0.02
215,MetaDrive-td3combine-new-expt,58,92.65558478515253,243055,763,4165.224656820297,20.563573837280273,-20.751529693603516,25.448585510253906,0.02
216,MetaDrive-td3combine-new-expt,58,92.94359737643644,244019,769,4181.876000165939,19.92885971069336,-19.45706558227539,2.18218994140625,0.02
217,MetaDrive-td3combine-new-expt,58,94.46874236391815,245081,773,4203.330047369003,17.462291717529297,-17.80368423461914,3.706613302230835,0.02
218,MetaDrive-td3combine-new-expt,58,92.25478292919136,246277,780,4219.865936994553,24.004419326782227,-23.976200103759766,5.817459583282471,0.01
219,MetaDrive-td3combine-new-expt,58,94.26674872356865,247091,783,4232.205312013626,20.435672760009766,-20.628923416137695,5.110409736633301,0.02
220,MetaDrive-td3combine-new-expt,58,95.91566922763826,248029,787,4246.799170017242,23.98923110961914,-23.694217681884766,2.166003704071045,0.02
221,MetaDrive-td3combine-new-expt,58,94.64208968220758,249072,793,4265.001266002655,19.383342742919922,,8.618080139160156,0.02
222,MetaDrive-td3combine-new-expt,58,94.39342743548352,250065,798,4284.566071271896,18.165822982788086,-17.897319793701172,3.355879783630371,0.02
223,MetaDrive-td3combine-new-expt,58,93.23608919718725,251039,802,4300.839285135269,19.563568115234375,-19.521312713623047,4.178817272186279,0.02
224,MetaDrive-td3combine-new-expt,58,90.81197969299136,252016,809,4313.998540878296,22.311969757080078,,3.059410333633423,0.02
225,MetaDrive-td3combine-new-expt,58,91.12930832947876,253162,815,4327.3214864730835,22.279319763183594,,4.037750244140625,0.02
226,MetaDrive-td3combine-new-expt,58,89.1652699868626,254019,821,4342.69217467308,19.399965286254883,-19.829721450805664,2.4359238147735596,0.02
227,MetaDrive-td3combine-new-expt,58,88.24025709649159,255203,829,4360.363283395767,20.314590454101562,-20.580001831054688,2.1384212970733643,0.02
228,MetaDrive-td3combine-new-expt,58,89.55106187488458,256005,834,4374.018441438675,22.802871704101562,-22.900741577148438,6.204431533813477,0.02
229,MetaDrive-td3combine-new-expt,58,88.28110013109732,257039,840,4391.050454616547,19.805072784423828,-19.90658950805664,2.466935157775879,0.02
230,MetaDrive-td3combine-new-expt,58,85.18309206470538,258053,846,4406.505341529846,19.250774383544922,-18.92767333984375,1.8118062019348145,0.02
231,MetaDrive-td3combine-new-expt,58,83.18844970846426,259009,853,4422.320893526077,20.075523376464844,-20.54587173461914,2.3730530738830566,0.02
232,MetaDrive-td3combine-new-expt,58,82.96818161929221,260114,859,4440.565915107727,20.396501541137695,,2.3924200534820557,0.02
233,MetaDrive-td3combine-new-expt,58,80.2517429585048,261066,862,4459.259640455246,19.031444549560547,,1.0692017078399658,0.01
234,MetaDrive-td3combine-new-expt,58,80.72290007122811,262019,868,4474.833087921143,19.09954071044922,-18.779659271240234,5.056436538696289,0.01
235,MetaDrive-td3combine-new-expt,58,80.64039008692069,263056,873,4490.438166379929,19.96651840209961,,6.479687690734863,0.01
236,MetaDrive-td3combine-new-expt,58,82.44655461783441,264024,878,4507.14008140564,19.537790298461914,,3.7460975646972656,0.01
237,MetaDrive-td3combine-new-expt,58,81.87111503428025,265103,882,4521.226857185364,20.72043228149414,-20.65777015686035,2.2716476917266846,0.0
238,MetaDrive-td3combine-new-expt,58,83.90489751545779,266074,886,4533.530560731888,20.874526977539062,,3.1372241973876953,0.0
239,MetaDrive-td3combine-new-expt,58,84.24903936645602,267232,891,4556.748033285141,21.560501098632812,,1.8052421808242798,0.0
240,MetaDrive-td3combine-new-expt,58,84.04840685247062,268012,896,4569.60461306572,20.171398162841797,,4.627530097961426,0.0
241,MetaDrive-td3combine-new-expt,58,83.64118366068207,269217,903,4587.702487945557,24.084537506103516,-23.92334747314453,2.5684080123901367,0.0
242,MetaDrive-td3combine-new-expt,58,85.89901378869834,270063,906,4599.65807890892,20.608938217163086,-20.682090759277344,2.8737704753875732,0.0
243,MetaDrive-td3combine-new-expt,58,85.97626008201003,271255,912,4616.299870252609,21.448583602905273,-21.442981719970703,1.9147589206695557,0.0
244,MetaDrive-td3combine-new-expt,58,86.4193517647496,272049,915,4630.875697135925,20.55910873413086,-20.22660255432129,1.6473174095153809,0.0
245,MetaDrive-td3combine-new-expt,58,88.19203630201483,273064,920,4647.148486614227,19.499011993408203,,3.8176112174987793,0.0
246,MetaDrive-td3combine-new-expt,58,89.8057569610326,274178,925,4665.75510931015,22.674236297607422,,1.8709018230438232,0.0
247,MetaDrive-td3combine-new-expt,58,92.58898289959247,275481,930,4689.263766050339,19.89728546142578,-19.460777282714844,2.982616662979126,0.01
248,MetaDrive-td3combine-new-expt,58,94.00998639235173,276139,934,4700.512522935867,21.762176513671875,-22.03091049194336,2.8017754554748535,0.01
249,MetaDrive-td3combine-new-expt,58,93.8175554545823,277247,941,4716.438182592392,18.280933380126953,-18.194046020507812,8.419317245483398,0.01
250,MetaDrive-td3combine-new-expt,58,93.80582816744717,278012,945,4727.401378631592,23.82895278930664,,1.453686237335205,0.01
251,MetaDrive-td3combine-new-expt,58,95.83206622957998,279085,950,4744.403603792191,21.013004302978516,-21.235258102416992,1.9675471782684326,0.01
252,MetaDrive-td3combine-new-expt,58,96.60234086540848,280011,957,4757.485823869705,21.602088928222656,-21.444839477539062,7.677332878112793,0.01
253,MetaDrive-td3combine-new-expt,58,97.56609529236962,281497,961,4783.092066287994,20.687259674072266,-20.259784698486328,3.3109612464904785,0.01
254,MetaDrive-td3combine-new-expt,58,99.3955811043164,282355,963,4798.378668546677,20.708423614501953,-21.05977439880371,5.480555057525635,0.02
255,MetaDrive-td3combine-new-expt,58,98.23613018295406,283006,968,4808.5591559410095,23.02197265625,,2.9822537899017334,0.02
256,MetaDrive-td3combine-new-expt,58,95.63284049629685,284082,976,4825.542567253113,22.652587890625,,3.171773910522461,0.02
257,MetaDrive-td3combine-new-expt,58,92.52188584529893,285088,983,4841.416489362717,20.535648345947266,,5.06834602355957,0.02
258,MetaDrive-td3combine-new-expt,58,89.38334483757734,286091,990,4856.894079685211,20.75007438659668,-20.903392791748047,2.959184169769287,0.02
259,MetaDrive-td3combine-new-expt,58,92.18417389583453,287311,993,4875.031316995621,22.061656951904297,-22.345462799072266,5.800021171569824,0.04
260,MetaDrive-td3combine-new-expt,58,93.08797361136652,288088,997,4886.76854133606,17.982311248779297,,2.4015278816223145,0.04
261,MetaDrive-td3combine-new-expt,59,92.08747451607846,289770,1000,4905.077381134033,21.69856071472168,,2.956995725631714,0.04
262,MetaDrive-td3combine-new-expt,59,92.19885155807896,290165,1002,4912.628358840942,22.407278060913086,-22.3411808013916,2.0395421981811523,0.04
263,MetaDrive-td3combine-new-expt,59,91.81737611029526,291077,1006,4927.909925460815,22.121501922607422,-22.721302032470703,2.1902549266815186,0.04
264,MetaDrive-td3combine-new-expt,59,91.45423779680206,292141,1012,4945.637203216553,21.811649322509766,-21.963172912597656,1.9684524536132812,0.04
265,MetaDrive-td3combine-new-expt,59,92.62499950641444,293001,1015,4960.788957595825,21.033100128173828,-21.35328483581543,5.770540237426758,0.04
266,MetaDrive-td3combine-new-expt,59,91.24764411352197,294045,1022,4978.885272502899,22.340251922607422,-22.49742317199707,2.4926881790161133,0.04
267,MetaDrive-td3combine-new-expt,59,86.83487699617132,295347,1030,5004.316220521927,23.168621063232422,-23.6505126953125,4.783308506011963,0.03
268,MetaDrive-td3combine-new-expt,59,86.96588457163605,296095,1035,5014.426834821701,21.326969146728516,-21.0585994720459,3.9845340251922607,0.03
269,MetaDrive-td3combine-new-expt,59,86.3456994117333,297095,1043,5029.025853872299,23.564769744873047,-24.294612884521484,3.3297743797302246,0.03
270,MetaDrive-td3combine-new-expt,59,85.66434666921101,298163,1049,5049.819432258606,19.52010726928711,-19.567459106445312,2.2929840087890625,0.03
271,MetaDrive-td3combine-new-expt,59,84.07202303330483,299149,1055,5065.947208881378,21.01554298400879,-21.409223556518555,3.173651695251465,0.03
272,MetaDrive-td3combine-new-expt,59,81.1637460248657,300155,1061,5082.967149972916,22.202865600585938,-22.379314422607422,1.9836747646331787,0.03
273,MetaDrive-td3combine-new-expt,59,79.92968393827556,301034,1066,5095.221850156784,20.85619354248047,,3.5024375915527344,0.02
274,MetaDrive-td3combine-new-expt,59,79.9664133658894,302049,1073,5111.416661500931,26.23373031616211,-26.49732780456543,2.9021482467651367,0.02
275,MetaDrive-td3combine-new-expt,59,80.32999220463441,303099,1081,5128.767652273178,21.267375946044922,-21.893442153930664,8.579751014709473,0.02
276,MetaDrive-td3combine-new-expt,59,79.2559585748099,304048,1089,5145.585108757019,22.313980102539062,,1.7354893684387207,0.02
277,MetaDrive-td3combine-new-expt,59,75.00634963445547,305117,1097,5161.652275085449,23.487831115722656,-23.258691787719727,5.430254936218262,0.0
278,MetaDrive-td3combine-new-expt,59,75.79758648713754,306092,1102,5182.001029253006,23.493452072143555,,2.561703681945801,0.0
279,MetaDrive-td3combine-new-expt,59,76.69993924768579,307272,1106,5203.693209886551,22.506549835205078,,2.848511219024658,0.0
280,MetaDrive-td3combine-new-expt,59,74.41331513156717,308058,1113,5219.427629470825,21.70185089111328,,13.179186820983887,0.0
281,MetaDrive-td3combine-new-expt,59,71.49500146724503,309075,1119,5236.007392644882,22.368009567260742,-22.26317596435547,2.6750173568725586,0.0
282,MetaDrive-td3combine-new-expt,59,72.85283711159808,310031,1124,5248.544054508209,21.75029182434082,-22.436260223388672,2.463639974594116,0.0
283,MetaDrive-td3combine-new-expt,59,70.98621514836373,311067,1133,5267.657044172287,22.116374969482422,-21.86711883544922,2.3960814476013184,0.0
284,MetaDrive-td3combine-new-expt,59,72.19748419727632,312029,1139,5280.331584215164,23.31406593322754,-23.572872161865234,2.0739223957061768,0.0
285,MetaDrive-td3combine-new-expt,59,73.65926557398903,313071,1144,5293.610287189484,22.332143783569336,-22.427528381347656,4.341357231140137,0.0
286,MetaDrive-td3combine-new-expt,59,73.68572552755862,314020,1150,5308.545088768005,22.04180908203125,,2.237356185913086,0.0
287,MetaDrive-td3combine-new-expt,59,74.05235423763138,315075,1157,5325.749825000763,22.71857452392578,-22.816669464111328,3.43330454826355,0.0
288,MetaDrive-td3combine-new-expt,59,71.10919697292984,316006,1164,5341.315913200378,21.099849700927734,,7.472967624664307,0.0
289,MetaDrive-td3combine-new-expt,59,71.06646701475661,317039,1172,5354.325377941132,20.09716033935547,-19.93939208984375,4.3263750076293945,0.0
290,MetaDrive-td3combine-new-expt,59,70.03542916523863,318112,1181,5372.518727064133,19.473979949951172,,2.344198703765869,0.0
291,MetaDrive-td3combine-new-expt,59,71.63270603419681,319090,1186,5385.82502746582,22.805522918701172,,22.020488739013672,0.0
292,MetaDrive-td3combine-new-expt,59,70.69279814432394,320006,1195,5401.560555934906,24.157079696655273,,2.0747056007385254,0.0
293,MetaDrive-td3combine-new-expt,59,68.55429136736983,321025,1203,5416.391715288162,26.221254348754883,-25.965866088867188,6.909548759460449,0.0
294,MetaDrive-td3combine-new-expt,59,66.83885033521489,322101,1211,5432.498942375183,21.091394424438477,-21.635364532470703,11.27279281616211,0.0
295,MetaDrive-td3combine-new-expt,59,67.31995160583375,323057,1217,5451.701639652252,19.654130935668945,-19.582908630371094,3.9398810863494873,0.0
296,MetaDrive-td3combine-new-expt,59,68.17727715621434,324128,1222,5467.561775445938,21.289714813232422,,4.421145439147949,0.01
297,MetaDrive-td3combine-new-expt,59,69.85426408326087,325412,1229,5491.464760541916,22.710895538330078,,3.027514696121216,0.01
298,MetaDrive-td3combine-new-expt,59,71.93661525325409,326077,1232,5501.5810878276825,25.896854400634766,-26.38003158569336,2.5672974586486816,0.01
299,MetaDrive-td3combine-new-expt,59,70.564439060774,327093,1241,5517.405907869339,24.896865844726562,-24.95442008972168,4.117748260498047,0.01
300,MetaDrive-td3combine-new-expt,59,71.71724464927497,328032,1245,5536.741127252579,23.399085998535156,,4.264523506164551,0.01
301,MetaDrive-td3combine-new-expt,59,72.63054958501102,329101,1250,5555.883815765381,24.947124481201172,-24.972881317138672,7.532829284667969,0.01
302,MetaDrive-td3combine-new-expt,59,72.72612011154604,330090,1257,5572.4896149635315,25.524662017822266,,2.686389923095703,0.01
303,MetaDrive-td3combine-new-expt,59,73.90671654199802,331106,1265,5590.954623699188,22.40994644165039,,4.544316291809082,0.01
304,MetaDrive-td3combine-new-expt,59,74.96006318117568,332211,1270,5609.171951293945,22.02342987060547,-22.420978546142578,2.4683544635772705,0.01
305,MetaDrive-td3combine-new-expt,59,74.75703370169748,333008,1275,5618.888785600662,21.94232177734375,,2.263010025024414,0.01
306,MetaDrive-td3combine-new-expt,59,76.73282405089839,334041,1282,5636.042945861816,23.611909866333008,-23.845727920532227,2.196244716644287,0.01
307,MetaDrive-td3combine-new-expt,59,76.1258767702742,335095,1290,5650.9571442604065,21.381759643554688,-21.67226791381836,3.4810891151428223,0.01
308,MetaDrive-td3combine-new-expt,59,77.47626318166382,336003,1296,5666.872815608978,24.87606430053711,-24.715730667114258,5.15983772277832,0.01
309,MetaDrive-td3combine-new-expt,59,78.42700500374457,337313,1305,5686.5621910095215,21.68573570251465,-22.204198837280273,7.402514457702637,0.01
310,MetaDrive-td3combine-new-expt,59,79.16008466089512,338077,1310,5697.586266994476,20.29189682006836,-20.244579315185547,1.9599841833114624,0.01
311,MetaDrive-td3combine-new-expt,59,76.49800268592264,339050,1318,5711.866175413132,24.604015350341797,,3.435445785522461,0.01
312,MetaDrive-td3combine-new-expt,59,73.64329849039818,340097,1328,5729.639108419418,22.719921112060547,-23.22949981689453,2.3687329292297363,0.0
313,MetaDrive-td3combine-new-expt,59,73.59753576526175,341207,1332,5744.637200117111,20.608545303344727,-21.046567916870117,32.20268249511719,0.01
314,MetaDrive-td3combine-new-expt,59,78.43323277834801,342392,1335,5760.87344455719,21.246793746948242,,1.9116147756576538,0.03
315,MetaDrive-td3combine-new-expt,59,78.62197568069743,343028,1339,5771.88148355484,20.0670166015625,,5.847391605377197,0.03
316,MetaDrive-td3combine-new-expt,59,72.62756087579226,344036,1349,5786.360620737076,23.379364013671875,,26.834470748901367,0.03
317,MetaDrive-td3combine-new-expt,59,72.25008039903517,345087,1357,5802.332634925842,24.732397079467773,-25.919795989990234,6.384140968322754,0.03
318,MetaDrive-td3combine-new-expt,59,72.61594459593603,346245,1365,5819.08104968071,22.5927734375,-23.090620040893555,6.819082260131836,0.03
319,MetaDrive-td3combine-new-expt,59,72.25591943431402,347116,1370,5830.37110042572,25.59566879272461,,9.004253387451172,0.03
320,MetaDrive-td3combine-new-expt,59,75.16294915150502,348410,1375,5848.7077786922455,23.873212814331055,,51.789649963378906,0.04
321,MetaDrive-td3combine-new-expt,59,74.12355081769633,349037,1380,5857.812824487686,21.42234992980957,-21.17394256591797,23.6208553314209,0.04
322,MetaDrive-td3combine-new-expt,59,73.2626773766466,350060,1388,5876.62366104126,20.330204010009766,,4.532880783081055,0.04
323,MetaDrive-td3combine-new-expt,59,74.86914805766129,351343,1396,5894.942472696304,24.877613067626953,-25.4909725189209,4.099696159362793,0.04
324,MetaDrive-td3combine-new-expt,59,75.5662318114818,352046,1401,5905.970598936081,25.551856994628906,,1.641498327255249,0.04
325,MetaDrive-td3combine-new-expt,59,75.70198767243862,353049,1407,5921.702065944672,24.271549224853516,-24.92467498779297,4.99836540222168,0.04
326,MetaDrive-td3combine-new-expt,59,77.82543756112791,354125,1412,5941.824287414551,21.570045471191406,-22.063390731811523,4.41756534576416,0.04
327,MetaDrive-td3combine-new-expt,59,78.62469082584252,355019,1418,5955.872787237167,23.448699951171875,-23.83180046081543,2.582185745239258,0.04
328,MetaDrive-td3combine-new-expt,59,80.34138042371497,356068,1425,5971.755587100983,24.18950080871582,,4.917737007141113,0.04
329,MetaDrive-td3combine-new-expt,59,79.29675637342362,357090,1430,5986.570415973663,20.26678466796875,,6.878582954406738,0.03
330,MetaDrive-td3combine-new-expt,59,76.21700562555395,358017,1435,6000.8932139873505,23.23120880126953,-23.075889587402344,8.942075729370117,0.01
331,MetaDrive-td3combine-new-expt,59,76.92673266119009,359196,1444,6020.5806183815,24.941505432128906,,2.7641377449035645,0.01
332,MetaDrive-td3combine-new-expt,59,78.69433694342457,360163,1450,6036.986864328384,23.265663146972656,-23.140071868896484,5.664304733276367,0.01
333,MetaDrive-td3combine-new-expt,59,80.03369884444406,361081,1455,6051.915716648102,25.211978912353516,-25.413450241088867,6.990943431854248,0.01
334,MetaDrive-td3combine-new-expt,59,83.07310458221697,362230,1460,6070.895245552063,23.08663558959961,,2.1687369346618652,0.02
335,MetaDrive-td3combine-new-expt,59,85.75660563387936,363090,1464,6086.730068206787,22.779590606689453,,10.717395782470703,0.02
336,MetaDrive-td3combine-new-expt,59,86.53459339182679,364409,1470,6104.6936819553375,19.74551010131836,-20.033275604248047,4.705814361572266,0.03
337,MetaDrive-td3combine-new-expt,59,85.20802772426104,365040,1474,6116.804488182068,23.99332618713379,,18.224288940429688,0.03
338,MetaDrive-td3combine-new-expt,59,84.43578556306815,366034,1480,6132.324756860733,22.702709197998047,,19.03951072692871,0.02
339,MetaDrive-td3combine-new-expt,59,87.04478854745601,367026,1486,6149.336604833603,23.62595558166504,,3.195363759994507,0.02
340,MetaDrive-td3combine-new-expt,59,88.71402485665972,368318,1492,6166.8479816913605,24.495161056518555,,6.625975608825684,0.03
341,MetaDrive-td3combine-new-expt,59,89.29941347800906,369072,1495,6182.965799331665,21.960521697998047,,2.8963773250579834,0.03
342,MetaDrive-td3combine-new-expt,59,90.40906030262866,370256,1498,6205.412677526474,24.533935546875,,3.7846264839172363,0.04
343,MetaDrive-td3combine-new-expt,59,92.00177223549618,371134,1504,6218.848954916,24.76974868774414,,3.079453706741333,0.04
344,MetaDrive-td3combine-new-expt,59,88.43332003065551,372061,1511,6232.442090511322,25.304166793823242,-25.497482299804688,2.3405635356903076,0.04
345,MetaDrive-td3combine-new-expt,59,87.06048692905183,373013,1519,6247.6987590789795,25.62356948852539,-25.408679962158203,3.505401134490967,0.04
346,MetaDrive-td3combine-new-expt,59,87.23661526571773,374094,1526,6265.592878103256,19.556514739990234,,4.347334384918213,0.04
347,MetaDrive-td3combine-new-expt,59,85.05260305873252,375102,1533,6281.065551996231,25.476669311523438,,10.176504135131836,0.04
348,MetaDrive-td3combine-new-expt,59,84.26208948376883,376026,1539,6296.527873516083,23.336820602416992,,2.098998546600342,0.04
349,MetaDrive-td3combine-new-expt,59,84.75783983351774,377033,1545,6310.56240940094,24.54602813720703,-24.61016845703125,2.958007335662842,0.04
350,MetaDrive-td3combine-new-expt,59,84.69477488636585,378158,1553,6328.776745796204,23.889328002929688,,6.313754081726074,0.04
351,MetaDrive-td3combine-new-expt,59,80.74205517386319,379058,1559,6343.643760681152,26.161367416381836,,1.600475549697876,0.03
352,MetaDrive-td3combine-new-expt,59,80.91605534157556,380148,1563,6359.466474533081,25.2203426361084,,3.400261878967285,0.04
353,MetaDrive-td3combine-new-expt,59,80.28358939517688,381045,1569,6374.575251579285,25.38250732421875,-25.175899505615234,5.647164344787598,0.04
354,MetaDrive-td3combine-new-expt,59,79.84687717338582,382135,1575,6391.4805364608765,23.94552993774414,-24.090394973754883,8.17009162902832,0.03
355,MetaDrive-td3combine-new-expt,59,81.1101512411269,383102,1580,6405.995837926865,24.56226348876953,,3.144972801208496,0.03
356,MetaDrive-td3combine-new-expt,59,82.48875337240597,384066,1584,6420.423232555389,24.494081497192383,,5.50431489944458,0.03
357,MetaDrive-td3combine-new-expt,59,85.92675657021046,385036,1588,6432.692889928818,25.519670486450195,,1.9627799987792969,0.04
358,MetaDrive-td3combine-new-expt,59,84.13624472889482,386013,1593,6449.180388212204,23.893787384033203,-24.525835037231445,2.811448574066162,0.03
359,MetaDrive-td3combine-new-expt,59,84.36671046625843,387231,1597,6465.723649740219,25.771387100219727,-26.100536346435547,2.7129945755004883,0.03
360,MetaDrive-td3combine-new-expt,59,82.27664522810377,388081,1604,6479.111463308334,26.00804328918457,-26.177959442138672,2.826343536376953,0.03
361,MetaDrive-td3combine-new-expt,59,82.28378856966785,389019,1611,6495.700256586075,23.595949172973633,-23.164594650268555,12.72905445098877,0.03
362,MetaDrive-td3combine-new-expt,59,84.43230942090045,390162,1616,6516.547048568726,24.978965759277344,,7.005792617797852,0.03
363,MetaDrive-td3combine-new-expt,59,85.56302149918501,391005,1620,6529.081627368927,24.11663055419922,-23.73772430419922,2.874267101287842,0.03
364,MetaDrive-td3combine-new-expt,59,88.24734862783109,392013,1625,6544.2940011024475,27.8467960357666,-27.64566421508789,2.007232189178467,0.04
365,MetaDrive-td3combine-new-expt,59,91.05524830589839,393202,1630,6561.352432250977,24.452770233154297,,2.1337037086486816,0.04
366,MetaDrive-td3combine-new-expt,59,91.08428027642613,394058,1634,6574.512856721878,21.880878448486328,,2.6654067039489746,0.04
367,MetaDrive-td3combine-new-expt,59,93.11417958763285,395031,1637,6594.837445259094,26.75108528137207,-26.775733947753906,3.3500113487243652,0.05
368,MetaDrive-td3combine-new-expt,59,95.19466506580362,396071,1641,6609.7421905994415,26.045509338378906,-26.519363403320312,2.244450092315674,0.05
369,MetaDrive-td3combine-new-expt,59,94.3594347106254,397199,1648,6626.227790355682,24.07217025756836,-24.312183380126953,1.7724063396453857,0.05
370,MetaDrive-td3combine-new-expt,59,96.53641602720842,398100,1651,6639.428755044937,24.01772117614746,,1.8260726928710938,0.06
371,MetaDrive-td3combine-new-expt,59,100.18740135336941,399335,1654,6660.809374809265,25.41157341003418,-25.48906707763672,2.1708292961120605,0.07
