TanmayH/CS269-RL-project-code/MetaDrive-test-no-noise-td3_weighted_ignore/td3/progress.csv
,log_dir,frame_per_second,episode_reward,total_steps,total_episodes,total_time,target_q,actor_loss,critic_loss,success_rate
0,MetaDrive-test-no-noise-td3,611,11.98642704536207,2001,2,3.274188995361328,,,,0.0
1,MetaDrive-test-no-noise-td3,662,11.55550336556503,3002,3,4.532441139221191,,,,0.0
2,MetaDrive-test-no-noise-td3,670,11.124510473630568,4003,4,5.968091011047363,,,,0.0
3,MetaDrive-test-no-noise-td3,699,11.298674775065303,5004,5,7.156867980957031,0.021093396469950676,,0.006665828637778759,0.0
4,MetaDrive-test-no-noise-td3,289,-0.24814552626090294,6004,42,20.718473196029663,-0.06995201110839844,,1.5988847017288208,0.0
5,MetaDrive-test-no-noise-td3,209,-1.148663768448046,7235,60,34.55704998970032,0.01849391683936119,-0.038103602826595306,0.7922271490097046,0.0
6,MetaDrive-test-no-noise-td3,192,-1.0940577904491502,8236,61,42.77614116668701,0.03802500665187836,,0.7092951536178589,0.0
7,MetaDrive-test-no-noise-td3,177,-1.206164244864136,9574,63,53.9816529750824,0.03937774896621704,,0.6621559858322144,0.0
8,MetaDrive-test-no-noise-td3,169,-1.1332619106235469,10575,64,62.30954313278198,0.13140840828418732,-0.15498508512973785,0.02943635731935501,0.0
9,MetaDrive-test-no-noise-td3,164,-1.0614957466848274,11576,65,70.51346611976624,0.09788002818822861,,0.0033951792865991592,0.0
10,MetaDrive-test-no-noise-td3,160,-1.2502014130797905,12338,68,77.02810621261597,0.025296133011579514,,0.6156240701675415,0.0
11,MetaDrive-test-no-noise-td3,155,-1.3223939412133936,13133,69,84.53123617172241,0.04415072128176689,-0.16340705752372742,0.761015772819519,0.0
12,MetaDrive-test-no-noise-td3,151,-1.325651098219828,14134,70,93.280935049057,0.02212713472545147,,0.6599960327148438,0.0
13,MetaDrive-test-no-noise-td3,149,-1.2989076879511467,15015,71,100.44617795944214,0.08255575597286224,-0.08879369497299194,0.014423411339521408,0.0
14,MetaDrive-test-no-noise-td3,143,-0.406791202343898,16043,91,111.79487919807434,0.11134817451238632,-0.13825248181819916,0.05889682471752167,0.0
15,MetaDrive-test-no-noise-td3,138,0.03199375945918345,17018,110,123.00466012954712,0.2672711908817291,,0.12419506907463074,0.0
16,MetaDrive-test-no-noise-td3,133,1.7380575408033303,18010,130,134.40537428855896,0.3570987284183502,,0.07918188720941544,0.0
17,MetaDrive-test-no-noise-td3,130,3.773692044595555,19017,145,146.11847496032715,0.5570679306983948,-0.6121991872787476,0.02632136084139347,0.0
18,MetaDrive-test-no-noise-td3,127,5.244453214662198,20006,167,157.0635130405426,0.6614499688148499,,0.9549315571784973,0.0
19,MetaDrive-test-no-noise-td3,125,6.982497604652188,21046,186,168.28753399848938,0.9965726137161255,,0.04957277700304985,0.0
20,MetaDrive-test-no-noise-td3,122,8.138963776639645,22033,205,179.56454491615295,1.1515148878097534,-1.2475390434265137,1.1231915950775146,0.0
21,MetaDrive-test-no-noise-td3,121,10.20212944056253,23118,222,190.95384693145752,1.5268555879592896,,0.03384098410606384,0.0
22,MetaDrive-test-no-noise-td3,119,10.9351712524483,24224,238,202.2835292816162,1.7757583856582642,,1.2415170669555664,0.0
23,MetaDrive-test-no-noise-td3,118,11.87951264002469,25013,250,211.3740861415863,2.134833335876465,-2.26664137840271,0.20441164076328278,0.0
24,MetaDrive-test-no-noise-td3,116,16.840294655680328,26718,267,230.06613397598267,2.8395936489105225,,0.23618614673614502,0.0
25,MetaDrive-test-no-noise-td3,115,17.08433092731541,27019,272,233.2550172805786,2.6775710582733154,-2.923642635345459,3.764026403427124,0.0
26,MetaDrive-test-no-noise-td3,115,21.40410450774125,28221,279,244.83472514152527,3.4589855670928955,-3.5610032081604004,0.061674319207668304,0.0
27,MetaDrive-test-no-noise-td3,114,25.707698321548097,29251,282,256.2517669200897,4.0455851554870605,-4.212966442108154,0.15700651705265045,0.0
28,MetaDrive-test-no-noise-td3,113,30.75765313150215,30043,286,264.37320017814636,4.308901786804199,-4.498863697052002,0.0662492960691452,0.01
29,MetaDrive-test-no-noise-td3,112,34.739180774243806,31008,288,276.0341510772705,4.951010704040527,,3.1424050331115723,0.01
30,MetaDrive-test-no-noise-td3,111,40.66591994954554,32155,296,288.43443298339844,5.785646438598633,-6.349839687347412,4.320699691772461,0.01
31,MetaDrive-test-no-noise-td3,110,47.453676889408364,33327,301,300.57700204849243,6.7513322830200195,-6.926739692687988,0.16411526501178741,0.02
32,MetaDrive-test-no-noise-td3,110,53.68242582969464,34284,306,311.18062710762024,6.955551624298096,,7.426825523376465,0.02
33,MetaDrive-test-no-noise-td3,109,60.0253940602652,35280,312,321.87990498542786,8.074828147888184,,0.23365150392055511,0.02
34,MetaDrive-test-no-noise-td3,109,65.47345613857634,36048,317,329.56492614746094,8.61302375793457,,0.6762807369232178,0.03
35,MetaDrive-test-no-noise-td3,108,72.02140766751974,37151,324,341.46502208709717,9.601811408996582,-9.915325164794922,6.69435977935791,0.03
36,MetaDrive-test-no-noise-td3,108,77.51503354701796,38026,328,350.4252610206604,11.308525085449219,,0.4699285626411438,0.03
37,MetaDrive-test-no-noise-td3,108,83.90683548239812,39088,336,361.236554145813,11.713552474975586,,15.272215843200684,0.03
38,MetaDrive-test-no-noise-td3,108,90.40457000249972,40062,344,370.7982032299042,12.603078842163086,,13.663874626159668,0.04
39,MetaDrive-test-no-noise-td3,107,95.78433808592153,41071,353,380.8305652141571,12.74296760559082,-13.384171485900879,6.851174831390381,0.04
40,MetaDrive-test-no-noise-td3,107,102.2297944306022,42012,360,389.89130306243896,13.567536354064941,,0.37366312742233276,0.04
41,MetaDrive-test-no-noise-td3,107,105.94986473954432,43089,369,401.4077339172363,15.736605644226074,-15.83080005645752,0.5698294043540955,0.04
42,MetaDrive-test-no-noise-td3,107,111.60177491731612,44004,376,409.8769471645355,16.011436462402344,,0.8967909216880798,0.04
43,MetaDrive-test-no-noise-td3,107,107.77705058064419,45047,384,420.69826912879944,16.76153564453125,-17.362497329711914,1.5597472190856934,0.04
44,MetaDrive-test-no-noise-td3,106,106.37748866351731,46020,390,430.1792092323303,19.115310668945312,,1.3686773777008057,0.05
45,MetaDrive-test-no-noise-td3,106,109.25179244301917,47303,396,444.84451603889465,20.97673797607422,-21.225927352905273,0.4163510799407959,0.05
46,MetaDrive-test-no-noise-td3,106,106.17474160973732,48017,402,451.94870710372925,19.752126693725586,-19.93399429321289,1.4217867851257324,0.04
47,MetaDrive-test-no-noise-td3,105,106.63878503586116,49086,408,463.4899101257324,20.74755096435547,,1.4019831418991089,0.04
48,MetaDrive-test-no-noise-td3,105,106.97201147062653,50591,415,478.9565579891205,23.188465118408203,-23.613651275634766,1.0153933763504028,0.05
49,MetaDrive-test-no-noise-td3,105,108.59546004005534,51155,416,484.40705919265747,23.756759643554688,-24.191940307617188,0.9284407496452332,0.05
50,MetaDrive-test-no-noise-td3,104,109.86048768866243,52276,418,499.22526812553406,25.13382339477539,,1.564464807510376,0.04
51,MetaDrive-test-no-noise-td3,104,113.95518343153479,53288,420,509.68892788887024,24.143775939941406,,2.5456299781799316,0.05
52,MetaDrive-test-no-noise-td3,104,112.75326322455119,54381,422,519.4218490123749,22.735395431518555,-23.762149810791016,1.147749900817871,0.05
53,MetaDrive-test-no-noise-td3,104,115.1166692077925,55382,423,530.4156541824341,27.50244140625,,2.6144556999206543,0.05
54,MetaDrive-test-no-noise-td3,104,111.62710484723004,56067,428,537.6399211883545,26.517044067382812,-27.617475509643555,2.9625086784362793,0.05
55,MetaDrive-test-no-noise-td3,103,116.0816925059464,57074,430,548.8286912441254,26.116073608398438,,2.3008551597595215,0.06
56,MetaDrive-test-no-noise-td3,103,118.7681788485948,58085,432,558.9134030342102,27.213531494140625,-27.554698944091797,2.2511720657348633,0.07
57,MetaDrive-test-no-noise-td3,103,123.323007638928,59138,434,570.2061910629272,26.527666091918945,,10.670934677124023,0.09
58,MetaDrive-test-no-noise-td3,103,126.69046194443712,60021,436,580.716197013855,25.923751831054688,-27.15285301208496,28.41564178466797,0.1
59,MetaDrive-test-no-noise-td3,103,129.64622502302183,61038,439,592.4679872989655,31.412513732910156,,39.2917594909668,0.1
60,MetaDrive-test-no-noise-td3,103,134.91428028074034,62184,443,603.4255630970001,31.630529403686523,,2.871023654937744,0.12
61,MetaDrive-test-no-noise-td3,103,138.58729102318273,63184,447,613.3559081554413,30.850440979003906,,1.8161554336547852,0.14
62,MetaDrive-test-no-noise-td3,102,142.03962218090254,64258,450,624.0758790969849,31.121402740478516,,24.838722229003906,0.15
63,MetaDrive-test-no-noise-td3,102,149.55828220267784,65849,453,643.382746219635,32.46012878417969,-33.395381927490234,3.8213388919830322,0.17
64,MetaDrive-test-no-noise-td3,102,151.12101279308678,66139,454,646.4495100975037,31.748735427856445,-33.401084899902344,96.75460815429688,0.18
65,MetaDrive-test-no-noise-td3,102,152.9497907959119,67083,458,655.2795979976654,35.97969436645508,-36.48039245605469,44.56995391845703,0.19
66,MetaDrive-test-no-noise-td3,102,157.69822539559692,68299,461,667.8107511997223,32.611366271972656,-33.224674224853516,6.078165054321289,0.21
67,MetaDrive-test-no-noise-td3,102,161.16335825501375,69160,463,676.3416311740875,36.632362365722656,,6.502255439758301,0.21
68,MetaDrive-test-no-noise-td3,102,163.51090505789284,70215,465,687.4665598869324,36.29908752441406,-36.93310546875,2.6574625968933105,0.21
69,MetaDrive-test-no-noise-td3,102,166.4983919172859,71031,468,695.7700221538544,38.56148910522461,-39.06898498535156,2.8636064529418945,0.21
70,MetaDrive-test-no-noise-td3,102,168.56095429857965,72111,473,706.1433730125427,35.35954284667969,-36.7376708984375,26.95705795288086,0.22
71,MetaDrive-test-no-noise-td3,101,173.93759660936482,73472,476,721.6595771312714,35.05089569091797,,99.00576782226562,0.23
72,MetaDrive-test-no-noise-td3,101,174.35203069414496,74092,479,727.1928100585938,36.163143157958984,,56.753753662109375,0.24
73,MetaDrive-test-no-noise-td3,101,179.00491191727812,75529,484,742.1639122962952,36.859039306640625,-37.400108337402344,6.784212112426758,0.25
74,MetaDrive-test-no-noise-td3,101,182.8257552815758,76319,487,750.5494050979614,34.5261344909668,-34.70199966430664,6.3753461837768555,0.26
75,MetaDrive-test-no-noise-td3,101,182.63403220216097,77087,490,757.977991104126,39.74757766723633,-39.74024200439453,3.004530668258667,0.26
76,MetaDrive-test-no-noise-td3,101,183.6576049903281,78047,493,767.5446720123291,39.654197692871094,-40.63484191894531,5.685798645019531,0.27
77,MetaDrive-test-no-noise-td3,101,186.34389971093628,79276,496,780.3581390380859,41.2962532043457,,4.505372524261475,0.28
78,MetaDrive-test-no-noise-td3,101,189.2918313472981,80124,498,790.5045192241669,39.54772186279297,,5.3527936935424805,0.29
79,MetaDrive-test-no-noise-td3,101,191.65807704342816,81091,502,801.4420771598816,40.2532844543457,-40.81989669799805,17.928443908691406,0.29
80,MetaDrive-test-no-noise-td3,101,193.31262098425742,82023,506,810.356791973114,43.08995056152344,-42.86114501953125,3.0833122730255127,0.3
81,MetaDrive-test-no-noise-td3,100,197.05880665183471,83037,508,824.0803461074829,41.84942626953125,-41.59674835205078,76.71255493164062,0.31
82,MetaDrive-test-no-noise-td3,100,202.7744523615869,84284,512,837.5014801025391,43.66901779174805,,2.960771083831787,0.32
83,MetaDrive-test-no-noise-td3,100,204.31839711178432,85285,513,848.2671210765839,41.0769157409668,-41.18794250488281,5.958961486816406,0.32
84,MetaDrive-test-no-noise-td3,100,201.88264276437073,86395,517,860.0864491462708,42.8551139831543,-44.134395599365234,4.149964332580566,0.31
85,MetaDrive-test-no-noise-td3,100,199.2042019371849,87185,519,868.8496832847595,45.398582458496094,-46.01397705078125,4.21241569519043,0.32
86,MetaDrive-test-no-noise-td3,100,200.46466559563268,88008,521,877.2244420051575,40.877220153808594,,12.412544250488281,0.31
87,MetaDrive-test-no-noise-td3,100,202.90345460229014,89258,525,889.1602432727814,40.240264892578125,,10.674640655517578,0.32
88,MetaDrive-test-no-noise-td3,100,206.0040758460824,90003,526,897.1349790096283,45.338356018066406,-45.37607192993164,5.263538360595703,0.32
89,MetaDrive-test-no-noise-td3,100,207.974721685266,91839,530,917.6558439731598,42.08860778808594,-42.746620178222656,5.3581743240356445,0.33
90,MetaDrive-test-no-noise-td3,100,207.8505005856275,92340,531,922.7810039520264,39.55042266845703,,35.150394439697266,0.34
91,MetaDrive-test-no-noise-td3,100,206.46906863452566,93013,533,929.8203370571136,43.86985397338867,-44.14780807495117,4.753569602966309,0.33
92,MetaDrive-test-no-noise-td3,99,206.34994759860965,94048,536,940.9011120796204,41.776756286621094,,77.84342956542969,0.32
93,MetaDrive-test-no-noise-td3,99,208.14152549960545,95419,538,956.0195879936218,44.956634521484375,-44.512123107910156,89.97685241699219,0.33
94,MetaDrive-test-no-noise-td3,99,210.80498462981762,96555,540,967.6809051036835,41.65965270996094,-41.97419357299805,4.41319465637207,0.33
95,MetaDrive-test-no-noise-td3,99,211.73649613322644,97240,542,974.3693161010742,44.16775894165039,,13.449698448181152,0.33
96,MetaDrive-test-no-noise-td3,99,211.0012670079384,98241,543,984.3888330459595,43.37060546875,-43.386165618896484,7.714648246765137,0.32
97,MetaDrive-test-no-noise-td3,99,212.83012859085312,99216,545,996.2431161403656,45.356292724609375,,73.80960083007812,0.32
98,MetaDrive-test-no-noise-td3,99,216.15459611504463,100243,547,1006.5693340301514,46.01285934448242,-47.07248306274414,58.424224853515625,0.32
99,MetaDrive-test-no-noise-td3,99,220.26905865982008,101614,549,1020.8652131557465,45.86967849731445,,6.013976097106934,0.33
100,MetaDrive-test-no-noise-td3,99,219.10520095679,102615,550,1030.8789970874786,45.20720672607422,-46.4447021484375,19.037029266357422,0.32
101,MetaDrive-test-no-noise-td3,99,219.62748020389753,103396,552,1038.4664492607117,48.865211486816406,,13.17662239074707,0.32
102,MetaDrive-test-no-noise-td3,99,218.6830637262382,104377,554,1047.9531581401825,46.53647232055664,-47.234947204589844,8.921818733215332,0.32
103,MetaDrive-test-no-noise-td3,99,216.69106643758846,105095,557,1054.865893125534,48.07001876831055,-48.70297622680664,5.7054033279418945,0.31
104,MetaDrive-test-no-noise-td3,99,220.43164633637997,106496,559,1069.7250909805298,45.56533432006836,,58.24798583984375,0.31
105,MetaDrive-test-no-noise-td3,99,219.63862051239457,107756,562,1083.6295840740204,47.44873809814453,,4.895452976226807,0.3
106,MetaDrive-test-no-noise-td3,99,219.0659114288967,108127,563,1087.1478281021118,45.45093536376953,-46.30934143066406,6.183791637420654,0.31
107,MetaDrive-test-no-noise-td3,99,222.39430848006367,109407,565,1101.0067403316498,50.23217010498047,-50.49102783203125,6.951245307922363,0.33
108,MetaDrive-test-no-noise-td3,99,219.0950836481719,110027,569,1107.1980352401733,45.03398132324219,-46.230796813964844,9.425573348999023,0.33
109,MetaDrive-test-no-noise-td3,99,223.0966494964938,111010,571,1117.522301197052,46.25190353393555,,14.917573928833008,0.35
110,MetaDrive-test-no-noise-td3,99,225.52953345651636,112392,574,1131.3684480190277,51.16386032104492,,112.86530303955078,0.35
111,MetaDrive-test-no-noise-td3,99,224.62875629076322,113217,576,1139.32572722435,49.011474609375,-49.219886779785156,72.27182006835938,0.35
112,MetaDrive-test-no-noise-td3,99,227.66610307990769,114017,577,1147.3071310520172,47.96896743774414,-48.42158126831055,7.898613929748535,0.36
113,MetaDrive-test-no-noise-td3,99,231.71051240237938,115897,580,1168.1004700660706,51.76709747314453,-52.595489501953125,6.239255905151367,0.37
114,MetaDrive-test-no-noise-td3,99,233.0007801304868,116185,581,1171.4438672065735,52.54265594482422,-52.94147491455078,2.26657772064209,0.37
115,MetaDrive-test-no-noise-td3,99,231.77912905545628,117103,584,1180.5772621631622,51.97254943847656,-52.588748931884766,4.212139129638672,0.37
116,MetaDrive-test-no-noise-td3,99,233.66404987808278,118227,587,1192.0236241817474,49.12843704223633,-50.04651641845703,50.37413787841797,0.38
117,MetaDrive-test-no-noise-td3,99,238.27064713451847,119897,589,1209.6811010837555,50.344051361083984,-50.31245040893555,6.115483283996582,0.38
118,MetaDrive-test-no-noise-td3,99,240.06158050980753,120537,590,1216.0590052604675,43.78307342529297,-45.4161376953125,180.68341064453125,0.38
119,MetaDrive-test-no-noise-td3,99,242.05113820796691,121338,591,1224.643532037735,49.94224166870117,,7.36358642578125,0.39
120,MetaDrive-test-no-noise-td3,99,242.65591309299336,122230,594,1232.8321199417114,52.0555419921875,,6.489418983459473,0.4
121,MetaDrive-test-no-noise-td3,99,244.05411412888603,123129,596,1243.6049132347107,51.79756546020508,-52.185516357421875,7.674582481384277,0.4
122,MetaDrive-test-no-noise-td3,99,245.99233171845427,124168,598,1253.2945511341095,45.766422271728516,,6.811758518218994,0.41
123,MetaDrive-test-no-noise-td3,99,251.40597059259449,125133,600,1262.660991191864,49.716400146484375,-49.58486557006836,9.308395385742188,0.43
124,MetaDrive-test-no-noise-td3,99,252.4525036574635,126069,602,1271.5888481140137,48.472537994384766,-49.59400939941406,111.00132751464844,0.44
125,MetaDrive-test-no-noise-td3,99,255.5770023102168,127281,605,1283.0270161628723,49.86022186279297,-49.9710578918457,5.586130142211914,0.45
126,MetaDrive-test-no-noise-td3,99,255.52323929136404,128285,608,1292.6677391529083,51.17688751220703,-52.18882369995117,5.117274284362793,0.46
127,MetaDrive-test-no-noise-td3,98,258.1509744564005,129286,609,1306.2242031097412,56.494384765625,,8.70538330078125,0.46
128,MetaDrive-test-no-noise-td3,98,260.9158998446576,130129,610,1314.4747881889343,51.02189254760742,-52.37919998168945,98.82115936279297,0.47
129,MetaDrive-test-no-noise-td3,98,263.08366311398845,131605,612,1330.7874701023102,52.68705368041992,-52.428184509277344,5.982966423034668,0.48
130,MetaDrive-test-no-noise-td3,98,264.98855889235074,132420,613,1338.97621011734,49.377960205078125,,7.619606018066406,0.49
131,MetaDrive-test-no-noise-td3,98,266.71442130787955,133192,614,1347.5509979724884,50.64501190185547,,38.43614196777344,0.5
132,MetaDrive-test-no-noise-td3,98,270.8931995767648,134121,615,1358.2589361667633,48.58899688720703,-50.39021682739258,136.5816650390625,0.51
133,MetaDrive-test-no-noise-td3,98,275.2146527048892,135489,617,1372.3222272396088,48.65399932861328,-48.23493576049805,5.40875768661499,0.53
134,MetaDrive-test-no-noise-td3,98,275.3061862796414,136124,618,1378.5618662834167,49.44544219970703,,6.397280693054199,0.52
135,MetaDrive-test-no-noise-td3,98,278.2487921923254,137042,620,1388.3704152107239,52.86531448364258,,7.612607479095459,0.53
136,MetaDrive-test-no-noise-td3,98,277.36407911748387,138043,621,1400.816801071167,52.91013717651367,-52.21242904663086,8.625099182128906,0.53
137,MetaDrive-test-no-noise-td3,98,279.68781727722694,139354,623,1413.766849040985,50.91645431518555,,10.426265716552734,0.55
138,MetaDrive-test-no-noise-td3,98,281.4770169786854,140375,625,1423.7427060604095,52.48244094848633,-53.124141693115234,5.620889186859131,0.56
139,MetaDrive-test-no-noise-td3,98,280.55129334160597,141144,627,1431.388328075409,50.75205612182617,,7.710513114929199,0.56
140,MetaDrive-test-no-noise-td3,98,281.29073317791017,142145,628,1440.6382341384888,53.449745178222656,-54.54838943481445,9.872546195983887,0.56
141,MetaDrive-test-no-noise-td3,98,279.40355203185163,143241,630,1451.6271569728851,54.015342712402344,-53.591461181640625,5.142377853393555,0.55
142,MetaDrive-test-no-noise-td3,98,281.4614513800528,144097,631,1461.8580420017242,53.549556732177734,-54.226558685302734,7.08408260345459,0.55
143,MetaDrive-test-no-noise-td3,98,281.3947246658125,145026,633,1472.2104732990265,53.37190628051758,,40.36415481567383,0.55
144,MetaDrive-test-no-noise-td3,98,285.26710954492273,146622,635,1490.8881390094757,57.107887268066406,,10.2952880859375,0.56
145,MetaDrive-test-no-noise-td3,98,285.54073288410797,147061,636,1494.8515701293945,54.257232666015625,-55.13492965698242,8.490434646606445,0.57
146,MetaDrive-test-no-noise-td3,98,285.65341509675784,148409,638,1508.7601079940796,51.344322204589844,-52.95122528076172,8.626232147216797,0.57
147,MetaDrive-test-no-noise-td3,98,287.2858516613359,149410,639,1520.0892210006714,50.51145935058594,,65.60415649414062,0.57
148,MetaDrive-test-no-noise-td3,98,284.837834491029,150411,640,1531.1301670074463,52.576744079589844,-52.73261260986328,44.046329498291016,0.57
149,MetaDrive-test-no-noise-td3,98,286.41527034007663,151598,642,1543.4391479492188,51.495643615722656,,5.206552505493164,0.58
150,MetaDrive-test-no-noise-td3,98,287.99218813537396,152599,643,1554.603431224823,51.340789794921875,-52.06989288330078,4.5769171714782715,0.58
151,MetaDrive-test-no-noise-td3,98,287.1160049106513,153019,644,1558.559932231903,54.706626892089844,-55.08528518676758,4.391039848327637,0.58
152,MetaDrive-test-no-noise-td3,98,285.2147898632558,154137,647,1569.5263991355896,51.893951416015625,-52.827857971191406,5.777187347412109,0.57
153,MetaDrive-test-no-noise-td3,98,283.8642573350154,155481,650,1581.6656439304352,53.98080825805664,-55.19261169433594,149.73294067382812,0.58
154,MetaDrive-test-no-noise-td3,98,284.74616542550245,156357,652,1590.819169998169,50.04296112060547,-49.54791259765625,8.612318992614746,0.59
155,MetaDrive-test-no-noise-td3,98,281.58911256844806,157051,654,1598.142941236496,53.356109619140625,-54.35601806640625,183.28916931152344,0.57
156,MetaDrive-test-no-noise-td3,98,285.0487698724084,158357,657,1611.02565407753,51.93220901489258,-52.11800003051758,4.355788230895996,0.58
157,MetaDrive-test-no-noise-td3,98,282.75959704293894,159358,658,1621.4950840473175,55.13089370727539,,3.9698121547698975,0.57
158,MetaDrive-test-no-noise-td3,98,286.52243325144065,160928,660,1639.9510741233826,51.78865051269531,,4.498919486999512,0.58
159,MetaDrive-test-no-noise-td3,98,287.5553682069161,161929,661,1649.1361629962921,48.73206329345703,-49.68149948120117,77.69807434082031,0.58
160,MetaDrive-test-no-noise-td3,98,287.0828431895484,162778,662,1658.3146450519562,51.38780975341797,,4.98034143447876,0.59
161,MetaDrive-test-no-noise-td3,98,288.9628632209589,163630,663,1668.3487660884857,49.90687561035156,,183.98756408691406,0.59
162,MetaDrive-test-no-noise-td3,98,289.7405286424649,164184,664,1674.1183621883392,52.152732849121094,,6.63624382019043,0.59
163,MetaDrive-test-no-noise-td3,98,292.3268084295376,165255,666,1685.4129362106323,53.26935958862305,-52.903167724609375,23.47234344482422,0.6
164,MetaDrive-test-no-noise-td3,98,295.688359992698,166256,667,1696.3878419399261,53.55534744262695,,11.127875328063965,0.6
165,MetaDrive-test-no-noise-td3,97,299.48560176847667,167803,669,1712.6132159233093,54.332645416259766,-54.895267486572266,5.554875373840332,0.61
166,MetaDrive-test-no-noise-td3,97,299.35378490689044,168804,670,1724.072916984558,54.663204193115234,,30.380165100097656,0.6
167,MetaDrive-test-no-noise-td3,97,299.22566690350703,169368,671,1729.785402059555,52.57029724121094,,6.889960765838623,0.59
168,MetaDrive-test-no-noise-td3,97,300.67711388214116,170369,672,1740.1043810844421,50.577781677246094,-50.71129608154297,140.90463256835938,0.59
169,MetaDrive-test-no-noise-td3,97,301.14118537916426,171309,673,1749.2206089496613,49.245662689208984,-50.614341735839844,11.894819259643555,0.59
170,MetaDrive-test-no-noise-td3,97,296.9876378687035,172973,677,1766.4785599708557,50.58999252319336,-51.20957565307617,11.405579566955566,0.58
171,MetaDrive-test-no-noise-td3,97,295.6492886182921,173309,678,1769.7533900737762,50.05868911743164,-50.690921783447266,15.48353385925293,0.57
172,MetaDrive-test-no-noise-td3,97,297.00540056020486,174515,680,1783.9206120967865,53.042327880859375,-54.78464889526367,11.301586151123047,0.57
173,MetaDrive-test-no-noise-td3,97,294.9733892090799,175083,682,1789.423320055008,51.35447692871094,-51.166168212890625,6.776275634765625,0.56
174,MetaDrive-test-no-noise-td3,97,300.2797644850736,176452,685,1805.0029559135437,49.47088623046875,,6.213090419769287,0.58
175,MetaDrive-test-no-noise-td3,97,298.84957579917443,177225,687,1812.4666962623596,53.148841857910156,-53.645286560058594,11.041336059570312,0.57
176,MetaDrive-test-no-noise-td3,97,295.9374858648223,178095,689,1820.9519999027252,50.190059661865234,-49.80561828613281,3.177457332611084,0.57
177,MetaDrive-test-no-noise-td3,97,295.9849842531085,179280,691,1833.45205616951,53.325531005859375,,12.549264907836914,0.57
178,MetaDrive-test-no-noise-td3,97,297.58382329299064,180188,692,1844.452857017517,52.05036163330078,,8.617813110351562,0.57
179,MetaDrive-test-no-noise-td3,97,298.3881300317889,181408,694,1857.1109111309052,55.45930862426758,,6.736318111419678,0.57
180,MetaDrive-test-no-noise-td3,97,297.28897426307714,182950,696,1873.519284248352,51.70014953613281,,6.370555877685547,0.57
181,MetaDrive-test-no-noise-td3,97,295.09141854960194,183186,697,1875.7904770374298,56.91987228393555,,6.1026129722595215,0.56
182,MetaDrive-test-no-noise-td3,97,297.2740510328125,184782,699,1897.0653231143951,52.97684860229492,,5.950362205505371,0.55
183,MetaDrive-test-no-noise-td3,97,292.4237952983296,185307,701,1902.2933130264282,51.38983917236328,-53.79804611206055,159.160400390625,0.53
184,MetaDrive-test-no-noise-td3,97,288.486553514528,186403,705,1912.905617237091,51.25981903076172,-51.699275970458984,10.70285415649414,0.51
185,MetaDrive-test-no-noise-td3,97,289.9471601841514,187355,707,1923.0601551532745,57.20783615112305,-57.08500671386719,6.212832450866699,0.51
186,MetaDrive-test-no-noise-td3,97,286.56526153898585,188176,709,1931.7546072006226,56.67225646972656,,27.09721565246582,0.51
187,MetaDrive-test-no-noise-td3,97,280.68548153219695,189571,712,1944.9819712638855,49.918521881103516,-49.754520416259766,16.94799041748047,0.49
188,MetaDrive-test-no-noise-td3,97,273.18824123647136,190295,715,1951.7778890132904,53.7398681640625,-54.09660720825195,5.673819541931152,0.46
189,MetaDrive-test-no-noise-td3,97,271.34128913422444,191296,716,1963.761962890625,50.01924514770508,,10.623811721801758,0.45
190,MetaDrive-test-no-noise-td3,97,266.40549275393977,192042,719,1970.9560549259186,51.808372497558594,,9.122995376586914,0.45
191,MetaDrive-test-no-noise-td3,97,260.684937346764,193155,723,1981.0989029407501,51.08760070800781,-51.39007568359375,11.154891967773438,0.44
192,MetaDrive-test-no-noise-td3,97,258.17934589254907,194211,726,1991.6615011692047,51.288673400878906,-51.3238525390625,6.958637237548828,0.43
193,MetaDrive-test-no-noise-td3,97,257.5873835757826,195684,730,2009.566901922226,49.99555969238281,,31.918415069580078,0.43
194,MetaDrive-test-no-noise-td3,97,256.1492847341274,196136,731,2013.5149450302124,52.96659469604492,,9.86815071105957,0.43
195,MetaDrive-test-no-noise-td3,97,256.47910118250286,197067,733,2023.0522532463074,56.54847717285156,-57.472206115722656,5.591940879821777,0.44
196,MetaDrive-test-no-noise-td3,97,253.33052261943405,198987,736,2047.7406272888184,53.762123107910156,-53.88374710083008,3.411952495574951,0.41
197,MetaDrive-test-no-noise-td3,97,251.60119167006022,199431,737,2051.8399999141693,54.87095642089844,-54.88378143310547,6.590143203735352,0.4
198,MetaDrive-test-no-noise-td3,97,249.07329677544433,200339,740,2061.200711250305,49.0200080871582,-50.12495803833008,11.704797744750977,0.4
199,MetaDrive-test-no-noise-td3,97,239.9818755347355,201083,744,2068.7843849658966,51.55132293701172,-52.210296630859375,117.89727020263672,0.37
200,MetaDrive-test-no-noise-td3,97,243.4198238776001,202112,746,2079.5487999916077,52.1654052734375,,6.260502815246582,0.38
201,MetaDrive-test-no-noise-td3,97,239.39675308163729,203100,750,2088.8496561050415,53.10646438598633,,8.101678848266602,0.37
202,MetaDrive-test-no-noise-td3,97,239.63237601595512,204018,752,2097.798777103424,51.944610595703125,,8.35445499420166,0.36
203,MetaDrive-test-no-noise-td3,97,238.21150696901822,205059,756,2107.8302352428436,54.308746337890625,-55.38056945800781,4.365381240844727,0.35
204,MetaDrive-test-no-noise-td3,97,235.99130036987478,206001,759,2118.708405017853,49.7376708984375,-50.75874710083008,8.116390228271484,0.34
205,MetaDrive-test-no-noise-td3,97,227.768870152889,207034,763,2128.7342431545258,56.05397033691406,,16.468318939208984,0.33
206,MetaDrive-test-no-noise-td3,97,225.75807834345648,208120,765,2142.4393939971924,51.28379440307617,,6.504624366760254,0.31
207,MetaDrive-test-no-noise-td3,97,219.98016665871745,209936,770,2162.154032230377,52.713134765625,,226.98939514160156,0.31
208,MetaDrive-test-no-noise-td3,97,220.9461617443815,210568,771,2169.1511890888214,54.36450958251953,,216.43112182617188,0.32
209,MetaDrive-test-no-noise-td3,97,216.41291350666233,211029,773,2173.4258041381836,54.203712463378906,-55.205902099609375,82.0349349975586,0.31
210,MetaDrive-test-no-noise-td3,97,218.11830248549634,212399,777,2187.406264066696,56.468509674072266,-55.95771408081055,8.981280326843262,0.32
211,MetaDrive-test-no-noise-td3,97,213.87258521622473,213290,781,2197.0635261535645,55.28327178955078,,11.992563247680664,0.32
212,MetaDrive-test-no-noise-td3,97,215.0512392971231,214021,783,2204.547621011734,53.7203254699707,-54.46881103515625,7.1461286544799805,0.32
213,MetaDrive-test-no-noise-td3,97,209.94755210397201,215572,788,2221.4352612495422,53.26540756225586,,10.782333374023438,0.3
214,MetaDrive-test-no-noise-td3,97,199.07596874436672,216047,792,2225.918342113495,54.479949951171875,-54.754920959472656,7.184191703796387,0.27
215,MetaDrive-test-no-noise-td3,97,198.17753512894942,217215,795,2237.7454073429108,58.675315856933594,-58.76478576660156,4.483879089355469,0.27
216,MetaDrive-test-no-noise-td3,97,198.56340702607562,218049,797,2246.8889582157135,56.445194244384766,-56.774330139160156,6.463616371154785,0.28
217,MetaDrive-test-no-noise-td3,96,194.97028232856871,219139,801,2259.471740245819,54.41165542602539,-54.6322021484375,9.463855743408203,0.27
218,MetaDrive-test-no-noise-td3,96,199.26962965613723,220812,804,2276.934930086136,56.16826248168945,,8.269047737121582,0.28
219,MetaDrive-test-no-noise-td3,97,199.3252597719976,221268,805,2280.898546218872,57.0765380859375,,9.2772216796875,0.29
220,MetaDrive-test-no-noise-td3,97,199.1268443486043,222113,808,2289.485950231552,58.468414306640625,-58.17949676513672,6.090982437133789,0.29
221,MetaDrive-test-no-noise-td3,97,201.0770905792659,223679,811,2305.521271944046,56.42378234863281,-57.90010070800781,5.680891036987305,0.3
222,MetaDrive-test-no-noise-td3,97,202.3785876545944,224318,813,2311.6375432014465,56.852073669433594,,6.670625686645508,0.29
223,MetaDrive-test-no-noise-td3,97,199.01758081058688,225283,818,2322.121339082718,56.747772216796875,-57.31985092163086,55.68195724487305,0.28
224,MetaDrive-test-no-noise-td3,97,199.58314698738278,226031,821,2329.3994250297546,54.508766174316406,-54.8724250793457,8.95821762084961,0.28
225,MetaDrive-test-no-noise-td3,96,201.72889093364316,227855,825,2351.0415420532227,51.01461410522461,-52.28254318237305,11.982046127319336,0.27
226,MetaDrive-test-no-noise-td3,96,202.33899883786594,228117,826,2353.526600122452,52.10171890258789,-52.89288330078125,5.212802410125732,0.27
227,MetaDrive-test-no-noise-td3,96,204.19124824088266,229176,828,2366.354840040207,57.16544723510742,,5.332146167755127,0.27
228,MetaDrive-test-no-noise-td3,96,197.43661067395246,230077,832,2375.4185750484467,53.078094482421875,-52.14012145996094,19.076894760131836,0.24
229,MetaDrive-test-no-noise-td3,96,196.659370610581,231123,835,2387.201106071472,56.39582824707031,-56.53022766113281,9.902366638183594,0.24
230,MetaDrive-test-no-noise-td3,96,198.13513404099783,232001,836,2398.859688282013,56.21443176269531,-57.010738372802734,5.600156784057617,0.25
231,MetaDrive-test-no-noise-td3,96,198.2790136082573,233362,841,2414.2409710884094,57.96784973144531,,9.29112434387207,0.25
232,MetaDrive-test-no-noise-td3,96,199.8691694164325,234711,843,2429.243016242981,56.60920715332031,-57.34330749511719,159.01927185058594,0.25
233,MetaDrive-test-no-noise-td3,96,198.78709035943572,235229,845,2434.4574460983276,56.3067741394043,-56.72491455078125,11.394943237304688,0.25
234,MetaDrive-test-no-noise-td3,96,197.53262730513572,236010,846,2442.368898153305,55.70277786254883,,81.87294006347656,0.24
235,MetaDrive-test-no-noise-td3,96,204.41664845589872,237540,848,2460.4533722400665,52.386444091796875,,10.287115097045898,0.26
236,MetaDrive-test-no-noise-td3,96,203.46433119740493,238131,850,2466.3250873088837,57.1063232421875,-57.142311096191406,8.05776309967041,0.25
237,MetaDrive-test-no-noise-td3,96,204.82139202025922,239468,852,2479.6128351688385,55.95708465576172,,13.206100463867188,0.26
238,MetaDrive-test-no-noise-td3,96,208.64307673674534,240304,853,2489.994504213333,54.666160583496094,,9.987083435058594,0.27
239,MetaDrive-test-no-noise-td3,96,209.27952493600318,241177,855,2499.9263112545013,56.1285514831543,-56.18585205078125,8.056867599487305,0.28
240,MetaDrive-test-no-noise-td3,96,210.6505611436897,242506,859,2514.0218181610107,57.751136779785156,,8.532184600830078,0.29
241,MetaDrive-test-no-noise-td3,96,210.14694808056757,243308,861,2521.727208137512,54.159664154052734,,7.426279067993164,0.29
242,MetaDrive-test-no-noise-td3,96,212.7619663165184,244039,864,2528.5960869789124,54.97650909423828,-55.33643341064453,13.812664031982422,0.3
243,MetaDrive-test-no-noise-td3,96,212.09616263357103,245057,867,2538.322748184204,57.82853698730469,-58.431419372558594,9.548528671264648,0.31
244,MetaDrive-test-no-noise-td3,96,206.56631970913088,246434,872,2552.4326751232147,55.93444061279297,,3.650395631790161,0.28
245,MetaDrive-test-no-noise-td3,96,206.6933217156303,247594,875,2564.630794286728,53.533233642578125,,80.94638061523438,0.28
246,MetaDrive-test-no-noise-td3,96,207.9947270048711,248047,876,2568.6206860542297,59.95643615722656,-59.907928466796875,6.197601795196533,0.29
247,MetaDrive-test-no-noise-td3,96,211.05980410374235,249334,879,2581.9709391593933,55.83671951293945,,96.29039764404297,0.29
248,MetaDrive-test-no-noise-td3,96,211.14734000321798,250168,881,2591.281760931015,55.9863166809082,,6.657661437988281,0.29
249,MetaDrive-test-no-noise-td3,96,212.15002857475858,251460,885,2603.87629199028,58.597145080566406,,4.795241355895996,0.3
250,MetaDrive-test-no-noise-td3,96,213.77622768258072,252054,887,2609.536315202713,57.05624771118164,,8.392003059387207,0.31
251,MetaDrive-test-no-noise-td3,96,215.07296189127464,253188,891,2622.1960220336914,58.26668167114258,,70.21047973632812,0.3
252,MetaDrive-test-no-noise-td3,96,216.50512490394016,254272,894,2632.487002134323,56.84375,,21.758283615112305,0.31
253,MetaDrive-test-no-noise-td3,96,219.82060670036645,255306,896,2642.948741197586,60.031898498535156,,14.307706832885742,0.32
254,MetaDrive-test-no-noise-td3,96,219.05910012841915,256912,900,2661.2750651836395,57.79235076904297,,4.405098915100098,0.33
255,MetaDrive-test-no-noise-td3,96,219.98329912091248,257374,901,2665.590008020401,56.35066604614258,,7.7103400230407715,0.34
256,MetaDrive-test-no-noise-td3,96,220.65172500923248,258193,902,2673.416109085083,56.45258712768555,-56.76934051513672,6.364706516265869,0.35
257,MetaDrive-test-no-noise-td3,96,218.9889193005619,259191,905,2682.7760412693024,55.59159851074219,-55.39286804199219,10.719566345214844,0.35
258,MetaDrive-test-no-noise-td3,96,222.83190740477764,260503,908,2695.4629230499268,56.95930480957031,-57.74850082397461,5.5583086013793945,0.37
259,MetaDrive-test-no-noise-td3,96,222.17216116638335,261454,910,2706.931057214737,59.87339401245117,,4.846914291381836,0.37
260,MetaDrive-test-no-noise-td3,96,223.37887598623877,262441,912,2716.766463279724,58.19335174560547,-58.739444732666016,16.515766143798828,0.38
261,MetaDrive-test-no-noise-td3,96,224.3407357335683,263134,914,2723.4536011219025,56.87208557128906,,8.235262870788574,0.39
262,MetaDrive-test-no-noise-td3,96,223.86251257966538,264034,918,2732.278269290924,58.60289001464844,,7.398947715759277,0.39
263,MetaDrive-test-no-noise-td3,96,228.2947296214066,265821,921,2753.1423211097717,58.886566162109375,-58.80535888671875,6.040780067443848,0.4
264,MetaDrive-test-no-noise-td3,96,232.8752743617167,266764,922,2765.7480611801147,56.89436721801758,,8.408447265625,0.41
265,MetaDrive-test-no-noise-td3,96,234.74317737937366,267378,923,2771.647812128067,53.11274337768555,,20.154457092285156,0.41
266,MetaDrive-test-no-noise-td3,96,232.35383614755952,268144,925,2779.791770219803,59.360595703125,,13.151374816894531,0.42
267,MetaDrive-test-no-noise-td3,96,236.5196888783156,269864,927,2799.753998041153,55.9769401550293,,7.546231269836426,0.43
268,MetaDrive-test-no-noise-td3,96,237.7372883416514,270462,928,2805.660863161087,53.119503021240234,,108.90776062011719,0.44
269,MetaDrive-test-no-noise-td3,96,239.9715401285066,271129,929,2813.4379200935364,58.869972229003906,-58.79578399658203,4.905869007110596,0.45
270,MetaDrive-test-no-noise-td3,96,242.35340595016905,272091,932,2823.7859971523285,57.42897033691406,-57.75001907348633,8.875442504882812,0.46
271,MetaDrive-test-no-noise-td3,96,242.9988121662658,273092,933,2835.7172520160675,57.38237380981445,,18.465232849121094,0.46
272,MetaDrive-test-no-noise-td3,96,243.4060819031565,274245,935,2849.2688891887665,54.10386657714844,-53.67295837402344,23.017885208129883,0.46
273,MetaDrive-test-no-noise-td3,96,241.62558569367343,275089,936,2859.8038160800934,53.80815124511719,-55.44682312011719,10.230981826782227,0.46
274,MetaDrive-test-no-noise-td3,96,247.21122558554816,276366,939,2873.1276111602783,56.38274383544922,,12.569786071777344,0.47
275,MetaDrive-test-no-noise-td3,96,244.0943914282048,277666,941,2886.2061631679535,59.18925094604492,,7.1923017501831055,0.46
276,MetaDrive-test-no-noise-td3,96,245.57670392016735,278205,942,2891.7096061706543,56.86104965209961,-56.8945198059082,5.6923627853393555,0.47
277,MetaDrive-test-no-noise-td3,96,242.9152447006695,279118,946,2900.984874010086,51.140953063964844,,15.977185249328613,0.48
278,MetaDrive-test-no-noise-td3,96,239.3310533444099,280232,948,2914.378331184387,57.39196014404297,,6.163626670837402,0.47
279,MetaDrive-test-no-noise-td3,96,237.6998073215099,281021,951,2922.0507209300995,58.894412994384766,-58.7083854675293,111.62657928466797,0.47
280,MetaDrive-test-no-noise-td3,96,233.83815186135737,282426,953,2936.557121038437,51.77479553222656,,17.827598571777344,0.47
281,MetaDrive-test-no-noise-td3,96,233.08295000925574,283525,957,2948.149547100067,53.80239486694336,-54.23102951049805,4.785432815551758,0.46
282,MetaDrive-test-no-noise-td3,96,236.77928327619694,284152,958,2955.0133171081543,55.16334533691406,,10.499444961547852,0.47
283,MetaDrive-test-no-noise-td3,96,234.70874229228292,285105,961,2966.021891117096,57.577842712402344,-57.9497184753418,10.190852165222168,0.47
284,MetaDrive-test-no-noise-td3,96,236.99243049854041,286143,964,2976.165787220001,57.495365142822266,-58.268821716308594,5.444884777069092,0.48
285,MetaDrive-test-no-noise-td3,96,237.6312842835796,287199,967,2986.148435115814,58.681861877441406,-59.55854415893555,41.16299819946289,0.48
286,MetaDrive-test-no-noise-td3,96,242.49882120547664,288436,969,2998.4092860221863,59.5496940612793,,78.654296875,0.5
287,MetaDrive-test-no-noise-td3,96,243.30283640646098,289437,970,3008.2700531482697,54.40182876586914,-54.94083786010742,9.370063781738281,0.5
288,MetaDrive-test-no-noise-td3,96,240.85150757762017,290357,972,3017.498552083969,58.21650314331055,-58.198158264160156,5.504317283630371,0.5
289,MetaDrive-test-no-noise-td3,96,242.69355523505047,291035,974,3024.560266971588,55.78055953979492,-56.239524841308594,56.103614807128906,0.51
290,MetaDrive-test-no-noise-td3,96,241.11416907923112,292386,977,3038.0673010349274,52.65972137451172,,116.56097412109375,0.5
291,MetaDrive-test-no-noise-td3,96,240.82760807814321,293088,980,3044.6886880397797,57.54733657836914,,5.3102850914001465,0.51
292,MetaDrive-test-no-noise-td3,96,241.57518991711675,294199,983,3054.804496049881,52.357627868652344,-53.266265869140625,18.15859031677246,0.51
293,MetaDrive-test-no-noise-td3,96,243.5926283586474,295333,985,3065.4472591876984,58.94381332397461,-59.50541305541992,7.025386810302734,0.51
294,MetaDrive-test-no-noise-td3,96,244.87298308874563,296046,987,3072.016914129257,60.14482116699219,,5.611575126647949,0.51
295,MetaDrive-test-no-noise-td3,96,249.05131775126566,297189,989,3083.2750771045685,55.871246337890625,-56.536128997802734,22.99709701538086,0.53
296,MetaDrive-test-no-noise-td3,96,245.54083125847944,298046,992,3091.094736099243,57.484596252441406,,8.568921089172363,0.52
297,MetaDrive-test-no-noise-td3,96,248.02552488690955,299702,995,3108.8505289554596,57.68081283569336,,5.880577087402344,0.52
298,MetaDrive-test-no-noise-td3,96,248.37375429926206,300437,997,3116.60569691658,58.76051330566406,-58.88690948486328,6.390851020812988,0.52
299,MetaDrive-test-no-noise-td3,96,248.60133115978147,301005,999,3122.649399995804,56.86281204223633,-58.528785705566406,10.014067649841309,0.51
300,MetaDrive-test-no-noise-td3,96,246.67506001317318,302055,1001,3132.997031211853,54.406097412109375,-54.907508850097656,7.282214164733887,0.5
301,MetaDrive-test-no-noise-td3,96,243.91080214445162,303139,1004,3144.4465730190277,54.88699722290039,-55.33784103393555,103.81358337402344,0.48
302,MetaDrive-test-no-noise-td3,96,246.04731657014483,304442,1006,3157.8315613269806,55.09980392456055,,11.546448707580566,0.49
303,MetaDrive-test-no-noise-td3,96,244.20803635233034,305113,1008,3165.6710681915283,57.33868408203125,-57.48038101196289,10.51445484161377,0.47
304,MetaDrive-test-no-noise-td3,96,246.46295657201856,306124,1010,3175.5740151405334,52.533077239990234,,11.871850967407227,0.48
305,MetaDrive-test-no-noise-td3,96,248.21339278433723,307510,1012,3190.253076314926,52.073299407958984,,59.31550216674805,0.48
306,MetaDrive-test-no-noise-td3,96,248.03774846561475,308086,1013,3195.903445005417,55.83952713012695,,3.50476336479187,0.48
307,MetaDrive-test-no-noise-td3,96,252.36213068033408,309061,1015,3205.6181240081787,56.767669677734375,-57.56562423706055,6.529331684112549,0.5
308,MetaDrive-test-no-noise-td3,96,254.33866375826986,310225,1017,3217.87513422966,54.58879089355469,-55.5601692199707,7.298205375671387,0.51
309,MetaDrive-test-no-noise-td3,96,256.24132620357454,311593,1019,3231.728770971298,54.781158447265625,-55.31382369995117,7.625835418701172,0.51
310,MetaDrive-test-no-noise-td3,96,250.24629106667066,312355,1022,3239.0028409957886,57.10820388793945,-57.59191131591797,7.082995414733887,0.5
311,MetaDrive-test-no-noise-td3,96,248.6295779993866,313474,1024,3251.6444120407104,55.680641174316406,,10.873915672302246,0.49
312,MetaDrive-test-no-noise-td3,96,250.5272390341884,314465,1026,3262.496434211731,57.645240783691406,-57.70853042602539,9.244372367858887,0.5
313,MetaDrive-test-no-noise-td3,96,250.34770586218005,315064,1027,3269.042619228363,52.84978485107422,,96.35014343261719,0.5
314,MetaDrive-test-no-noise-td3,96,248.55695913542684,316114,1029,3279.6974861621857,54.41254806518555,,103.49833679199219,0.5
315,MetaDrive-test-no-noise-td3,96,251.4767299416777,317604,1031,3296.100579023361,54.179805755615234,,5.337857246398926,0.51
316,MetaDrive-test-no-noise-td3,96,252.60229633666594,318167,1033,3302.3043513298035,54.117103576660156,-55.152488708496094,7.81113862991333,0.51
317,MetaDrive-test-no-noise-td3,96,248.7953183715238,319443,1037,3314.9610822200775,58.025360107421875,-59.12061309814453,119.25528717041016,0.49
318,MetaDrive-test-no-noise-td3,96,248.495771579444,320456,1039,3325.471129179001,57.81802749633789,,5.973677635192871,0.49
319,MetaDrive-test-no-noise-td3,96,250.92323737448854,321291,1041,3334.523241996765,54.34845733642578,-54.04781723022461,6.454342842102051,0.5
320,MetaDrive-test-no-noise-td3,96,250.55565977592843,322193,1043,3343.6273152828217,54.501502990722656,-54.91796875,17.60321044921875,0.49
321,MetaDrive-test-no-noise-td3,96,253.46680420521446,323579,1046,3357.5458359718323,53.982730865478516,-54.979637145996094,11.264204025268555,0.49
322,MetaDrive-test-no-noise-td3,96,254.6300668430071,324228,1047,3364.208121061325,54.88656997680664,,6.7317657470703125,0.5
323,MetaDrive-test-no-noise-td3,96,258.72451417763574,325771,1049,3381.575291156769,58.774173736572266,-59.49454879760742,11.151294708251953,0.51
324,MetaDrive-test-no-noise-td3,96,257.84708339794156,326073,1050,3384.6218831539154,51.88607406616211,-52.820213317871094,29.075178146362305,0.5
325,MetaDrive-test-no-noise-td3,96,257.2979724063685,327334,1053,3397.7565932273865,56.963951110839844,,11.209927558898926,0.5
326,MetaDrive-test-no-noise-td3,96,258.42912656151896,328239,1056,3406.26602101326,56.931785583496094,-57.908775329589844,5.442967414855957,0.5
327,MetaDrive-test-no-noise-td3,96,256.8276878569394,329466,1058,3418.59073805809,55.02164840698242,,12.300844192504883,0.49
328,MetaDrive-test-no-noise-td3,96,257.64715821665277,330137,1060,3424.79194688797,55.4586296081543,-56.79583740234375,13.779338836669922,0.49
329,MetaDrive-test-no-noise-td3,96,257.40221870220137,331085,1062,3435.9530732631683,54.33897399902344,-55.252952575683594,66.80223846435547,0.47
330,MetaDrive-test-no-noise-td3,96,257.18141696188667,332583,1065,3451.6911511421204,55.26756286621094,-56.98238754272461,116.43515014648438,0.46
331,MetaDrive-test-no-noise-td3,96,258.6713121177203,333114,1066,3457.2954149246216,52.48964309692383,,21.966007232666016,0.47
332,MetaDrive-test-no-noise-td3,96,258.3127828137551,334904,1068,3476.085649251938,53.613956451416016,,12.344099044799805,0.47
333,MetaDrive-test-no-noise-td3,96,255.8338625311634,335043,1069,3477.5419969558716,56.097618103027344,-57.045955657958984,7.015522003173828,0.46
334,MetaDrive-test-no-noise-td3,96,257.5071051693442,336264,1073,3488.599086046219,57.60904312133789,,5.191162109375,0.47
335,MetaDrive-test-no-noise-td3,96,256.972579905631,337357,1075,3498.7542860507965,51.15385055541992,-52.16535186767578,66.11505126953125,0.47
336,MetaDrive-test-no-noise-td3,96,253.85328364123777,338483,1077,3510.0834622383118,53.449886322021484,-53.46122360229492,6.425685882568359,0.46
337,MetaDrive-test-no-noise-td3,96,253.79620245455624,339022,1079,3517.1599311828613,53.980430603027344,,17.681814193725586,0.45
338,MetaDrive-test-no-noise-td3,96,255.68876883623193,340231,1081,3528.602599143982,56.366432189941406,-56.035736083984375,20.601703643798828,0.45
339,MetaDrive-test-no-noise-td3,96,248.90311827922284,341292,1086,3539.0579030513763,54.6292724609375,,32.81404113769531,0.43
340,MetaDrive-test-no-noise-td3,96,245.7454836485897,342319,1089,3548.7317221164703,53.60734939575195,-53.96502685546875,6.932990074157715,0.41
341,MetaDrive-test-no-noise-td3,96,245.93377969634182,343320,1090,3560.0263390541077,53.52843475341797,,9.917677879333496,0.41
342,MetaDrive-test-no-noise-td3,96,240.0705396489342,344292,1095,3569.34610414505,57.82720947265625,,13.267343521118164,0.4
343,MetaDrive-test-no-noise-td3,96,241.31476365710293,345392,1097,3583.04688000679,57.55365753173828,,10.361564636230469,0.39
344,MetaDrive-test-no-noise-td3,96,243.05086283941847,346132,1098,3589.954285144806,53.70576858520508,,5.910759925842285,0.4
345,MetaDrive-test-no-noise-td3,96,246.16527261168628,347118,1099,3601.608664035797,53.82727813720703,,12.24654769897461,0.41
346,MetaDrive-test-no-noise-td3,96,243.58987646305985,348119,1100,3610.366562128067,51.88616943359375,-52.86756134033203,19.233699798583984,0.4
347,MetaDrive-test-no-noise-td3,96,244.0410960637194,349021,1103,3619.7727789878845,55.349639892578125,-55.93354034423828,7.861551761627197,0.39
348,MetaDrive-test-no-noise-td3,96,238.47344765450126,350127,1108,3630.706330060959,53.680030822753906,-54.258182525634766,7.408491134643555,0.38
349,MetaDrive-test-no-noise-td3,96,238.3871526597856,351104,1110,3640.5140142440796,54.711097717285156,,9.927568435668945,0.38
350,MetaDrive-test-no-noise-td3,96,235.90953364749947,352092,1112,3649.3451492786407,53.96643829345703,,43.454010009765625,0.38
351,MetaDrive-test-no-noise-td3,96,232.9723291945933,353196,1115,3660.37575507164,54.482505798339844,,8.60293197631836,0.36
352,MetaDrive-test-no-noise-td3,96,233.40273319649427,354121,1117,3670.4200270175934,54.92884826660156,-55.59287643432617,8.720544815063477,0.36
353,MetaDrive-test-no-noise-td3,96,231.40688521387005,355216,1120,3681.143914937973,53.686676025390625,,4.6384687423706055,0.37
354,MetaDrive-test-no-noise-td3,96,233.29290294164403,356156,1122,3690.9723629951477,52.596832275390625,,6.057924270629883,0.37
355,MetaDrive-test-no-noise-td3,96,232.69484241772543,357032,1124,3700.5153970718384,57.501243591308594,,9.420707702636719,0.37
356,MetaDrive-test-no-noise-td3,96,230.3967880137475,358423,1127,3713.5570459365845,56.12208557128906,-56.16065979003906,8.342101097106934,0.37
357,MetaDrive-test-no-noise-td3,96,230.627875251131,359023,1128,3720.2175331115723,50.856571197509766,-50.466026306152344,8.949615478515625,0.36
358,MetaDrive-test-no-noise-td3,96,226.58476677771768,360554,1131,3736.349753141403,56.21775817871094,,4.71018123626709,0.33
359,MetaDrive-test-no-noise-td3,96,228.30686157691906,361525,1133,3747.719761133194,53.56596755981445,-53.08312225341797,6.46577262878418,0.33
360,MetaDrive-test-no-noise-td3,96,228.03592674236907,362116,1135,3753.5609011650085,53.44908905029297,,51.857810974121094,0.33
361,MetaDrive-test-no-noise-td3,96,230.20080382089083,363301,1137,3765.579210996628,58.18354415893555,-58.13954544067383,11.246990203857422,0.35
362,MetaDrive-test-no-noise-td3,96,231.75724079665707,364302,1138,3775.6739161014557,53.95975875854492,,6.114050388336182,0.35
363,MetaDrive-test-no-noise-td3,96,229.52844224388696,365461,1141,3786.591173171997,54.37434005737305,-54.02542495727539,10.218939781188965,0.35
364,MetaDrive-test-no-noise-td3,96,232.14051723559743,366464,1143,3795.6660962104797,58.21866226196289,,4.563884735107422,0.37
365,MetaDrive-test-no-noise-td3,96,232.0164904394286,367075,1144,3801.3880512714386,54.548683166503906,-54.298866271972656,58.21485137939453,0.38
366,MetaDrive-test-no-noise-td3,96,228.06733203139277,368136,1148,3811.799651145935,55.748016357421875,,13.900267601013184,0.36
367,MetaDrive-test-no-noise-td3,96,227.14125996014025,369187,1150,3822.2646272182465,52.03861618041992,-52.10445022583008,5.81088924407959,0.37
368,MetaDrive-test-no-noise-td3,96,228.5560210912828,370278,1152,3833.1189501285553,51.16712188720703,,11.415924072265625,0.37
369,MetaDrive-test-no-noise-td3,96,230.9066522386658,371488,1154,3846.8215601444244,50.0472526550293,,18.687917709350586,0.37
370,MetaDrive-test-no-noise-td3,96,232.4219136819447,372012,1155,3851.584701061249,54.89940643310547,,11.85374927520752,0.38
371,MetaDrive-test-no-noise-td3,96,236.13254412424834,373531,1157,3868.3898351192474,56.89004898071289,-57.34062194824219,17.545930862426758,0.39
372,MetaDrive-test-no-noise-td3,96,235.15096572500167,374249,1159,3876.0498971939087,51.202125549316406,-52.39595031738281,48.862693786621094,0.4
373,MetaDrive-test-no-noise-td3,96,236.38054475208241,375570,1161,3890.4639983177185,53.773529052734375,,9.404111862182617,0.42
374,MetaDrive-test-no-noise-td3,96,238.71814784873703,376504,1163,3899.851781129837,58.616371154785156,,11.308145523071289,0.43
375,MetaDrive-test-no-noise-td3,96,237.0569431793117,377085,1165,3906.015600204468,52.35568618774414,-53.473297119140625,14.110713958740234,0.42
376,MetaDrive-test-no-noise-td3,96,234.9698203593724,378255,1168,3917.0344700813293,53.514617919921875,-54.53340148925781,10.071645736694336,0.41
377,MetaDrive-test-no-noise-td3,96,238.87009274344132,379419,1170,3929.556629896164,56.18414306640625,-57.24064254760742,36.07461929321289,0.42
378,MetaDrive-test-no-noise-td3,96,240.3438218084982,380363,1172,3939.355357170105,52.41246795654297,-52.78120422363281,11.657344818115234,0.42
379,MetaDrive-test-no-noise-td3,96,241.4205312974683,381060,1173,3946.7047941684723,54.72413635253906,,6.289913177490234,0.42
380,MetaDrive-test-no-noise-td3,96,243.2510068589479,382046,1174,3958.12920999527,54.20387649536133,,8.877450942993164,0.42
381,MetaDrive-test-no-noise-td3,96,246.52718452267192,383894,1177,3980.9867050647736,58.86650085449219,,9.393918991088867,0.41
382,MetaDrive-test-no-noise-td3,96,249.11868467016765,384714,1178,3991.481372117996,55.105674743652344,,6.542379379272461,0.42
383,MetaDrive-test-no-noise-td3,96,251.00119335635074,385387,1179,3998.329675912857,58.335548400878906,-58.85494613647461,10.671013832092285,0.43
384,MetaDrive-test-no-noise-td3,96,249.72903641499076,386387,1181,4007.9766211509705,55.50591278076172,-56.29484176635742,6.931992530822754,0.43
385,MetaDrive-test-no-noise-td3,96,250.9344066931883,387068,1183,4015.032914161682,54.307125091552734,,10.984333992004395,0.43
386,MetaDrive-test-no-noise-td3,96,255.82193780040808,388428,1185,4028.7005701065063,58.150047302246094,,4.264864444732666,0.44
387,MetaDrive-test-no-noise-td3,96,256.62374356159154,389441,1187,4037.5611391067505,57.79993438720703,-57.5471305847168,5.513845443725586,0.45
388,MetaDrive-test-no-noise-td3,96,257.1280649749505,390144,1188,4043.5690801143646,56.388729095458984,,15.175357818603516,0.46
389,MetaDrive-test-no-noise-td3,96,255.7694716969397,391240,1191,4053.8259551525116,55.94330978393555,,6.749371528625488,0.46
390,MetaDrive-test-no-noise-td3,96,259.04151644782974,392077,1193,4061.2431530952454,60.45794677734375,-60.548553466796875,14.572855949401855,0.47
391,MetaDrive-test-no-noise-td3,96,260.94306263755885,393449,1196,4074.7331671714783,55.72210693359375,-56.789306640625,8.367473602294922,0.47
392,MetaDrive-test-no-noise-td3,96,260.6923232058223,394256,1197,4082.946573972702,54.73858642578125,,7.886446952819824,0.48
393,MetaDrive-test-no-noise-td3,96,260.1227776231029,395257,1198,4093.5781149864197,55.18052291870117,-55.93167495727539,8.142071723937988,0.47
394,MetaDrive-test-no-noise-td3,96,256.7047752489957,396044,1201,4101.118668079376,52.36172103881836,,140.99853515625,0.46
395,MetaDrive-test-no-noise-td3,96,256.46555525722465,397099,1204,4112.049900054932,49.84071731567383,-49.168556213378906,14.45474624633789,0.47
396,MetaDrive-test-no-noise-td3,96,260.6475221760669,398262,1206,4123.600328207016,58.905235290527344,,6.839067459106445,0.49
397,MetaDrive-test-no-noise-td3,96,262.7663069974385,399227,1208,4133.162473917007,57.00144958496094,-57.415321350097656,8.638830184936523,0.49
398,MetaDrive-test-no-noise-td3,96,257.8831401184971,400610,1212,4148.892867088318,52.7320442199707,,8.940247535705566,0.45
399,MetaDrive-test-no-noise-td3,96,254.40459413442727,401016,1214,4153.266387224197,55.11799240112305,,10.85071849822998,0.44
400,MetaDrive-test-no-noise-td3,96,255.68982994977665,402310,1217,4167.312126159668,52.04155349731445,,5.477226734161377,0.44
401,MetaDrive-test-no-noise-td3,96,258.7556728354304,403613,1219,4180.779197216034,54.00511169433594,-53.77067947387695,10.794719696044922,0.44
402,MetaDrive-test-no-noise-td3,96,259.3279869638252,404890,1221,4194.315652132034,48.62787628173828,,14.556295394897461,0.42
403,MetaDrive-test-no-noise-td3,96,259.3343525700309,405202,1222,4197.480050086975,56.64466857910156,,12.80859375,0.42
404,MetaDrive-test-no-noise-td3,96,258.59215256811325,406066,1224,4205.922296047211,57.65188980102539,,4.94795036315918,0.41
405,MetaDrive-test-no-noise-td3,96,256.3223600525361,407041,1227,4215.113750934601,57.164459228515625,-56.91584777832031,9.32911491394043,0.39
406,MetaDrive-test-no-noise-td3,96,256.7578943595356,408324,1229,4226.79820728302,53.69659423828125,,11.391822814941406,0.41
407,MetaDrive-test-no-noise-td3,96,256.809467791982,409577,1232,4240.714586019516,57.12657165527344,-57.098628997802734,8.470330238342285,0.42
408,MetaDrive-test-no-noise-td3,96,257.50034861928253,410377,1233,4248.200993061066,55.01353454589844,-55.06374740600586,8.836095809936523,0.43
409,MetaDrive-test-no-noise-td3,96,260.66808479690656,411378,1234,4257.162979125977,58.485382080078125,,7.540642261505127,0.43
410,MetaDrive-test-no-noise-td3,96,263.39121970017686,412379,1235,4269.399724960327,57.900634765625,-58.10547637939453,5.240129470825195,0.43
411,MetaDrive-test-no-noise-td3,96,257.98527600804033,413048,1238,4275.859043121338,53.977806091308594,,18.966670989990234,0.41
412,MetaDrive-test-no-noise-td3,96,260.6312383627271,414256,1240,4287.38747215271,57.72657775878906,,22.46172332763672,0.41
413,MetaDrive-test-no-noise-td3,96,259.6923950343012,415264,1242,4298.582359075546,52.85948944091797,,114.20442962646484,0.4
414,MetaDrive-test-no-noise-td3,96,258.0900576604734,416265,1243,4308.415297031403,58.77043151855469,-59.403236389160156,7.790667533874512,0.39
415,MetaDrive-test-no-noise-td3,96,257.34230799286416,417809,1246,4325.356784105301,56.420021057128906,-56.76240539550781,13.217602729797363,0.38
416,MetaDrive-test-no-noise-td3,96,258.2678101179061,418153,1247,4328.9202880859375,55.733070373535156,-55.88683319091797,4.831214904785156,0.38
417,MetaDrive-test-no-noise-td3,96,259.3162333166359,419527,1249,4347.011883020401,56.28397750854492,-57.26353073120117,36.43186950683594,0.37
418,MetaDrive-test-no-noise-td3,96,260.23865134377957,420528,1250,4357.127213001251,56.85083770751953,,11.136969566345215,0.36
419,MetaDrive-test-no-noise-td3,96,260.3645988032603,421606,1252,4368.241888999939,56.46106719970703,,6.823573112487793,0.37
420,MetaDrive-test-no-noise-td3,96,262.66518501615747,422349,1253,4375.979053974152,57.91880798339844,-58.386043548583984,7.690959453582764,0.38
421,MetaDrive-test-no-noise-td3,96,260.6198415567034,423694,1255,4392.707832098007,59.22845458984375,,28.16913414001465,0.36
422,MetaDrive-test-no-noise-td3,96,257.9762650975843,424161,1256,4396.504978179932,50.284706115722656,-50.316253662109375,9.859546661376953,0.36
423,MetaDrive-test-no-noise-td3,96,256.610332552628,425714,1259,4411.365278244019,54.56658935546875,,32.45303726196289,0.34
424,MetaDrive-test-no-noise-td3,96,257.1028661748384,426378,1260,4417.701799154282,50.9460563659668,,5.87783145904541,0.34
425,MetaDrive-test-no-noise-td3,96,255.35428026252666,427084,1262,4424.249037981033,58.60511016845703,,5.854414939880371,0.33
426,MetaDrive-test-no-noise-td3,96,257.409873281482,428788,1264,4441.057934045792,55.74352264404297,,7.823688507080078,0.34
427,MetaDrive-test-no-noise-td3,96,260.1543945138626,429582,1265,4448.94205904007,53.74805450439453,,7.3143768310546875,0.34
428,MetaDrive-test-no-noise-td3,96,261.72575332393455,430235,1266,4454.935320138931,58.59053039550781,-58.841732025146484,10.52143669128418,0.35
429,MetaDrive-test-no-noise-td3,96,262.538470177239,431372,1268,4466.5072021484375,50.25023651123047,,21.900287628173828,0.35
430,MetaDrive-test-no-noise-td3,96,260.81328698704687,432390,1270,4475.548772096634,56.68715286254883,,8.559828758239746,0.35
431,MetaDrive-test-no-noise-td3,96,259.3003394116272,433131,1272,4482.112745285034,57.21076965332031,-57.3757438659668,20.94628143310547,0.36
432,MetaDrive-test-no-noise-td3,96,257.81302113227537,434619,1274,4501.7360990047455,55.26275634765625,-56.49182891845703,11.43936538696289,0.34
433,MetaDrive-test-no-noise-td3,96,259.9822057242225,435620,1275,4511.656115293503,50.87860870361328,,13.907266616821289,0.34
434,MetaDrive-test-no-noise-td3,96,260.38671897777533,436308,1276,4518.967949151993,56.05713653564453,,9.042011260986328,0.35
435,MetaDrive-test-no-noise-td3,96,260.08640813836695,437127,1277,4527.306557178497,55.6270751953125,-56.32319259643555,11.6710786819458,0.36
436,MetaDrive-test-no-noise-td3,96,256.5348772325488,438434,1279,4540.058153152466,56.713539123535156,,6.504113674163818,0.35
437,MetaDrive-test-no-noise-td3,96,255.85362852396602,439435,1280,4551.550805091858,54.889156341552734,-54.441925048828125,14.314638137817383,0.35
438,MetaDrive-test-no-noise-td3,96,255.77428239338025,440221,1282,4558.422929048538,55.97081756591797,-56.182579040527344,7.804245948791504,0.35
439,MetaDrive-test-no-noise-td3,96,255.35968052080395,441967,1284,4575.596982002258,54.56998062133789,-54.06316375732422,101.42259216308594,0.34
440,MetaDrive-test-no-noise-td3,96,253.1146264175903,442173,1285,4577.50413608551,57.34721374511719,-56.98917007446289,10.30441665649414,0.34
441,MetaDrive-test-no-noise-td3,96,254.59862533835587,443036,1286,4588.092472076416,57.215145111083984,,50.33545684814453,0.34
442,MetaDrive-test-no-noise-td3,96,259.06583557780095,444788,1288,4608.151887178421,55.271366119384766,,36.93961715698242,0.33
443,MetaDrive-test-no-noise-td3,96,261.09100925804415,445283,1289,4612.580884933472,52.39956283569336,-53.0013427734375,21.21208953857422,0.33
444,MetaDrive-test-no-noise-td3,96,262.80840626758584,446284,1290,4624.083534002304,60.28059005737305,,6.891819000244141,0.33
445,MetaDrive-test-no-noise-td3,96,263.4337691929588,447048,1291,4630.298135995865,52.98796844482422,,21.037166595458984,0.33
446,MetaDrive-test-no-noise-td3,96,264.1032357665951,448440,1294,4644.625093221664,51.81318283081055,,7.934494972229004,0.34
447,MetaDrive-test-no-noise-td3,96,265.4604013873133,449056,1295,4651.422611236572,55.278236389160156,,6.840353965759277,0.34
448,MetaDrive-test-no-noise-td3,96,267.1856859742706,450057,1296,4662.937224149704,59.14162063598633,-59.46120834350586,11.257843017578125,0.33
449,MetaDrive-test-no-noise-td3,96,264.9559943813149,451554,1298,4676.871162176132,53.82132339477539,,40.82698059082031,0.34
450,MetaDrive-test-no-noise-td3,96,267.4691257527171,452280,1299,4684.464359045029,56.5286865234375,,7.365872383117676,0.35
451,MetaDrive-test-no-noise-td3,96,268.08091788082834,453281,1300,4692.963782072067,49.2197265625,-49.40934753417969,9.254858016967773,0.35
452,MetaDrive-test-no-noise-td3,96,270.95587367465566,454282,1301,4704.781923055649,57.81817626953125,,29.966297149658203,0.35
453,MetaDrive-test-no-noise-td3,96,273.3844129690227,455484,1303,4721.844835996628,57.315670013427734,,23.431102752685547,0.35
454,MetaDrive-test-no-noise-td3,96,272.5726385719895,456361,1305,4729.650496006012,55.72401428222656,-55.96566390991211,6.603229522705078,0.34
455,MetaDrive-test-no-noise-td3,96,272.9257073840142,457362,1306,4739.87511920929,57.95063018798828,,8.079795837402344,0.33
456,MetaDrive-test-no-noise-td3,96,271.39478751831416,458225,1308,4748.791655063629,54.65839385986328,-54.65104675292969,5.488763809204102,0.32
457,MetaDrive-test-no-noise-td3,96,272.9696181398152,459170,1309,4757.299047231674,53.55461502075195,,5.099081993103027,0.33
458,MetaDrive-test-no-noise-td3,96,276.0209056957811,460315,1311,4769.448701143265,56.64427947998047,-57.244911193847656,5.517080307006836,0.34
459,MetaDrive-test-no-noise-td3,96,275.84817681425625,461033,1313,4777.597312927246,54.0000114440918,-54.369930267333984,4.801145553588867,0.34
460,MetaDrive-test-no-noise-td3,96,278.9450448592116,462030,1314,4786.709171295166,53.5632209777832,,21.38945770263672,0.35
461,MetaDrive-test-no-noise-td3,96,284.4800515728124,463796,1316,4805.425947189331,57.212852478027344,,13.038583755493164,0.36
462,MetaDrive-test-no-noise-td3,96,283.0904420378757,464371,1317,4810.197896242142,53.18212127685547,-52.75086212158203,9.186296463012695,0.36
463,MetaDrive-test-no-noise-td3,96,281.1607459964506,465419,1319,4820.294641256332,53.84512710571289,-54.72841262817383,9.298357009887695,0.37
464,MetaDrive-test-no-noise-td3,96,282.4158469924278,466647,1321,4833.0057599544525,53.26872634887695,-53.77206802368164,4.9023895263671875,0.39
465,MetaDrive-test-no-noise-td3,96,283.2529097450398,467193,1322,4838.325745105743,56.93169403076172,-57.408599853515625,7.510066032409668,0.4
466,MetaDrive-test-no-noise-td3,96,283.302204399884,468038,1324,4846.244822025299,54.40098190307617,,6.290605545043945,0.41
467,MetaDrive-test-no-noise-td3,96,286.1276566441353,469434,1326,4859.954312086105,52.43309783935547,,6.060441017150879,0.43
468,MetaDrive-test-no-noise-td3,96,287.03554167067284,470370,1327,4867.402751922607,52.59701156616211,,26.17652702331543,0.44
469,MetaDrive-test-no-noise-td3,96,286.4740680077662,471371,1328,4878.697279214859,57.45289993286133,-57.52748107910156,7.236445903778076,0.43
470,MetaDrive-test-no-noise-td3,96,286.23526068874867,472372,1329,4887.922123908997,52.72884750366211,,77.41316223144531,0.42
471,MetaDrive-test-no-noise-td3,96,287.0696928972007,473373,1330,4899.982088088989,49.27660369873047,-50.44812774658203,7.5614728927612305,0.42
472,MetaDrive-test-no-noise-td3,96,289.3472198425455,474374,1331,4909.490570306778,55.43425750732422,,12.385793685913086,0.42
473,MetaDrive-test-no-noise-td3,96,288.94371731264624,475275,1332,4918.683645248413,51.379539489746094,-51.84907913208008,4.979745388031006,0.42
474,MetaDrive-test-no-noise-td3,96,287.4000754782252,476276,1333,4927.033894062042,58.72627258300781,,10.771114349365234,0.41
475,MetaDrive-test-no-noise-td3,96,287.0510263275199,477277,1334,4936.210369110107,51.73755645751953,-52.56405258178711,9.453857421875,0.41
476,MetaDrive-test-no-noise-td3,96,286.3799469830155,478278,1335,4949.127483129501,54.22407531738281,,8.644434928894043,0.41
477,MetaDrive-test-no-noise-td3,96,289.7470539192718,479479,1337,4960.545315980911,53.41484451293945,-53.300804138183594,5.1528496742248535,0.43
478,MetaDrive-test-no-noise-td3,96,291.67361724458164,480242,1338,4968.262836933136,57.46932601928711,,11.045753479003906,0.43
479,MetaDrive-test-no-noise-td3,96,291.65027549011955,481009,1339,4976.372244119644,53.355873107910156,-53.75191879272461,11.982248306274414,0.43
480,MetaDrive-test-no-noise-td3,96,289.0299993370309,482316,1342,4992.363391876221,52.76959228515625,,6.501459121704102,0.41
481,MetaDrive-test-no-noise-td3,96,289.9533719581865,483070,1344,4999.2488622665405,55.87740707397461,,4.914491176605225,0.41
482,MetaDrive-test-no-noise-td3,96,288.4864569507012,484532,1347,5012.449725151062,52.9495964050293,,17.703994750976562,0.42
483,MetaDrive-test-no-noise-td3,96,288.5459656397739,485144,1348,5020.073264122009,52.9312858581543,,10.588875770568848,0.42
484,MetaDrive-test-no-noise-td3,96,289.20844523989695,486010,1349,5028.065773010254,51.50224304199219,,6.158571720123291,0.43
485,MetaDrive-test-no-noise-td3,96,290.55315458852056,487360,1351,5041.462759256363,52.241424560546875,,6.984586238861084,0.43
486,MetaDrive-test-no-noise-td3,96,290.35331533933254,488562,1353,5054.632369041443,48.39097213745117,,78.64994049072266,0.42
487,MetaDrive-test-no-noise-td3,96,291.0075695746262,489083,1354,5060.387809991837,55.32258987426758,-56.10621643066406,11.75895881652832,0.42
488,MetaDrive-test-no-noise-td3,96,292.80250362947993,490022,1355,5072.669996976852,52.530574798583984,,11.401130676269531,0.43
489,MetaDrive-test-no-noise-td3,96,294.7986902992282,491023,1356,5086.235272169113,50.58086395263672,-50.19670867919922,15.194818496704102,0.42
490,MetaDrive-test-no-noise-td3,96,297.132838069611,492898,1359,5104.01334810257,51.32169723510742,,11.372943878173828,0.43
491,MetaDrive-test-no-noise-td3,96,296.5637097871691,493357,1360,5107.869782924652,53.56940841674805,-53.81557083129883,9.026055335998535,0.43
492,MetaDrive-test-no-noise-td3,96,297.6977710341182,494004,1361,5113.607917070389,58.22401428222656,,4.219515323638916,0.44
493,MetaDrive-test-no-noise-td3,96,293.1599390154735,495318,1364,5127.228078126907,54.86534118652344,,11.602201461791992,0.43
494,MetaDrive-test-no-noise-td3,96,289.6252442854079,496092,1366,5134.039315223694,52.232574462890625,,5.776335716247559,0.43
495,MetaDrive-test-no-noise-td3,96,290.1536976547039,497292,1368,5146.335525035858,55.90489196777344,,4.496325492858887,0.43
496,MetaDrive-test-no-noise-td3,96,290.4576905982806,498177,1370,5155.052114248276,49.093082427978516,-49.27585220336914,8.770817756652832,0.43
497,MetaDrive-test-no-noise-td3,96,291.2207352628063,499178,1371,5163.848246097565,50.37748718261719,,10.066980361938477,0.42
