TanmayH/CS269-RL-project-code/MetaDrive-td3combine-expt_with_safe-leaky-adamw-in/MetaDrive-Gen-Next-v2/td3/progress.csv
,log_dir,frame_per_second,episode_reward,total_steps,total_episodes,total_time,actor_loss,critic_loss,target_q,success_rate
0,MetaDrive-td3combine-expt_with_safe-leaky-adamw-in,349,77.89050441373782,1059,2,3.02803111076355,-28.963436126708984,1.150079369544983,28.93325424194336,0.0
1,MetaDrive-td3combine-expt_with_safe-leaky-adamw-in,134,75.1566259430151,2060,3,15.328357934951782,,3.4651167392730713,23.83721160888672,0.0
2,MetaDrive-td3combine-expt_with_safe-leaky-adamw-in,109,56.21624515862619,3012,7,27.444867849349976,,2.8509469032287598,24.444211959838867,0.0
3,MetaDrive-td3combine-expt_with_safe-leaky-adamw-in,101,62.859202045648544,4013,8,39.53726291656494,-22.69037437438965,1.4391145706176758,22.641815185546875,0.0
4,MetaDrive-td3combine-expt_with_safe-leaky-adamw-in,92,67.89952656405585,5801,11,62.73655986785889,-30.137306213378906,3.365903854370117,30.28867530822754,0.0
5,MetaDrive-td3combine-expt_with_safe-leaky-adamw-in,91,65.39812929361118,6035,12,65.66491985321045,-29.079710006713867,2.6483659744262695,29.011632919311523,0.0
6,MetaDrive-td3combine-expt_with_safe-leaky-adamw-in,90,68.66119067771014,7036,13,77.61778211593628,,1.4066219329833984,26.124610900878906,0.0
7,MetaDrive-td3combine-expt_with_safe-leaky-adamw-in,89,79.08696332907452,8068,15,90.1032829284668,,1.6394314765930176,26.40818214416504,0.0
8,MetaDrive-td3combine-expt_with_safe-leaky-adamw-in,89,79.41537086933027,9069,16,101.76239895820618,-22.040830612182617,1.1570032835006714,21.833049774169922,0.0
9,MetaDrive-td3combine-expt_with_safe-leaky-adamw-in,88,80.2462594745181,10214,18,115.32084584236145,,1.1313787698745728,21.493478775024414,0.0
10,MetaDrive-td3combine-expt_with_safe-leaky-adamw-in,88,79.93998547114437,11215,19,127.18294095993042,-21.794649124145508,4.867055892944336,21.044633865356445,0.0
11,MetaDrive-td3combine-expt_with_safe-leaky-adamw-in,87,75.1600240759624,12312,22,140.42870473861694,,22.090576171875,23.701929092407227,0.0
12,MetaDrive-td3combine-expt_with_safe-leaky-adamw-in,87,81.85506681113277,13094,26,150.43932700157166,,1.939121961593628,22.846864700317383,0.038461538461538464
13,MetaDrive-td3combine-expt_with_safe-leaky-adamw-in,86,87.30143233711809,14095,27,162.44186401367188,-26.084232330322266,4.663508415222168,26.275611877441406,0.037037037037037035
14,MetaDrive-td3combine-expt_with_safe-leaky-adamw-in,86,89.35064756307641,15096,28,174.7186300754547,,3.5479397773742676,21.568523406982422,0.03571428571428571
15,MetaDrive-td3combine-expt_with_safe-leaky-adamw-in,86,93.55735132875805,16097,29,186.62310099601746,-24.020891189575195,4.6555705070495605,24.571521759033203,0.034482758620689655
16,MetaDrive-td3combine-expt_with_safe-leaky-adamw-in,86,95.06516549285514,17098,30,198.7016258239746,,4.60853910446167,21.88965606689453,0.03333333333333333
17,MetaDrive-td3combine-expt_with_safe-leaky-adamw-in,85,93.68621895975815,18099,31,211.05823183059692,-20.235530853271484,7.847332000732422,20.5478572845459,0.03225806451612903
18,MetaDrive-td3combine-expt_with_safe-leaky-adamw-in,85,96.07768713334369,19772,33,231.73972582817078,,4.131972312927246,18.731555938720703,0.030303030303030304
19,MetaDrive-td3combine-expt_with_safe-leaky-adamw-in,85,95.22320058209786,20773,34,243.47839498519897,-24.071552276611328,7.147464752197266,23.290925979614258,0.029411764705882353
20,MetaDrive-td3combine-expt_with_safe-leaky-adamw-in,85,102.03685292731025,21774,35,255.83563613891602,,4.612063884735107,19.82433319091797,0.02857142857142857
21,MetaDrive-td3combine-expt_with_safe-leaky-adamw-in,84,106.79816212300005,22775,36,268.4467921257019,-19.317974090576172,13.034667015075684,18.98163604736328,0.027777777777777776
22,MetaDrive-td3combine-expt_with_safe-leaky-adamw-in,84,111.32308449112635,23776,37,280.56886887550354,,3.212257146835327,17.29831886291504,0.02702702702702703
23,MetaDrive-td3combine-expt_with_safe-leaky-adamw-in,84,117.17990040127432,24777,38,292.92236614227295,-23.890052795410156,3.7886767387390137,23.756258010864258,0.02631578947368421
24,MetaDrive-td3combine-expt_with_safe-leaky-adamw-in,84,117.70248873433128,25778,39,305.33147501945496,,3.456712245941162,16.002357482910156,0.02564102564102564
25,MetaDrive-td3combine-expt_with_safe-leaky-adamw-in,84,117.30780413930715,26779,40,317.8966898918152,-17.747215270996094,2.1748647689819336,16.853235244750977,0.025
26,MetaDrive-td3combine-expt_with_safe-leaky-adamw-in,84,118.2446733262569,27780,41,329.69633388519287,,2.9506618976593018,19.22247314453125,0.024390243902439025
27,MetaDrive-td3combine-expt_with_safe-leaky-adamw-in,84,128.25076237744713,28361,42,336.9676389694214,-17.07715606689453,4.344447612762451,15.923863410949707,0.047619047619047616
28,MetaDrive-td3combine-expt_with_safe-leaky-adamw-in,84,130.29005930922239,29106,43,345.8507969379425,,4.8154706954956055,14.893774032592773,0.046511627906976744
29,MetaDrive-td3combine-expt_with_safe-leaky-adamw-in,84,134.1145397619052,30107,44,357.651123046875,-22.519515991210938,2.6373744010925293,22.551815032958984,0.045454545454545456
30,MetaDrive-td3combine-expt_with_safe-leaky-adamw-in,83,137.7961628068784,31733,46,378.26108407974243,-21.663103103637695,7.584596633911133,20.4881591796875,0.043478260869565216
31,MetaDrive-td3combine-expt_with_safe-leaky-adamw-in,83,142.68989804048226,32080,47,382.58444809913635,,2.376722812652588,16.121421813964844,0.06382978723404255
32,MetaDrive-td3combine-expt_with_safe-leaky-adamw-in,83,142.89331989110772,33081,48,394.5472378730774,-15.129897117614746,47.383995056152344,14.776093482971191,0.0625
33,MetaDrive-td3combine-expt_with_safe-leaky-adamw-in,83,141.30235697024236,34195,50,408.38528299331665,-21.574283599853516,10.057600021362305,20.934446334838867,0.06
34,MetaDrive-td3combine-expt_with_safe-leaky-adamw-in,83,153.89904173721266,35522,53,425.10542488098145,,51.58653259277344,23.381519317626953,0.09433962264150944
35,MetaDrive-td3combine-expt_with_safe-leaky-adamw-in,83,154.78875502300056,36632,55,438.44408679008484,,12.069282531738281,22.57514762878418,0.09090909090909091
36,MetaDrive-td3combine-expt_with_safe-leaky-adamw-in,83,154.28996960231694,37049,56,444.00726199150085,-23.07918357849121,5.113537788391113,21.720550537109375,0.08928571428571429
37,MetaDrive-td3combine-expt_with_safe-leaky-adamw-in,83,155.58861649654543,38050,57,457.0329399108887,,2.729564666748047,19.809091567993164,0.08771929824561403
38,MetaDrive-td3combine-expt_with_safe-leaky-adamw-in,83,157.45437556390246,39139,59,470.93425488471985,-18.549829483032227,3.3288414478302,17.84615707397461,0.0847457627118644
39,MetaDrive-td3combine-expt_with_safe-leaky-adamw-in,82,160.91591650384433,40501,61,488.09523582458496,-22.857711791992188,12.964646339416504,22.176105499267578,0.09836065573770492
40,MetaDrive-td3combine-expt_with_safe-leaky-adamw-in,82,160.6890934515732,41502,62,500.6041660308838,,4.07978630065918,24.642234802246094,0.0967741935483871
41,MetaDrive-td3combine-expt_with_safe-leaky-adamw-in,82,160.94967326017385,42697,64,515.4815139770508,-29.676279067993164,3.011188507080078,29.205623626708984,0.09375
42,MetaDrive-td3combine-expt_with_safe-leaky-adamw-in,82,160.25285312651542,43698,65,527.8836629390717,,6.644810676574707,23.781795501708984,0.09230769230769231
43,MetaDrive-td3combine-expt_with_safe-leaky-adamw-in,82,163.2695644123022,44112,66,533.0589210987091,,2.6082372665405273,22.940011978149414,0.10606060606060606
44,MetaDrive-td3combine-expt_with_safe-leaky-adamw-in,82,162.13063669654377,45113,67,545.1607897281647,-21.9119815826416,3.4660532474517822,21.230445861816406,0.1044776119402985
45,MetaDrive-td3combine-expt_with_safe-leaky-adamw-in,82,163.70800336177302,46114,68,557.7050771713257,,5.394430637359619,21.902591705322266,0.10294117647058823
46,MetaDrive-td3combine-expt_with_safe-leaky-adamw-in,82,165.83902739135965,47201,70,571.0926749706268,-25.7640438079834,5.178677558898926,24.43712615966797,0.1
47,MetaDrive-td3combine-expt_with_safe-leaky-adamw-in,82,164.99886446630697,48202,71,582.9801759719849,,1.5160776376724243,21.016155242919922,0.09859154929577464
48,MetaDrive-td3combine-expt_with_safe-leaky-adamw-in,82,164.8306837815366,49203,72,595.2407329082489,-19.382841110229492,18.96051788330078,19.034576416015625,0.09722222222222222
49,MetaDrive-td3combine-expt_with_safe-leaky-adamw-in,82,162.86711523886302,50301,74,608.5935461521149,-16.82731056213379,16.254770278930664,17.104385375976562,0.0945945945945946
50,MetaDrive-td3combine-expt_with_safe-leaky-adamw-in,82,162.11672132573986,51429,77,623.2279279232025,-20.435983657836914,4.655849456787109,19.316177368164062,0.09090909090909091
51,MetaDrive-td3combine-expt_with_safe-leaky-adamw-in,82,159.88628036797977,52066,79,631.310299873352,,34.96636962890625,21.96335792541504,0.08860759493670886
52,MetaDrive-td3combine-expt_with_safe-leaky-adamw-in,82,159.4176974996272,53067,80,643.453430891037,-27.766000747680664,32.44701385498047,27.407196044921875,0.0875
53,MetaDrive-td3combine-expt_with_safe-leaky-adamw-in,82,159.3536576922126,54068,81,655.690144777298,,3.557406425476074,21.607128143310547,0.08641975308641975
54,MetaDrive-td3combine-expt_with_safe-leaky-adamw-in,82,158.33113385577886,55069,82,668.0474650859833,-17.385210037231445,3.4969911575317383,16.256237030029297,0.08536585365853659
55,MetaDrive-td3combine-expt_with_safe-leaky-adamw-in,82,158.31167399891768,56897,84,690.6457529067993,-17.234163284301758,26.702682495117188,16.303878784179688,0.08333333333333333
56,MetaDrive-td3combine-expt_with_safe-leaky-adamw-in,82,160.74810764303322,57403,85,697.1390590667725,-23.91388702392578,4.374619007110596,23.491989135742188,0.09411764705882353
57,MetaDrive-td3combine-expt_with_safe-leaky-adamw-in,82,161.92280459548232,58648,87,713.0946869850159,,2.3509063720703125,15.973000526428223,0.10344827586206896
58,MetaDrive-td3combine-expt_with_safe-leaky-adamw-in,82,161.49482586296352,59649,88,726.1302690505981,-24.490497589111328,8.048990249633789,23.931028366088867,0.10227272727272728
59,MetaDrive-td3combine-expt_with_safe-leaky-adamw-in,82,163.7590757879486,60918,90,741.7766749858856,,16.46868133544922,21.32033920288086,0.1
60,MetaDrive-td3combine-expt_with_safe-leaky-adamw-in,82,163.5820816286245,61071,91,743.8630847930908,-20.543703079223633,8.393682479858398,20.449119567871094,0.0989010989010989
61,MetaDrive-td3combine-expt_with_safe-leaky-adamw-in,82,163.91661266776313,62072,92,756.222188949585,,10.16678237915039,30.46879005432129,0.09782608695652174
62,MetaDrive-td3combine-expt_with_safe-leaky-adamw-in,81,163.2876093738428,63333,95,772.4943549633026,-22.297576904296875,8.938422203063965,21.762470245361328,0.09473684210526316
63,MetaDrive-td3combine-expt_with_safe-leaky-adamw-in,81,166.47098368281456,64333,98,785.1773657798767,-25.51267433166504,5.950353145599365,24.963342666625977,0.11224489795918367
64,MetaDrive-td3combine-expt_with_safe-leaky-adamw-in,81,165.79557802376564,65334,99,797.5658190250397,,5.722908020019531,24.569942474365234,0.1111111111111111
65,MetaDrive-td3combine-expt_with_safe-leaky-adamw-in,81,165.82866841180856,66335,100,809.9241609573364,-21.355566024780273,12.32766056060791,20.563304901123047,0.11
66,MetaDrive-td3combine-expt_with_safe-leaky-adamw-in,81,167.91228533873874,67336,101,822.4203910827637,,7.561275005340576,23.77104949951172,0.11
67,MetaDrive-td3combine-expt_with_safe-leaky-adamw-in,81,171.21621502360253,68539,103,837.8683788776398,-16.21599769592285,6.462569236755371,15.87053108215332,0.11
68,MetaDrive-td3combine-expt_with_safe-leaky-adamw-in,81,176.90804095724755,69943,106,855.4679939746857,-20.847925186157227,25.71502113342285,21.229869842529297,0.12
69,MetaDrive-td3combine-expt_with_safe-leaky-adamw-in,81,177.8614416165771,70944,107,868.3078439235687,,4.314774036407471,18.314693450927734,0.12
70,MetaDrive-td3combine-expt_with_safe-leaky-adamw-in,81,178.45853492996503,71945,108,880.5153288841248,-16.81926155090332,7.054043292999268,15.88247299194336,0.12
71,MetaDrive-td3combine-expt_with_safe-leaky-adamw-in,81,178.76637446260503,72946,109,893.6267919540405,,5.777273178100586,23.220422744750977,0.12
72,MetaDrive-td3combine-expt_with_safe-leaky-adamw-in,81,180.10035794488667,73101,110,895.8452360630035,-19.5869083404541,5.20988655090332,19.18851089477539,0.12
73,MetaDrive-td3combine-expt_with_safe-leaky-adamw-in,81,182.33828037334467,74305,113,911.0428738594055,-18.272729873657227,2.30914306640625,17.53013038635254,0.12
74,MetaDrive-td3combine-expt_with_safe-leaky-adamw-in,81,181.73488162800044,75497,115,927.1940069198608,-17.60594940185547,6.055290222167969,16.976362228393555,0.12
75,MetaDrive-td3combine-expt_with_safe-leaky-adamw-in,81,182.2009675519782,76327,116,937.2289180755615,-28.01791763305664,62.70946502685547,27.480112075805664,0.12
76,MetaDrive-td3combine-expt_with_safe-leaky-adamw-in,81,181.80288396573076,77328,117,949.8179969787598,,8.808420181274414,19.999629974365234,0.12
77,MetaDrive-td3combine-expt_with_safe-leaky-adamw-in,81,183.72470300465685,78883,119,969.9667029380798,-29.595678329467773,15.522090911865234,29.316919326782227,0.13
78,MetaDrive-td3combine-expt_with_safe-leaky-adamw-in,81,185.50027812859506,79110,120,972.9586670398712,,12.83729362487793,18.4572811126709,0.13
79,MetaDrive-td3combine-expt_with_safe-leaky-adamw-in,81,186.47568510961045,80111,121,986.1105160713196,-21.06878662109375,6.880060195922852,20.185283660888672,0.13
80,MetaDrive-td3combine-expt_with_safe-leaky-adamw-in,81,187.03520422532634,81112,122,998.6305339336395,,4.477143287658691,22.810041427612305,0.13
81,MetaDrive-td3combine-expt_with_safe-leaky-adamw-in,81,187.20381350287346,82113,123,1012.1673629283905,-21.97487449645996,8.291435241699219,21.59050178527832,0.13
82,MetaDrive-td3combine-expt_with_safe-leaky-adamw-in,81,186.87559478717728,83504,125,1030.3515570163727,,115.48348999023438,23.71077537536621,0.12
83,MetaDrive-td3combine-expt_with_safe-leaky-adamw-in,80,187.50717945426592,84505,126,1043.9217507839203,-26.522268295288086,18.29271697998047,25.571598052978516,0.12
84,MetaDrive-td3combine-expt_with_safe-leaky-adamw-in,80,186.33140654624242,85506,127,1056.4457187652588,,26.362728118896484,25.171897888183594,0.12
85,MetaDrive-td3combine-expt_with_safe-leaky-adamw-in,80,183.4604091981131,86816,131,1073.7964470386505,,12.561328887939453,19.662113189697266,0.12
86,MetaDrive-td3combine-expt_with_safe-leaky-adamw-in,80,182.9486905787166,87814,132,1086.2120430469513,,4.947582244873047,12.825152397155762,0.12
87,MetaDrive-td3combine-expt_with_safe-leaky-adamw-in,80,184.77543067285762,88815,133,1099.0781998634338,-24.60142707824707,10.103382110595703,24.524808883666992,0.12
88,MetaDrive-td3combine-expt_with_safe-leaky-adamw-in,80,185.300340926225,89816,134,1112.6735310554504,,16.7672061920166,26.437082290649414,0.12
89,MetaDrive-td3combine-expt_with_safe-leaky-adamw-in,80,182.346534116473,90982,136,1128.5102999210358,,2.4685001373291016,23.47463035583496,0.12
90,MetaDrive-td3combine-expt_with_safe-leaky-adamw-in,80,181.84216032119443,91983,137,1141.0911829471588,-21.466827392578125,129.62550354003906,21.695289611816406,0.12
91,MetaDrive-td3combine-expt_with_safe-leaky-adamw-in,80,179.96316782964988,92984,138,1153.9332628250122,,12.32215690612793,30.687856674194336,0.12
92,MetaDrive-td3combine-expt_with_safe-leaky-adamw-in,80,180.25257337750148,93200,139,1156.8548719882965,,8.428102493286133,21.43753433227539,0.12
93,MetaDrive-td3combine-expt_with_safe-leaky-adamw-in,80,185.42628251421758,94066,141,1168.9635589122772,,6.049321174621582,21.868318557739258,0.13
94,MetaDrive-td3combine-expt_with_safe-leaky-adamw-in,80,178.1999948055515,95334,144,1185.903974056244,,6.324643135070801,27.653133392333984,0.12
95,MetaDrive-td3combine-expt_with_safe-leaky-adamw-in,80,176.19716549474583,96087,145,1196.7228379249573,-22.03201675415039,7.4942426681518555,21.545562744140625,0.12
96,MetaDrive-td3combine-expt_with_safe-leaky-adamw-in,80,176.10243978553044,97088,146,1209.6892471313477,,27.75635528564453,17.284751892089844,0.12
97,MetaDrive-td3combine-expt_with_safe-leaky-adamw-in,80,176.33222001987488,98310,149,1225.9753251075745,,6.165260314941406,21.010560989379883,0.12
98,MetaDrive-td3combine-expt_with_safe-leaky-adamw-in,80,173.87450119616904,99118,151,1237.1059019565582,,8.936206817626953,20.89928436279297,0.12
99,MetaDrive-td3combine-expt_with_safe-leaky-adamw-in,80,168.20016878195966,100400,154,1254.8954677581787,,12.991388320922852,21.776519775390625,0.1
100,MetaDrive-td3combine-expt_with_safe-leaky-adamw-in,79,165.39421063201843,101401,155,1267.9377508163452,-27.701223373413086,12.588046073913574,27.94011878967285,0.1
101,MetaDrive-td3combine-expt_with_safe-leaky-adamw-in,79,165.4891514045689,102402,156,1281.6634440422058,,23.25689697265625,30.97367286682129,0.1
102,MetaDrive-td3combine-expt_with_safe-leaky-adamw-in,79,165.22958150023933,103403,157,1295.72310090065,-29.484577178955078,2.761561632156372,28.557205200195312,0.1
103,MetaDrive-td3combine-expt_with_safe-leaky-adamw-in,79,161.07165362697202,104877,161,1316.0309510231018,-24.73021697998047,8.986198425292969,24.328805923461914,0.09
104,MetaDrive-td3combine-expt_with_safe-leaky-adamw-in,79,161.81348465067987,105166,162,1319.9024579524994,,2.991525173187256,15.634137153625488,0.09
105,MetaDrive-td3combine-expt_with_safe-leaky-adamw-in,79,161.3759799102902,106303,164,1335.2009890079498,-22.95635223388672,6.161678791046143,21.277944564819336,0.09
106,MetaDrive-td3combine-expt_with_safe-leaky-adamw-in,79,158.80683771172073,107995,167,1358.417974948883,-29.408275604248047,7.885438442230225,29.25857162475586,0.08
107,MetaDrive-td3combine-expt_with_safe-leaky-adamw-in,79,156.57549450666042,108101,168,1359.9590339660645,-23.89751625061035,6.018224239349365,23.381122589111328,0.08
108,MetaDrive-td3combine-expt_with_safe-leaky-adamw-in,79,161.9037674956733,109251,171,1375.706290960312,-17.373382568359375,11.605677604675293,16.029266357421875,0.11
109,MetaDrive-td3combine-expt_with_safe-leaky-adamw-in,79,161.10961127340553,110252,172,1389.6849420070648,,11.339445114135742,18.097354888916016,0.11
110,MetaDrive-td3combine-expt_with_safe-leaky-adamw-in,79,165.0460581003326,111705,176,1409.6046259403229,-14.457653999328613,34.52790451049805,13.65870189666748,0.11
111,MetaDrive-td3combine-expt_with_safe-leaky-adamw-in,79,165.84252604971272,112543,179,1422.7340378761292,-22.033449172973633,13.072818756103516,22.094802856445312,0.11
112,MetaDrive-td3combine-expt_with_safe-leaky-adamw-in,79,166.57087806927888,113544,180,1437.0178248882294,,11.237958908081055,21.57987403869629,0.11
113,MetaDrive-td3combine-expt_with_safe-leaky-adamw-in,78,164.73593570082411,114657,182,1454.150801897049,-24.451492309570312,10.94321060180664,24.581003189086914,0.11
114,MetaDrive-td3combine-expt_with_safe-leaky-adamw-in,78,165.74056368875105,115060,184,1459.9873580932617,,7.228874206542969,25.8106632232666,0.12
115,MetaDrive-td3combine-expt_with_safe-leaky-adamw-in,78,163.1541790310389,116061,185,1473.8390929698944,-25.377025604248047,3.803226947784424,25.01088523864746,0.11
116,MetaDrive-td3combine-expt_with_safe-leaky-adamw-in,78,163.25055217496302,117507,188,1493.7535440921783,-23.359085083007812,7.362884998321533,22.76040267944336,0.11
117,MetaDrive-td3combine-expt_with_safe-leaky-adamw-in,78,160.13672760937368,118647,190,1509.5287499427795,-22.928987503051758,14.738182067871094,23.21215057373047,0.11
118,MetaDrive-td3combine-expt_with_safe-leaky-adamw-in,78,159.52276071859106,119265,191,1518.2490367889404,-25.4039363861084,30.83595848083496,25.681968688964844,0.11
119,MetaDrive-td3combine-expt_with_safe-leaky-adamw-in,78,159.89109595430918,120633,194,1537.8253798484802,-13.648691177368164,12.704313278198242,12.575767517089844,0.11
120,MetaDrive-td3combine-expt_with_safe-leaky-adamw-in,78,162.67731230708011,121170,195,1545.6205158233643,,15.795367240905762,24.354732513427734,0.11
121,MetaDrive-td3combine-expt_with_safe-leaky-adamw-in,78,162.57363762625948,122171,196,1559.1345419883728,-15.986828804016113,217.669677734375,13.924216270446777,0.11
122,MetaDrive-td3combine-expt_with_safe-leaky-adamw-in,78,161.40395804409644,123054,200,1572.1920239925385,,9.789861679077148,18.632116317749023,0.11
123,MetaDrive-td3combine-expt_with_safe-leaky-adamw-in,78,163.97057448400506,124271,202,1589.451570034027,-29.666484832763672,7.725061416625977,29.03262710571289,0.11
124,MetaDrive-td3combine-expt_with_safe-leaky-adamw-in,78,160.6651755225363,125555,205,1608.6981899738312,-23.4563045501709,7.879819393157959,23.299564361572266,0.1
125,MetaDrive-td3combine-expt_with_safe-leaky-adamw-in,78,160.06634195207113,126556,206,1622.1430690288544,,6.33686637878418,16.641748428344727,0.1
126,MetaDrive-td3combine-expt_with_safe-leaky-adamw-in,77,158.6353079340723,127058,209,1630.1509778499603,,9.304313659667969,27.71702766418457,0.1
127,MetaDrive-td3combine-expt_with_safe-leaky-adamw-in,77,158.80457579775305,128812,213,1655.3181238174438,,9.572379112243652,27.331850051879883,0.11
128,MetaDrive-td3combine-expt_with_safe-leaky-adamw-in,77,158.41625401933416,129813,214,1670.1943109035492,-22.02710723876953,23.056407928466797,21.233509063720703,0.11
129,MetaDrive-td3combine-expt_with_safe-leaky-adamw-in,77,158.6197764962891,130903,216,1685.6810247898102,-22.999563217163086,220.89190673828125,22.48431396484375,0.11
130,MetaDrive-td3combine-expt_with_safe-leaky-adamw-in,77,158.84804967498644,131904,217,1699.8041899204254,,215.82943725585938,25.35398292541504,0.11
131,MetaDrive-td3combine-expt_with_safe-leaky-adamw-in,77,157.88403866294573,132905,218,1714.2903771400452,-24.935413360595703,10.01247787475586,24.199951171875,0.1
132,MetaDrive-td3combine-expt_with_safe-leaky-adamw-in,77,161.1747569712187,133670,219,1725.2381839752197,,20.791475296020508,30.252246856689453,0.11
133,MetaDrive-td3combine-expt_with_safe-leaky-adamw-in,77,160.64400512354754,134671,220,1739.698613166809,-28.50786781311035,7.381714820861816,29.007062911987305,0.11
134,MetaDrive-td3combine-expt_with_safe-leaky-adamw-in,77,164.48613453445714,135490,222,1751.891744852066,,80.72256469726562,23.57480812072754,0.12
135,MetaDrive-td3combine-expt_with_safe-leaky-adamw-in,77,168.51642974577507,136491,223,1767.3423030376434,-27.614791870117188,8.872615814208984,26.875186920166016,0.12
136,MetaDrive-td3combine-expt_with_safe-leaky-adamw-in,77,168.78839934958367,137492,224,1781.5612590312958,,14.069894790649414,29.01666831970215,0.12
137,MetaDrive-td3combine-expt_with_safe-leaky-adamw-in,77,170.1800687359932,138688,226,1798.5955610275269,,12.120391845703125,24.05348014831543,0.12
138,MetaDrive-td3combine-expt_with_safe-leaky-adamw-in,77,172.46868992554192,139689,227,1812.8576169013977,-21.495037078857422,10.330024719238281,21.179420471191406,0.12
139,MetaDrive-td3combine-expt_with_safe-leaky-adamw-in,77,174.90475601069514,140089,229,1818.961401939392,-26.790233612060547,13.591523170471191,26.55883026123047,0.12
140,MetaDrive-td3combine-expt_with_safe-leaky-adamw-in,76,175.8708970853277,141090,230,1832.9289519786835,,17.82414436340332,20.763856887817383,0.12
141,MetaDrive-td3combine-expt_with_safe-leaky-adamw-in,76,174.82636867420365,142666,234,1855.607929944992,,25.355899810791016,31.370830535888672,0.12
142,MetaDrive-td3combine-expt_with_safe-leaky-adamw-in,76,176.63038233294418,143367,235,1866.243064880371,-30.00014877319336,76.41827392578125,30.712324142456055,0.12
143,MetaDrive-td3combine-expt_with_safe-leaky-adamw-in,76,174.60083944855748,144097,237,1877.6810619831085,-29.51371192932129,24.64903450012207,28.67626953125,0.12
144,MetaDrive-td3combine-expt_with_safe-leaky-adamw-in,76,173.5478850679168,145674,240,1900.8047487735748,,6.245293617248535,22.19417381286621,0.12
145,MetaDrive-td3combine-expt_with_safe-leaky-adamw-in,76,170.32418111519164,146675,241,1915.571974992752,-29.00274085998535,6.826791763305664,28.55414581298828,0.11
146,MetaDrive-td3combine-expt_with_safe-leaky-adamw-in,76,172.4035603098682,147676,242,1929.6332488059998,,12.88654613494873,25.660289764404297,0.11
147,MetaDrive-td3combine-expt_with_safe-leaky-adamw-in,76,171.48099282980223,148664,244,1945.4761979579926,,7.0754852294921875,21.779003143310547,0.11
148,MetaDrive-td3combine-expt_with_safe-leaky-adamw-in,76,170.01422169912644,149904,247,1963.388839006424,,11.30263900756836,22.168567657470703,0.11
149,MetaDrive-td3combine-expt_with_safe-leaky-adamw-in,76,168.05633581940026,150041,248,1965.5908560752869,-25.848243713378906,103.17738342285156,24.865270614624023,0.1
150,MetaDrive-td3combine-expt_with_safe-leaky-adamw-in,76,169.80274418010814,151042,249,1979.6733388900757,,10.624070167541504,23.611129760742188,0.1
151,MetaDrive-td3combine-expt_with_safe-leaky-adamw-in,76,174.69518020885477,152391,251,1999.1338529586792,-31.072784423828125,19.959552764892578,31.780075073242188,0.1
152,MetaDrive-td3combine-expt_with_safe-leaky-adamw-in,76,175.05495325321579,153392,252,2013.7674918174744,,5.6523847579956055,28.052072525024414,0.1
153,MetaDrive-td3combine-expt_with_safe-leaky-adamw-in,76,178.29107970242302,154099,254,2024.3610560894012,-31.392431259155273,10.884449005126953,30.700401306152344,0.1
154,MetaDrive-td3combine-expt_with_safe-leaky-adamw-in,76,178.90976205349335,155100,255,2039.2830939292908,,33.24408721923828,14.70775032043457,0.1
155,MetaDrive-td3combine-expt_with_safe-leaky-adamw-in,75,179.28815927322015,156101,256,2054.4844179153442,-24.794830322265625,6.730214595794678,23.56767463684082,0.1
156,MetaDrive-td3combine-expt_with_safe-leaky-adamw-in,75,181.09422145118955,157218,258,2072.1502890586853,,22.720237731933594,36.28092575073242,0.1
157,MetaDrive-td3combine-expt_with_safe-leaky-adamw-in,75,182.702548610184,158907,261,2098.493530035019,-16.712444305419922,6.003086566925049,16.298503875732422,0.11
158,MetaDrive-td3combine-expt_with_safe-leaky-adamw-in,75,181.19446915461117,159908,262,2113.2603311538696,,41.996604919433594,31.506513595581055,0.11
159,MetaDrive-td3combine-expt_with_safe-leaky-adamw-in,75,182.73695743610787,160200,263,2117.961755990982,,17.836824417114258,31.5255126953125,0.11
160,MetaDrive-td3combine-expt_with_safe-leaky-adamw-in,75,182.78623246756916,161600,266,2138.2428550720215,,10.860708236694336,32.56665802001953,0.11
161,MetaDrive-td3combine-expt_with_safe-leaky-adamw-in,75,186.8147112695602,162104,268,2146.0097448825836,,9.473647117614746,24.595176696777344,0.11
162,MetaDrive-td3combine-expt_with_safe-leaky-adamw-in,75,179.39866747964595,163996,273,2174.306561946869,,10.900836944580078,17.233768463134766,0.08
163,MetaDrive-td3combine-expt_with_safe-leaky-adamw-in,75,180.21299515513684,164154,274,2176.977210998535,,10.216919898986816,23.498838424682617,0.08
164,MetaDrive-td3combine-expt_with_safe-leaky-adamw-in,75,178.53191727290505,165333,276,2194.8643379211426,-31.272626876831055,19.707195281982422,29.46854019165039,0.08
165,MetaDrive-td3combine-expt_with_safe-leaky-adamw-in,75,180.185266220636,166132,278,2207.0380339622498,,22.517675399780273,26.553213119506836,0.08
166,MetaDrive-td3combine-expt_with_safe-leaky-adamw-in,75,177.7687527976464,167429,282,2227.4806628227234,-25.28748893737793,10.558591842651367,25.05278778076172,0.08
167,MetaDrive-td3combine-expt_with_safe-leaky-adamw-in,75,176.71605000916034,168430,283,2242.6677820682526,,6.887324333190918,18.813405990600586,0.07
168,MetaDrive-td3combine-expt_with_safe-leaky-adamw-in,75,180.4376100285685,169178,285,2253.8415439128876,,8.28975772857666,23.441431045532227,0.07
169,MetaDrive-td3combine-expt_with_safe-leaky-adamw-in,75,181.18036366012646,170179,286,2268.6559569835663,-24.82208824157715,22.629676818847656,24.13081169128418,0.06
170,MetaDrive-td3combine-expt_with_safe-leaky-adamw-in,74,181.70080355227464,171406,288,2286.851259946823,,23.40259552001953,38.27778625488281,0.06
171,MetaDrive-td3combine-expt_with_safe-leaky-adamw-in,74,183.66362526989357,172773,291,2307.786409139633,-21.183208465576172,54.67444610595703,21.57308006286621,0.06
172,MetaDrive-td3combine-expt_with_safe-leaky-adamw-in,74,183.56786985383096,173774,292,2322.507775068283,,14.43957805633545,24.997568130493164,0.06
173,MetaDrive-td3combine-expt_with_safe-leaky-adamw-in,74,184.15924889565733,174775,293,2337.519488096237,-31.13425636291504,8.28953742980957,31.514142990112305,0.06
174,MetaDrive-td3combine-expt_with_safe-leaky-adamw-in,74,182.48282777337386,175566,295,2349.780164003372,,11.471330642700195,24.999963760375977,0.06
175,MetaDrive-td3combine-expt_with_safe-leaky-adamw-in,74,182.3457379996635,176481,296,2363.308562040329,-18.128459930419922,12.450023651123047,17.941560745239258,0.06
176,MetaDrive-td3combine-expt_with_safe-leaky-adamw-in,74,179.8195290991658,177027,299,2371.8495008945465,-29.69062042236328,24.06971549987793,28.977489471435547,0.05
177,MetaDrive-td3combine-expt_with_safe-leaky-adamw-in,74,178.8582566786233,178470,301,2393.5823159217834,,20.624603271484375,20.696575164794922,0.05
178,MetaDrive-td3combine-expt_with_safe-leaky-adamw-in,74,177.14944470392672,179152,303,2404.146286010742,,12.157733917236328,37.26537322998047,0.06
179,MetaDrive-td3combine-expt_with_safe-leaky-adamw-in,74,179.37372446569537,180485,305,2424.563931941986,-29.05746078491211,24.69174575805664,30.023193359375,0.06
180,MetaDrive-td3combine-expt_with_safe-leaky-adamw-in,74,178.69933547396002,181486,306,2439.319046020508,,19.470787048339844,25.349334716796875,0.06
181,MetaDrive-td3combine-expt_with_safe-leaky-adamw-in,74,177.92199775638244,182183,308,2450.285407066345,-19.50092887878418,18.917757034301758,19.361495971679688,0.06
182,MetaDrive-td3combine-expt_with_safe-leaky-adamw-in,74,178.63793139158287,183184,309,2465.0375430583954,,32.697174072265625,28.72384262084961,0.06
183,MetaDrive-td3combine-expt_with_safe-leaky-adamw-in,74,176.4351248830646,184836,311,2489.049733877182,,14.112733840942383,21.829898834228516,0.05
184,MetaDrive-td3combine-expt_with_safe-leaky-adamw-in,74,177.40484023896767,185113,312,2493.6597650051117,-25.896263122558594,13.31716537475586,24.76500701904297,0.05
185,MetaDrive-td3combine-expt_with_safe-leaky-adamw-in,74,181.97543760020298,186972,315,2522.3565928936005,,21.24098014831543,23.467241287231445,0.06
186,MetaDrive-td3combine-expt_with_safe-leaky-adamw-in,74,180.67179828175915,187067,316,2523.8601660728455,-31.9964656829834,178.1053924560547,32.02726745605469,0.06
187,MetaDrive-td3combine-expt_with_safe-leaky-adamw-in,74,182.35399106338934,188371,318,2543.3544290065765,-26.600122451782227,14.204520225524902,26.784029006958008,0.06
188,MetaDrive-td3combine-expt_with_safe-leaky-adamw-in,74,179.32777275926338,189624,320,2562.123775959015,,5.531794548034668,23.544750213623047,0.05
189,MetaDrive-td3combine-expt_with_safe-leaky-adamw-in,73,171.72970443747377,190883,323,2580.9903588294983,-26.662883758544922,11.762985229492188,26.804933547973633,0.04
190,MetaDrive-td3combine-expt_with_safe-leaky-adamw-in,73,172.90390286597938,191204,324,2586.119734764099,,12.509710311889648,22.3742733001709,0.05
191,MetaDrive-td3combine-expt_with_safe-leaky-adamw-in,73,172.93864336087103,192157,326,2601.2822449207306,-25.73338508605957,11.736604690551758,26.095191955566406,0.06
192,MetaDrive-td3combine-expt_with_safe-leaky-adamw-in,73,170.25896328516913,193532,329,2622.945650100708,,12.628045082092285,24.343347549438477,0.06
193,MetaDrive-td3combine-expt_with_safe-leaky-adamw-in,73,171.6724850180466,194032,331,2630.5868198871613,,8.802281379699707,28.45461654663086,0.07
194,MetaDrive-td3combine-expt_with_safe-leaky-adamw-in,73,170.15559145891027,195033,332,2646.239224910736,-30.610519409179688,31.001632690429688,30.513965606689453,0.07
195,MetaDrive-td3combine-expt_with_safe-leaky-adamw-in,73,168.89588295132026,196414,336,2668.114821910858,,30.730487823486328,34.87776184082031,0.07
196,MetaDrive-td3combine-expt_with_safe-leaky-adamw-in,73,168.86382863337738,197415,337,2682.8480458259583,-24.113407135009766,25.44317626953125,24.328800201416016,0.07
197,MetaDrive-td3combine-expt_with_safe-leaky-adamw-in,73,168.39966273879688,198416,338,2698.366451025009,,10.270957946777344,17.574308395385742,0.07
198,MetaDrive-td3combine-expt_with_safe-leaky-adamw-in,73,170.43052476884216,199313,341,2712.4719729423523,-24.788745880126953,15.447978019714355,24.4549560546875,0.07
199,MetaDrive-td3combine-expt_with_safe-leaky-adamw-in,73,169.52408957633298,200237,343,2727.1549830436707,-27.581390380859375,12.03221321105957,25.768688201904297,0.07
200,MetaDrive-td3combine-expt_with_safe-leaky-adamw-in,73,170.97303971229144,201238,344,2741.9606308937073,,7.574687957763672,23.01435089111328,0.07
201,MetaDrive-td3combine-expt_with_safe-leaky-adamw-in,73,171.43330875152628,202239,345,2758.0981550216675,-31.553125381469727,9.476593971252441,31.003738403320312,0.07
202,MetaDrive-td3combine-expt_with_safe-leaky-adamw-in,73,171.65560504070862,203240,346,2773.361836910248,,17.612957000732422,21.748184204101562,0.07
203,MetaDrive-td3combine-expt_with_safe-leaky-adamw-in,73,175.03235531678888,204463,348,2792.4141919612885,-27.284034729003906,21.514495849609375,25.797239303588867,0.07
204,MetaDrive-td3combine-expt_with_safe-leaky-adamw-in,73,174.17975509103562,205464,349,2806.964460849762,,13.542224884033203,28.883113861083984,0.07
205,MetaDrive-td3combine-expt_with_safe-leaky-adamw-in,73,169.89650885381812,206572,351,2824.119199991226,,11.619036674499512,25.429502487182617,0.07
206,MetaDrive-td3combine-expt_with_safe-leaky-adamw-in,73,168.4144938720113,207703,353,2841.8174209594727,-19.27559471130371,25.912397384643555,19.175613403320312,0.07
207,MetaDrive-td3combine-expt_with_safe-leaky-adamw-in,73,167.4558637289964,208947,355,2860.717835187912,-25.23573112487793,18.639225006103516,25.689115524291992,0.07
208,MetaDrive-td3combine-expt_with_safe-leaky-adamw-in,73,166.6385869925142,209072,356,2862.83589887619,,19.646888732910156,25.57994842529297,0.07
209,MetaDrive-td3combine-expt_with_safe-leaky-adamw-in,72,164.42024528584014,210199,358,2879.7874319553375,-30.239849090576172,41.280582427978516,28.802614212036133,0.07
210,MetaDrive-td3combine-expt_with_safe-leaky-adamw-in,72,164.32625220492181,211200,359,2894.7367939949036,,11.228291511535645,35.09551239013672,0.07
211,MetaDrive-td3combine-expt_with_safe-leaky-adamw-in,72,160.9996023650319,212201,360,2910.0496389865875,-28.906435012817383,26.706863403320312,27.87717628479004,0.06
212,MetaDrive-td3combine-expt_with_safe-leaky-adamw-in,72,161.03838587125117,213202,361,2925.9773049354553,,18.762088775634766,24.60647201538086,0.06
213,MetaDrive-td3combine-expt_with_safe-leaky-adamw-in,72,162.98459789136538,214317,363,2942.6840269565582,-22.641761779785156,33.87028884887695,20.79340934753418,0.07
214,MetaDrive-td3combine-expt_with_safe-leaky-adamw-in,72,161.27187171176618,215903,367,2966.621579170227,-22.106828689575195,24.95684051513672,21.608983993530273,0.07
215,MetaDrive-td3combine-expt_with_safe-leaky-adamw-in,72,159.24449071040456,216073,368,2969.3143830299377,-29.54180145263672,9.108625411987305,29.650869369506836,0.07
216,MetaDrive-td3combine-expt_with_safe-leaky-adamw-in,72,159.00797751809696,217293,370,2988.740037918091,-27.55527687072754,9.781672477722168,26.927654266357422,0.07
217,MetaDrive-td3combine-expt_with_safe-leaky-adamw-in,72,162.64877199471712,218031,373,3001.120203733444,-30.360109329223633,20.714183807373047,30.204246520996094,0.08
218,MetaDrive-td3combine-expt_with_safe-leaky-adamw-in,72,165.3477332093168,219032,374,3015.995500802994,,27.371646881103516,22.226978302001953,0.08
219,MetaDrive-td3combine-expt_with_safe-leaky-adamw-in,72,167.38219522703545,220352,376,3036.0148990154266,,10.799802780151367,24.27092933654785,0.09
220,MetaDrive-td3combine-expt_with_safe-leaky-adamw-in,72,168.74607192999508,221353,377,3050.8268139362335,-23.668529510498047,19.575162887573242,23.42239761352539,0.09
221,MetaDrive-td3combine-expt_with_safe-leaky-adamw-in,72,169.92368509225287,222105,381,3062.7187070846558,-33.355506896972656,28.331085205078125,33.79326248168945,0.1
222,MetaDrive-td3combine-expt_with_safe-leaky-adamw-in,72,169.3958192319039,223106,382,3078.0562751293182,,11.988777160644531,24.414758682250977,0.1
223,MetaDrive-td3combine-expt_with_safe-leaky-adamw-in,72,164.33582110556142,224731,386,3103.101010084152,-25.179473876953125,10.826072692871094,24.449838638305664,0.1
224,MetaDrive-td3combine-expt_with_safe-leaky-adamw-in,72,165.04023491989912,225170,387,3110.0434799194336,,13.340087890625,13.825191497802734,0.1
225,MetaDrive-td3combine-expt_with_safe-leaky-adamw-in,72,166.7823643234706,226827,390,3136.092607021332,-29.268352508544922,17.974956512451172,30.303504943847656,0.12
226,MetaDrive-td3combine-expt_with_safe-leaky-adamw-in,72,168.01367635362683,227051,391,3139.554321050644,-26.918380737304688,19.21463394165039,25.733577728271484,0.12
227,MetaDrive-td3combine-expt_with_safe-leaky-adamw-in,72,169.1937274781399,228627,396,3164.065047979355,-22.696754455566406,16.508262634277344,21.586740493774414,0.13
228,MetaDrive-td3combine-expt_with_safe-leaky-adamw-in,72,168.0749266266765,229024,398,3170.4888751506805,,56.829673767089844,17.29755210876465,0.12
229,MetaDrive-td3combine-expt_with_safe-leaky-adamw-in,72,167.692963280226,230025,399,3185.717301130295,-30.40839385986328,17.2591552734375,29.797813415527344,0.12
230,MetaDrive-td3combine-expt_with_safe-leaky-adamw-in,72,167.89866390698546,231115,404,3203.5167939662933,-23.319137573242188,21.492013931274414,23.364696502685547,0.12
231,MetaDrive-td3combine-expt_with_safe-leaky-adamw-in,72,171.18598566539623,232969,408,3232.3360347747803,-28.448129653930664,29.411087036132812,28.957509994506836,0.13
232,MetaDrive-td3combine-expt_with_safe-leaky-adamw-in,72,171.53742168824158,233181,409,3235.7394938468933,-22.455673217773438,15.600872993469238,20.985000610351562,0.13
233,MetaDrive-td3combine-expt_with_safe-leaky-adamw-in,72,170.2999826420599,234391,412,3251.436427116394,-22.418916702270508,14.489644050598145,22.122665405273438,0.13
234,MetaDrive-td3combine-expt_with_safe-leaky-adamw-in,72,170.04841881516887,235072,414,3258.7888967990875,,6.913231372833252,26.987276077270508,0.14
235,MetaDrive-td3combine-expt_with_safe-leaky-adamw-in,72,174.82867249730432,236094,416,3270.2145297527313,,17.914371490478516,19.067447662353516,0.15
236,MetaDrive-td3combine-expt_with_safe-leaky-adamw-in,72,174.45049170378437,237054,421,3281.091600894928,,21.639625549316406,28.730161666870117,0.15
237,MetaDrive-td3combine-expt_with_safe-leaky-adamw-in,72,175.83840319756217,238055,422,3292.071333885193,-28.392759323120117,14.136251449584961,27.946138381958008,0.15
238,MetaDrive-td3combine-expt_with_safe-leaky-adamw-in,72,177.4896309508731,239056,423,3302.9313938617706,,42.197509765625,25.779850006103516,0.15
239,MetaDrive-td3combine-expt_with_safe-leaky-adamw-in,72,175.9919691216558,240529,426,3319.3010280132294,-30.25999641418457,9.3538179397583,29.23880958557129,0.13
240,MetaDrive-td3combine-expt_with_safe-leaky-adamw-in,72,177.64654237773917,241018,428,3324.672455072403,,49.16212844848633,23.858186721801758,0.14
241,MetaDrive-td3combine-expt_with_safe-leaky-adamw-in,72,176.39973955750983,242141,430,3337.1694118976593,-19.97775650024414,38.68458557128906,20.932165145874023,0.14
242,MetaDrive-td3combine-expt_with_safe-leaky-adamw-in,72,181.06188337684432,243149,433,3348.761850833893,-27.54327392578125,22.873640060424805,29.035478591918945,0.15
243,MetaDrive-td3combine-expt_with_safe-leaky-adamw-in,72,182.3673962979232,244924,438,3369.048206806183,,5.16938591003418,28.263092041015625,0.15
244,MetaDrive-td3combine-expt_with_safe-leaky-adamw-in,72,182.2616523075707,245480,439,3375.3704421520233,,9.00157356262207,24.398221969604492,0.15
245,MetaDrive-td3combine-expt_with_safe-leaky-adamw-in,72,183.83485654261278,246133,441,3382.8090147972107,-16.01129913330078,33.06140899658203,15.765048027038574,0.16
246,MetaDrive-td3combine-expt_with_safe-leaky-adamw-in,72,183.47265601528423,247134,442,3394.005588054657,,9.68653678894043,32.54307174682617,0.16
247,MetaDrive-td3combine-expt_with_safe-leaky-adamw-in,72,182.95389127824976,248938,446,3414.3425760269165,,20.540306091308594,32.57429885864258,0.16
248,MetaDrive-td3combine-expt_with_safe-leaky-adamw-in,72,183.6315756895638,249730,447,3423.3164069652557,,26.940155029296875,30.696422576904297,0.16
249,MetaDrive-td3combine-expt_with_safe-leaky-adamw-in,72,182.02650657560076,250125,449,3428.211264848709,-29.610933303833008,10.437244415283203,27.90342903137207,0.16
250,MetaDrive-td3combine-expt_with_safe-leaky-adamw-in,72,183.94012834763697,251016,454,3438.6865949630737,,16.567378997802734,21.30148696899414,0.16
251,MetaDrive-td3combine-expt_with_safe-leaky-adamw-in,73,183.96399215720652,252450,457,3455.5879781246185,,18.71880340576172,37.158233642578125,0.17
252,MetaDrive-td3combine-expt_with_safe-leaky-adamw-in,73,182.5855174308515,253804,461,3471.2157111167908,,41.91968536376953,32.07780456542969,0.17
253,MetaDrive-td3combine-expt_with_safe-leaky-adamw-in,73,179.9090522050184,254049,463,3474.2021379470825,-24.607948303222656,62.077232360839844,22.926061630249023,0.16
254,MetaDrive-td3combine-expt_with_safe-leaky-adamw-in,73,180.17491995666526,255022,467,3486.0396161079407,,10.162492752075195,40.33234405517578,0.16
255,MetaDrive-td3combine-expt_with_safe-leaky-adamw-in,73,182.71156176023726,256075,471,3498.4479818344116,-29.25556755065918,11.159772872924805,29.65968894958496,0.17
256,MetaDrive-td3combine-expt_with_safe-leaky-adamw-in,73,177.34310305126903,257344,476,3512.8066840171814,,44.25688934326172,28.917613983154297,0.15
257,MetaDrive-td3combine-expt_with_safe-leaky-adamw-in,73,174.2271948055478,258175,482,3523.308448076248,-25.36468505859375,19.390975952148438,24.941638946533203,0.14
258,MetaDrive-td3combine-expt_with_safe-leaky-adamw-in,73,173.88543999889094,259176,483,3534.270697116852,,11.037949562072754,37.19154357910156,0.14
259,MetaDrive-td3combine-expt_with_safe-leaky-adamw-in,73,173.8710256810873,261000,487,3555.245805978775,,17.772384643554688,26.935039520263672,0.15
260,MetaDrive-td3combine-expt_with_safe-leaky-adamw-in,73,170.6596262412905,262366,491,3570.7625250816345,,19.43507194519043,33.506378173828125,0.13
261,MetaDrive-td3combine-expt_with_safe-leaky-adamw-in,73,170.83347540177675,263367,492,3582.306126832962,-27.910308837890625,23.66997528076172,26.85809326171875,0.13
262,MetaDrive-td3combine-expt_with_safe-leaky-adamw-in,73,171.4873302179497,264868,495,3598.4636669158936,,12.494284629821777,21.072568893432617,0.13
263,MetaDrive-td3combine-expt_with_safe-leaky-adamw-in,73,169.68881187007526,265370,497,3604.2943489551544,,23.4073486328125,32.009822845458984,0.13
264,MetaDrive-td3combine-expt_with_safe-leaky-adamw-in,73,169.00849002336872,266371,498,3615.381732940674,-34.02098083496094,4.688279151916504,33.815460205078125,0.13
265,MetaDrive-td3combine-expt_with_safe-leaky-adamw-in,73,166.89377888538988,267358,502,3627.0474038124084,,22.615478515625,28.185232162475586,0.12
266,MetaDrive-td3combine-expt_with_safe-leaky-adamw-in,73,167.1989733873362,268359,503,3638.2275218963623,-27.37127113342285,12.712849617004395,27.570560455322266,0.12
267,MetaDrive-td3combine-expt_with_safe-leaky-adamw-in,73,168.5284958266112,269732,506,3653.108232975006,,28.871994018554688,29.050416946411133,0.12
268,MetaDrive-td3combine-expt_with_safe-leaky-adamw-in,73,168.35070187604808,270733,507,3664.3360850811005,-27.19894790649414,12.386658668518066,27.124149322509766,0.12
269,MetaDrive-td3combine-expt_with_safe-leaky-adamw-in,73,168.54109521584763,271734,508,3675.1640400886536,,12.91568374633789,26.74127769470215,0.12
270,MetaDrive-td3combine-expt_with_safe-leaky-adamw-in,73,168.5734687376172,272746,510,3687.603940010071,,10.539196014404297,31.666637420654297,0.12
271,MetaDrive-td3combine-expt_with_safe-leaky-adamw-in,73,168.39373793005484,273211,511,3693.0089960098267,-25.74651336669922,15.655302047729492,25.2467098236084,0.12
272,MetaDrive-td3combine-expt_with_safe-leaky-adamw-in,74,164.1302107505879,274135,515,3703.021238088608,-40.25809097290039,74.83711242675781,38.35930633544922,0.09
273,MetaDrive-td3combine-expt_with_safe-leaky-adamw-in,74,162.26727215822007,275652,519,3718.965120792389,,27.999034881591797,31.568395614624023,0.09
274,MetaDrive-td3combine-expt_with_safe-leaky-adamw-in,74,161.56943788646183,276812,521,3730.2909269332886,,16.109865188598633,28.72577667236328,0.09
275,MetaDrive-td3combine-expt_with_safe-leaky-adamw-in,74,161.83786399072844,277142,522,3733.6027138233185,,12.772590637207031,21.505460739135742,0.09
276,MetaDrive-td3combine-expt_with_safe-leaky-adamw-in,74,162.57476731694095,278127,526,3743.7535779476166,-28.192974090576172,9.294719696044922,27.76654624938965,0.11
277,MetaDrive-td3combine-expt_with_safe-leaky-adamw-in,74,162.74728578136916,279497,529,3757.2300980091095,-30.66400718688965,18.84819793701172,29.837263107299805,0.1
278,MetaDrive-td3combine-expt_with_safe-leaky-adamw-in,74,165.18966043804386,280003,530,3762.2458639144897,-29.463048934936523,20.993867874145508,28.990978240966797,0.1
279,MetaDrive-td3combine-expt_with_safe-leaky-adamw-in,74,163.28691679417432,281951,535,3782.2855870723724,-33.806827545166016,14.697006225585938,34.3693962097168,0.08
280,MetaDrive-td3combine-expt_with_safe-leaky-adamw-in,74,161.96614857949606,282101,536,3783.900955915451,-34.66095733642578,166.4938201904297,34.05916976928711,0.08
281,MetaDrive-td3combine-expt_with_safe-leaky-adamw-in,74,161.97910476291784,283056,540,3793.6912310123444,,11.974327087402344,24.399993896484375,0.08
282,MetaDrive-td3combine-expt_with_safe-leaky-adamw-in,74,159.78883242341882,284200,542,3805.4689428806305,,35.939430236816406,21.890518188476562,0.08
283,MetaDrive-td3combine-expt_with_safe-leaky-adamw-in,74,158.24476800212963,285489,545,3818.2256138324738,-31.05862808227539,17.53895378112793,31.798152923583984,0.08
284,MetaDrive-td3combine-expt_with_safe-leaky-adamw-in,74,159.292400984653,286142,547,3824.7019259929657,,17.020885467529297,31.045116424560547,0.08
285,MetaDrive-td3combine-expt_with_safe-leaky-adamw-in,74,161.84514997342077,287243,550,3835.361382961273,-33.11744689941406,18.968788146972656,32.51911163330078,0.09
286,MetaDrive-td3combine-expt_with_safe-leaky-adamw-in,74,165.83161786992162,288142,552,3844.4315400123596,,152.14822387695312,26.115089416503906,0.09
287,MetaDrive-td3combine-expt_with_safe-leaky-adamw-in,75,165.03707181398246,289041,553,3853.5426239967346,-28.493677139282227,9.370519638061523,28.268381118774414,0.09
288,MetaDrive-td3combine-expt_with_safe-leaky-adamw-in,75,164.73076781845,290112,556,3864.1360239982605,,9.609701156616211,25.345144271850586,0.08
289,MetaDrive-td3combine-expt_with_safe-leaky-adamw-in,75,170.27783183315194,291095,560,3874.2369430065155,-27.210676193237305,12.097452163696289,27.40392303466797,0.09
290,MetaDrive-td3combine-expt_with_safe-leaky-adamw-in,75,174.23084741899626,292185,564,3885.4959950447083,-22.06902503967285,18.46401023864746,22.161949157714844,0.1
291,MetaDrive-td3combine-expt_with_safe-leaky-adamw-in,75,172.51275758307682,293423,567,3897.6778330802917,-24.63901138305664,21.20404815673828,23.808103561401367,0.1
292,MetaDrive-td3combine-expt_with_safe-leaky-adamw-in,75,174.59768691596676,294424,568,3907.671592950821,,13.41494369506836,34.051082611083984,0.1
293,MetaDrive-td3combine-expt_with_safe-leaky-adamw-in,75,174.7791018493589,295575,570,3919.455706834793,-23.566551208496094,10.752851486206055,23.613622665405273,0.1
294,MetaDrive-td3combine-expt_with_safe-leaky-adamw-in,75,173.5828089358387,296025,572,3924.1041638851166,-34.983882904052734,18.417816162109375,35.741268157958984,0.09
295,MetaDrive-td3combine-expt_with_safe-leaky-adamw-in,75,175.04229096398797,297204,576,3935.9969379901886,,9.202779769897461,29.09524154663086,0.1
296,MetaDrive-td3combine-expt_with_safe-leaky-adamw-in,75,179.56976516824113,298154,580,3945.920534849167,,23.6904239654541,41.23212432861328,0.1
297,MetaDrive-td3combine-expt_with_safe-leaky-adamw-in,75,175.07808790963043,299044,585,3955.6882190704346,,17.77625846862793,32.63519287109375,0.09
298,MetaDrive-td3combine-expt_with_safe-leaky-adamw-in,75,173.91811197690927,300187,593,3967.7465538978577,-28.408401489257812,40.842613220214844,25.72574234008789,0.09
299,MetaDrive-td3combine-expt_with_safe-leaky-adamw-in,75,174.23270498250196,301177,596,3977.6523790359497,-32.74674987792969,45.22294616699219,31.336790084838867,0.1
300,MetaDrive-td3combine-expt_with_safe-leaky-adamw-in,75,172.63686149822627,302783,598,3993.516690969467,-20.28496742248535,58.09785842895508,19.653614044189453,0.09
301,MetaDrive-td3combine-expt_with_safe-leaky-adamw-in,75,171.90714299002323,303784,599,4003.2885468006134,,8.73672866821289,23.239606857299805,0.09
302,MetaDrive-td3combine-expt_with_safe-leaky-adamw-in,75,172.87932352424778,304293,600,4008.4250049591064,-38.428829193115234,27.64531898498535,37.993370056152344,0.1
303,MetaDrive-td3combine-expt_with_safe-leaky-adamw-in,75,173.79254309774126,305062,604,4016.27583193779,,29.446605682373047,41.34336853027344,0.1
304,MetaDrive-td3combine-expt_with_safe-leaky-adamw-in,76,172.00336405422576,306063,605,4026.195588827133,-33.540897369384766,38.50679016113281,33.745460510253906,0.09
305,MetaDrive-td3combine-expt_with_safe-leaky-adamw-in,76,170.95787400505776,307727,609,4043.6001060009003,-27.645030975341797,18.867042541503906,27.014528274536133,0.09
306,MetaDrive-td3combine-expt_with_safe-leaky-adamw-in,76,170.0449318159082,308361,612,4050.263926744461,-34.92301559448242,26.42047119140625,34.93452072143555,0.09
307,MetaDrive-td3combine-expt_with_safe-leaky-adamw-in,76,167.84890957735644,309622,615,4062.948807954788,,14.017585754394531,25.573793411254883,0.09
308,MetaDrive-td3combine-expt_with_safe-leaky-adamw-in,76,169.18668112851302,310063,617,4067.456665992737,-41.3541374206543,16.90829086303711,41.180335998535156,0.09
309,MetaDrive-td3combine-expt_with_safe-leaky-adamw-in,76,168.5880066721085,311064,618,4077.265226125717,,51.97657012939453,28.663816452026367,0.09
310,MetaDrive-td3combine-expt_with_safe-leaky-adamw-in,76,174.3419777378903,312407,621,4090.699409008026,-31.913768768310547,24.879348754882812,31.627609252929688,0.11
311,MetaDrive-td3combine-expt_with_safe-leaky-adamw-in,76,172.1625213821768,313072,623,4097.652657985687,,104.18315124511719,28.756315231323242,0.1
312,MetaDrive-td3combine-expt_with_safe-leaky-adamw-in,76,168.0163897550939,314478,627,4111.420428991318,,13.867905616760254,32.77709197998047,0.09
313,MetaDrive-td3combine-expt_with_safe-leaky-adamw-in,76,168.85159885891298,315987,629,4126.928679943085,-37.47002410888672,18.664752960205078,35.9806022644043,0.09
314,MetaDrive-td3combine-expt_with_safe-leaky-adamw-in,76,168.0719413713571,316988,630,4136.817400932312,,31.11117935180664,34.52919006347656,0.09
315,MetaDrive-td3combine-expt_with_safe-leaky-adamw-in,76,167.67155274845103,317491,631,4141.786232948303,-31.30217742919922,20.939231872558594,31.623703002929688,0.09
316,MetaDrive-td3combine-expt_with_safe-leaky-adamw-in,76,165.59763175728793,318057,633,4147.699723958969,-36.42808151245117,25.601661682128906,37.9096565246582,0.09
317,MetaDrive-td3combine-expt_with_safe-leaky-adamw-in,76,165.15684663163026,319058,634,4158.232590913773,,133.80068969726562,27.99878692626953,0.09
318,MetaDrive-td3combine-expt_with_safe-leaky-adamw-in,76,163.58501556576118,320337,636,4171.25773692131,-29.877891540527344,18.415355682373047,28.177705764770508,0.09
319,MetaDrive-td3combine-expt_with_safe-leaky-adamw-in,76,164.3123069871778,321338,637,4180.969536781311,,9.184127807617188,23.13701629638672,0.09
320,MetaDrive-td3combine-expt_with_safe-leaky-adamw-in,76,162.6795549233688,322817,640,4195.728543996811,-34.0435905456543,31.752256393432617,32.5503044128418,0.08
321,MetaDrive-td3combine-expt_with_safe-leaky-adamw-in,76,165.24885181134013,323397,642,4201.486535072327,-31.18541717529297,21.411983489990234,31.127830505371094,0.08
322,MetaDrive-td3combine-expt_with_safe-leaky-adamw-in,77,164.84283205930794,324105,646,4208.6428389549255,-24.28859519958496,15.966140747070312,24.506486892700195,0.08
323,MetaDrive-td3combine-expt_with_safe-leaky-adamw-in,77,164.02034940617747,325215,648,4219.441622972488,-35.98424530029297,7.044306755065918,35.17300796508789,0.08
324,MetaDrive-td3combine-expt_with_safe-leaky-adamw-in,77,157.5528575839144,326664,651,4234.062330961227,,13.800002098083496,24.889381408691406,0.07
325,MetaDrive-td3combine-expt_with_safe-leaky-adamw-in,77,156.92333356562165,327118,653,4238.700267791748,,20.835636138916016,35.20894241333008,0.07
326,MetaDrive-td3combine-expt_with_safe-leaky-adamw-in,77,158.49444983367184,328140,655,4248.68284702301,,6.180769920349121,25.473037719726562,0.07
327,MetaDrive-td3combine-expt_with_safe-leaky-adamw-in,77,161.68205545110993,329002,658,4257.2432379722595,,9.750543594360352,29.156816482543945,0.07
328,MetaDrive-td3combine-expt_with_safe-leaky-adamw-in,77,160.23103528099716,330281,660,4269.957724094391,-25.708711624145508,31.967845916748047,27.29224395751953,0.07
329,MetaDrive-td3combine-expt_with_safe-leaky-adamw-in,77,163.36569147918127,331070,661,4277.937955856323,,66.29627990722656,27.82051658630371,0.08
330,MetaDrive-td3combine-expt_with_safe-leaky-adamw-in,77,163.37506125845226,332470,663,4291.814340829849,,11.885297775268555,24.699546813964844,0.07
331,MetaDrive-td3combine-expt_with_safe-leaky-adamw-in,77,165.36604816658132,333079,666,4298.400114059448,-34.3037223815918,33.05366516113281,33.10338592529297,0.07
332,MetaDrive-td3combine-expt_with_safe-leaky-adamw-in,77,166.40197547403477,334080,667,4308.811951875687,,38.145355224609375,37.37976837158203,0.07
333,MetaDrive-td3combine-expt_with_safe-leaky-adamw-in,77,165.86716601864043,335081,668,4318.32835483551,-29.913002014160156,26.283184051513672,28.589588165283203,0.07
334,MetaDrive-td3combine-expt_with_safe-leaky-adamw-in,77,166.5421969118245,336082,669,4328.206444978714,,17.060550689697266,20.633056640625,0.07
335,MetaDrive-td3combine-expt_with_safe-leaky-adamw-in,77,167.16301008153172,337083,670,4338.132066965103,-24.82825469970703,17.201807022094727,25.101205825805664,0.07
336,MetaDrive-td3combine-expt_with_safe-leaky-adamw-in,77,167.05472491779636,338084,671,4348.007452011108,,11.263526916503906,32.37096405029297,0.07
337,MetaDrive-td3combine-expt_with_safe-leaky-adamw-in,77,167.47655401132687,339085,672,4357.9170179367065,-35.43296813964844,21.048166275024414,34.17178726196289,0.07
338,MetaDrive-td3combine-expt_with_safe-leaky-adamw-in,77,166.97902181350014,340431,674,4371.012933015823,-37.788665771484375,49.25654220581055,38.24940490722656,0.07
339,MetaDrive-td3combine-expt_with_safe-leaky-adamw-in,77,168.3178049384247,341123,676,4377.889544963837,-34.84718322753906,18.929840087890625,35.69005584716797,0.07
340,MetaDrive-td3combine-expt_with_safe-leaky-adamw-in,77,167.95834895508085,342124,677,4387.620417833328,,46.901466369628906,35.908382415771484,0.07
341,MetaDrive-td3combine-expt_with_safe-leaky-adamw-in,78,167.53815266492333,343125,678,4397.922061920166,-31.98495101928711,20.654277801513672,30.238100051879883,0.07
342,MetaDrive-td3combine-expt_with_safe-leaky-adamw-in,78,169.75766259454275,344031,681,4406.992437124252,-25.20005989074707,12.751049995422363,24.987680435180664,0.08
343,MetaDrive-td3combine-expt_with_safe-leaky-adamw-in,78,171.8187379684069,345166,684,4418.352921009064,,7.296195983886719,29.923633575439453,0.09
344,MetaDrive-td3combine-expt_with_safe-leaky-adamw-in,78,171.47607845767195,346814,688,4434.760148048401,,29.115676879882812,33.58122253417969,0.09
345,MetaDrive-td3combine-expt_with_safe-leaky-adamw-in,78,171.64807156924505,347025,690,4437.0721118450165,-31.79853057861328,16.341096878051758,31.10716438293457,0.09
346,MetaDrive-td3combine-expt_with_safe-leaky-adamw-in,78,175.7656236350127,348867,692,4455.372855901718,-23.11514663696289,10.379412651062012,23.039180755615234,0.1
347,MetaDrive-td3combine-expt_with_safe-leaky-adamw-in,78,175.12536693161803,349186,693,4458.691720962524,,11.205896377563477,23.09992027282715,0.1
348,MetaDrive-td3combine-expt_with_safe-leaky-adamw-in,78,172.0039345738727,350864,698,4475.713793754578,,8.471969604492188,27.031484603881836,0.09
349,MetaDrive-td3combine-expt_with_safe-leaky-adamw-in,78,169.65593243932094,351965,700,4486.684480190277,-32.55170440673828,43.47252655029297,32.81407928466797,0.08
350,MetaDrive-td3combine-expt_with_safe-leaky-adamw-in,78,170.89409751405094,352416,701,4491.170040845871,,22.484230041503906,31.480937957763672,0.08
351,MetaDrive-td3combine-expt_with_safe-leaky-adamw-in,78,170.98897588074124,353044,704,4497.486022949219,,12.51937484741211,29.652767181396484,0.08
352,MetaDrive-td3combine-expt_with_safe-leaky-adamw-in,78,172.86326902367745,354881,708,4515.871620893478,-32.42711639404297,53.97418975830078,32.974525451660156,0.1
353,MetaDrive-td3combine-expt_with_safe-leaky-adamw-in,78,175.61971223515823,355882,709,4525.639867067337,,25.428150177001953,27.462871551513672,0.1
354,MetaDrive-td3combine-expt_with_safe-leaky-adamw-in,78,176.52284481564325,356090,710,4527.732982873917,,24.47451400756836,38.07416915893555,0.1
355,MetaDrive-td3combine-expt_with_safe-leaky-adamw-in,78,177.11711356412593,357835,714,4545.265851974487,-30.96402931213379,8.840110778808594,30.118221282958984,0.1
356,MetaDrive-td3combine-expt_with_safe-leaky-adamw-in,78,177.88377793831657,358836,715,4555.19386100769,,44.50135040283203,31.68147087097168,0.1
357,MetaDrive-td3combine-expt_with_safe-leaky-adamw-in,78,178.56803081412548,359039,716,4557.371239900589,-25.350374221801758,6.382929801940918,24.70877456665039,0.1
358,MetaDrive-td3combine-expt_with_safe-leaky-adamw-in,78,179.8308993658781,360312,718,4570.036950826645,,21.04167938232422,27.538318634033203,0.1
359,MetaDrive-td3combine-expt_with_safe-leaky-adamw-in,78,176.9025820519359,361849,721,4585.869457960129,-21.622663497924805,13.199385643005371,20.428333282470703,0.09
360,MetaDrive-td3combine-expt_with_safe-leaky-adamw-in,78,177.62755501168843,362204,722,4589.540710926056,,29.8690242767334,41.49185562133789,0.09
361,MetaDrive-td3combine-expt_with_safe-leaky-adamw-in,78,183.03222503416993,363722,725,4604.493088006973,,12.80470085144043,18.316598892211914,0.09
362,MetaDrive-td3combine-expt_with_safe-leaky-adamw-in,79,184.51843036599294,364332,727,4610.682327985764,,20.745718002319336,34.8226203918457,0.1
363,MetaDrive-td3combine-expt_with_safe-leaky-adamw-in,79,182.73639125054106,365333,728,4620.563831806183,-26.415027618408203,10.403358459472656,26.66737174987793,0.1
364,MetaDrive-td3combine-expt_with_safe-leaky-adamw-in,79,183.2098421671547,366639,730,4633.598823070526,-33.65906524658203,6.239973068237305,33.81169509887695,0.1
365,MetaDrive-td3combine-expt_with_safe-leaky-adamw-in,79,185.77420498230774,367108,731,4638.368017911911,,21.330829620361328,31.10034942626953,0.11
366,MetaDrive-td3combine-expt_with_safe-leaky-adamw-in,79,188.09069204615776,368037,734,4647.898308992386,-36.36377716064453,29.752304077148438,36.842674255371094,0.12
367,MetaDrive-td3combine-expt_with_safe-leaky-adamw-in,79,188.86831708382073,369078,738,4658.326752901077,,14.366199493408203,39.11355972290039,0.13
368,MetaDrive-td3combine-expt_with_safe-leaky-adamw-in,79,190.14640263201056,370988,742,4678.382097959518,,21.905689239501953,37.2437629699707,0.13
369,MetaDrive-td3combine-expt_with_safe-leaky-adamw-in,79,191.46527871623724,371188,743,4680.415889978409,,20.237049102783203,24.995220184326172,0.13
370,MetaDrive-td3combine-expt_with_safe-leaky-adamw-in,79,190.55444329041177,372189,744,4690.056568861008,-23.965421676635742,23.979290008544922,23.56145477294922,0.13
371,MetaDrive-td3combine-expt_with_safe-leaky-adamw-in,79,193.19117538027496,373083,747,4699.275238990784,-35.146697998046875,18.209993362426758,35.59672927856445,0.13
372,MetaDrive-td3combine-expt_with_safe-leaky-adamw-in,79,191.46535965382878,374084,748,4708.936450958252,,13.531253814697266,32.109683990478516,0.13
373,MetaDrive-td3combine-expt_with_safe-leaky-adamw-in,79,193.23191613791158,375863,754,4726.980513811111,-32.744598388671875,31.35775375366211,33.24732208251953,0.13
374,MetaDrive-td3combine-expt_with_safe-leaky-adamw-in,79,191.39357443891484,376041,755,4728.776106119156,-29.927995681762695,13.434325218200684,28.952987670898438,0.13
375,MetaDrive-td3combine-expt_with_safe-leaky-adamw-in,79,190.56075533313415,377492,758,4743.186038017273,,16.28140640258789,36.597713470458984,0.13
376,MetaDrive-td3combine-expt_with_safe-leaky-adamw-in,79,189.06989306730225,378493,759,4753.437257051468,-30.424428939819336,19.625423431396484,29.96702003479004,0.12
377,MetaDrive-td3combine-expt_with_safe-leaky-adamw-in,79,182.8454131666602,379998,763,4768.564087867737,,20.328655242919922,27.622678756713867,0.11
378,MetaDrive-td3combine-expt_with_safe-leaky-adamw-in,79,185.66174788446645,380430,764,4772.968183994293,,18.61962890625,24.806013107299805,0.12
379,MetaDrive-td3combine-expt_with_safe-leaky-adamw-in,79,188.3423083819402,381515,766,4783.810904979706,-29.75597381591797,40.156883239746094,28.341651916503906,0.13
380,MetaDrive-td3combine-expt_with_safe-leaky-adamw-in,79,187.41161891264474,382875,768,4797.299814939499,-41.06778335571289,43.96220397949219,40.27417755126953,0.13
381,MetaDrive-td3combine-expt_with_safe-leaky-adamw-in,79,186.30234704525748,383190,769,4800.509594917297,,18.68315315246582,32.17322540283203,0.13
382,MetaDrive-td3combine-expt_with_safe-leaky-adamw-in,79,187.8347344007382,384191,770,4810.2427179813385,-36.052005767822266,21.239038467407227,34.4365348815918,0.13
383,MetaDrive-td3combine-expt_with_safe-leaky-adamw-in,79,185.90429313555953,385751,773,4825.883832931519,-30.816112518310547,15.073514938354492,30.732906341552734,0.12
384,MetaDrive-td3combine-expt_with_safe-leaky-adamw-in,79,184.4049337647263,386752,774,4835.720179080963,,25.457002639770508,31.15143585205078,0.12
385,MetaDrive-td3combine-expt_with_safe-leaky-adamw-in,80,186.05811386930472,387574,775,4844.077956914902,,15.647992134094238,39.80422592163086,0.13
386,MetaDrive-td3combine-expt_with_safe-leaky-adamw-in,80,185.97086187163742,388047,778,4849.190141916275,-38.830772399902344,109.95684051513672,38.29591751098633,0.13
387,MetaDrive-td3combine-expt_with_safe-leaky-adamw-in,80,187.344414233256,389921,781,4867.903662919998,-30.66216468811035,28.43002700805664,29.938745498657227,0.14
388,MetaDrive-td3combine-expt_with_safe-leaky-adamw-in,80,187.40028087148966,390476,782,4873.626037120819,,18.447914123535156,29.05556869506836,0.14
389,MetaDrive-td3combine-expt_with_safe-leaky-adamw-in,80,184.77118260739192,391277,785,4881.871654987335,-31.3781795501709,21.578880310058594,30.350570678710938,0.14
390,MetaDrive-td3combine-expt_with_safe-leaky-adamw-in,80,187.93141278081927,392176,789,4891.209056854248,,20.581668853759766,33.6284294128418,0.14
391,MetaDrive-td3combine-expt_with_safe-leaky-adamw-in,80,188.17903136344506,393677,791,4906.101089954376,-40.960479736328125,10.752907752990723,40.80121612548828,0.14
392,MetaDrive-td3combine-expt_with_safe-leaky-adamw-in,80,187.51558303085503,394678,792,4915.923447847366,,29.621150970458984,22.124160766601562,0.14
393,MetaDrive-td3combine-expt_with_safe-leaky-adamw-in,80,188.00210676811176,395679,793,4925.690389871597,-25.807411193847656,44.09088897705078,25.867427825927734,0.14
394,MetaDrive-td3combine-expt_with_safe-leaky-adamw-in,80,188.17235996890906,396680,794,4936.092613935471,,10.463212966918945,28.322269439697266,0.14
395,MetaDrive-td3combine-expt_with_safe-leaky-adamw-in,80,190.32305096762423,397942,796,4948.738252878189,,38.40023422241211,37.160064697265625,0.14
396,MetaDrive-td3combine-expt_with_safe-leaky-adamw-in,80,190.87784936395525,398943,797,4958.420068979263,-31.264116287231445,30.559429168701172,30.83597183227539,0.14
397,MetaDrive-td3combine-expt_with_safe-leaky-adamw-in,80,190.30109289495664,399944,798,4967.907966136932,,30.635536193847656,34.565521240234375,0.14
