TanmayH/CS269-RL-project-code/MetaDrive-test-conv-dropout-norm-lr-adamW/td3/progress.csv
,log_dir,frame_per_second,episode_reward,total_steps,total_episodes,total_time,target_q,actor_loss,critic_loss,success_rate
0,MetaDrive-test-conv-dropout-norm-lr-adamW,221,8.633202861130576,1909,2,8.611464023590088,,,,0.0
1,MetaDrive-test-conv-dropout-norm-lr-adamW,252,6.160220213361569,2482,3,9.838534593582153,,,,0.0
2,MetaDrive-test-conv-dropout-norm-lr-adamW,244,7.709177221547982,3483,4,14.218754053115845,,,,0.0
3,MetaDrive-test-conv-dropout-norm-lr-adamW,228,7.283580322975568,4999,6,21.876115560531616,,,,0.0
4,MetaDrive-test-conv-dropout-norm-lr-adamW,206,5.722038302868488,5047,7,24.404115676879883,-0.12960799038410187,0.12149030715227127,0.0005167712806724012,0.0
5,MetaDrive-test-conv-dropout-norm-lr-adamW,130,-1.4726059641420928,6599,37,50.42492914199829,-0.1828051656484604,0.12107183039188385,0.7062954902648926,0.0
6,MetaDrive-test-conv-dropout-norm-lr-adamW,117,-1.6871405623332059,7820,40,66.53764343261719,-0.18137046694755554,,0.6377854347229004,0.0
7,MetaDrive-test-conv-dropout-norm-lr-adamW,113,-1.801709718475619,8343,41,73.81915664672852,-0.09496887028217316,0.15166997909545898,0.02721060812473297,0.0
8,MetaDrive-test-conv-dropout-norm-lr-adamW,105,-1.7265182289549683,9557,44,90.58175468444824,-0.157223641872406,0.052485235035419464,0.6762571930885315,0.0
9,MetaDrive-test-conv-dropout-norm-lr-adamW,102,-1.5306843719989833,10558,45,103.11987257003784,-0.11807981878519058,,0.6005290150642395,0.0
10,MetaDrive-test-conv-dropout-norm-lr-adamW,98,-1.2596289301373649,11559,46,116.85452127456665,-0.024187149479985237,0.0479666106402874,0.022951483726501465,0.0
11,MetaDrive-test-conv-dropout-norm-lr-adamW,96,-0.9400136718026645,12206,47,126.83702635765076,-0.005222825333476067,,0.007921489886939526,0.0
12,MetaDrive-test-conv-dropout-norm-lr-adamW,93,-0.7326944099322295,13199,50,141.12584853172302,0.04577288776636124,-0.03127144277095795,0.001410103403031826,0.0
13,MetaDrive-test-conv-dropout-norm-lr-adamW,92,-0.3209187832662586,14200,51,154.2515308856964,0.06882146000862122,,0.009511932730674744,0.0
14,MetaDrive-test-conv-dropout-norm-lr-adamW,90,0.8425801763606757,15072,55,166.42985677719116,0.058107972145080566,,0.00766997504979372,0.0
15,MetaDrive-test-conv-dropout-norm-lr-adamW,86,5.174887311738159,16356,61,188.11538243293762,0.22924773395061493,,0.016260016709566116,0.0
16,MetaDrive-test-conv-dropout-norm-lr-adamW,85,7.031420346476235,17127,69,200.45462918281555,0.33076605200767517,-0.3602995276451111,0.01231237780302763,0.0
17,MetaDrive-test-conv-dropout-norm-lr-adamW,83,9.18064140510298,18004,78,214.94694089889526,0.5276666879653931,,0.03784700855612755,0.0
18,MetaDrive-test-conv-dropout-norm-lr-adamW,81,9.92234872648934,19022,94,233.4031081199646,0.56780606508255,,0.6441822052001953,0.0
19,MetaDrive-test-conv-dropout-norm-lr-adamW,80,12.504629136751113,20017,104,249.83268761634827,1.0060417652130127,-1.0884015560150146,0.04261639341711998,0.0
20,MetaDrive-test-conv-dropout-norm-lr-adamW,78,16.963320316654748,21101,115,267.3152422904968,1.2719511985778809,-1.4351588487625122,1.5101795196533203,0.0
21,MetaDrive-test-conv-dropout-norm-lr-adamW,78,20.944219504115427,22033,128,282.06253361701965,1.604784607887268,-1.6496214866638184,0.06840305030345917,0.0
22,MetaDrive-test-conv-dropout-norm-lr-adamW,77,26.180597801669837,23067,143,298.36250615119934,2.0976619720458984,-2.148339033126831,0.04000553488731384,0.0
23,MetaDrive-test-conv-dropout-norm-lr-adamW,76,30.57322184972029,24041,154,312.6603558063507,2.5232620239257812,-2.4430060386657715,0.11514399945735931,0.0
24,MetaDrive-test-conv-dropout-norm-lr-adamW,75,32.44516400949678,25272,167,332.61281418800354,3.2580924034118652,,3.395026683807373,0.0
25,MetaDrive-test-conv-dropout-norm-lr-adamW,75,33.16304378975502,26023,178,343.8994851112366,3.5375561714172363,-3.576620101928711,2.87324595451355,0.0
26,MetaDrive-test-conv-dropout-norm-lr-adamW,75,37.01950747961216,27062,190,359.3911805152893,4.132389068603516,,0.31680816411972046,0.0
27,MetaDrive-test-conv-dropout-norm-lr-adamW,74,38.16542925632711,28026,203,374.7472951412201,5.032708168029785,,5.777841567993164,0.0
28,MetaDrive-test-conv-dropout-norm-lr-adamW,74,38.68010538916353,29013,216,389.71173572540283,5.720950603485107,-5.964439392089844,0.2920382618904114,0.0
29,MetaDrive-test-conv-dropout-norm-lr-adamW,74,41.6747345394492,30072,230,406.00516986846924,6.30107307434082,,0.24907496571540833,0.0
30,MetaDrive-test-conv-dropout-norm-lr-adamW,73,43.346033982928596,31066,243,421.11081051826477,7.213590145111084,,4.682336807250977,0.0
31,MetaDrive-test-conv-dropout-norm-lr-adamW,73,44.79057871177448,32064,254,436.5789575576782,8.165958404541016,,0.5413490533828735,0.0
32,MetaDrive-test-conv-dropout-norm-lr-adamW,73,43.560371049249554,33059,268,452.5423183441162,8.54074478149414,-8.495695114135742,0.4690617620944977,0.0
33,MetaDrive-test-conv-dropout-norm-lr-adamW,72,45.137394936635495,34051,280,467.24206924438477,9.730948448181152,-9.632067680358887,0.5472017526626587,0.0
34,MetaDrive-test-conv-dropout-norm-lr-adamW,72,47.24187432384023,35079,289,483.96453762054443,10.537959098815918,-10.727819442749023,0.598721444606781,0.0
35,MetaDrive-test-conv-dropout-norm-lr-adamW,72,47.973558963605385,36046,302,498.94283628463745,10.985946655273438,,0.3710513710975647,0.0
36,MetaDrive-test-conv-dropout-norm-lr-adamW,72,48.34502617266362,37098,315,514.5671770572662,10.633134841918945,,21.687950134277344,0.0
37,MetaDrive-test-conv-dropout-norm-lr-adamW,71,49.61316964738694,38002,326,528.5709476470947,11.482242584228516,,18.822830200195312,0.0
38,MetaDrive-test-conv-dropout-norm-lr-adamW,71,51.78335183877179,39069,338,545.271909236908,13.572710037231445,-13.927095413208008,16.6370906829834,0.0
39,MetaDrive-test-conv-dropout-norm-lr-adamW,71,50.339958228402075,40016,350,560.2379257678986,13.902674674987793,,1.0946482419967651,0.0
40,MetaDrive-test-conv-dropout-norm-lr-adamW,71,54.13735383779735,41095,361,576.3592901229858,15.382732391357422,-15.594133377075195,1.6954059600830078,0.0
41,MetaDrive-test-conv-dropout-norm-lr-adamW,71,54.212851684951055,42050,372,591.5107443332672,14.807999610900879,,1.3897126913070679,0.0
42,MetaDrive-test-conv-dropout-norm-lr-adamW,71,56.57975170976367,43087,383,606.7043452262878,15.023115158081055,-15.371650695800781,2.3848700523376465,0.0
43,MetaDrive-test-conv-dropout-norm-lr-adamW,70,55.44937868781102,44077,396,621.0758588314056,17.062496185302734,-17.058263778686523,5.915117263793945,0.0
44,MetaDrive-test-conv-dropout-norm-lr-adamW,70,57.855907112359645,45210,408,638.7550122737885,17.223634719848633,,1.5051279067993164,0.0
45,MetaDrive-test-conv-dropout-norm-lr-adamW,70,58.26865071859943,46045,418,651.8833408355713,18.1866455078125,-18.97043228149414,22.40599250793457,0.0
46,MetaDrive-test-conv-dropout-norm-lr-adamW,70,57.79956898538843,47039,428,667.716539144516,17.28396987915039,-17.496522903442383,5.837316513061523,0.0
47,MetaDrive-test-conv-dropout-norm-lr-adamW,70,56.841994147193674,48027,439,682.6303520202637,19.93584632873535,-19.736906051635742,3.0983400344848633,0.0
48,MetaDrive-test-conv-dropout-norm-lr-adamW,70,58.637134359656194,49302,450,702.8698863983154,20.41979217529297,,2.8691329956054688,0.0
49,MetaDrive-test-conv-dropout-norm-lr-adamW,69,57.09325719225909,50116,459,715.9938564300537,20.573104858398438,,1.4565346240997314,0.0
50,MetaDrive-test-conv-dropout-norm-lr-adamW,69,58.36634255213204,51111,466,731.7540256977081,21.425491333007812,-21.841846466064453,2.859804630279541,0.0
51,MetaDrive-test-conv-dropout-norm-lr-adamW,69,55.96270615480589,52003,478,746.1294419765472,23.171546936035156,-23.515491485595703,2.1142051219940186,0.0
52,MetaDrive-test-conv-dropout-norm-lr-adamW,69,57.6351370675791,53197,482,766.6700360774994,22.679771423339844,-22.432815551757812,1.998404860496521,0.0
53,MetaDrive-test-conv-dropout-norm-lr-adamW,68,61.142430415003176,54096,484,784.4756326675415,22.407772064208984,,2.019911050796509,0.0
54,MetaDrive-test-conv-dropout-norm-lr-adamW,68,62.04004756813771,55009,491,799.1259598731995,23.749366760253906,-24.367807388305664,1.7476518154144287,0.0
55,MetaDrive-test-conv-dropout-norm-lr-adamW,68,64.988513576539,56159,498,817.664112329483,22.122901916503906,-21.97660255432129,1.460986852645874,0.0
56,MetaDrive-test-conv-dropout-norm-lr-adamW,68,63.79988196265154,57079,507,831.890861749649,21.696449279785156,-21.14562225341797,36.6270751953125,0.0
57,MetaDrive-test-conv-dropout-norm-lr-adamW,68,64.40983045165439,58063,515,847.6839106082916,22.374858856201172,-22.68413543701172,1.9395778179168701,0.0
58,MetaDrive-test-conv-dropout-norm-lr-adamW,68,64.38702519304006,59125,524,863.5391719341278,23.009685516357422,-22.93689727783203,3.3922195434570312,0.0
59,MetaDrive-test-conv-dropout-norm-lr-adamW,68,66.08352575704767,60072,529,878.7040746212006,23.43415069580078,,3.760185718536377,0.0
60,MetaDrive-test-conv-dropout-norm-lr-adamW,68,67.40639566479531,61036,537,893.4435458183289,24.459083557128906,,2.8149828910827637,0.0
61,MetaDrive-test-conv-dropout-norm-lr-adamW,68,67.80737006098866,62034,547,907.5080993175507,24.66370391845703,,3.388533115386963,0.0
62,MetaDrive-test-conv-dropout-norm-lr-adamW,68,70.19535156290598,63082,553,922.5458397865295,26.59048843383789,,4.097873687744141,0.0
63,MetaDrive-test-conv-dropout-norm-lr-adamW,68,72.51962616448024,64023,558,937.6556277275085,25.13117218017578,-25.692256927490234,1.4555716514587402,0.0
64,MetaDrive-test-conv-dropout-norm-lr-adamW,68,74.15015170998849,65245,564,955.0485796928406,25.214130401611328,-25.641834259033203,1.9783626794815063,0.0
65,MetaDrive-test-conv-dropout-norm-lr-adamW,68,76.443230380447,66062,567,965.7318522930145,25.11064910888672,,2.369330644607544,0.01
66,MetaDrive-test-conv-dropout-norm-lr-adamW,68,77.51199148258326,67622,572,986.7064270973206,27.395124435424805,,14.656346321105957,0.01
67,MetaDrive-test-conv-dropout-norm-lr-adamW,68,79.30274889284014,68014,574,992.5447754859924,27.07931137084961,,2.760899543762207,0.01
68,MetaDrive-test-conv-dropout-norm-lr-adamW,68,77.88672643453971,69781,580,1017.9545233249664,25.876068115234375,-25.844139099121094,30.2938232421875,0.01
69,MetaDrive-test-conv-dropout-norm-lr-adamW,68,72.2482652820043,70076,584,1023.0619759559631,24.296524047851562,,43.46186065673828,0.01
70,MetaDrive-test-conv-dropout-norm-lr-adamW,68,74.51950478027955,71677,586,1044.0055129528046,24.949344635009766,-25.194128036499023,2.0355491638183594,0.02
71,MetaDrive-test-conv-dropout-norm-lr-adamW,68,74.61470067231768,72852,589,1060.6030473709106,24.212242126464844,,11.873373031616211,0.02
72,MetaDrive-test-conv-dropout-norm-lr-adamW,68,73.66931296381645,73024,591,1062.738442659378,23.690593719482422,,4.721214294433594,0.02
73,MetaDrive-test-conv-dropout-norm-lr-adamW,68,74.48391075986392,74504,595,1088.5140664577484,27.501461029052734,,2.3845252990722656,0.02
74,MetaDrive-test-conv-dropout-norm-lr-adamW,68,77.10025319139993,75172,596,1098.1446814537048,26.59052276611328,,8.484599113464355,0.03
75,MetaDrive-test-conv-dropout-norm-lr-adamW,68,76.11727183045406,76348,598,1117.2359132766724,23.72906494140625,,1.7511799335479736,0.03
76,MetaDrive-test-conv-dropout-norm-lr-adamW,68,77.51368963733408,77667,600,1138.818717956543,26.900508880615234,-27.075942993164062,8.450489044189453,0.03
77,MetaDrive-test-conv-dropout-norm-lr-adamW,68,79.74005843448242,78668,601,1151.2379624843597,28.47962760925293,,2.6570205688476562,0.03
78,MetaDrive-test-conv-dropout-norm-lr-adamW,68,81.71769307457281,79116,602,1158.1508569717407,26.62676239013672,,4.756548881530762,0.03
79,MetaDrive-test-conv-dropout-norm-lr-adamW,68,84.81714130741493,80485,604,1176.0880017280579,24.596752166748047,-24.739852905273438,10.356514930725098,0.05
80,MetaDrive-test-conv-dropout-norm-lr-adamW,68,86.58418222580266,81711,606,1197.2718391418457,25.744735717773438,-26.444129943847656,25.297271728515625,0.05
81,MetaDrive-test-conv-dropout-norm-lr-adamW,68,88.79485235064334,82408,607,1207.2658219337463,24.181013107299805,,8.638677597045898,0.06
82,MetaDrive-test-conv-dropout-norm-lr-adamW,68,89.5879345902275,83409,608,1221.4099562168121,21.991958618164062,-22.19690704345703,2.6795408725738525,0.06
83,MetaDrive-test-conv-dropout-norm-lr-adamW,68,89.69861930847728,84215,610,1233.008867263794,24.274517059326172,-25.18658447265625,3.0392746925354004,0.06
84,MetaDrive-test-conv-dropout-norm-lr-adamW,68,93.85933105532408,85500,613,1251.6014256477356,24.315048217773438,,4.546936988830566,0.07
85,MetaDrive-test-conv-dropout-norm-lr-adamW,68,98.85435832297462,86831,615,1273.4554679393768,26.634185791015625,-26.5185546875,7.2453999519348145,0.08
86,MetaDrive-test-conv-dropout-norm-lr-adamW,68,99.64184383079414,87482,617,1282.6089239120483,28.749507904052734,,4.1585187911987305,0.08
87,MetaDrive-test-conv-dropout-norm-lr-adamW,68,103.38577295883066,88416,619,1297.1585659980774,27.587543487548828,,3.7166123390197754,0.09
88,MetaDrive-test-conv-dropout-norm-lr-adamW,68,107.70803522297837,89218,621,1309.8083641529083,24.930950164794922,,2.416506052017212,0.1
89,MetaDrive-test-conv-dropout-norm-lr-adamW,68,108.89513487137224,90863,624,1334.4972002506256,26.134845733642578,-25.921939849853516,4.410886764526367,0.1
90,MetaDrive-test-conv-dropout-norm-lr-adamW,68,111.58409211575474,91450,625,1343.9753892421722,26.356910705566406,,8.583105087280273,0.11
91,MetaDrive-test-conv-dropout-norm-lr-adamW,68,114.58520299591345,92383,626,1357.7634029388428,27.702503204345703,-27.232746124267578,7.930904865264893,0.12
92,MetaDrive-test-conv-dropout-norm-lr-adamW,67,117.62390544910171,93673,628,1378.3483872413635,27.963611602783203,-27.384557723999023,7.67465877532959,0.12
93,MetaDrive-test-conv-dropout-norm-lr-adamW,67,119.38604708607956,94674,629,1392.3744370937347,27.125225067138672,,2.367766857147217,0.12
94,MetaDrive-test-conv-dropout-norm-lr-adamW,67,122.31690624399906,95675,630,1413.6702842712402,25.633024215698242,-26.015304565429688,3.21761155128479,0.12
95,MetaDrive-test-conv-dropout-norm-lr-adamW,67,123.04296963661585,96158,632,1421.644767522812,24.84312629699707,,21.265689849853516,0.12
96,MetaDrive-test-conv-dropout-norm-lr-adamW,67,124.30436386566245,97159,633,1439.0344262123108,29.937252044677734,-30.87151336669922,3.0935020446777344,0.12
97,MetaDrive-test-conv-dropout-norm-lr-adamW,67,129.7162614306336,98626,636,1463.3179483413696,25.996124267578125,,48.4481201171875,0.14
98,MetaDrive-test-conv-dropout-norm-lr-adamW,67,130.3880990762276,99141,637,1471.2066433429718,29.977237701416016,-30.265331268310547,3.5564706325531006,0.14
99,MetaDrive-test-conv-dropout-norm-lr-adamW,67,132.5780371642271,100455,640,1491.6709442138672,26.946483612060547,-27.363061904907227,4.137282848358154,0.14
100,MetaDrive-test-conv-dropout-norm-lr-adamW,67,135.7951956634991,101087,641,1500.9229681491852,23.908367156982422,-24.677885055541992,6.226935863494873,0.15
101,MetaDrive-test-conv-dropout-norm-lr-adamW,67,139.6622746068443,102671,644,1527.4122321605682,26.678319931030273,-26.93904685974121,2.332855224609375,0.16
102,MetaDrive-test-conv-dropout-norm-lr-adamW,67,140.91517936334444,103198,647,1536.3188149929047,29.22323989868164,,28.019285202026367,0.16
103,MetaDrive-test-conv-dropout-norm-lr-adamW,67,144.65550711689676,104154,648,1552.1638996601105,29.400531768798828,,3.9846198558807373,0.17
104,MetaDrive-test-conv-dropout-norm-lr-adamW,67,148.5230155543882,105301,651,1567.4642016887665,27.99407196044922,-28.43099594116211,39.83550262451172,0.19
105,MetaDrive-test-conv-dropout-norm-lr-adamW,67,151.83524646063066,106175,652,1583.2112061977386,30.875690460205078,-30.496232986450195,3.71103572845459,0.2
106,MetaDrive-test-conv-dropout-norm-lr-adamW,66,154.6330044348531,107866,656,1616.354022026062,27.596641540527344,,39.02512741088867,0.2
107,MetaDrive-test-conv-dropout-norm-lr-adamW,66,155.2045410592087,108109,657,1620.0112299919128,29.933238983154297,-30.509876251220703,8.741485595703125,0.2
108,MetaDrive-test-conv-dropout-norm-lr-adamW,66,156.998470898047,109110,658,1636.056111574173,29.861379623413086,,15.496870994567871,0.2
109,MetaDrive-test-conv-dropout-norm-lr-adamW,66,162.20282006789827,110847,661,1661.6830914020538,31.77478790283203,-31.36530303955078,9.456411361694336,0.21
110,MetaDrive-test-conv-dropout-norm-lr-adamW,66,163.15729973519012,111498,663,1672.0216245651245,28.033193588256836,,14.102197647094727,0.21
111,MetaDrive-test-conv-dropout-norm-lr-adamW,66,164.39306372859667,112112,664,1680.6173300743103,29.04669952392578,,4.827582359313965,0.22
112,MetaDrive-test-conv-dropout-norm-lr-adamW,66,167.3434599205789,113113,665,1698.5451407432556,31.13140106201172,-31.059843063354492,11.936948776245117,0.22
113,MetaDrive-test-conv-dropout-norm-lr-adamW,66,167.07013896340715,114031,667,1711.8465309143066,30.731266021728516,-30.817964553833008,4.109626770019531,0.22
114,MetaDrive-test-conv-dropout-norm-lr-adamW,66,172.92444562241664,115622,669,1741.7288541793823,33.06501007080078,,5.220306396484375,0.23
115,MetaDrive-test-conv-dropout-norm-lr-adamW,66,175.29191054021453,116145,671,1749.3382213115692,26.153175354003906,-27.348880767822266,52.779808044433594,0.24
116,MetaDrive-test-conv-dropout-norm-lr-adamW,66,177.46130701356006,117734,677,1780.9670996665955,31.35198974609375,,5.964757919311523,0.24
117,MetaDrive-test-conv-dropout-norm-lr-adamW,66,179.39597155848423,118199,678,1787.3098075389862,28.480098724365234,-29.26361083984375,55.529048919677734,0.25
118,MetaDrive-test-conv-dropout-norm-lr-adamW,66,183.97856128195974,119105,681,1799.925309419632,31.898775100708008,-32.121612548828125,6.007552146911621,0.27
119,MetaDrive-test-conv-dropout-norm-lr-adamW,66,188.22117655569852,120075,683,1813.0188772678375,32.72420883178711,-33.481266021728516,5.986055374145508,0.28
120,MetaDrive-test-conv-dropout-norm-lr-adamW,66,191.7619065687036,121356,686,1831.9104690551758,32.99612808227539,,8.566983222961426,0.29
121,MetaDrive-test-conv-dropout-norm-lr-adamW,66,193.155958068459,122357,687,1848.8914308547974,31.246719360351562,-31.778696060180664,6.2648820877075195,0.29
122,MetaDrive-test-conv-dropout-norm-lr-adamW,66,198.03693322791906,123273,689,1863.324533700943,33.62147903442383,-33.95631408691406,4.5330095291137695,0.3
123,MetaDrive-test-conv-dropout-norm-lr-adamW,65,205.09982737047946,124845,691,1893.0019459724426,34.05186462402344,-33.90766143798828,5.11662483215332,0.32
124,MetaDrive-test-conv-dropout-norm-lr-adamW,65,207.4538073178002,125414,692,1902.3519580364227,34.32368469238281,,7.681114673614502,0.33
125,MetaDrive-test-conv-dropout-norm-lr-adamW,65,208.96549970091655,126191,695,1912.7401113510132,33.610992431640625,-33.91986846923828,6.200873374938965,0.33
126,MetaDrive-test-conv-dropout-norm-lr-adamW,66,209.71210861159284,127076,698,1924.5881798267365,31.261592864990234,,5.651759147644043,0.33
127,MetaDrive-test-conv-dropout-norm-lr-adamW,66,210.2485405945799,128169,700,1937.9956364631653,35.75971221923828,-35.96269989013672,4.734747886657715,0.33
128,MetaDrive-test-conv-dropout-norm-lr-adamW,66,207.95371405483894,129324,704,1953.4878544807434,29.536052703857422,,32.65154266357422,0.33
129,MetaDrive-test-conv-dropout-norm-lr-adamW,66,212.14127167727835,130095,705,1967.348804950714,32.60466766357422,-32.48200225830078,5.297070503234863,0.34
130,MetaDrive-test-conv-dropout-norm-lr-adamW,66,214.0362770890864,131159,707,1986.580774307251,33.130775451660156,-32.650299072265625,9.039228439331055,0.34
131,MetaDrive-test-conv-dropout-norm-lr-adamW,65,215.14016115295996,132160,708,2011.231149673462,34.02312469482422,,6.7032084465026855,0.34
132,MetaDrive-test-conv-dropout-norm-lr-adamW,65,215.15963493330656,133173,712,2026.8511559963226,32.25049591064453,-33.224334716796875,66.72720336914062,0.35
133,MetaDrive-test-conv-dropout-norm-lr-adamW,65,217.60099364568848,134105,713,2045.6255424022675,37.156497955322266,-37.35304260253906,3.7698917388916016,0.35
134,MetaDrive-test-conv-dropout-norm-lr-adamW,65,217.00068894539592,135087,716,2059.7192430496216,37.41379165649414,-37.90113830566406,3.26457142829895,0.35
135,MetaDrive-test-conv-dropout-norm-lr-adamW,65,214.54232130842044,136407,721,2077.384554862976,32.017539978027344,-32.44819259643555,9.051958084106445,0.34
136,MetaDrive-test-conv-dropout-norm-lr-adamW,65,216.47940472113336,137282,723,2091.20925450325,34.947052001953125,,9.076166152954102,0.35
137,MetaDrive-test-conv-dropout-norm-lr-adamW,65,214.5908126215609,138477,726,2109.9578433036804,38.84066390991211,-39.05078887939453,4.207921981811523,0.34
138,MetaDrive-test-conv-dropout-norm-lr-adamW,65,212.05716119990782,139269,729,2120.053073644638,35.10199737548828,-34.87818908691406,12.652676582336426,0.35
139,MetaDrive-test-conv-dropout-norm-lr-adamW,65,212.01311766580346,140610,733,2139.203347682953,36.013912200927734,,4.66651725769043,0.37
140,MetaDrive-test-conv-dropout-norm-lr-adamW,65,212.29942016789263,141701,735,2157.961480617523,35.879844665527344,-36.1121711730957,6.801788806915283,0.36
141,MetaDrive-test-conv-dropout-norm-lr-adamW,65,210.2424710002464,142181,736,2165.000364303589,35.447776794433594,-35.54247283935547,9.255205154418945,0.35
142,MetaDrive-test-conv-dropout-norm-lr-adamW,65,212.13184792922996,143677,738,2188.6027727127075,37.224822998046875,-37.819618225097656,10.468605995178223,0.36
143,MetaDrive-test-conv-dropout-norm-lr-adamW,65,213.89774527881804,144327,740,2198.9800090789795,33.19019317626953,-32.94078826904297,10.167475700378418,0.37
144,MetaDrive-test-conv-dropout-norm-lr-adamW,65,215.15335956100097,145640,742,2223.1811418533325,33.33367156982422,,13.262054443359375,0.36
145,MetaDrive-test-conv-dropout-norm-lr-adamW,65,213.0594290884574,146222,744,2231.1053330898285,38.16942596435547,,5.259174823760986,0.35
146,MetaDrive-test-conv-dropout-norm-lr-adamW,65,217.76870138926327,147150,746,2245.127993583679,35.65167999267578,,6.317464828491211,0.37
147,MetaDrive-test-conv-dropout-norm-lr-adamW,65,208.39515783698604,148441,752,2263.9653050899506,34.399681091308594,-35.58510971069336,21.008617401123047,0.33
148,MetaDrive-test-conv-dropout-norm-lr-adamW,65,210.21429909281417,149909,754,2295.140914440155,35.419639587402344,-35.768096923828125,17.258468627929688,0.34
149,MetaDrive-test-conv-dropout-norm-lr-adamW,65,210.35842291317994,150012,755,2296.9610571861267,38.612327575683594,,9.837966918945312,0.34
150,MetaDrive-test-conv-dropout-norm-lr-adamW,65,207.86983116891687,151549,759,2319.5749430656433,36.814453125,-37.75090789794922,9.395427703857422,0.35
151,MetaDrive-test-conv-dropout-norm-lr-adamW,65,208.2691093181564,152196,762,2328.62273478508,40.44342041015625,,30.898109436035156,0.35
152,MetaDrive-test-conv-dropout-norm-lr-adamW,65,208.24010937471016,153279,764,2343.157598257065,38.96852111816406,-39.48994827270508,6.989048004150391,0.36
153,MetaDrive-test-conv-dropout-norm-lr-adamW,65,208.02415626456613,154550,767,2359.930517911911,37.295162200927734,,15.330015182495117,0.37
154,MetaDrive-test-conv-dropout-norm-lr-adamW,65,205.89491570976392,155551,768,2375.105439901352,39.85424041748047,-40.748050689697266,9.820384979248047,0.36
155,MetaDrive-test-conv-dropout-norm-lr-adamW,65,205.88272921838913,156361,769,2387.391170024872,35.933780670166016,-36.64772415161133,8.33254623413086,0.37
156,MetaDrive-test-conv-dropout-norm-lr-adamW,65,207.95561045772575,157368,772,2403.647922515869,38.59632110595703,,6.601736068725586,0.37
157,MetaDrive-test-conv-dropout-norm-lr-adamW,65,211.57946393203542,158327,774,2418.915395259857,37.25072479248047,-37.71326446533203,7.051083087921143,0.38
158,MetaDrive-test-conv-dropout-norm-lr-adamW,65,216.13662493209108,159390,776,2434.775882959366,38.92146682739258,,6.804355621337891,0.39
159,MetaDrive-test-conv-dropout-norm-lr-adamW,65,215.68706434366507,160334,778,2449.623900413513,39.71070098876953,,66.62136840820312,0.39
160,MetaDrive-test-conv-dropout-norm-lr-adamW,65,218.30006081291728,161244,780,2461.493693590164,39.82392120361328,,8.947320938110352,0.4
161,MetaDrive-test-conv-dropout-norm-lr-adamW,65,219.02429769956223,162245,781,2479.4688329696655,41.12434387207031,-40.68657684326172,8.492570877075195,0.39
162,MetaDrive-test-conv-dropout-norm-lr-adamW,65,217.6789788025011,163554,783,2502.430347442627,40.30773162841797,,3.5225415229797363,0.38
163,MetaDrive-test-conv-dropout-norm-lr-adamW,65,218.61406413715702,164550,785,2518.989149093628,39.793548583984375,,8.191612243652344,0.38
164,MetaDrive-test-conv-dropout-norm-lr-adamW,65,216.92166263903925,165059,787,2526.39851975441,37.74435806274414,-38.40501022338867,6.739975929260254,0.37
165,MetaDrive-test-conv-dropout-norm-lr-adamW,65,214.00715527742648,166293,789,2546.06037402153,37.474159240722656,-36.92976379394531,6.36344051361084,0.36
166,MetaDrive-test-conv-dropout-norm-lr-adamW,65,213.51303907088837,167580,791,2566.9157712459564,38.031742095947266,,8.28326416015625,0.36
167,MetaDrive-test-conv-dropout-norm-lr-adamW,65,215.05565273142295,168970,793,2589.19917178154,40.869964599609375,,50.55461502075195,0.36
168,MetaDrive-test-conv-dropout-norm-lr-adamW,65,216.46857465558188,169698,794,2600.8020095825195,38.56812286376953,,61.1041259765625,0.37
169,MetaDrive-test-conv-dropout-norm-lr-adamW,65,217.3783701438733,170699,795,2616.487307071686,41.93389892578125,-43.26630401611328,10.024917602539062,0.37
170,MetaDrive-test-conv-dropout-norm-lr-adamW,65,217.76152193590835,171193,796,2623.9108028411865,41.417266845703125,-40.89891052246094,8.584437370300293,0.36
171,MetaDrive-test-conv-dropout-norm-lr-adamW,65,216.60334561057982,172194,801,2638.965597629547,40.3625373840332,,6.349577903747559,0.36
172,MetaDrive-test-conv-dropout-norm-lr-adamW,65,214.6054351718593,173781,804,2662.3209624290466,41.392581939697266,-42.06492614746094,8.732215881347656,0.35
173,MetaDrive-test-conv-dropout-norm-lr-adamW,65,212.82834555854868,174182,805,2667.7375247478485,43.37021255493164,,5.094543933868408,0.35
174,MetaDrive-test-conv-dropout-norm-lr-adamW,65,212.14369943806884,175963,809,2700.435560941696,41.77186584472656,-42.58177185058594,55.665443420410156,0.35
175,MetaDrive-test-conv-dropout-norm-lr-adamW,65,212.63055715057774,176121,810,2702.8389625549316,40.02210998535156,-41.21491241455078,75.11019134521484,0.35
176,MetaDrive-test-conv-dropout-norm-lr-adamW,65,213.34043306015946,177191,812,2719.8319754600525,44.012725830078125,-44.05646896362305,5.544671058654785,0.35
177,MetaDrive-test-conv-dropout-norm-lr-adamW,65,213.93883040066962,178234,814,2733.7851440906525,42.744483947753906,,6.061569690704346,0.36
178,MetaDrive-test-conv-dropout-norm-lr-adamW,65,212.70840433819117,179185,817,2748.2391090393066,43.05348205566406,-42.71022033691406,6.729913711547852,0.36
179,MetaDrive-test-conv-dropout-norm-lr-adamW,65,215.57131507725117,180186,818,2771.1058773994446,41.58766555786133,,3.127746343612671,0.36
180,MetaDrive-test-conv-dropout-norm-lr-adamW,65,217.7234682305036,181048,819,2784.6353080272675,43.38197708129883,,3.5986499786376953,0.37
181,MetaDrive-test-conv-dropout-norm-lr-adamW,65,217.77459077964616,182147,822,2799.065247774124,44.03367614746094,-43.941375732421875,9.633315086364746,0.38
182,MetaDrive-test-conv-dropout-norm-lr-adamW,65,217.238525391838,183360,825,2817.8500742912292,41.909759521484375,,40.900753021240234,0.39
183,MetaDrive-test-conv-dropout-norm-lr-adamW,65,219.96694483391272,184683,827,2838.3328807353973,41.94379425048828,-42.11939239501953,9.305328369140625,0.4
184,MetaDrive-test-conv-dropout-norm-lr-adamW,65,222.5441955266619,185484,828,2852.4419462680817,41.44176483154297,,10.541147232055664,0.41
185,MetaDrive-test-conv-dropout-norm-lr-adamW,65,219.45233216173278,186299,830,2865.7899417877197,41.239444732666016,-42.36710739135742,9.085424423217773,0.39
186,MetaDrive-test-conv-dropout-norm-lr-adamW,65,224.47158349343613,187646,832,2884.844765663147,41.25890350341797,,7.431530952453613,0.41
187,MetaDrive-test-conv-dropout-norm-lr-adamW,65,224.66700078486738,188206,833,2893.814279794693,43.4290771484375,,35.85407638549805,0.41
188,MetaDrive-test-conv-dropout-norm-lr-adamW,65,224.0015471168491,189059,836,2904.901384115219,41.605926513671875,-42.2620964050293,24.307201385498047,0.42
189,MetaDrive-test-conv-dropout-norm-lr-adamW,65,224.38683066514997,190060,837,2920.176551103592,42.128379821777344,,8.573335647583008,0.41
190,MetaDrive-test-conv-dropout-norm-lr-adamW,65,228.20345387044813,191379,839,2941.2187032699585,42.168209075927734,-42.67465591430664,6.297412872314453,0.43
191,MetaDrive-test-conv-dropout-norm-lr-adamW,65,226.255657280899,192013,841,2949.713718891144,45.119789123535156,-44.79872131347656,4.8910064697265625,0.43
192,MetaDrive-test-conv-dropout-norm-lr-adamW,65,228.36655767994083,193022,843,2963.6920309066772,44.996673583984375,,6.217424392700195,0.45
193,MetaDrive-test-conv-dropout-norm-lr-adamW,65,226.94482183006545,194474,846,2989.7557969093323,42.781742095947266,,6.8846235275268555,0.44
194,MetaDrive-test-conv-dropout-norm-lr-adamW,64,229.5551405412955,195475,847,3010.651606321335,46.39982223510742,-46.795955657958984,4.3615570068359375,0.44
195,MetaDrive-test-conv-dropout-norm-lr-adamW,64,233.56347524277365,196192,848,3023.6548368930817,44.10940933227539,,4.551492691040039,0.45
196,MetaDrive-test-conv-dropout-norm-lr-adamW,64,235.79565630094484,197079,851,3036.0065536499023,49.1363525390625,-49.24747085571289,7.169836521148682,0.46
197,MetaDrive-test-conv-dropout-norm-lr-adamW,64,237.02921780260291,198356,853,3053.7152092456818,40.88623809814453,,8.18738079071045,0.47
198,MetaDrive-test-conv-dropout-norm-lr-adamW,64,237.83516311657357,199698,855,3075.1163749694824,41.39637756347656,,50.38898468017578,0.47
199,MetaDrive-test-conv-dropout-norm-lr-adamW,64,238.93941748661481,200273,856,3083.1531221866608,42.41511917114258,-42.19523620605469,5.757119655609131,0.47
200,MetaDrive-test-conv-dropout-norm-lr-adamW,64,239.9596486938743,201016,858,3093.188759326935,44.845481872558594,,26.902320861816406,0.47
201,MetaDrive-test-conv-dropout-norm-lr-adamW,64,240.19248399408679,202017,859,3109.353529214859,42.412330627441406,-42.90440368652344,9.247699737548828,0.46
202,MetaDrive-test-conv-dropout-norm-lr-adamW,64,242.98347762461447,203183,862,3126.530002593994,43.579673767089844,-43.707008361816406,4.981884002685547,0.48
203,MetaDrive-test-conv-dropout-norm-lr-adamW,65,243.45801878921486,204580,865,3146.729305744171,45.28553771972656,,4.370853424072266,0.48
204,MetaDrive-test-conv-dropout-norm-lr-adamW,64,244.66720610820164,205409,866,3161.272609472275,40.96799850463867,-40.06792449951172,19.207651138305664,0.48
205,MetaDrive-test-conv-dropout-norm-lr-adamW,64,238.90804228609397,206087,869,3174.1532294750214,47.09961700439453,-47.43061065673828,7.559431076049805,0.46
206,MetaDrive-test-conv-dropout-norm-lr-adamW,64,242.50401363353308,207136,871,3190.3953697681427,44.128746032714844,,21.992143630981445,0.48
207,MetaDrive-test-conv-dropout-norm-lr-adamW,64,241.52331588735333,208206,873,3205.7764921188354,45.97586441040039,,8.093635559082031,0.48
208,MetaDrive-test-conv-dropout-norm-lr-adamW,64,241.59634392381994,209145,875,3218.441333293915,44.608734130859375,-44.69260787963867,38.017093658447266,0.48
209,MetaDrive-test-conv-dropout-norm-lr-adamW,64,237.25057577505143,210611,879,3242.4369492530823,44.6566162109375,-44.992706298828125,10.906023979187012,0.46
210,MetaDrive-test-conv-dropout-norm-lr-adamW,64,236.4097510321565,211029,880,3247.8453550338745,43.679656982421875,-43.75587844848633,5.579719066619873,0.45
211,MetaDrive-test-conv-dropout-norm-lr-adamW,64,236.37390621918635,212030,881,3266.1743025779724,44.15716552734375,,10.418265342712402,0.45
212,MetaDrive-test-conv-dropout-norm-lr-adamW,64,238.88902538568317,213234,883,3284.583996295929,43.39317321777344,,36.92772674560547,0.47
213,MetaDrive-test-conv-dropout-norm-lr-adamW,64,240.33838158418243,214019,884,3296.3636779785156,43.67636489868164,-44.82966995239258,10.162766456604004,0.48
214,MetaDrive-test-conv-dropout-norm-lr-adamW,64,238.86639508530675,215020,885,3313.3404879570007,44.179786682128906,,6.838971138000488,0.47
215,MetaDrive-test-conv-dropout-norm-lr-adamW,64,234.032438774271,216009,890,3326.9350242614746,44.263694763183594,-43.940208435058594,8.745647430419922,0.46
216,MetaDrive-test-conv-dropout-norm-lr-adamW,64,231.82470881385456,217264,893,3346.1769363880157,48.154930114746094,,10.437753677368164,0.45
217,MetaDrive-test-conv-dropout-norm-lr-adamW,64,230.5697440093225,218071,895,3358.3208401203156,46.182106018066406,-47.01122283935547,5.4530839920043945,0.45
218,MetaDrive-test-conv-dropout-norm-lr-adamW,64,233.83421195926167,219291,897,3376.02126121521,48.02308654785156,-48.898826599121094,24.409631729125977,0.47
219,MetaDrive-test-conv-dropout-norm-lr-adamW,65,237.11313684162542,220428,899,3390.9117522239685,47.79557800292969,,10.578324317932129,0.49
220,MetaDrive-test-conv-dropout-norm-lr-adamW,64,240.12403695051208,221386,901,3406.0860311985016,40.98075485229492,,5.841221809387207,0.5
221,MetaDrive-test-conv-dropout-norm-lr-adamW,65,241.4214105549753,222760,903,3426.8951210975647,42.387603759765625,,6.185381889343262,0.5
222,MetaDrive-test-conv-dropout-norm-lr-adamW,65,242.7709799555143,223537,904,3437.8892328739166,47.03446578979492,-46.25022888183594,9.359542846679688,0.51
223,MetaDrive-test-conv-dropout-norm-lr-adamW,65,245.9647026361225,224656,906,3455.298031806946,44.400535583496094,,8.385213851928711,0.51
224,MetaDrive-test-conv-dropout-norm-lr-adamW,65,248.3610522587728,225269,907,3464.010083436966,46.073760986328125,-44.22190475463867,11.038419723510742,0.52
225,MetaDrive-test-conv-dropout-norm-lr-adamW,65,245.1631493110728,226172,910,3477.3626675605774,47.36134719848633,,6.3176493644714355,0.52
226,MetaDrive-test-conv-dropout-norm-lr-adamW,65,246.01782639545476,227227,912,3494.575833797455,46.61919403076172,-46.564231872558594,12.776476860046387,0.52
227,MetaDrive-test-conv-dropout-norm-lr-adamW,65,245.97537260197964,228009,913,3505.9403343200684,46.83483123779297,-47.05476379394531,12.30954360961914,0.52
228,MetaDrive-test-conv-dropout-norm-lr-adamW,65,250.8528050282992,229607,916,3528.967389345169,44.21122741699219,-44.73982620239258,6.5551838874816895,0.54
229,MetaDrive-test-conv-dropout-norm-lr-adamW,65,248.104641787956,230248,918,3538.502970457077,48.28800964355469,,7.770539283752441,0.54
230,MetaDrive-test-conv-dropout-norm-lr-adamW,65,246.99522537190103,231185,919,3554.0787415504456,42.139190673828125,-43.01361083984375,11.567367553710938,0.53
231,MetaDrive-test-conv-dropout-norm-lr-adamW,65,247.5444990829409,232049,921,3568.324611186981,48.79582214355469,-48.87248229980469,5.4593939781188965,0.52
232,MetaDrive-test-conv-dropout-norm-lr-adamW,65,248.5794130998103,233161,923,3585.925857782364,47.116512298583984,-47.70701599121094,10.80469036102295,0.53
233,MetaDrive-test-conv-dropout-norm-lr-adamW,64,251.2264395988649,234033,924,3601.9775700569153,47.69603729248047,-48.42036819458008,7.754982948303223,0.54
234,MetaDrive-test-conv-dropout-norm-lr-adamW,65,248.38917531358362,235780,928,3625.9860911369324,41.74598693847656,,87.23995971679688,0.51
235,MetaDrive-test-conv-dropout-norm-lr-adamW,65,251.14323691668528,236418,929,3634.8892874717712,44.872501373291016,,18.954721450805664,0.52
236,MetaDrive-test-conv-dropout-norm-lr-adamW,65,246.8159550054675,237447,932,3650.6416676044464,41.175506591796875,-39.972015380859375,26.1518611907959,0.5
237,MetaDrive-test-conv-dropout-norm-lr-adamW,65,245.42825948026726,238595,935,3670.1677601337433,48.4930419921875,-48.7655029296875,10.283886909484863,0.49
238,MetaDrive-test-conv-dropout-norm-lr-adamW,64,248.1285187324595,239483,936,3686.4191291332245,39.2989616394043,-39.77826690673828,9.19314193725586,0.5
239,MetaDrive-test-conv-dropout-norm-lr-adamW,64,248.89355720185415,240172,937,3696.288539648056,47.94182205200195,,51.9995231628418,0.51
240,MetaDrive-test-conv-dropout-norm-lr-adamW,64,250.80283608215282,241173,938,3713.056770801544,45.914955139160156,-46.253326416015625,8.99374771118164,0.5
241,MetaDrive-test-conv-dropout-norm-lr-adamW,64,248.70083735522996,242247,941,3730.6148540973663,47.179039001464844,-47.15975570678711,4.286428451538086,0.49
242,MetaDrive-test-conv-dropout-norm-lr-adamW,64,245.70010368081788,243100,943,3742.177455663681,46.07548522949219,,7.1515092849731445,0.48
243,MetaDrive-test-conv-dropout-norm-lr-adamW,64,246.39715121112968,244093,944,3760.920825242996,51.33983612060547,-51.150672912597656,4.798788070678711,0.48
244,MetaDrive-test-conv-dropout-norm-lr-adamW,64,249.21867181425324,245314,946,3779.4057726860046,47.63948059082031,,9.715152740478516,0.49
245,MetaDrive-test-conv-dropout-norm-lr-adamW,64,246.03692858735113,246101,948,3791.8962213993073,46.96498489379883,-46.750518798828125,7.2310471534729,0.49
246,MetaDrive-test-conv-dropout-norm-lr-adamW,64,246.6357099234517,247126,950,3807.414950609207,47.746795654296875,,12.500175476074219,0.49
247,MetaDrive-test-conv-dropout-norm-lr-adamW,64,245.9552614622302,248036,952,3822.360504627228,45.490081787109375,,68.89288330078125,0.49
248,MetaDrive-test-conv-dropout-norm-lr-adamW,64,247.75491740232624,249172,954,3838.360626220703,45.75002670288086,,7.740983963012695,0.49
249,MetaDrive-test-conv-dropout-norm-lr-adamW,64,247.61083274778062,250034,956,3850.560316801071,47.35454559326172,,14.779332160949707,0.5
250,MetaDrive-test-conv-dropout-norm-lr-adamW,64,248.1699765577954,251046,958,3865.26602602005,44.40701675415039,,13.141035079956055,0.5
251,MetaDrive-test-conv-dropout-norm-lr-adamW,64,250.22089277055352,252633,960,3891.1149599552155,44.33023452758789,-46.22099304199219,102.11402893066406,0.52
252,MetaDrive-test-conv-dropout-norm-lr-adamW,64,250.01896590205084,253129,961,3897.463838338852,51.194766998291016,-52.10586166381836,6.72263240814209,0.52
253,MetaDrive-test-conv-dropout-norm-lr-adamW,64,246.38838024081716,254518,965,3921.577782392502,50.88277816772461,,5.078189373016357,0.5
254,MetaDrive-test-conv-dropout-norm-lr-adamW,64,245.93122555031812,255315,966,3934.764880180359,45.8421745300293,-46.74327087402344,11.30048942565918,0.5
255,MetaDrive-test-conv-dropout-norm-lr-adamW,64,248.93966982719886,256020,967,3945.6472749710083,44.05080795288086,,16.303340911865234,0.51
256,MetaDrive-test-conv-dropout-norm-lr-adamW,64,248.63860158397227,257021,968,3961.9582998752594,42.61518096923828,-43.041969299316406,7.202111721038818,0.51
257,MetaDrive-test-conv-dropout-norm-lr-adamW,64,248.8033533327417,258200,971,3978.5711150169373,46.785030364990234,,6.455946445465088,0.5
258,MetaDrive-test-conv-dropout-norm-lr-adamW,64,250.71596987039845,259265,973,3996.919255256653,46.40595245361328,-47.18916702270508,23.5888614654541,0.5
259,MetaDrive-test-conv-dropout-norm-lr-adamW,64,249.3055089735303,260041,975,4010.1140797138214,47.11015319824219,-48.50843048095703,9.595243453979492,0.49
260,MetaDrive-test-conv-dropout-norm-lr-adamW,64,253.05381595804963,261615,978,4033.0975964069366,42.844146728515625,-44.25868225097656,104.62107849121094,0.51
261,MetaDrive-test-conv-dropout-norm-lr-adamW,64,254.1379599518457,262616,979,4053.4218509197235,45.02960205078125,,16.521392822265625,0.5
262,MetaDrive-test-conv-dropout-norm-lr-adamW,64,255.983749261317,263493,980,4074.646410703659,48.4311408996582,-48.92170715332031,6.687525749206543,0.5
263,MetaDrive-test-conv-dropout-norm-lr-adamW,64,253.96021573140612,264212,982,4085.435319185257,47.04800796508789,,7.476616382598877,0.5
264,MetaDrive-test-conv-dropout-norm-lr-adamW,64,251.88477452995537,265381,984,4106.96173453331,48.89497756958008,-51.3874626159668,148.24945068359375,0.48
265,MetaDrive-test-conv-dropout-norm-lr-adamW,64,253.47851230831395,266271,985,4118.401812791824,46.96403503417969,-47.66733169555664,17.98284912109375,0.49
266,MetaDrive-test-conv-dropout-norm-lr-adamW,64,255.1816083344789,267182,987,4129.828413963318,47.83637619018555,,4.419865131378174,0.5
267,MetaDrive-test-conv-dropout-norm-lr-adamW,64,259.5705936447355,268158,988,4145.193313121796,48.533668518066406,,16.538406372070312,0.51
268,MetaDrive-test-conv-dropout-norm-lr-adamW,64,262.6843515922693,269010,989,4159.235062122345,49.72930908203125,,33.554039001464844,0.52
269,MetaDrive-test-conv-dropout-norm-lr-adamW,64,265.95099930370145,270090,991,4176.14174413681,42.2989501953125,,8.310064315795898,0.52
270,MetaDrive-test-conv-dropout-norm-lr-adamW,64,264.32928597405066,271370,993,4196.89973115921,39.772518157958984,,26.63119888305664,0.52
271,MetaDrive-test-conv-dropout-norm-lr-adamW,64,266.4109139154518,272371,994,4213.230021238327,48.60870361328125,-48.90980529785156,7.122715950012207,0.52
272,MetaDrive-test-conv-dropout-norm-lr-adamW,64,265.78550022161585,273446,996,4225.610177993774,45.5003662109375,,11.733701705932617,0.52
273,MetaDrive-test-conv-dropout-norm-lr-adamW,64,262.095481189808,274078,998,4235.2220804691315,48.94329833984375,,29.23590850830078,0.5
274,MetaDrive-test-conv-dropout-norm-lr-adamW,64,261.53086436627996,275202,1000,4250.1230726242065,47.78685760498047,,9.887182235717773,0.49
275,MetaDrive-test-conv-dropout-norm-lr-adamW,64,261.23363272527257,276392,1003,4268.32422709465,51.5234260559082,,26.984636306762695,0.5
276,MetaDrive-test-conv-dropout-norm-lr-adamW,64,263.75738411482746,277824,1005,4291.532616615295,48.16233444213867,,54.56557846069336,0.51
277,MetaDrive-test-conv-dropout-norm-lr-adamW,64,262.7107461624878,278430,1006,4300.821139574051,46.535858154296875,,8.701051712036133,0.51
278,MetaDrive-test-conv-dropout-norm-lr-adamW,64,263.4480281145052,279151,1007,4311.18820643425,44.87432098388672,-44.91570281982422,21.16880226135254,0.51
279,MetaDrive-test-conv-dropout-norm-lr-adamW,64,264.0173604360705,280095,1009,4325.3619220256805,45.6387825012207,-46.38555908203125,76.13492584228516,0.5
280,MetaDrive-test-conv-dropout-norm-lr-adamW,64,264.29911311515707,281680,1012,4347.2372987270355,47.58941650390625,,11.324716567993164,0.5
281,MetaDrive-test-conv-dropout-norm-lr-adamW,64,263.52499482127723,282225,1013,4355.069793701172,47.74869918823242,-47.65193557739258,32.69247055053711,0.5
282,MetaDrive-test-conv-dropout-norm-lr-adamW,64,262.9656717816066,283253,1015,4370.195540428162,47.40394592285156,-47.267906188964844,12.26907730102539,0.49
283,MetaDrive-test-conv-dropout-norm-lr-adamW,64,264.63662129382584,284254,1016,4389.988025188446,42.97834396362305,,8.994486808776855,0.48
284,MetaDrive-test-conv-dropout-norm-lr-adamW,64,265.375416560749,285120,1018,4401.12319278717,49.736289978027344,,14.596587181091309,0.48
285,MetaDrive-test-conv-dropout-norm-lr-adamW,64,266.62644357520236,286345,1020,4419.605647802353,49.676300048828125,-50.510292053222656,67.75497436523438,0.48
286,MetaDrive-test-conv-dropout-norm-lr-adamW,64,259.2781669768583,287246,1023,4433.673242092133,46.84893798828125,,16.28809356689453,0.45
287,MetaDrive-test-conv-dropout-norm-lr-adamW,64,259.5610920374738,288253,1025,4450.186833620071,49.30872344970703,-49.33740234375,29.40772247314453,0.45
288,MetaDrive-test-conv-dropout-norm-lr-adamW,64,260.8325090485346,289234,1027,4465.510216712952,52.975189208984375,,15.795469284057617,0.46
289,MetaDrive-test-conv-dropout-norm-lr-adamW,64,260.64927153355774,290235,1028,4483.431181669235,47.07441711425781,-46.183441162109375,21.217710494995117,0.45
290,MetaDrive-test-conv-dropout-norm-lr-adamW,64,263.4844110852957,291769,1030,4509.247898101807,46.22584533691406,-47.1214714050293,11.578997611999512,0.46
291,MetaDrive-test-conv-dropout-norm-lr-adamW,64,263.39548363636374,292234,1032,4516.278876781464,46.38337326049805,,87.74543762207031,0.46
292,MetaDrive-test-conv-dropout-norm-lr-adamW,64,265.39826018208163,293916,1035,4545.044818401337,49.2577018737793,,13.795882225036621,0.46
293,MetaDrive-test-conv-dropout-norm-lr-adamW,64,262.20278492883585,294156,1036,4549.040581941605,48.7214469909668,,5.997142791748047,0.45
294,MetaDrive-test-conv-dropout-norm-lr-adamW,64,259.6817497213574,295347,1038,4563.896092414856,50.54189682006836,-52.32823181152344,7.768230438232422,0.46
295,MetaDrive-test-conv-dropout-norm-lr-adamW,64,259.68501817092334,296504,1041,4579.64235830307,47.25270462036133,,13.104894638061523,0.46
296,MetaDrive-test-conv-dropout-norm-lr-adamW,64,262.2757207193375,297505,1042,4593.270025730133,46.06175231933594,-47.61351013183594,13.09015941619873,0.46
297,MetaDrive-test-conv-dropout-norm-lr-adamW,64,257.72350306255856,298170,1044,4604.017733335495,48.15680694580078,,84.47476196289062,0.44
298,MetaDrive-test-conv-dropout-norm-lr-adamW,64,255.1625850638776,299118,1046,4616.2579617500305,47.563804626464844,,34.18242263793945,0.44
299,MetaDrive-test-conv-dropout-norm-lr-adamW,64,251.8009817738601,300406,1050,4636.718279838562,48.82783508300781,,12.250640869140625,0.43
300,MetaDrive-test-conv-dropout-norm-lr-adamW,64,254.98015474063126,301213,1051,4647.72670006752,49.206764221191406,-49.2886962890625,8.025066375732422,0.44
301,MetaDrive-test-conv-dropout-norm-lr-adamW,64,253.39276608366504,302359,1053,4665.849990606308,46.18760299682617,-46.70120620727539,11.865009307861328,0.43
302,MetaDrive-test-conv-dropout-norm-lr-adamW,64,251.9265722009719,303143,1055,4677.428637742996,49.36179733276367,-49.84986114501953,6.087164402008057,0.43
303,MetaDrive-test-conv-dropout-norm-lr-adamW,64,251.0628079674942,304247,1057,4695.544267654419,45.32915496826172,-45.02122497558594,9.771282196044922,0.43
304,MetaDrive-test-conv-dropout-norm-lr-adamW,64,253.63140708610845,305957,1059,4723.90953207016,48.26362609863281,-48.19737243652344,13.672948837280273,0.43
305,MetaDrive-test-conv-dropout-norm-lr-adamW,64,253.52070870455296,306858,1060,4739.061541318893,44.973793029785156,,13.094368934631348,0.43
306,MetaDrive-test-conv-dropout-norm-lr-adamW,64,254.03201543114784,307475,1061,4747.733527183533,50.68334197998047,-50.00875473022461,26.766529083251953,0.42
307,MetaDrive-test-conv-dropout-norm-lr-adamW,64,254.89913577539338,308476,1062,4765.208443403244,51.439910888671875,,17.24416732788086,0.42
308,MetaDrive-test-conv-dropout-norm-lr-adamW,64,257.94743981118023,309477,1063,4784.535328865051,47.142086029052734,-47.16856002807617,4.377167224884033,0.42
309,MetaDrive-test-conv-dropout-norm-lr-adamW,64,260.70365358505444,310176,1064,4793.193035125732,49.454288482666016,,7.710467338562012,0.43
310,MetaDrive-test-conv-dropout-norm-lr-adamW,64,255.8795574623239,311575,1067,4812.336008310318,49.41596221923828,-49.79273986816406,12.696913719177246,0.42
311,MetaDrive-test-conv-dropout-norm-lr-adamW,64,256.1932535721759,312219,1068,4820.314482450485,47.495704650878906,-47.72503662109375,8.840703964233398,0.43
312,MetaDrive-test-conv-dropout-norm-lr-adamW,64,255.63097279086585,313037,1069,4831.114298582077,41.98262023925781,-42.65369415283203,159.78793334960938,0.43
313,MetaDrive-test-conv-dropout-norm-lr-adamW,64,257.6495356265555,314132,1071,4847.213403224945,52.19215774536133,,17.656436920166016,0.44
314,MetaDrive-test-conv-dropout-norm-lr-adamW,64,256.612978723858,315184,1073,4863.034105062485,48.77381896972656,,11.436981201171875,0.44
315,MetaDrive-test-conv-dropout-norm-lr-adamW,64,258.29996471644137,316142,1074,4876.14185667038,47.0599365234375,,7.2728424072265625,0.45
316,MetaDrive-test-conv-dropout-norm-lr-adamW,64,258.970524839652,317869,1077,4904.016250133514,48.109432220458984,-48.27000427246094,8.299007415771484,0.44
317,MetaDrive-test-conv-dropout-norm-lr-adamW,64,255.96894369609868,318157,1078,4908.206419944763,50.567970275878906,-51.20970916748047,72.44152069091797,0.43
318,MetaDrive-test-conv-dropout-norm-lr-adamW,64,254.041291563474,319275,1080,4926.25155043602,48.79362869262695,-49.48019027709961,28.72477149963379,0.44
319,MetaDrive-test-conv-dropout-norm-lr-adamW,64,256.95837510094987,320178,1081,4940.317186594009,48.94140625,,7.006621837615967,0.45
320,MetaDrive-test-conv-dropout-norm-lr-adamW,64,258.53402135351024,321610,1083,4969.779170036316,48.207035064697266,,11.565051078796387,0.44
321,MetaDrive-test-conv-dropout-norm-lr-adamW,64,255.20693614180965,322609,1085,4983.929083347321,47.898834228515625,-48.266963958740234,10.709718704223633,0.44
322,MetaDrive-test-conv-dropout-norm-lr-adamW,64,256.6178541882263,323610,1086,5005.444082021713,50.72203063964844,,12.498411178588867,0.43
323,MetaDrive-test-conv-dropout-norm-lr-adamW,64,258.65519816072015,324525,1087,5017.915635347366,47.646053314208984,-48.37164306640625,26.242521286010742,0.44
324,MetaDrive-test-conv-dropout-norm-lr-adamW,64,256.76296607684674,325266,1088,5029.106436014175,45.27128601074219,,11.698301315307617,0.44
325,MetaDrive-test-conv-dropout-norm-lr-adamW,64,252.61008782472334,326576,1090,5047.820967912674,48.39116668701172,,10.649537086486816,0.43
326,MetaDrive-test-conv-dropout-norm-lr-adamW,64,249.90809619453165,327366,1092,5058.730660200119,43.47502899169922,,12.447816848754883,0.42
327,MetaDrive-test-conv-dropout-norm-lr-adamW,64,250.71557850825693,328868,1094,5087.163754940033,50.21342468261719,,4.207982540130615,0.42
328,MetaDrive-test-conv-dropout-norm-lr-adamW,64,250.4262085292884,329512,1095,5094.683423757553,46.276458740234375,,8.989448547363281,0.42
329,MetaDrive-test-conv-dropout-norm-lr-adamW,64,251.0711126715379,330093,1096,5102.56210398674,56.01262664794922,-54.975196838378906,8.246129035949707,0.42
330,MetaDrive-test-conv-dropout-norm-lr-adamW,64,254.10649294239494,331150,1098,5117.521831512451,45.88574981689453,,13.781686782836914,0.43
331,MetaDrive-test-conv-dropout-norm-lr-adamW,64,251.50090283264342,332588,1102,5139.333500862122,49.61586380004883,,9.00518798828125,0.43
332,MetaDrive-test-conv-dropout-norm-lr-adamW,64,248.17032376406084,333156,1104,5147.125776767731,48.14379119873047,,29.2069091796875,0.41
333,MetaDrive-test-conv-dropout-norm-lr-adamW,64,247.4896180335172,334151,1105,5165.449771165848,48.57020568847656,-48.678932189941406,39.831321716308594,0.41
334,MetaDrive-test-conv-dropout-norm-lr-adamW,64,244.7604210147398,335083,1107,5179.18917965889,46.05933380126953,-45.20344543457031,9.522802352905273,0.4
335,MetaDrive-test-conv-dropout-norm-lr-adamW,64,244.29583144985793,336016,1109,5191.142506122589,50.48773193359375,,8.396257400512695,0.41
336,MetaDrive-test-conv-dropout-norm-lr-adamW,64,245.14959969458437,337915,1112,5214.972188711166,38.882843017578125,-39.68537139892578,8.339729309082031,0.4
337,MetaDrive-test-conv-dropout-norm-lr-adamW,64,245.9175799330182,338599,1113,5224.874049663544,49.89899826049805,-51.066566467285156,9.425823211669922,0.4
338,MetaDrive-test-conv-dropout-norm-lr-adamW,64,245.02659385364504,339299,1114,5234.640244245529,50.18302536010742,-51.17417526245117,11.304147720336914,0.39
339,MetaDrive-test-conv-dropout-norm-lr-adamW,64,245.91117698221512,340243,1115,5246.982404708862,48.99253463745117,-49.781410217285156,10.17340087890625,0.4
340,MetaDrive-test-conv-dropout-norm-lr-adamW,64,238.20363580617817,341240,1119,5261.667806625366,44.64943313598633,,7.277563095092773,0.39
341,MetaDrive-test-conv-dropout-norm-lr-adamW,64,240.04917406282712,342407,1121,5278.097151994705,45.98274230957031,-45.86799621582031,4.661656379699707,0.4
342,MetaDrive-test-conv-dropout-norm-lr-adamW,64,242.962189119656,343256,1122,5291.152848243713,41.71022033691406,,25.08362579345703,0.41
343,MetaDrive-test-conv-dropout-norm-lr-adamW,64,240.55379055572357,344201,1125,5303.624528884888,44.1708869934082,-44.338706970214844,32.52327346801758,0.41
344,MetaDrive-test-conv-dropout-norm-lr-adamW,64,242.73194182245877,345784,1127,5325.121469497681,45.069541931152344,,9.106103897094727,0.41
345,MetaDrive-test-conv-dropout-norm-lr-adamW,64,240.78470221398223,346785,1128,5341.4373297691345,47.62352752685547,-48.54327392578125,7.494129657745361,0.41
346,MetaDrive-test-conv-dropout-norm-lr-adamW,64,238.09681962117705,347047,1129,5344.642558097839,45.09038162231445,-45.486412048339844,6.256753921508789,0.4
347,MetaDrive-test-conv-dropout-norm-lr-adamW,64,237.5142742905589,348048,1130,5355.867572784424,49.06446075439453,,11.618011474609375,0.39
348,MetaDrive-test-conv-dropout-norm-lr-adamW,64,242.37273997585143,349841,1133,5387.701322555542,44.28533935546875,-45.582763671875,15.651077270507812,0.39
349,MetaDrive-test-conv-dropout-norm-lr-adamW,64,243.75570561293705,350842,1134,5402.362816572189,47.79026412963867,,119.29329681396484,0.38
350,MetaDrive-test-conv-dropout-norm-lr-adamW,64,240.71508260316824,351053,1135,5405.100211620331,46.04151916503906,-46.130226135253906,19.928375244140625,0.38
351,MetaDrive-test-conv-dropout-norm-lr-adamW,64,241.93346009960294,352128,1137,5422.22830748558,48.18403625488281,,8.759395599365234,0.38
352,MetaDrive-test-conv-dropout-norm-lr-adamW,64,243.50752009089263,353202,1139,5436.852276325226,45.735801696777344,,11.391743659973145,0.38
353,MetaDrive-test-conv-dropout-norm-lr-adamW,64,245.45105357711006,354203,1140,5454.713718891144,48.163177490234375,-49.87337875366211,7.719358921051025,0.38
354,MetaDrive-test-conv-dropout-norm-lr-adamW,64,243.53408316041285,355846,1142,5478.9015436172485,44.479732513427734,,19.76197052001953,0.38
355,MetaDrive-test-conv-dropout-norm-lr-adamW,64,246.72911365512908,356847,1143,5499.080855607986,48.87359619140625,-48.22245788574219,15.594659805297852,0.38
356,MetaDrive-test-conv-dropout-norm-lr-adamW,64,246.85841778970197,357316,1144,5504.298105716705,48.06726837158203,,56.8262939453125,0.39
357,MetaDrive-test-conv-dropout-norm-lr-adamW,64,246.02557683033527,358029,1146,5513.612869977951,43.27716064453125,-43.421817779541016,11.436004638671875,0.38
358,MetaDrive-test-conv-dropout-norm-lr-adamW,64,249.1320132773677,359226,1149,5527.399864435196,46.555809020996094,,7.921667575836182,0.4
359,MetaDrive-test-conv-dropout-norm-lr-adamW,64,244.2930398380486,360284,1152,5548.17502450943,48.34247589111328,,4.829478740692139,0.38
360,MetaDrive-test-conv-dropout-norm-lr-adamW,64,244.05632599931735,361688,1155,5568.6053602695465,49.20875930786133,,12.484271049499512,0.38
361,MetaDrive-test-conv-dropout-norm-lr-adamW,64,242.93035713122933,362111,1156,5573.967207670212,45.38024139404297,-45.34587478637695,8.671831130981445,0.37
362,MetaDrive-test-conv-dropout-norm-lr-adamW,64,241.5760115465738,363028,1158,5588.161472320557,44.3302001953125,,7.679758548736572,0.37
363,MetaDrive-test-conv-dropout-norm-lr-adamW,64,239.4953227342751,364374,1161,5610.041579961777,48.127418518066406,,9.146200180053711,0.37
364,MetaDrive-test-conv-dropout-norm-lr-adamW,64,236.37619480459546,365036,1163,5620.356511354446,42.270912170410156,,7.177026271820068,0.37
365,MetaDrive-test-conv-dropout-norm-lr-adamW,64,237.36339334825644,366636,1165,5643.5798852443695,46.33727264404297,,9.307942390441895,0.37
366,MetaDrive-test-conv-dropout-norm-lr-adamW,64,239.99037926582875,367263,1166,5651.458052635193,46.90731430053711,-47.32273864746094,16.855953216552734,0.38
367,MetaDrive-test-conv-dropout-norm-lr-adamW,64,240.50664472033645,368411,1168,5668.743048429489,46.22093963623047,-45.079071044921875,13.7728271484375,0.37
368,MetaDrive-test-conv-dropout-norm-lr-adamW,64,240.44802922274513,369522,1170,5685.104864358902,51.77293395996094,,8.386422157287598,0.37
369,MetaDrive-test-conv-dropout-norm-lr-adamW,64,241.76607034980393,370491,1171,5701.589677333832,50.974761962890625,-51.83013153076172,7.873042106628418,0.37
370,MetaDrive-test-conv-dropout-norm-lr-adamW,64,242.0117347974201,371026,1172,5710.004303216934,48.6368408203125,,14.999364852905273,0.37
371,MetaDrive-test-conv-dropout-norm-lr-adamW,64,240.2737314450473,372255,1174,5727.544559240341,45.604156494140625,-46.25495147705078,8.857427597045898,0.37
372,MetaDrive-test-conv-dropout-norm-lr-adamW,65,239.29240626213235,373501,1176,5745.516372203827,46.89532470703125,-46.8739013671875,9.424907684326172,0.37
373,MetaDrive-test-conv-dropout-norm-lr-adamW,65,238.76728496503281,374135,1178,5753.584378480911,48.55144119262695,-47.61079406738281,6.439394950866699,0.38
374,MetaDrive-test-conv-dropout-norm-lr-adamW,65,236.7458802764323,375136,1179,5771.054879903793,48.214351654052734,,11.148880958557129,0.37
375,MetaDrive-test-conv-dropout-norm-lr-adamW,65,236.4182838462722,376122,1181,5785.516439914703,45.69023132324219,,30.22063636779785,0.37
376,MetaDrive-test-conv-dropout-norm-lr-adamW,64,236.55661998999037,377123,1182,5802.604697465897,48.62543487548828,-48.242652893066406,10.074825286865234,0.37
377,MetaDrive-test-conv-dropout-norm-lr-adamW,64,235.13012458895753,378124,1183,5818.722350597382,47.019229888916016,,8.385555267333984,0.37
378,MetaDrive-test-conv-dropout-norm-lr-adamW,65,236.51255008069168,379355,1185,5834.7834985256195,47.80518341064453,-48.75621795654297,8.3456392288208,0.38
379,MetaDrive-test-conv-dropout-norm-lr-adamW,65,236.23500266959647,380111,1186,5845.001493215561,50.26321792602539,-50.43472671508789,19.153789520263672,0.39
380,MetaDrive-test-conv-dropout-norm-lr-adamW,65,235.37761885085015,381112,1187,5860.557221889496,42.76318359375,,9.463586807250977,0.38
381,MetaDrive-test-conv-dropout-norm-lr-adamW,65,236.58216640545797,382253,1189,5874.6993060112,44.67315673828125,-44.945308685302734,11.811468124389648,0.38
382,MetaDrive-test-conv-dropout-norm-lr-adamW,65,237.47613198384315,383045,1191,5884.544298887253,49.216896057128906,-48.67797088623047,6.333340167999268,0.39
383,MetaDrive-test-conv-dropout-norm-lr-adamW,65,237.89486606880607,384405,1193,5907.494793176651,46.46923065185547,-46.956260681152344,7.423699378967285,0.39
384,MetaDrive-test-conv-dropout-norm-lr-adamW,65,235.94535367540368,385227,1195,5917.965552568436,49.467994689941406,-50.49673843383789,15.689031600952148,0.39
385,MetaDrive-test-conv-dropout-norm-lr-adamW,65,237.91355322755797,386433,1197,5934.749652147293,45.03889846801758,-44.73908233642578,22.279342651367188,0.4
386,MetaDrive-test-conv-dropout-norm-lr-adamW,65,237.6921772343629,387082,1198,5943.432545423508,43.919944763183594,,20.05780792236328,0.39
387,MetaDrive-test-conv-dropout-norm-lr-adamW,65,240.9803696733516,388561,1200,5964.345173358917,48.18299102783203,-48.385162353515625,9.078325271606445,0.4
388,MetaDrive-test-conv-dropout-norm-lr-adamW,65,243.37332332480895,389009,1201,5969.354440689087,41.188133239746094,-41.37869644165039,12.2161226272583,0.41
389,MetaDrive-test-conv-dropout-norm-lr-adamW,65,246.3738969509499,390284,1203,5987.726360082626,54.14561080932617,,4.447970390319824,0.41
390,MetaDrive-test-conv-dropout-norm-lr-adamW,65,246.29377658721597,391285,1204,6004.440557003021,47.11461639404297,-47.02408218383789,22.815776824951172,0.41
391,MetaDrive-test-conv-dropout-norm-lr-adamW,65,243.96521771595465,392094,1206,6017.645332336426,50.826148986816406,,14.581966400146484,0.39
392,MetaDrive-test-conv-dropout-norm-lr-adamW,65,245.22416720838996,393384,1209,6035.293216466904,49.38085174560547,,6.472107887268066,0.4
393,MetaDrive-test-conv-dropout-norm-lr-adamW,65,244.79298765570366,394385,1210,6055.821165800095,47.73243713378906,-49.38493347167969,126.99806213378906,0.4
394,MetaDrive-test-conv-dropout-norm-lr-adamW,65,245.45327500817962,395101,1211,6066.907502889633,50.454505920410156,-50.75482177734375,8.975109100341797,0.41
395,MetaDrive-test-conv-dropout-norm-lr-adamW,65,244.76742469120865,396309,1213,6084.59349489212,48.17975997924805,-48.439605712890625,7.567199230194092,0.41
396,MetaDrive-test-conv-dropout-norm-lr-adamW,65,246.47296719506957,397807,1215,6109.6208753585815,46.250179290771484,-46.430885314941406,13.412410736083984,0.42
397,MetaDrive-test-conv-dropout-norm-lr-adamW,65,248.01763966822938,398169,1216,6114.080713748932,47.81505584716797,-48.41176986694336,15.485116004943848,0.43
398,MetaDrive-test-conv-dropout-norm-lr-adamW,65,249.69546941511362,399554,1219,6135.010616064072,50.285850524902344,,5.905695915222168,0.43
399,MetaDrive-test-conv-dropout-norm-lr-adamW,65,251.02745613468886,400037,1220,6141.981014728546,41.24321746826172,-41.61888885498047,17.409439086914062,0.44
400,MetaDrive-test-conv-dropout-norm-lr-adamW,65,250.69271436335112,401294,1223,6160.05993437767,40.21671676635742,,9.493857383728027,0.43
401,MetaDrive-test-conv-dropout-norm-lr-adamW,65,249.098997837845,402464,1226,6179.5389993190765,48.91371536254883,,30.000083923339844,0.43
402,MetaDrive-test-conv-dropout-norm-lr-adamW,65,248.06770122293642,403465,1227,6194.252833843231,43.446533203125,-44.41305923461914,10.0267915725708,0.42
403,MetaDrive-test-conv-dropout-norm-lr-adamW,65,247.79586340538714,404020,1229,6202.880087614059,46.79106903076172,,11.308732986450195,0.42
404,MetaDrive-test-conv-dropout-norm-lr-adamW,65,245.22228195536613,405100,1232,6218.054507255554,49.565879821777344,,7.773323059082031,0.43
405,MetaDrive-test-conv-dropout-norm-lr-adamW,65,245.58538050213198,406086,1233,6237.160206079483,47.21831130981445,,8.460744857788086,0.44
406,MetaDrive-test-conv-dropout-norm-lr-adamW,65,248.09689851413737,407568,1236,6258.909892082214,48.93031692504883,,4.770827293395996,0.45
407,MetaDrive-test-conv-dropout-norm-lr-adamW,65,244.70535382675192,408114,1238,6267.608097314835,48.764373779296875,,5.658115386962891,0.44
408,MetaDrive-test-conv-dropout-norm-lr-adamW,65,244.241661105452,409822,1240,6297.346295833588,49.98218536376953,,9.90789794921875,0.44
409,MetaDrive-test-conv-dropout-norm-lr-adamW,65,243.8654721545216,410539,1241,6306.525266170502,45.11044692993164,-46.01854705810547,22.21396255493164,0.44
410,MetaDrive-test-conv-dropout-norm-lr-adamW,65,245.524796216665,411054,1242,6314.559524059296,50.663414001464844,,13.671207427978516,0.45
411,MetaDrive-test-conv-dropout-norm-lr-adamW,65,244.32610031599637,412214,1244,6332.674156427383,49.258399963378906,,16.34435272216797,0.45
412,MetaDrive-test-conv-dropout-norm-lr-adamW,65,246.1034087336953,413783,1246,6360.089371919632,51.6456298828125,-53.19141387939453,14.93276596069336,0.45
413,MetaDrive-test-conv-dropout-norm-lr-adamW,65,247.97899320458063,414125,1247,6364.945198297501,42.151424407958984,-41.85308074951172,7.409070014953613,0.45
414,MetaDrive-test-conv-dropout-norm-lr-adamW,65,246.38621363610923,415901,1250,6392.178928613663,46.76953125,-47.156341552734375,6.680749416351318,0.43
415,MetaDrive-test-conv-dropout-norm-lr-adamW,65,247.92437606232426,416335,1251,6398.866651535034,44.956459045410156,-45.177162170410156,11.06564712524414,0.43
416,MetaDrive-test-conv-dropout-norm-lr-adamW,65,245.41953719856497,417118,1254,6409.5781354904175,49.84836959838867,,8.117058753967285,0.43
417,MetaDrive-test-conv-dropout-norm-lr-adamW,65,245.9295546164027,418329,1256,6426.61358165741,43.680789947509766,-43.56499099731445,7.173333168029785,0.44
418,MetaDrive-test-conv-dropout-norm-lr-adamW,65,247.7098832945382,419330,1257,6448.660941362381,44.56122589111328,,8.534499168395996,0.44
419,MetaDrive-test-conv-dropout-norm-lr-adamW,65,247.93635108719317,420475,1259,6465.3445637226105,44.108245849609375,-43.880615234375,7.664763927459717,0.45
420,MetaDrive-test-conv-dropout-norm-lr-adamW,65,249.24230508572785,421098,1260,6474.480673074722,45.15894317626953,,11.296209335327148,0.46
421,MetaDrive-test-conv-dropout-norm-lr-adamW,65,252.5493497945402,422473,1262,6494.074443817139,45.480613708496094,-44.67524719238281,24.164714813232422,0.47
422,MetaDrive-test-conv-dropout-norm-lr-adamW,64,253.70425468805152,423474,1263,6516.55086350441,41.46198272705078,,19.364112854003906,0.47
423,MetaDrive-test-conv-dropout-norm-lr-adamW,64,248.12576735423082,424545,1266,6532.194828510284,49.064937591552734,-48.815223693847656,5.570799827575684,0.45
424,MetaDrive-test-conv-dropout-norm-lr-adamW,64,248.9472456078628,425237,1267,6543.075125455856,50.69353485107422,-50.74702453613281,8.976591110229492,0.46
425,MetaDrive-test-conv-dropout-norm-lr-adamW,64,246.6546631305875,426215,1269,6560.791731595993,45.766136169433594,-47.556190490722656,7.482381820678711,0.44
426,MetaDrive-test-conv-dropout-norm-lr-adamW,64,247.43799540575438,427782,1271,6588.589572906494,48.94858932495117,,9.811304092407227,0.44
427,MetaDrive-test-conv-dropout-norm-lr-adamW,64,246.68017531529145,428086,1272,6593.061167240143,45.590484619140625,,8.681084632873535,0.44
428,MetaDrive-test-conv-dropout-norm-lr-adamW,64,244.88585457970007,429316,1274,6610.164491176605,37.88726043701172,,11.739480972290039,0.43
429,MetaDrive-test-conv-dropout-norm-lr-adamW,64,246.4983358510833,430317,1275,6629.272133350372,46.62963104248047,-46.31443786621094,11.101884841918945,0.43
430,MetaDrive-test-conv-dropout-norm-lr-adamW,64,245.64523145818345,431136,1278,6642.471631526947,47.93116760253906,,11.560235977172852,0.42
431,MetaDrive-test-conv-dropout-norm-lr-adamW,64,245.09664723163837,432137,1279,6659.480499982834,38.3928108215332,-39.908939361572266,13.114323616027832,0.42
432,MetaDrive-test-conv-dropout-norm-lr-adamW,64,246.71166782237185,433972,1282,6693.968935251236,52.72966003417969,,8.40822982788086,0.42
433,MetaDrive-test-conv-dropout-norm-lr-adamW,64,245.33807463174827,434164,1283,6696.56761264801,41.773773193359375,,10.070674896240234,0.42
434,MetaDrive-test-conv-dropout-norm-lr-adamW,64,246.17174457095425,435165,1284,6717.2059552669525,43.27239227294922,-44.558013916015625,63.9993896484375,0.41
435,MetaDrive-test-conv-dropout-norm-lr-adamW,64,244.72815104592442,436284,1286,6732.099059343338,48.354427337646484,,6.991717338562012,0.4
436,MetaDrive-test-conv-dropout-norm-lr-adamW,64,245.0721568028017,437303,1288,6744.433945655823,49.28756332397461,-48.824607849121094,6.218646049499512,0.42
437,MetaDrive-test-conv-dropout-norm-lr-adamW,64,245.38375733307282,438101,1289,6757.515215873718,45.39263153076172,-45.37995147705078,9.003146171569824,0.42
438,MetaDrive-test-conv-dropout-norm-lr-adamW,64,242.78072051379553,439517,1294,6776.851429462433,47.00762176513672,-47.36742401123047,4.891270637512207,0.42
439,MetaDrive-test-conv-dropout-norm-lr-adamW,64,243.51229619529096,440156,1295,6787.036984920502,45.453086853027344,,10.12567138671875,0.42
440,MetaDrive-test-conv-dropout-norm-lr-adamW,64,243.28370661001532,441157,1296,6807.39127779007,46.085384368896484,-46.73293685913086,8.445972442626953,0.41
441,MetaDrive-test-conv-dropout-norm-lr-adamW,64,239.2196307997035,442139,1299,6820.776757478714,49.14577865600586,-47.79482650756836,31.424598693847656,0.4
442,MetaDrive-test-conv-dropout-norm-lr-adamW,64,239.5980721079915,443402,1301,6840.901061534882,50.22600555419922,,6.748865127563477,0.4
443,MetaDrive-test-conv-dropout-norm-lr-adamW,64,239.02527396304686,444447,1303,6855.322490930557,47.50480651855469,-47.627586364746094,13.681964874267578,0.41
444,MetaDrive-test-conv-dropout-norm-lr-adamW,64,240.76102813958923,445083,1304,6864.371494054794,50.147850036621094,-49.9019660949707,8.627647399902344,0.42
445,MetaDrive-test-conv-dropout-norm-lr-adamW,64,242.5305783898044,446894,1306,6899.907757997513,40.56140899658203,,34.86252975463867,0.43
446,MetaDrive-test-conv-dropout-norm-lr-adamW,64,243.76931036628244,447882,1307,6917.412621974945,52.304595947265625,,4.5721845626831055,0.43
447,MetaDrive-test-conv-dropout-norm-lr-adamW,64,246.6649550878376,448496,1308,6925.379815578461,46.43040084838867,,20.80450439453125,0.44
448,MetaDrive-test-conv-dropout-norm-lr-adamW,64,244.94138919396582,449075,1310,6932.721701622009,40.305938720703125,-41.74028015136719,59.97368621826172,0.44
449,MetaDrive-test-conv-dropout-norm-lr-adamW,64,244.2933724759336,450230,1312,6947.957293510437,43.61593246459961,,31.51494598388672,0.44
450,MetaDrive-test-conv-dropout-norm-lr-adamW,64,244.31047211297977,451231,1313,6972.004410743713,44.40533447265625,-45.728118896484375,15.644493103027344,0.43
451,MetaDrive-test-conv-dropout-norm-lr-adamW,64,240.86637512938586,452396,1317,6988.464201927185,44.59453201293945,,64.26551818847656,0.41
452,MetaDrive-test-conv-dropout-norm-lr-adamW,64,239.65804435048685,453046,1319,6999.813232898712,42.33503723144531,,12.47859001159668,0.41
453,MetaDrive-test-conv-dropout-norm-lr-adamW,64,239.9973774157548,454492,1322,7019.245582818985,46.459102630615234,,42.60301208496094,0.41
454,MetaDrive-test-conv-dropout-norm-lr-adamW,64,241.49124562205233,455169,1323,7027.4301953315735,43.940433502197266,-43.839595794677734,5.781228065490723,0.42
455,MetaDrive-test-conv-dropout-norm-lr-adamW,64,242.35013682969853,456760,1326,7050.207532405853,40.72871398925781,,10.356712341308594,0.43
456,MetaDrive-test-conv-dropout-norm-lr-adamW,64,243.47674093104501,457445,1327,7058.804040431976,46.00065231323242,-46.78295135498047,71.89956665039062,0.44
457,MetaDrive-test-conv-dropout-norm-lr-adamW,64,244.93685580413145,458053,1328,7067.087795257568,41.6563720703125,-41.59797668457031,6.129497528076172,0.45
458,MetaDrive-test-conv-dropout-norm-lr-adamW,64,249.18812330545816,459219,1330,7082.94420003891,43.932350158691406,-44.79106140136719,9.622763633728027,0.47
459,MetaDrive-test-conv-dropout-norm-lr-adamW,64,250.25286424320385,460414,1332,7101.141812324524,49.85283660888672,,52.484832763671875,0.47
460,MetaDrive-test-conv-dropout-norm-lr-adamW,64,245.8428550827869,461478,1335,7116.809532165527,43.36839294433594,,16.20871925354004,0.47
461,MetaDrive-test-conv-dropout-norm-lr-adamW,64,246.33526911722313,462338,1336,7128.861191987991,49.10316848754883,,8.651688575744629,0.47
462,MetaDrive-test-conv-dropout-norm-lr-adamW,64,248.39541938809435,463409,1338,7145.6671051979065,41.637413024902344,-44.02103042602539,119.83768463134766,0.48
463,MetaDrive-test-conv-dropout-norm-lr-adamW,64,248.140621339451,464052,1339,7154.3702301979065,43.043914794921875,,9.925826072692871,0.48
464,MetaDrive-test-conv-dropout-norm-lr-adamW,64,248.02305010052,465145,1341,7170.244323730469,49.445709228515625,-49.28951644897461,81.59176635742188,0.48
465,MetaDrive-test-conv-dropout-norm-lr-adamW,64,245.72856940604953,466383,1344,7187.048534870148,44.18528747558594,-45.44738006591797,10.863441467285156,0.47
466,MetaDrive-test-conv-dropout-norm-lr-adamW,64,247.28317817047144,467258,1345,7203.510244607925,45.05926513671875,,11.580038070678711,0.48
467,MetaDrive-test-conv-dropout-norm-lr-adamW,64,250.6131036116289,468537,1347,7224.343834638596,47.82231903076172,-49.53776550292969,11.4927978515625,0.49
468,MetaDrive-test-conv-dropout-norm-lr-adamW,64,253.60409362483009,469399,1348,7237.509143829346,41.592018127441406,-40.697540283203125,6.640353679656982,0.5
469,MetaDrive-test-conv-dropout-norm-lr-adamW,64,255.30102706039736,470489,1350,7251.296096801758,42.679203033447266,-43.575531005859375,9.382637023925781,0.52
470,MetaDrive-test-conv-dropout-norm-lr-adamW,64,255.7589194828044,471042,1351,7259.371112346649,40.54802703857422,,8.23037338256836,0.53
471,MetaDrive-test-conv-dropout-norm-lr-adamW,64,257.64031674506873,472027,1353,7275.395402431488,46.60100555419922,-45.36669921875,30.091461181640625,0.53
472,MetaDrive-test-conv-dropout-norm-lr-adamW,64,258.90422282868553,473545,1356,7295.8249270915985,45.95512390136719,-46.21497344970703,4.221057891845703,0.53
473,MetaDrive-test-conv-dropout-norm-lr-adamW,64,259.87515371416123,474996,1358,7317.20737862587,40.734012603759766,,6.913943290710449,0.53
474,MetaDrive-test-conv-dropout-norm-lr-adamW,64,259.37731240634696,475557,1359,7327.204188346863,46.58826446533203,-46.78687286376953,30.123207092285156,0.52
475,MetaDrive-test-conv-dropout-norm-lr-adamW,64,260.1830312833157,476271,1360,7336.006100177765,47.161468505859375,-47.777793884277344,15.951074600219727,0.52
476,MetaDrive-test-conv-dropout-norm-lr-adamW,64,258.4046175463941,477510,1362,7353.96152472496,47.302364349365234,,11.701000213623047,0.52
477,MetaDrive-test-conv-dropout-norm-lr-adamW,64,257.5919529247828,478007,1363,7360.152096748352,44.579891204833984,-44.87738800048828,9.159645080566406,0.53
478,MetaDrive-test-conv-dropout-norm-lr-adamW,64,262.0711496862347,479424,1365,7382.5301678180695,41.00593948364258,,13.473270416259766,0.54
479,MetaDrive-test-conv-dropout-norm-lr-adamW,64,260.427410690185,480158,1367,7392.275428533554,44.037986755371094,,13.184478759765625,0.53
480,MetaDrive-test-conv-dropout-norm-lr-adamW,64,265.5442113230897,481118,1368,7411.85117483139,50.83860778808594,,23.568004608154297,0.54
481,MetaDrive-test-conv-dropout-norm-lr-adamW,64,266.2025956217152,482859,1370,7445.909797430038,45.76271057128906,-46.04521179199219,21.765853881835938,0.54
482,MetaDrive-test-conv-dropout-norm-lr-adamW,64,263.32938587949616,483166,1371,7451.012837409973,50.45751190185547,,23.677143096923828,0.54
483,MetaDrive-test-conv-dropout-norm-lr-adamW,64,262.8801039855678,484156,1374,7464.679401636124,46.39641571044922,,19.66907501220703,0.54
484,MetaDrive-test-conv-dropout-norm-lr-adamW,64,264.7972134180151,485088,1375,7477.984938144684,48.23627853393555,,5.490566253662109,0.55
485,MetaDrive-test-conv-dropout-norm-lr-adamW,64,267.426814863505,486304,1377,7496.829638004303,49.27799987792969,,59.5435791015625,0.55
486,MetaDrive-test-conv-dropout-norm-lr-adamW,64,270.0510448291841,487555,1379,7515.019263505936,42.59784698486328,-41.74248123168945,11.068038940429688,0.57
487,MetaDrive-test-conv-dropout-norm-lr-adamW,64,269.234964104328,488018,1380,7520.969439744949,47.691123962402344,,12.64162826538086,0.56
488,MetaDrive-test-conv-dropout-norm-lr-adamW,64,267.9856661021748,489035,1382,7538.241487026215,45.15313720703125,-45.36069107055664,6.292877197265625,0.56
489,MetaDrive-test-conv-dropout-norm-lr-adamW,64,271.1375404396088,490841,1385,7570.9844398498535,47.54315185546875,-49.82285690307617,100.30602264404297,0.58
490,MetaDrive-test-conv-dropout-norm-lr-adamW,64,269.0766899918154,491050,1386,7573.981930971146,44.479461669921875,,100.58654022216797,0.57
491,MetaDrive-test-conv-dropout-norm-lr-adamW,64,268.4951522266322,492287,1388,7595.412930250168,46.78255081176758,-46.14240264892578,14.056737899780273,0.55
492,MetaDrive-test-conv-dropout-norm-lr-adamW,64,270.3131684931337,493186,1389,7608.290020704269,39.49421691894531,,7.720917701721191,0.55
493,MetaDrive-test-conv-dropout-norm-lr-adamW,64,272.57772296534955,494097,1390,7623.040275096893,40.533668518066406,-39.9426383972168,6.771781921386719,0.55
494,MetaDrive-test-conv-dropout-norm-lr-adamW,64,276.24278410516655,495248,1392,7640.094318628311,42.179779052734375,,10.428083419799805,0.56
495,MetaDrive-test-conv-dropout-norm-lr-adamW,64,276.8458248662336,496236,1394,7652.028295993805,41.82646942138672,,123.41915893554688,0.57
496,MetaDrive-test-conv-dropout-norm-lr-adamW,64,276.70619197928846,497237,1395,7676.916153430939,46.40607452392578,-46.637001037597656,11.196822166442871,0.56
497,MetaDrive-test-conv-dropout-norm-lr-adamW,64,278.12963522294694,498225,1396,7694.847324848175,49.31382751464844,-50.11850357055664,10.954782485961914,0.57
498,MetaDrive-test-conv-dropout-norm-lr-adamW,64,279.60491494037393,499617,1398,7715.150102376938,40.36528778076172,-39.910606384277344,16.810855865478516,0.56
