TanmayH/CS269-RL-project-code/MetaDrive-td3combine-expt_with_safe-leaky-adamw-in/MetaDrive-Gen-Next-v0/td3/progress.csv
,log_dir,frame_per_second,episode_reward,total_steps,total_episodes,total_time,actor_loss,critic_loss,target_q,success_rate
0,MetaDrive-td3combine-expt_with_safe-leaky-adamw-in,875,6.355109578679253,1033,2,1.1803288459777832,0.0522625595331192,0.0011663764016702771,-0.05029084160923958,0.0
1,MetaDrive-td3combine-expt_with_safe-leaky-adamw-in,139,-2.508577921122908,2935,19,21.067907094955444,0.14796984195709229,0.02624191716313362,-0.07731340080499649,0.0
2,MetaDrive-td3combine-expt_with_safe-leaky-adamw-in,135,-2.672393627362692,3235,20,23.95802116394043,0.030175434425473213,0.006654443684965372,-0.07555171102285385,0.0
3,MetaDrive-td3combine-expt_with_safe-leaky-adamw-in,127,-2.83405307069655,4076,22,31.87879180908203,,0.6871051788330078,-0.16282597184181213,0.0
4,MetaDrive-td3combine-expt_with_safe-leaky-adamw-in,118,-3.0990446105449054,5238,33,44.025818824768066,,0.005031210836023092,-0.10509070008993149,0.0
5,MetaDrive-td3combine-expt_with_safe-leaky-adamw-in,115,-3.0054173552874595,6978,38,60.469242095947266,,0.005898145027458668,-0.0983293354511261,0.0
6,MetaDrive-td3combine-expt_with_safe-leaky-adamw-in,114,-2.8911456292098654,7143,39,62.11722803115845,0.11239422112703323,0.0037197312340140343,-0.12513117492198944,0.0
7,MetaDrive-td3combine-expt_with_safe-leaky-adamw-in,112,-2.478052670932566,8103,44,71.81418108940125,0.12949679791927338,0.010020241141319275,-0.09303541481494904,0.0
8,MetaDrive-td3combine-expt_with_safe-leaky-adamw-in,110,-2.265376687547733,9271,47,83.56863498687744,-0.008872417733073235,0.003892331151291728,-0.026626627892255783,0.0
9,MetaDrive-td3combine-expt_with_safe-leaky-adamw-in,108,-2.012433461837015,10083,56,93.13756489753723,0.05400222912430763,0.0034927234519273043,-0.08374051749706268,0.0
10,MetaDrive-td3combine-expt_with_safe-leaky-adamw-in,106,-1.408929660017657,11555,64,108.8646080493927,-0.12026603519916534,0.005612627603113651,0.05978808179497719,0.0
11,MetaDrive-td3combine-expt_with_safe-leaky-adamw-in,105,-0.7171304988201278,12040,69,114.43626689910889,,0.016595356166362762,-0.016944916918873787,0.0
12,MetaDrive-td3combine-expt_with_safe-leaky-adamw-in,103,0.8942235887245295,13094,83,126.44797372817993,,0.02956746146082878,0.08604976534843445,0.0
13,MetaDrive-td3combine-expt_with_safe-leaky-adamw-in,101,1.0193362658603684,14022,101,138.13894200325012,,0.8224914073944092,0.13826033473014832,0.0
14,MetaDrive-td3combine-expt_with_safe-leaky-adamw-in,99,2.442375017625241,15013,121,150.20563101768494,-0.35415613651275635,0.5497723817825317,0.29669463634490967,0.0
15,MetaDrive-td3combine-expt_with_safe-leaky-adamw-in,98,4.165201359018027,16101,134,162.85423493385315,-0.5410413146018982,0.4255445599555969,0.4881526827812195,0.0
16,MetaDrive-td3combine-expt_with_safe-leaky-adamw-in,98,5.908841177955319,17969,141,182.9119839668274,-0.896475076675415,2.0298514366149902,0.6897175312042236,0.0
17,MetaDrive-td3combine-expt_with_safe-leaky-adamw-in,98,5.978685526918678,18054,142,183.90521502494812,,0.012318067252635956,0.8764386773109436,0.0
18,MetaDrive-td3combine-expt_with_safe-leaky-adamw-in,97,7.020045135365929,19006,148,195.85915207862854,,0.014069385826587677,1.0575428009033203,0.0
19,MetaDrive-td3combine-expt_with_safe-leaky-adamw-in,96,9.728476071654077,20211,151,210.4196059703827,-1.3035105466842651,0.03892543166875839,1.261462688446045,0.01
20,MetaDrive-td3combine-expt_with_safe-leaky-adamw-in,95,11.660933439979111,21017,153,220.13840293884277,-1.5763765573501587,0.8703124523162842,1.4542258977890015,0.01
21,MetaDrive-td3combine-expt_with_safe-leaky-adamw-in,94,14.490567155465758,22272,158,236.09291696548462,,0.038986001163721085,1.8514608144760132,0.02
22,MetaDrive-td3combine-expt_with_safe-leaky-adamw-in,93,16.86277171376864,23049,160,245.50490593910217,-2.2141337394714355,1.7060065269470215,2.0208330154418945,0.03
23,MetaDrive-td3combine-expt_with_safe-leaky-adamw-in,93,18.91454422623341,24131,163,259.0103449821472,-2.51762056350708,1.7691110372543335,2.3284640312194824,0.04
24,MetaDrive-td3combine-expt_with_safe-leaky-adamw-in,92,22.504072491660168,25182,166,271.7944960594177,,0.12409894168376923,2.8353655338287354,0.05
25,MetaDrive-td3combine-expt_with_safe-leaky-adamw-in,92,25.731987334249148,26202,168,283.9243769645691,,2.240243434906006,2.9866445064544678,0.06
26,MetaDrive-td3combine-expt_with_safe-leaky-adamw-in,91,28.03866959904717,27203,169,296.0535819530487,-3.462372064590454,0.09957373142242432,3.4525816440582275,0.06
27,MetaDrive-td3combine-expt_with_safe-leaky-adamw-in,91,30.903537744905687,28224,176,308.56517601013184,,0.1255398690700531,3.953108549118042,0.06
28,MetaDrive-td3combine-expt_with_safe-leaky-adamw-in,91,35.61002489409696,29407,180,322.86781001091003,-4.73013973236084,0.18776211142539978,4.684638023376465,0.08
29,MetaDrive-td3combine-expt_with_safe-leaky-adamw-in,90,38.088379510314546,30295,183,333.6383709907532,-5.125984191894531,3.3133742809295654,5.01613712310791,0.09
30,MetaDrive-td3combine-expt_with_safe-leaky-adamw-in,90,40.51467471975531,31710,186,350.8548049926758,,3.987194538116455,4.991138458251953,0.09
31,MetaDrive-td3combine-expt_with_safe-leaky-adamw-in,90,42.84153065805562,32346,188,358.69084215164185,,0.27121782302856445,6.0247368812561035,0.1
32,MetaDrive-td3combine-expt_with_safe-leaky-adamw-in,89,45.493314567309326,33281,190,370.01698994636536,-6.761176586151123,0.1390259861946106,6.592472076416016,0.12
33,MetaDrive-td3combine-expt_with_safe-leaky-adamw-in,89,49.29954129218238,34089,196,380.06773495674133,-7.14279842376709,0.19582492113113403,6.947071552276611,0.12
34,MetaDrive-td3combine-expt_with_safe-leaky-adamw-in,89,53.835342664220526,35390,202,396.5428001880646,,0.2225630134344101,7.763033866882324,0.13
35,MetaDrive-td3combine-expt_with_safe-leaky-adamw-in,89,58.145600709627985,36342,205,408.03286385536194,,0.20342065393924713,8.204933166503906,0.14
36,MetaDrive-td3combine-expt_with_safe-leaky-adamw-in,88,60.75876680530181,37300,208,420.32331705093384,,6.718238830566406,8.429784774780273,0.14
37,MetaDrive-td3combine-expt_with_safe-leaky-adamw-in,88,62.66438546258473,38022,217,429.95070481300354,,1.2394566535949707,8.7976713180542,0.14
38,MetaDrive-td3combine-expt_with_safe-leaky-adamw-in,88,67.82606640598172,39019,221,442.3060669898987,-9.816499710083008,0.1992901861667633,9.557740211486816,0.15
39,MetaDrive-td3combine-expt_with_safe-leaky-adamw-in,88,73.44140586997419,40101,226,455.3528220653534,-9.811829566955566,0.7958449125289917,9.95334243774414,0.18
40,MetaDrive-td3combine-expt_with_safe-leaky-adamw-in,87,77.2200107638177,41140,234,468.04098105430603,,8.144346237182617,10.852765083312988,0.18
41,MetaDrive-td3combine-expt_with_safe-leaky-adamw-in,87,79.0022081384179,42619,238,486.0600929260254,-11.628788948059082,0.5866531133651733,11.686216354370117,0.18
42,MetaDrive-td3combine-expt_with_safe-leaky-adamw-in,87,78.78474911648831,43032,243,491.4009199142456,,0.7506730556488037,11.661699295043945,0.18
43,MetaDrive-td3combine-expt_with_safe-leaky-adamw-in,87,76.2688872507475,44005,254,504.02870178222656,-12.422285079956055,0.3446257412433624,12.229896545410156,0.17
44,MetaDrive-td3combine-expt_with_safe-leaky-adamw-in,86,73.96045986925245,45020,261,517.6476168632507,,8.590628623962402,12.321816444396973,0.14
45,MetaDrive-td3combine-expt_with_safe-leaky-adamw-in,86,67.99501887072913,46080,271,531.3274857997894,,0.8225082159042358,12.531004905700684,0.12
46,MetaDrive-td3combine-expt_with_safe-leaky-adamw-in,86,68.70778108511512,47220,273,545.36789894104,,1.2503564357757568,11.670412063598633,0.12
47,MetaDrive-td3combine-expt_with_safe-leaky-adamw-in,86,65.77813150938373,48048,280,555.901398897171,,1.1289547681808472,13.032734870910645,0.1
48,MetaDrive-td3combine-expt_with_safe-leaky-adamw-in,86,63.62340602258263,49291,287,572.019278049469,-14.590850830078125,1.9147197008132935,14.455826759338379,0.09
49,MetaDrive-td3combine-expt_with_safe-leaky-adamw-in,86,58.753389476861905,50021,295,581.4042339324951,-16.4461612701416,1.1668915748596191,16.026988983154297,0.06
50,MetaDrive-td3combine-expt_with_safe-leaky-adamw-in,85,52.597330239803235,51038,307,594.3761310577393,,1.914034128189087,14.64605712890625,0.04
51,MetaDrive-td3combine-expt_with_safe-leaky-adamw-in,85,53.043868641872905,52082,318,607.639132976532,,2.857321262359619,13.35336685180664,0.04
52,MetaDrive-td3combine-expt_with_safe-leaky-adamw-in,85,44.20984483989257,53049,330,619.7475898265839,-17.40266990661621,1.6194162368774414,17.34602928161621,0.0
53,MetaDrive-td3combine-expt_with_safe-leaky-adamw-in,85,42.797967950131685,54021,340,632.4156470298767,-17.110410690307617,1.569591760635376,17.357345581054688,0.0
54,MetaDrive-td3combine-expt_with_safe-leaky-adamw-in,85,43.67868182287761,55084,352,646.0395469665527,,2.1043362617492676,15.112382888793945,0.0
55,MetaDrive-td3combine-expt_with_safe-leaky-adamw-in,85,42.13644577787384,56052,362,658.013710975647,,3.391345500946045,16.4177188873291,0.0
56,MetaDrive-td3combine-expt_with_safe-leaky-adamw-in,85,42.01704051127215,57198,364,671.3798608779907,,5.607028007507324,14.941250801086426,0.0
57,MetaDrive-td3combine-expt_with_safe-leaky-adamw-in,85,42.3069689791557,58066,373,682.5558369159698,,4.199711322784424,16.362285614013672,0.0
58,MetaDrive-td3combine-expt_with_safe-leaky-adamw-in,84,40.68655862808827,59238,378,697.4924368858337,,1.393044352531433,17.114797592163086,0.0
59,MetaDrive-td3combine-expt_with_safe-leaky-adamw-in,84,39.73985289897196,60814,385,716.436280965805,,13.333440780639648,16.781963348388672,0.0
60,MetaDrive-td3combine-expt_with_safe-leaky-adamw-in,84,40.314917803907555,61093,387,719.7549419403076,-18.672168731689453,2.9525022506713867,18.398082733154297,0.0
61,MetaDrive-td3combine-expt_with_safe-leaky-adamw-in,84,41.136364520562445,62375,390,735.2768108844757,-15.169631958007812,3.6482746601104736,15.102702140808105,0.0
62,MetaDrive-td3combine-expt_with_safe-leaky-adamw-in,84,41.42799458844351,63376,391,747.5982120037079,,6.7840046882629395,15.998031616210938,0.0
63,MetaDrive-td3combine-expt_with_safe-leaky-adamw-in,84,41.36195126044822,64515,394,761.4399721622467,-18.092960357666016,16.814794540405273,17.89049530029297,0.0
64,MetaDrive-td3combine-expt_with_safe-leaky-adamw-in,84,44.08221332027888,65300,399,770.9643089771271,,3.14911150932312,18.625329971313477,0.01
65,MetaDrive-td3combine-expt_with_safe-leaky-adamw-in,84,47.19469981067505,66838,403,789.5103189945221,,5.319971084594727,17.174983978271484,0.02
66,MetaDrive-td3combine-expt_with_safe-leaky-adamw-in,84,48.32587554854104,67271,405,794.7167348861694,-16.818641662597656,2.8702633380889893,17.323453903198242,0.03
67,MetaDrive-td3combine-expt_with_safe-leaky-adamw-in,84,48.58819509124832,68811,411,813.8409237861633,-18.971250534057617,3.022984504699707,18.800865173339844,0.03
68,MetaDrive-td3combine-expt_with_safe-leaky-adamw-in,84,48.8593793985582,69812,412,826.7827100753784,,1.6086838245391846,20.01900863647461,0.03
69,MetaDrive-td3combine-expt_with_safe-leaky-adamw-in,84,49.322770455282665,70341,414,833.222864151001,-19.246116638183594,4.68821907043457,18.78064727783203,0.04
70,MetaDrive-td3combine-expt_with_safe-leaky-adamw-in,84,52.88578747954728,71222,417,844.0736827850342,,25.41841697692871,17.448097229003906,0.04
71,MetaDrive-td3combine-expt_with_safe-leaky-adamw-in,84,54.73432251940883,72949,420,864.8903639316559,-22.436017990112305,29.140792846679688,21.20154571533203,0.04
72,MetaDrive-td3combine-expt_with_safe-leaky-adamw-in,84,55.173285667269454,73035,421,866.034364938736,-20.362838745117188,71.93765258789062,20.5216121673584,0.04
73,MetaDrive-td3combine-expt_with_safe-leaky-adamw-in,84,55.76966868572298,74163,423,879.642529964447,-18.964366912841797,43.91215133666992,18.18466567993164,0.04
74,MetaDrive-td3combine-expt_with_safe-leaky-adamw-in,84,56.509834007630076,75164,424,891.8864719867706,,4.012813091278076,19.510379791259766,0.04
75,MetaDrive-td3combine-expt_with_safe-leaky-adamw-in,84,59.79262367491784,76130,428,904.1347188949585,,5.946408271789551,19.392541885375977,0.04
76,MetaDrive-td3combine-expt_with_safe-leaky-adamw-in,84,60.09647613524345,77131,429,915.7712581157684,-21.418758392333984,3.646124839782715,20.935302734375,0.04
77,MetaDrive-td3combine-expt_with_safe-leaky-adamw-in,84,59.254452277050525,78132,430,927.5368051528931,,3.7784652709960938,20.108150482177734,0.04
78,MetaDrive-td3combine-expt_with_safe-leaky-adamw-in,84,60.700542676959074,79133,431,940.1481478214264,-20.0806827545166,2.4270405769348145,19.46175193786621,0.04
79,MetaDrive-td3combine-expt_with_safe-leaky-adamw-in,84,59.63191770646549,80134,432,952.3721609115601,,3.7635374069213867,17.27532386779785,0.04
80,MetaDrive-td3combine-expt_with_safe-leaky-adamw-in,84,62.52694869581259,81702,435,972.4856109619141,,3.4748053550720215,20.940860748291016,0.05
81,MetaDrive-td3combine-expt_with_safe-leaky-adamw-in,83,64.65827613843089,82703,436,984.9408497810364,-20.40215492248535,2.7329936027526855,20.044757843017578,0.05
82,MetaDrive-td3combine-expt_with_safe-leaky-adamw-in,83,64.19052111014284,83786,438,998.2399537563324,,2.008729934692383,19.5811824798584,0.05
83,MetaDrive-td3combine-expt_with_safe-leaky-adamw-in,83,66.20337298438015,84119,439,1002.3318979740143,-21.0216064453125,3.3020238876342773,20.83717918395996,0.06
84,MetaDrive-td3combine-expt_with_safe-leaky-adamw-in,83,67.05730547339296,85543,443,1019.2944519519806,-20.486907958984375,2.8112869262695312,19.8689022064209,0.06
85,MetaDrive-td3combine-expt_with_safe-leaky-adamw-in,83,67.97888830483588,86544,444,1031.5460090637207,,4.573490142822266,17.86174964904785,0.06
86,MetaDrive-td3combine-expt_with_safe-leaky-adamw-in,83,71.39048086463674,87825,446,1046.9352219104767,-21.437755584716797,3.167304039001465,21.76523208618164,0.07
87,MetaDrive-td3combine-expt_with_safe-leaky-adamw-in,83,72.83273967173271,88351,447,1053.1608929634094,-21.393613815307617,3.2393200397491455,21.197994232177734,0.08
88,MetaDrive-td3combine-expt_with_safe-leaky-adamw-in,83,75.30797416939063,89065,451,1062.0886290073395,-17.226421356201172,47.469757080078125,16.174482345581055,0.09
89,MetaDrive-td3combine-expt_with_safe-leaky-adamw-in,83,75.54172007372321,90307,454,1076.889744758606,-17.932397842407227,14.925660133361816,18.003189086914062,0.09
90,MetaDrive-td3combine-expt_with_safe-leaky-adamw-in,83,78.74581195960567,91197,458,1087.6477508544922,-23.115419387817383,36.809505462646484,21.850378036499023,0.11
91,MetaDrive-td3combine-expt_with_safe-leaky-adamw-in,83,81.34073623858089,92180,462,1099.764818906784,,4.1435017585754395,19.229734420776367,0.11
92,MetaDrive-td3combine-expt_with_safe-leaky-adamw-in,83,81.31628628060884,93596,465,1116.3513939380646,,4.876531600952148,20.204381942749023,0.12
93,MetaDrive-td3combine-expt_with_safe-leaky-adamw-in,83,82.8951838126217,94374,467,1125.909294128418,,5.3466997146606445,21.74343490600586,0.13
94,MetaDrive-td3combine-expt_with_safe-leaky-adamw-in,83,83.92669040950848,95375,468,1137.5956599712372,-21.16326141357422,1.7986388206481934,21.18140411376953,0.13
95,MetaDrive-td3combine-expt_with_safe-leaky-adamw-in,83,86.27769939979646,96047,469,1145.849133014679,-19.304349899291992,4.579270362854004,18.456573486328125,0.14
96,MetaDrive-td3combine-expt_with_safe-leaky-adamw-in,83,86.58429077573543,97048,470,1157.9538700580597,,4.843912124633789,21.5155029296875,0.14
97,MetaDrive-td3combine-expt_with_safe-leaky-adamw-in,83,88.7265426767026,98174,472,1171.9746837615967,,9.313051223754883,19.84025001525879,0.15
98,MetaDrive-td3combine-expt_with_safe-leaky-adamw-in,83,93.11582263903588,99076,475,1183.006373167038,,3.6075453758239746,19.927146911621094,0.17
99,MetaDrive-td3combine-expt_with_safe-leaky-adamw-in,83,96.20065254446648,100421,477,1199.641492843628,-19.66254234313965,2.113619804382324,19.226810455322266,0.17
100,MetaDrive-td3combine-expt_with_safe-leaky-adamw-in,83,97.03229309596254,101019,478,1206.7552978992462,-22.29029083251953,1.9832398891448975,21.844066619873047,0.18
101,MetaDrive-td3combine-expt_with_safe-leaky-adamw-in,83,101.73874225784242,102273,483,1221.9535958766937,-21.76285743713379,10.298202514648438,21.60265350341797,0.2
102,MetaDrive-td3combine-expt_with_safe-leaky-adamw-in,83,102.52392824752069,103274,484,1234.0055611133575,,4.724494934082031,19.720897674560547,0.2
103,MetaDrive-td3combine-expt_with_safe-leaky-adamw-in,83,102.62006424687272,104026,488,1242.8251719474792,,4.6391706466674805,19.534637451171875,0.21
104,MetaDrive-td3combine-expt_with_safe-leaky-adamw-in,83,104.26356439785727,105274,495,1257.8224759101868,,5.765358924865723,23.280763626098633,0.23
105,MetaDrive-td3combine-expt_with_safe-leaky-adamw-in,83,105.05846322557973,106275,496,1269.5766351222992,-22.75897789001465,4.205479621887207,22.14056396484375,0.23
106,MetaDrive-td3combine-expt_with_safe-leaky-adamw-in,83,103.78765706779176,107361,498,1283.3112370967865,-23.904876708984375,4.780118942260742,24.092777252197266,0.23
107,MetaDrive-td3combine-expt_with_safe-leaky-adamw-in,83,103.05492352420201,108817,500,1300.7140138149261,-24.934446334838867,2.7292604446411133,23.935863494873047,0.23
108,MetaDrive-td3combine-expt_with_safe-leaky-adamw-in,83,103.10292137612274,109362,502,1307.4410989284515,,4.086160659790039,19.15821075439453,0.22
109,MetaDrive-td3combine-expt_with_safe-leaky-adamw-in,83,103.85884964469317,110822,504,1325.2617330551147,,3.8817553520202637,15.29004192352295,0.23
110,MetaDrive-td3combine-expt_with_safe-leaky-adamw-in,83,103.37591793194629,111823,505,1337.2932879924774,-21.790042877197266,33.9780387878418,21.814163208007812,0.22
111,MetaDrive-td3combine-expt_with_safe-leaky-adamw-in,83,105.51250315635667,112134,506,1340.999927997589,,4.642314434051514,19.136503219604492,0.23
112,MetaDrive-td3combine-expt_with_safe-leaky-adamw-in,83,105.64695444832947,113129,507,1352.5607929229736,-21.181116104125977,5.308997631072998,21.224721908569336,0.23
113,MetaDrive-td3combine-expt_with_safe-leaky-adamw-in,83,104.7742614954053,114241,509,1365.5910468101501,-18.817272186279297,13.79245376586914,18.70340347290039,0.23
114,MetaDrive-td3combine-expt_with_safe-leaky-adamw-in,83,108.43620418682171,115124,512,1376.3695857524872,,42.835594177246094,22.931236267089844,0.25
115,MetaDrive-td3combine-expt_with_safe-leaky-adamw-in,83,107.95778098671501,116953,516,1397.9829528331757,-21.467174530029297,3.552074909210205,21.15907859802246,0.25
116,MetaDrive-td3combine-expt_with_safe-leaky-adamw-in,83,108.03703462976762,117268,517,1401.8789718151093,,23.61559295654297,19.096500396728516,0.25
117,MetaDrive-td3combine-expt_with_safe-leaky-adamw-in,83,108.22370076221303,118095,519,1411.9584460258484,-22.73996925354004,12.625843048095703,22.334434509277344,0.26
118,MetaDrive-td3combine-expt_with_safe-leaky-adamw-in,83,106.61137780579719,119545,523,1429.2163770198822,-18.84330177307129,9.136900901794434,18.205034255981445,0.26
119,MetaDrive-td3combine-expt_with_safe-leaky-adamw-in,83,106.54928536624848,120546,524,1440.931046962738,,4.349628448486328,20.651010513305664,0.26
120,MetaDrive-td3combine-expt_with_safe-leaky-adamw-in,83,107.22367619574803,121547,525,1452.8752369880676,-23.183692932128906,31.656307220458984,23.09781837463379,0.26
121,MetaDrive-td3combine-expt_with_safe-leaky-adamw-in,83,107.80514900459677,122349,527,1462.451555967331,-20.915550231933594,12.223977088928223,20.251798629760742,0.27
122,MetaDrive-td3combine-expt_with_safe-leaky-adamw-in,83,107.01626123122175,123350,528,1474.5495800971985,,7.749598979949951,23.427608489990234,0.27
123,MetaDrive-td3combine-expt_with_safe-leaky-adamw-in,83,110.19464562888443,124317,530,1486.2157187461853,-19.063838958740234,2.8899073600769043,19.12425422668457,0.28
124,MetaDrive-td3combine-expt_with_safe-leaky-adamw-in,83,111.49034903732768,125893,532,1504.8975269794464,-20.070446014404297,35.09760284423828,20.636274337768555,0.29
125,MetaDrive-td3combine-expt_with_safe-leaky-adamw-in,83,109.32701199759785,126894,533,1516.472671031952,,9.164506912231445,20.725955963134766,0.28
126,MetaDrive-td3combine-expt_with_safe-leaky-adamw-in,83,109.8550596742199,127293,535,1521.1240050792694,-23.392929077148438,3.71659517288208,23.49570083618164,0.28
127,MetaDrive-td3combine-expt_with_safe-leaky-adamw-in,83,108.32048719041244,128294,536,1532.7332680225372,,8.985099792480469,20.20962142944336,0.28
128,MetaDrive-td3combine-expt_with_safe-leaky-adamw-in,83,110.69592259606473,129295,537,1544.2047009468079,-22.93390655517578,3.665750503540039,22.171472549438477,0.28
129,MetaDrive-td3combine-expt_with_safe-leaky-adamw-in,83,111.7531353101718,130146,538,1554.2180228233337,,5.884993553161621,13.78550910949707,0.28
130,MetaDrive-td3combine-expt_with_safe-leaky-adamw-in,83,113.86117885209772,131605,540,1572.0071229934692,-21.959836959838867,7.958044052124023,21.055007934570312,0.28
131,MetaDrive-td3combine-expt_with_safe-leaky-adamw-in,83,114.04519740046932,132606,541,1583.558093070984,,6.50025749206543,24.893739700317383,0.28
132,MetaDrive-td3combine-expt_with_safe-leaky-adamw-in,83,115.25007269429003,133607,542,1595.1165249347687,-24.40973663330078,3.5372209548950195,24.347822189331055,0.28
133,MetaDrive-td3combine-expt_with_safe-leaky-adamw-in,83,116.42909161959082,134608,543,1607.2258219718933,,14.230012893676758,22.83140754699707,0.28
134,MetaDrive-td3combine-expt_with_safe-leaky-adamw-in,83,113.85222000225394,135055,545,1612.3129799365997,-21.30585289001465,15.37817668914795,20.899736404418945,0.28
135,MetaDrive-td3combine-expt_with_safe-leaky-adamw-in,83,115.40418544298014,136394,547,1627.6943008899689,,9.285550117492676,19.933958053588867,0.29
136,MetaDrive-td3combine-expt_with_safe-leaky-adamw-in,83,113.94431461353847,137470,551,1640.6270871162415,,5.2205328941345215,17.96617317199707,0.29
137,MetaDrive-td3combine-expt_with_safe-leaky-adamw-in,83,115.10740813403044,138973,554,1657.89009308815,-18.441513061523438,6.922819137573242,17.82278060913086,0.3
138,MetaDrive-td3combine-expt_with_safe-leaky-adamw-in,83,115.26229315891206,139058,555,1658.923859834671,,8.067028045654297,18.656404495239258,0.3
139,MetaDrive-td3combine-expt_with_safe-leaky-adamw-in,83,113.4858449620037,140155,557,1671.716519832611,-18.072650909423828,27.830322265625,17.878108978271484,0.29
140,MetaDrive-td3combine-expt_with_safe-leaky-adamw-in,83,115.16617268464965,141079,560,1682.5975029468536,-26.4417781829834,7.198307991027832,24.974201202392578,0.3
141,MetaDrive-td3combine-expt_with_safe-leaky-adamw-in,83,115.90223249567019,142080,561,1694.4511919021606,,7.533135414123535,18.135042190551758,0.3
142,MetaDrive-td3combine-expt_with_safe-leaky-adamw-in,83,113.84293305724842,143432,564,1710.3542478084564,,12.21867561340332,20.346221923828125,0.29
143,MetaDrive-td3combine-expt_with_safe-leaky-adamw-in,83,114.41029901112073,144433,565,1722.0193309783936,-13.037965774536133,2.0863962173461914,12.812342643737793,0.29
144,MetaDrive-td3combine-expt_with_safe-leaky-adamw-in,83,113.68864630012575,145952,567,1740.469130039215,,6.233939170837402,14.027273178100586,0.28
145,MetaDrive-td3combine-expt_with_safe-leaky-adamw-in,83,111.42211301113905,146407,569,1745.8999280929565,-16.246431350708008,11.80040454864502,16.253253936767578,0.27
146,MetaDrive-td3combine-expt_with_safe-leaky-adamw-in,83,108.17409422935155,147110,572,1754.4540181159973,,5.357903957366943,21.306676864624023,0.26
147,MetaDrive-td3combine-expt_with_safe-leaky-adamw-in,83,108.65682285643335,148111,573,1766.356969833374,-16.163768768310547,11.193065643310547,16.41866683959961,0.26
148,MetaDrive-td3combine-expt_with_safe-leaky-adamw-in,83,104.44518709486509,149213,578,1779.3529279232025,-22.271671295166016,4.451713562011719,21.92713165283203,0.25
149,MetaDrive-td3combine-expt_with_safe-leaky-adamw-in,83,101.29108797474848,150585,582,1795.4161710739136,-20.229633331298828,2.837327003479004,20.158973693847656,0.24
150,MetaDrive-td3combine-expt_with_safe-leaky-adamw-in,83,102.07228034073843,151800,584,1810.4218380451202,,6.825289249420166,17.241912841796875,0.23
151,MetaDrive-td3combine-expt_with_safe-leaky-adamw-in,83,103.79543896526746,152801,585,1822.3242099285126,-20.20998764038086,9.196077346801758,20.12175178527832,0.23
152,MetaDrive-td3combine-expt_with_safe-leaky-adamw-in,83,105.2940753384652,153076,586,1825.5731818675995,,10.282529830932617,19.66333770751953,0.24
153,MetaDrive-td3combine-expt_with_safe-leaky-adamw-in,83,106.50577684570538,154675,588,1844.8882439136505,-21.718894958496094,3.7406699657440186,22.31842803955078,0.23
154,MetaDrive-td3combine-expt_with_safe-leaky-adamw-in,83,106.47893283683423,155676,589,1856.9631509780884,,7.193126678466797,15.907432556152344,0.23
155,MetaDrive-td3combine-expt_with_safe-leaky-adamw-in,83,108.56485805084068,156157,590,1862.7530019283295,-20.852964401245117,10.425130844116211,20.620471954345703,0.24
156,MetaDrive-td3combine-expt_with_safe-leaky-adamw-in,83,108.62806339108461,157688,593,1880.888053894043,,7.362321376800537,17.583023071289062,0.23
157,MetaDrive-td3combine-expt_with_safe-leaky-adamw-in,83,110.62161614929309,158128,595,1886.2970139980316,,4.648252964019775,13.240376472473145,0.23
158,MetaDrive-td3combine-expt_with_safe-leaky-adamw-in,83,112.35079491613955,159129,596,1898.5019209384918,-17.59650421142578,11.732295989990234,16.523576736450195,0.23
159,MetaDrive-td3combine-expt_with_safe-leaky-adamw-in,83,113.11157701882414,160061,598,1909.321296930313,-17.054838180541992,6.190553665161133,16.366661071777344,0.23
160,MetaDrive-td3combine-expt_with_safe-leaky-adamw-in,83,112.25956839128901,161062,599,1921.4289200305939,,6.646637439727783,16.652311325073242,0.22
161,MetaDrive-td3combine-expt_with_safe-leaky-adamw-in,83,114.72120826898501,162412,601,1937.606556892395,,6.791300296783447,19.95777130126953,0.23
162,MetaDrive-td3combine-expt_with_safe-leaky-adamw-in,83,114.10532471303317,163767,603,1953.2046070098877,-16.17470359802246,11.83000373840332,15.162522315979004,0.23
163,MetaDrive-td3combine-expt_with_safe-leaky-adamw-in,83,114.80812558265379,164768,604,1964.7874569892883,,9.856719970703125,14.892563819885254,0.23
164,MetaDrive-td3combine-expt_with_safe-leaky-adamw-in,83,114.63167108094038,165769,605,1976.5083940029144,-17.1988525390625,5.434934616088867,16.04131317138672,0.23
165,MetaDrive-td3combine-expt_with_safe-leaky-adamw-in,83,113.83550412592547,166770,606,1989.113079071045,,3.7507741451263428,12.459612846374512,0.22
166,MetaDrive-td3combine-expt_with_safe-leaky-adamw-in,83,115.15766155159768,167681,607,2000.9943099021912,-17.63164520263672,3.077176094055176,17.174320220947266,0.22
167,MetaDrive-td3combine-expt_with_safe-leaky-adamw-in,83,115.39889375081053,168682,608,2012.7816970348358,,40.771339416503906,11.980672836303711,0.22
168,MetaDrive-td3combine-expt_with_safe-leaky-adamw-in,83,115.71452634263792,169683,609,2024.3805439472198,-15.375741004943848,12.013359069824219,15.122143745422363,0.22
169,MetaDrive-td3combine-expt_with_safe-leaky-adamw-in,83,116.01221887860572,170684,610,2035.9204127788544,,8.696796417236328,13.648523330688477,0.22
170,MetaDrive-td3combine-expt_with_safe-leaky-adamw-in,83,112.37277174141859,171281,612,2043.139221906662,-13.984850883483887,6.923524856567383,13.55225944519043,0.21
171,MetaDrive-td3combine-expt_with_safe-leaky-adamw-in,83,112.82975853991849,172623,614,2058.8185868263245,-15.303827285766602,27.333755493164062,14.280241012573242,0.2
172,MetaDrive-td3combine-expt_with_safe-leaky-adamw-in,83,118.08431560008414,173346,616,2067.5495648384094,,6.194746494293213,18.967321395874023,0.22
173,MetaDrive-td3combine-expt_with_safe-leaky-adamw-in,83,118.50517658897317,174347,617,2079.467221021652,-20.043174743652344,3.820213794708252,18.898534774780273,0.22
174,MetaDrive-td3combine-expt_with_safe-leaky-adamw-in,83,118.94205082561788,175348,618,2091.2629811763763,,19.1718807220459,16.852251052856445,0.22
175,MetaDrive-td3combine-expt_with_safe-leaky-adamw-in,83,120.6689758673268,176817,621,2108.8067278862,-13.586726188659668,36.446537017822266,13.352940559387207,0.21
176,MetaDrive-td3combine-expt_with_safe-leaky-adamw-in,83,120.51236554222332,177818,622,2120.4308421611786,,7.045994758605957,13.376134872436523,0.21
177,MetaDrive-td3combine-expt_with_safe-leaky-adamw-in,83,120.40780467831415,178819,623,2131.9202909469604,-19.148582458496094,12.279372215270996,18.624589920043945,0.21
178,MetaDrive-td3combine-expt_with_safe-leaky-adamw-in,83,119.6114552823309,179929,625,2145.065069913864,-19.269779205322266,14.383932113647461,19.397367477416992,0.21
179,MetaDrive-td3combine-expt_with_safe-leaky-adamw-in,83,120.30653462971836,180367,626,2150.4979729652405,-14.474994659423828,5.600983619689941,13.574565887451172,0.21
180,MetaDrive-td3combine-expt_with_safe-leaky-adamw-in,83,119.34753133740428,181368,627,2162.7095108032227,,7.460257053375244,23.387855529785156,0.21
181,MetaDrive-td3combine-expt_with_safe-leaky-adamw-in,83,117.6755367224964,182597,629,2177.1647548675537,-21.171728134155273,8.678160667419434,21.49776840209961,0.2
182,MetaDrive-td3combine-expt_with_safe-leaky-adamw-in,83,116.92749910480241,183324,630,2185.4886310100555,,8.434200286865234,17.62343978881836,0.2
183,MetaDrive-td3combine-expt_with_safe-leaky-adamw-in,83,118.41283688658501,184106,631,2194.8025598526,,6.994924545288086,14.635529518127441,0.2
184,MetaDrive-td3combine-expt_with_safe-leaky-adamw-in,83,117.89978054433017,185107,632,2206.3352489471436,-21.772659301757812,2.908165454864502,21.165023803710938,0.2
185,MetaDrive-td3combine-expt_with_safe-leaky-adamw-in,83,121.0735040508381,186472,636,2222.2832288742065,,7.042093276977539,21.257509231567383,0.23
186,MetaDrive-td3combine-expt_with_safe-leaky-adamw-in,83,119.21914775199151,187473,637,2234.3655569553375,-16.150035858154297,6.707825183868408,16.453388214111328,0.23
187,MetaDrive-td3combine-expt_with_safe-leaky-adamw-in,83,119.09604149414807,188474,638,2246.093897819519,,45.167396545410156,16.98900604248047,0.23
188,MetaDrive-td3combine-expt_with_safe-leaky-adamw-in,83,118.5080610059733,189475,639,2258.693141937256,-14.23264217376709,5.374007225036621,14.551498413085938,0.22
189,MetaDrive-td3combine-expt_with_safe-leaky-adamw-in,83,119.93171318556422,190410,640,2270.1848549842834,,5.306369781494141,9.937806129455566,0.23
190,MetaDrive-td3combine-expt_with_safe-leaky-adamw-in,83,119.81091479881132,191411,641,2281.9021298885345,-15.223154067993164,8.103010177612305,13.75239086151123,0.23
191,MetaDrive-td3combine-expt_with_safe-leaky-adamw-in,83,121.98406562052983,192548,643,2295.602779865265,,6.672027587890625,17.828144073486328,0.25
192,MetaDrive-td3combine-expt_with_safe-leaky-adamw-in,83,125.45573397757492,193840,645,2310.984076976776,,5.527957439422607,16.13567543029785,0.25
193,MetaDrive-td3combine-expt_with_safe-leaky-adamw-in,83,121.35899010032483,194910,647,2324.3376598358154,,7.508742809295654,17.990234375,0.23
194,MetaDrive-td3combine-expt_with_safe-leaky-adamw-in,83,122.19157127483697,195911,648,2335.8939080238342,-14.75219440460205,8.514810562133789,14.914825439453125,0.22
195,MetaDrive-td3combine-expt_with_safe-leaky-adamw-in,83,122.89063435215948,196633,649,2345.093296766281,-13.091952323913574,7.985789775848389,13.376482963562012,0.22
196,MetaDrive-td3combine-expt_with_safe-leaky-adamw-in,83,123.13660691339804,197634,650,2357.9644310474396,,31.46401596069336,18.00655746459961,0.22
197,MetaDrive-td3combine-expt_with_safe-leaky-adamw-in,83,125.01215849129412,198982,652,2374.4385221004486,,47.29167938232422,14.531076431274414,0.22
198,MetaDrive-td3combine-expt_with_safe-leaky-adamw-in,83,125.06334171923334,199239,653,2377.5729789733887,-20.138132095336914,7.191069602966309,18.877986907958984,0.21
199,MetaDrive-td3combine-expt_with_safe-leaky-adamw-in,83,124.95582869175222,200240,654,2389.443094968796,,7.676986217498779,14.502388954162598,0.21
200,MetaDrive-td3combine-expt_with_safe-leaky-adamw-in,83,126.20178727266973,201241,655,2401.1816980838776,-20.389137268066406,14.715968132019043,18.655765533447266,0.21
201,MetaDrive-td3combine-expt_with_safe-leaky-adamw-in,83,128.59750858872567,202576,657,2417.1525599956512,,5.483246803283691,9.751413345336914,0.22
202,MetaDrive-td3combine-expt_with_safe-leaky-adamw-in,83,129.1468118919891,203712,659,2430.8275549411774,,11.015251159667969,13.459299087524414,0.21
203,MetaDrive-td3combine-expt_with_safe-leaky-adamw-in,83,128.42389863966255,204499,660,2440.2996468544006,-18.946556091308594,12.111711502075195,18.930158615112305,0.2
204,MetaDrive-td3combine-expt_with_safe-leaky-adamw-in,83,128.2165610062678,205500,661,2452.37548494339,,4.225557804107666,21.41917610168457,0.2
205,MetaDrive-td3combine-expt_with_safe-leaky-adamw-in,83,129.46780193002374,206501,662,2464.0868759155273,-16.722930908203125,8.456233978271484,17.191707611083984,0.2
206,MetaDrive-td3combine-expt_with_safe-leaky-adamw-in,83,133.36115881836267,207502,663,2476.6649100780487,,7.766332626342773,16.769529342651367,0.2
207,MetaDrive-td3combine-expt_with_safe-leaky-adamw-in,83,133.23260899344527,208503,664,2488.398078918457,-16.4207763671875,9.822042465209961,17.628650665283203,0.2
208,MetaDrive-td3combine-expt_with_safe-leaky-adamw-in,83,135.13644471505748,209450,666,2499.5803439617157,,8.076908111572266,18.802804946899414,0.21
209,MetaDrive-td3combine-expt_with_safe-leaky-adamw-in,83,137.04172784152195,210451,667,2511.5374047756195,-15.666800498962402,9.084755897521973,16.152761459350586,0.21
210,MetaDrive-td3combine-expt_with_safe-leaky-adamw-in,83,137.43344385818432,211452,668,2523.862200021744,,15.950995445251465,14.315847396850586,0.21
211,MetaDrive-td3combine-expt_with_safe-leaky-adamw-in,83,136.66062839183166,212288,669,2534.1846058368683,,7.180160045623779,17.658315658569336,0.21
212,MetaDrive-td3combine-expt_with_safe-leaky-adamw-in,83,137.4528589625386,213289,670,2546.2891929149628,-19.37275505065918,4.820754528045654,18.7970027923584,0.21
213,MetaDrive-td3combine-expt_with_safe-leaky-adamw-in,83,138.08134485110642,214290,671,2558.4630048274994,,4.917025566101074,16.233125686645508,0.21
214,MetaDrive-td3combine-expt_with_safe-leaky-adamw-in,83,139.15507248719445,215291,672,2570.7211639881134,-19.553586959838867,7.937438488006592,18.326343536376953,0.21
215,MetaDrive-td3combine-expt_with_safe-leaky-adamw-in,83,139.1843136512859,216292,673,2582.8332619667053,,5.341007232666016,14.730793952941895,0.21
216,MetaDrive-td3combine-expt_with_safe-leaky-adamw-in,83,139.5391929429631,217293,674,2594.9875020980835,-15.146242141723633,8.649018287658691,15.073481559753418,0.21
217,MetaDrive-td3combine-expt_with_safe-leaky-adamw-in,83,139.01394243342332,218294,675,2607.595705986023,,6.962431907653809,17.632123947143555,0.2
218,MetaDrive-td3combine-expt_with_safe-leaky-adamw-in,83,140.179450460514,219295,676,2619.637555837631,-10.065563201904297,3.2824583053588867,9.706385612487793,0.2
219,MetaDrive-td3combine-expt_with_safe-leaky-adamw-in,83,142.1369178852882,220296,677,2631.878609895706,,6.737409591674805,18.51080322265625,0.2
220,MetaDrive-td3combine-expt_with_safe-leaky-adamw-in,83,141.53020274739723,221297,678,2644.319757938385,-19.547073364257812,41.85889434814453,18.82585334777832,0.19
221,MetaDrive-td3combine-expt_with_safe-leaky-adamw-in,83,143.12821036802723,222298,679,2656.8297951221466,,4.421751022338867,13.66285514831543,0.19
222,MetaDrive-td3combine-expt_with_safe-leaky-adamw-in,83,142.96709874380358,223299,680,2669.3093960285187,-17.777923583984375,10.247631072998047,17.45899200439453,0.19
223,MetaDrive-td3combine-expt_with_safe-leaky-adamw-in,83,143.2269131632117,224372,682,2682.531823158264,,3.070634365081787,15.159133911132812,0.19
224,MetaDrive-td3combine-expt_with_safe-leaky-adamw-in,83,142.91847391135943,225373,683,2694.916179895401,-15.298418045043945,4.241855621337891,15.283687591552734,0.19
225,MetaDrive-td3combine-expt_with_safe-leaky-adamw-in,83,140.59782499485954,226374,684,2707.2084081172943,,8.90967845916748,15.646324157714844,0.19
226,MetaDrive-td3combine-expt_with_safe-leaky-adamw-in,83,141.3667794002969,227836,686,2724.9782559871674,,5.605136871337891,20.98886489868164,0.19
227,MetaDrive-td3combine-expt_with_safe-leaky-adamw-in,83,141.7494165042018,228932,688,2738.4782021045685,,6.56187105178833,16.903257369995117,0.19
228,MetaDrive-td3combine-expt_with_safe-leaky-adamw-in,83,141.27998657039706,229208,689,2741.8802919387817,,41.81409454345703,17.383869171142578,0.19
229,MetaDrive-td3combine-expt_with_safe-leaky-adamw-in,83,142.58073896855075,230209,690,2754.8386948108673,-13.555810928344727,4.670823097229004,13.460564613342285,0.18
230,MetaDrive-td3combine-expt_with_safe-leaky-adamw-in,83,144.64447956293156,231822,692,2775.1678550243378,,6.525437355041504,14.972579956054688,0.19
231,MetaDrive-td3combine-expt_with_safe-leaky-adamw-in,83,145.31701607909525,232958,694,2789.464868068695,,4.823090553283691,20.1356201171875,0.19
232,MetaDrive-td3combine-expt_with_safe-leaky-adamw-in,83,144.55952594218735,233959,695,2801.897085905075,-17.914894104003906,9.23216438293457,17.500375747680664,0.18
233,MetaDrive-td3combine-expt_with_safe-leaky-adamw-in,83,143.6706651750971,234391,696,2808.1341619491577,-14.92522144317627,8.83199691772461,14.796205520629883,0.18
234,MetaDrive-td3combine-expt_with_safe-leaky-adamw-in,83,145.57310067299042,235901,699,2826.9928410053253,-19.16556739807129,4.428691864013672,18.425559997558594,0.19
235,MetaDrive-td3combine-expt_with_safe-leaky-adamw-in,83,143.06447144557376,236902,700,2839.539650917053,,8.2160005569458,18.92767333984375,0.18
236,MetaDrive-td3combine-expt_with_safe-leaky-adamw-in,83,143.91377898696,237903,701,2852.2744109630585,-15.798494338989258,6.9068145751953125,15.813493728637695,0.18
237,MetaDrive-td3combine-expt_with_safe-leaky-adamw-in,83,142.4990957000244,238904,702,2864.9280591011047,,11.087713241577148,18.59131622314453,0.17
238,MetaDrive-td3combine-expt_with_safe-leaky-adamw-in,83,142.77609698465838,239248,703,2869.157138824463,,4.654486179351807,16.545623779296875,0.18
239,MetaDrive-td3combine-expt_with_safe-leaky-adamw-in,83,142.6355209139031,240249,704,2882.0091938972473,-15.441394805908203,10.993986129760742,15.54580307006836,0.18
240,MetaDrive-td3combine-expt_with_safe-leaky-adamw-in,83,142.18661791955623,241250,705,2894.369386911392,,6.723261833190918,16.72076988220215,0.18
241,MetaDrive-td3combine-expt_with_safe-leaky-adamw-in,83,143.35984808103234,242055,707,2904.4615800380707,-14.642440795898438,29.380817413330078,13.875540733337402,0.2
242,MetaDrive-td3combine-expt_with_safe-leaky-adamw-in,83,143.70136990049392,243605,710,2924.461723804474,-16.900592803955078,8.763198852539062,16.02438735961914,0.2
243,MetaDrive-td3combine-expt_with_safe-leaky-adamw-in,83,144.74826254018083,244403,711,2934.573982000351,-14.141345024108887,7.286406517028809,13.308928489685059,0.2
244,MetaDrive-td3combine-expt_with_safe-leaky-adamw-in,83,146.26751951487856,245768,713,2951.6538169384003,,29.073787689208984,20.93897819519043,0.2
245,MetaDrive-td3combine-expt_with_safe-leaky-adamw-in,83,144.44253866040827,246769,714,2964.3465099334717,-12.42293930053711,4.4857940673828125,12.467761993408203,0.2
246,MetaDrive-td3combine-expt_with_safe-leaky-adamw-in,83,141.86956990754868,247770,715,2977.1897678375244,,32.15806198120117,21.06627082824707,0.19
247,MetaDrive-td3combine-expt_with_safe-leaky-adamw-in,83,140.1937234808301,248046,716,2980.8552057743073,,4.00241756439209,20.07610511779785,0.18
248,MetaDrive-td3combine-expt_with_safe-leaky-adamw-in,83,138.27182547900296,249047,717,2993.181132078171,-16.21369171142578,9.179704666137695,16.2955322265625,0.18
249,MetaDrive-td3combine-expt_with_safe-leaky-adamw-in,83,138.5488798660374,250454,719,3011.262725830078,,6.871829032897949,19.958492279052734,0.19
250,MetaDrive-td3combine-expt_with_safe-leaky-adamw-in,83,139.7823567261359,251606,721,3026.3613629341125,,39.298484802246094,13.687049865722656,0.19
251,MetaDrive-td3combine-expt_with_safe-leaky-adamw-in,83,142.8588324894795,252068,722,3032.4902441501617,,58.23005676269531,14.605292320251465,0.2
252,MetaDrive-td3combine-expt_with_safe-leaky-adamw-in,83,143.2100593876257,253069,723,3045.5756759643555,-13.920896530151367,12.484521865844727,15.162182807922363,0.2
253,MetaDrive-td3combine-expt_with_safe-leaky-adamw-in,83,143.43214494130925,254070,724,3058.4026029109955,,8.34891128540039,12.984041213989258,0.2
254,MetaDrive-td3combine-expt_with_safe-leaky-adamw-in,83,142.29901476929788,255268,726,3073.717362880707,,13.082319259643555,17.116239547729492,0.19
255,MetaDrive-td3combine-expt_with_safe-leaky-adamw-in,83,142.14920130733591,256269,727,3086.4899818897247,-19.03194808959961,19.497581481933594,18.16077995300293,0.19
256,MetaDrive-td3combine-expt_with_safe-leaky-adamw-in,82,141.10361409773287,257901,732,3107.8285670280457,-14.03710651397705,6.883057594299316,14.307289123535156,0.18
257,MetaDrive-td3combine-expt_with_safe-leaky-adamw-in,82,140.75291848636044,258902,733,3121.7923510074615,,7.95829963684082,14.510627746582031,0.17
258,MetaDrive-td3combine-expt_with_safe-leaky-adamw-in,82,139.48717472844018,259903,734,3134.4045519828796,-12.241506576538086,6.7052154541015625,12.407469749450684,0.16
259,MetaDrive-td3combine-expt_with_safe-leaky-adamw-in,82,139.42496913014645,260596,735,3143.3328890800476,,3.6335840225219727,10.118623733520508,0.16
260,MetaDrive-td3combine-expt_with_safe-leaky-adamw-in,82,140.07056066276743,261071,737,3149.4317240715027,-12.707122802734375,5.197307109832764,12.77131175994873,0.16
261,MetaDrive-td3combine-expt_with_safe-leaky-adamw-in,82,140.85509085096248,262930,739,3175.5720529556274,,10.21932601928711,17.4010009765625,0.16
262,MetaDrive-td3combine-expt_with_safe-leaky-adamw-in,82,140.5147126251317,263321,740,3180.655664920807,-16.570234298706055,7.146729469299316,15.963303565979004,0.16
263,MetaDrive-td3combine-expt_with_safe-leaky-adamw-in,82,139.61133725677772,264426,742,3195.268005847931,,8.543200492858887,21.877906799316406,0.15
264,MetaDrive-td3combine-expt_with_safe-leaky-adamw-in,82,137.4156471607951,265427,743,3207.968475818634,-17.205886840820312,9.255144119262695,16.477224349975586,0.14
265,MetaDrive-td3combine-expt_with_safe-leaky-adamw-in,82,134.8913860997685,266382,745,3220.609066963196,,7.849153995513916,16.999876022338867,0.14
266,MetaDrive-td3combine-expt_with_safe-leaky-adamw-in,82,136.20010639358821,267648,747,3237.6535568237305,,7.667004585266113,21.414012908935547,0.14
267,MetaDrive-td3combine-expt_with_safe-leaky-adamw-in,82,135.76992038789763,268519,748,3249.122277021408,-13.547764778137207,8.52772331237793,13.265979766845703,0.14
268,MetaDrive-td3combine-expt_with_safe-leaky-adamw-in,82,137.0734737750014,269520,749,3262.563047885895,,4.063864707946777,15.79265308380127,0.14
269,MetaDrive-td3combine-expt_with_safe-leaky-adamw-in,82,134.41798489563857,270736,751,3278.949173927307,,58.133766174316406,12.767168998718262,0.14
270,MetaDrive-td3combine-expt_with_safe-leaky-adamw-in,82,134.70329203661905,271737,752,3292.2022409439087,-19.491222381591797,8.714641571044922,19.171205520629883,0.14
271,MetaDrive-td3combine-expt_with_safe-leaky-adamw-in,82,135.60986936986282,272321,753,3300.203997850418,-17.567485809326172,7.616935729980469,17.28867530822754,0.15
272,MetaDrive-td3combine-expt_with_safe-leaky-adamw-in,82,136.8279439179426,273046,754,3309.670142889023,,11.129814147949219,14.439859390258789,0.16
273,MetaDrive-td3combine-expt_with_safe-leaky-adamw-in,82,136.36419586653182,274068,757,3323.87216591835,,10.576879501342773,18.386003494262695,0.16
274,MetaDrive-td3combine-expt_with_safe-leaky-adamw-in,82,136.86468392413724,275069,758,3336.9264719486237,-22.480892181396484,11.268560409545898,23.113250732421875,0.16
275,MetaDrive-td3combine-expt_with_safe-leaky-adamw-in,82,137.3565890134579,276860,761,3361.5524978637695,,10.216995239257812,23.957168579101562,0.17
276,MetaDrive-td3combine-expt_with_safe-leaky-adamw-in,82,136.6809002239503,277861,762,3374.719067811966,-11.927095413208008,3.7831571102142334,12.395896911621094,0.17
277,MetaDrive-td3combine-expt_with_safe-leaky-adamw-in,82,135.2394586736811,278862,763,3388.5436890125275,,8.219093322753906,14.355682373046875,0.17
278,MetaDrive-td3combine-expt_with_safe-leaky-adamw-in,82,134.84680833791168,279985,765,3403.6027550697327,-14.504838943481445,4.667003154754639,13.265630722045898,0.17
279,MetaDrive-td3combine-expt_with_safe-leaky-adamw-in,82,133.18240524501,280986,766,3417.445065021515,,5.085938453674316,18.08987808227539,0.16
280,MetaDrive-td3combine-expt_with_safe-leaky-adamw-in,82,131.17882503536973,281987,767,3430.4564578533173,-20.99962615966797,11.083600997924805,19.618202209472656,0.16
281,MetaDrive-td3combine-expt_with_safe-leaky-adamw-in,82,131.94859014742119,282988,768,3444.7170898914337,,5.961025714874268,17.1708984375,0.16
282,MetaDrive-td3combine-expt_with_safe-leaky-adamw-in,82,131.64477920608653,283047,769,3445.5988590717316,-13.79130744934082,6.02883768081665,13.157983779907227,0.16
283,MetaDrive-td3combine-expt_with_safe-leaky-adamw-in,82,130.96776316442188,284048,770,3459.2696738243103,,46.954261779785156,13.64822006225586,0.16
284,MetaDrive-td3combine-expt_with_safe-leaky-adamw-in,82,130.6385840912766,285049,771,3472.9822809696198,-17.631954193115234,8.735447883605957,17.241788864135742,0.16
285,MetaDrive-td3combine-expt_with_safe-leaky-adamw-in,82,127.91607172834257,286354,775,3491.0444169044495,,5.5037841796875,14.270822525024414,0.16
286,MetaDrive-td3combine-expt_with_safe-leaky-adamw-in,81,127.83767379789387,287355,776,3504.7569348812103,-18.96986961364746,5.008840560913086,18.426109313964844,0.16
287,MetaDrive-td3combine-expt_with_safe-leaky-adamw-in,81,125.37611598464305,288356,777,3518.783877849579,,6.983798980712891,10.837363243103027,0.16
288,MetaDrive-td3combine-expt_with_safe-leaky-adamw-in,81,125.0741219079696,289357,778,3532.0295238494873,-17.558307647705078,3.831742763519287,17.715415954589844,0.16
289,MetaDrive-td3combine-expt_with_safe-leaky-adamw-in,81,124.51920269118567,290147,779,3542.9746260643005,-20.286422729492188,6.61555814743042,18.666881561279297,0.16
290,MetaDrive-td3combine-expt_with_safe-leaky-adamw-in,81,126.63476494762506,291148,780,3557.1106469631195,,11.088584899902344,17.518400192260742,0.16
291,MetaDrive-td3combine-expt_with_safe-leaky-adamw-in,81,126.9258596285639,292149,781,3570.973203897476,-17.550064086914062,4.0368571281433105,17.32804298400879,0.16
292,MetaDrive-td3combine-expt_with_safe-leaky-adamw-in,81,128.03567094835296,293329,783,3587.526470899582,-14.705821990966797,5.748486518859863,15.039006233215332,0.16
293,MetaDrive-td3combine-expt_with_safe-leaky-adamw-in,81,127.88283680813265,294330,784,3601.9334268569946,,5.165775775909424,15.340886116027832,0.16
294,MetaDrive-td3combine-expt_with_safe-leaky-adamw-in,81,124.55417034300626,295053,786,3611.8584139347076,-17.326417922973633,29.131568908691406,18.318647384643555,0.15
295,MetaDrive-td3combine-expt_with_safe-leaky-adamw-in,81,124.73055219213975,296570,788,3633.0682508945465,,7.660259246826172,16.337919235229492,0.16
296,MetaDrive-td3combine-expt_with_safe-leaky-adamw-in,81,124.62473698131174,297230,790,3642.4363100528717,,15.798257827758789,21.844161987304688,0.17
297,MetaDrive-td3combine-expt_with_safe-leaky-adamw-in,81,123.95225675498742,298158,793,3655.661136865616,,26.218839645385742,16.234310150146484,0.18
298,MetaDrive-td3combine-expt_with_safe-leaky-adamw-in,81,122.85208849421842,299309,795,3671.500445842743,-14.224658966064453,48.2935791015625,13.68254280090332,0.18
299,MetaDrive-td3combine-expt_with_safe-leaky-adamw-in,81,121.74746016766102,300310,796,3685.313232898712,,7.801471710205078,16.678844451904297,0.18
300,MetaDrive-td3combine-expt_with_safe-leaky-adamw-in,81,122.26531198676132,301311,797,3698.901771068573,-14.702483177185059,8.793208122253418,15.214113235473633,0.18
301,MetaDrive-td3combine-expt_with_safe-leaky-adamw-in,81,120.88826836207181,302707,800,3718.298770904541,-20.632423400878906,7.756462097167969,19.459915161132812,0.18
302,MetaDrive-td3combine-expt_with_safe-leaky-adamw-in,81,121.58354030948952,303708,801,3731.9391627311707,,6.818306922912598,19.84644317626953,0.18
303,MetaDrive-td3combine-expt_with_safe-leaky-adamw-in,81,120.85791361649639,304709,802,3746.3739688396454,-20.686811447143555,27.108489990234375,20.032245635986328,0.18
304,MetaDrive-td3combine-expt_with_safe-leaky-adamw-in,81,122.77250117815726,305514,804,3758.0902540683746,,15.677244186401367,12.414791107177734,0.18
305,MetaDrive-td3combine-expt_with_safe-leaky-adamw-in,81,124.29769417378792,306515,805,3772.0949890613556,-17.28841781616211,6.1018171310424805,16.977901458740234,0.18
306,MetaDrive-td3combine-expt_with_safe-leaky-adamw-in,81,125.44056088873243,307183,806,3781.4894258975983,-13.26028060913086,5.650330543518066,13.042915344238281,0.18
307,MetaDrive-td3combine-expt_with_safe-leaky-adamw-in,81,125.22216809833566,308603,808,3801.9675471782684,-13.101065635681152,7.608983039855957,12.245759963989258,0.18
308,MetaDrive-td3combine-expt_with_safe-leaky-adamw-in,81,124.78770348208661,309604,809,3816.4224729537964,,6.714270114898682,13.920367240905762,0.18
309,MetaDrive-td3combine-expt_with_safe-leaky-adamw-in,81,125.2552453930192,310605,810,3830.3871319293976,-10.903642654418945,4.130064010620117,11.06180477142334,0.18
310,MetaDrive-td3combine-expt_with_safe-leaky-adamw-in,81,126.46075799808366,311146,811,3837.8730568885803,,2.95953369140625,18.911415100097656,0.19
311,MetaDrive-td3combine-expt_with_safe-leaky-adamw-in,81,126.78331347349713,312279,815,3854.3445188999176,-17.457265853881836,7.456446647644043,16.970932006835938,0.2
312,MetaDrive-td3combine-expt_with_safe-leaky-adamw-in,80,127.93336495041541,313723,817,3874.806895971298,-16.205415725708008,6.516945838928223,15.080662727355957,0.21
313,MetaDrive-td3combine-expt_with_safe-leaky-adamw-in,80,127.3964537803064,314095,818,3880.2340211868286,-20.5383243560791,3.2542552947998047,19.33550453186035,0.2
314,MetaDrive-td3combine-expt_with_safe-leaky-adamw-in,80,127.35307198272902,315034,820,3893.7565999031067,,9.2333984375,19.472021102905273,0.2
315,MetaDrive-td3combine-expt_with_safe-leaky-adamw-in,80,125.96865502750371,316035,821,3908.109987974167,-16.37656021118164,6.991964340209961,16.078983306884766,0.2
316,MetaDrive-td3combine-expt_with_safe-leaky-adamw-in,80,126.85866401939866,317853,824,3934.5512199401855,-18.73470115661621,6.59212589263916,18.901531219482422,0.2
317,MetaDrive-td3combine-expt_with_safe-leaky-adamw-in,80,130.46134171926727,318523,825,3944.8380348682404,-22.170974731445312,10.887641906738281,21.14348602294922,0.21
318,MetaDrive-td3combine-expt_with_safe-leaky-adamw-in,80,130.32355182616735,319053,827,3952.715609073639,-18.246139526367188,8.398555755615234,18.1210880279541,0.21
319,MetaDrive-td3combine-expt_with_safe-leaky-adamw-in,80,130.6890082620089,320054,828,3967.2773008346558,,9.673179626464844,14.035113334655762,0.21
320,MetaDrive-td3combine-expt_with_safe-leaky-adamw-in,80,130.39056273899178,321055,829,3981.4816999435425,-16.178695678710938,6.257524490356445,16.507278442382812,0.21
321,MetaDrive-td3combine-expt_with_safe-leaky-adamw-in,80,129.04542271192585,322037,831,3995.4043798446655,-18.40268898010254,4.4158549308776855,17.788101196289062,0.21
322,MetaDrive-td3combine-expt_with_safe-leaky-adamw-in,80,127.9852845794748,323250,833,4013.2726740837097,,5.883310317993164,16.527690887451172,0.21
323,MetaDrive-td3combine-expt_with_safe-leaky-adamw-in,80,130.942538293872,324641,835,4034.415186882019,-14.126075744628906,21.79443359375,14.06037425994873,0.21
324,MetaDrive-td3combine-expt_with_safe-leaky-adamw-in,80,131.09173948568386,325111,837,4041.6006939411163,-16.930362701416016,5.862037181854248,16.44342613220215,0.2
325,MetaDrive-td3combine-expt_with_safe-leaky-adamw-in,80,129.55840561566828,326453,839,4060.703029870987,-19.668071746826172,9.152116775512695,19.202560424804688,0.21
326,MetaDrive-td3combine-expt_with_safe-leaky-adamw-in,80,126.14826397046453,327661,842,4078.049630880356,-17.733612060546875,63.95061492919922,15.889572143554688,0.2
327,MetaDrive-td3combine-expt_with_safe-leaky-adamw-in,80,126.47550941510345,328828,844,4095.263437986374,,6.666749954223633,12.99614143371582,0.2
328,MetaDrive-td3combine-expt_with_safe-leaky-adamw-in,80,127.82224669660627,329417,845,4103.715044021606,-18.78962516784668,10.857596397399902,18.982131958007812,0.2
329,MetaDrive-td3combine-expt_with_safe-leaky-adamw-in,80,128.13490387930148,330112,846,4113.33477973938,,6.13685941696167,13.785481452941895,0.21
330,MetaDrive-td3combine-expt_with_safe-leaky-adamw-in,80,128.70447383137702,331113,847,4128.054729938507,-22.980302810668945,6.937958717346191,23.30476951599121,0.21
331,MetaDrive-td3combine-expt_with_safe-leaky-adamw-in,80,130.2111452580373,332114,848,4143.220293045044,,17.466472625732422,19.578075408935547,0.21
332,MetaDrive-td3combine-expt_with_safe-leaky-adamw-in,80,128.84598827010123,333115,849,4158.061370134354,-15.747861862182617,5.567862510681152,15.691764831542969,0.21
333,MetaDrive-td3combine-expt_with_safe-leaky-adamw-in,80,128.6545374921264,334116,850,4172.730359077454,,30.905574798583984,17.238330841064453,0.21
334,MetaDrive-td3combine-expt_with_safe-leaky-adamw-in,80,129.01159319726636,335117,851,4187.558367013931,-14.34650707244873,6.155805587768555,14.257060050964355,0.21
335,MetaDrive-td3combine-expt_with_safe-leaky-adamw-in,79,128.80245619592876,336118,852,4203.407539844513,,18.10602378845215,22.537853240966797,0.21
336,MetaDrive-td3combine-expt_with_safe-leaky-adamw-in,79,129.71802751528702,337864,855,4230.027522087097,,18.50815200805664,14.130254745483398,0.2
337,MetaDrive-td3combine-expt_with_safe-leaky-adamw-in,79,130.17397047506304,338048,856,4232.831476926804,,51.650482177734375,18.099929809570312,0.2
338,MetaDrive-td3combine-expt_with_safe-leaky-adamw-in,79,125.97360153124258,339869,860,4260.067129135132,-16.020076751708984,13.268071174621582,15.591435432434082,0.19
339,MetaDrive-td3combine-expt_with_safe-leaky-adamw-in,79,125.57383153536198,340673,862,4271.911471128464,-11.610568046569824,7.458201885223389,11.93686294555664,0.19
340,MetaDrive-td3combine-expt_with_safe-leaky-adamw-in,79,125.1069589437188,341098,863,4278.237880945206,,8.13584041595459,16.384031295776367,0.2
341,MetaDrive-td3combine-expt_with_safe-leaky-adamw-in,79,124.9104563588939,342099,864,4292.987561941147,-17.71347427368164,11.056011199951172,16.947338104248047,0.2
342,MetaDrive-td3combine-expt_with_safe-leaky-adamw-in,79,124.69315019364973,343652,868,4315.476198911667,,33.708404541015625,16.96523666381836,0.2
343,MetaDrive-td3combine-expt_with_safe-leaky-adamw-in,79,125.395492804765,344653,869,4330.576829910278,-20.819889068603516,4.618614196777344,20.047948837280273,0.2
344,MetaDrive-td3combine-expt_with_safe-leaky-adamw-in,79,127.99292069712783,345175,870,4338.236825942993,-19.611907958984375,21.456165313720703,19.10606575012207,0.21
345,MetaDrive-td3combine-expt_with_safe-leaky-adamw-in,79,129.56935116623183,346176,871,4352.366224050522,,4.058928489685059,17.506103515625,0.21
346,MetaDrive-td3combine-expt_with_safe-leaky-adamw-in,79,131.23842484458086,347625,874,4373.028234004974,-19.041669845581055,11.257720947265625,18.55429458618164,0.22
347,MetaDrive-td3combine-expt_with_safe-leaky-adamw-in,79,132.48966534417625,348626,875,4386.77491402626,,11.2415771484375,17.72506332397461,0.22
348,MetaDrive-td3combine-expt_with_safe-leaky-adamw-in,79,132.1799756821859,349627,876,4401.658236980438,-15.217159271240234,13.209599494934082,15.060556411743164,0.22
349,MetaDrive-td3combine-expt_with_safe-leaky-adamw-in,79,131.363991725665,350234,879,4410.412909984589,,6.158383369445801,14.819070816040039,0.22
350,MetaDrive-td3combine-expt_with_safe-leaky-adamw-in,79,129.1346120550281,351931,884,4435.891827821732,-13.504725456237793,10.088245391845703,13.8157958984375,0.23
351,MetaDrive-td3combine-expt_with_safe-leaky-adamw-in,79,132.08834211052752,352477,885,4443.451819896698,-14.19969367980957,7.04292106628418,14.069636344909668,0.24
352,MetaDrive-td3combine-expt_with_safe-leaky-adamw-in,79,133.0350127617256,353456,887,4456.650951862335,,13.286617279052734,19.91124725341797,0.24
353,MetaDrive-td3combine-expt_with_safe-leaky-adamw-in,79,133.74625360653386,354880,890,4475.0619859695435,,6.393059730529785,11.963730812072754,0.24
354,MetaDrive-td3combine-expt_with_safe-leaky-adamw-in,79,133.42060601622748,355566,891,4483.715954780579,,6.193892955780029,8.163101196289062,0.24
355,MetaDrive-td3combine-expt_with_safe-leaky-adamw-in,79,132.62339486629128,356567,892,4497.161681890488,-19.564104080200195,27.104263305664062,19.34874725341797,0.23
356,MetaDrive-td3combine-expt_with_safe-leaky-adamw-in,79,130.97496902420136,357568,893,4510.2138249874115,,7.177829742431641,18.40473175048828,0.22
357,MetaDrive-td3combine-expt_with_safe-leaky-adamw-in,79,133.19509876203944,358045,894,4516.6959228515625,-18.780590057373047,12.878128051757812,17.692419052124023,0.22
358,MetaDrive-td3combine-expt_with_safe-leaky-adamw-in,79,133.93086620124927,359725,896,4538.287033081055,-11.9952974319458,9.381662368774414,11.237289428710938,0.22
359,MetaDrive-td3combine-expt_with_safe-leaky-adamw-in,79,131.91447707838458,360953,898,4554.200710773468,-12.98201847076416,10.408004760742188,13.7803373336792,0.21
360,MetaDrive-td3combine-expt_with_safe-leaky-adamw-in,79,135.8671564155411,361738,899,4565.168899059296,,8.041099548339844,17.949935913085938,0.22
361,MetaDrive-td3combine-expt_with_safe-leaky-adamw-in,79,134.28182857667272,362106,901,4569.929214954376,,7.914287567138672,17.368722915649414,0.22
362,MetaDrive-td3combine-expt_with_safe-leaky-adamw-in,79,135.8308068658354,363355,903,4586.68713593483,-24.287220001220703,8.32183837890625,24.40264320373535,0.22
363,MetaDrive-td3combine-expt_with_safe-leaky-adamw-in,79,133.2019229072678,364356,904,4600.166414022446,,7.350800514221191,17.395254135131836,0.21
364,MetaDrive-td3combine-expt_with_safe-leaky-adamw-in,79,131.89519916157397,365357,905,4613.32474398613,-16.62405014038086,8.049081802368164,17.003772735595703,0.21
365,MetaDrive-td3combine-expt_with_safe-leaky-adamw-in,79,130.99786766480074,366205,907,4625.230297088623,-16.499483108520508,62.710594177246094,15.989261627197266,0.2
366,MetaDrive-td3combine-expt_with_safe-leaky-adamw-in,79,135.21750314114252,367361,909,4640.615299940109,-15.599504470825195,34.725826263427734,15.49918270111084,0.22
367,MetaDrive-td3combine-expt_with_safe-leaky-adamw-in,79,136.91077875568013,368284,911,4652.631197929382,,5.369400501251221,21.65550422668457,0.23
368,MetaDrive-td3combine-expt_with_safe-leaky-adamw-in,79,136.38751035811177,369872,913,4673.3683178424835,,7.273778915405273,17.728866577148438,0.23
369,MetaDrive-td3combine-expt_with_safe-leaky-adamw-in,79,138.2491928257255,370256,914,4678.423743009567,,10.314526557922363,17.828882217407227,0.24
370,MetaDrive-td3combine-expt_with_safe-leaky-adamw-in,79,140.28567347783056,371216,916,4691.229172945023,,12.370964050292969,23.52063751220703,0.24
371,MetaDrive-td3combine-expt_with_safe-leaky-adamw-in,79,140.17733905705157,372386,919,4706.621398925781,,21.495386123657227,17.891307830810547,0.25
372,MetaDrive-td3combine-expt_with_safe-leaky-adamw-in,79,140.63343241309093,373055,920,4715.500274896622,-14.840843200683594,16.597930908203125,14.773516654968262,0.25
373,MetaDrive-td3combine-expt_with_safe-leaky-adamw-in,79,139.47011201289297,374382,922,4732.8352699279785,,15.789602279663086,19.642318725585938,0.24
374,MetaDrive-td3combine-expt_with_safe-leaky-adamw-in,79,134.8226882690535,375025,925,4741.400080919266,-16.707590103149414,6.655275344848633,15.82284164428711,0.23
375,MetaDrive-td3combine-expt_with_safe-leaky-adamw-in,79,140.07901268390694,376781,928,4765.311213970184,-11.98076343536377,6.3514251708984375,11.934239387512207,0.25
376,MetaDrive-td3combine-expt_with_safe-leaky-adamw-in,79,140.355175847961,377782,929,4778.406826019287,,15.057537078857422,15.553715705871582,0.25
377,MetaDrive-td3combine-expt_with_safe-leaky-adamw-in,79,141.52358201239386,378352,930,4786.651631116867,,7.691939830780029,18.600461959838867,0.25
378,MetaDrive-td3combine-expt_with_safe-leaky-adamw-in,79,141.2892864232413,379353,931,4800.23818898201,-24.397537231445312,8.679693222045898,24.356124877929688,0.25
379,MetaDrive-td3combine-expt_with_safe-leaky-adamw-in,79,140.47664207901843,380738,934,4818.847311973572,,5.1810150146484375,19.826231002807617,0.26
380,MetaDrive-td3combine-expt_with_safe-leaky-adamw-in,78,141.24830502668706,381195,935,4825.682826042175,-23.881977081298828,13.027414321899414,22.208171844482422,0.27
381,MetaDrive-td3combine-expt_with_safe-leaky-adamw-in,78,139.97770241970812,382196,936,4839.228859901428,,9.575872421264648,20.656705856323242,0.27
382,MetaDrive-td3combine-expt_with_safe-leaky-adamw-in,78,140.19642691124514,383197,937,4852.600529909134,-18.185588836669922,7.436794281005859,17.421123504638672,0.27
383,MetaDrive-td3combine-expt_with_safe-leaky-adamw-in,78,138.29527094332195,384198,938,4866.196722984314,,5.333046913146973,18.80406951904297,0.26
384,MetaDrive-td3combine-expt_with_safe-leaky-adamw-in,78,139.80857920330934,385078,940,4878.321179866791,,4.69058084487915,20.076353073120117,0.27
385,MetaDrive-td3combine-expt_with_safe-leaky-adamw-in,78,139.94673610321152,386079,941,4891.863950014114,-20.625883102416992,3.9294519424438477,19.490829467773438,0.27
386,MetaDrive-td3combine-expt_with_safe-leaky-adamw-in,78,143.11550004524707,387620,943,4911.440457820892,,5.732035160064697,18.04701042175293,0.28
387,MetaDrive-td3combine-expt_with_safe-leaky-adamw-in,78,143.16661200132785,388621,944,4923.430967092514,-14.656973838806152,8.147489547729492,14.221686363220215,0.28
388,MetaDrive-td3combine-expt_with_safe-leaky-adamw-in,78,143.15477479855957,389622,945,4935.800527095795,,10.392559051513672,16.687152862548828,0.27
389,MetaDrive-td3combine-expt_with_safe-leaky-adamw-in,78,143.90752205438935,390363,946,4945.067075967789,-20.8984317779541,7.275616645812988,20.189897537231445,0.27
390,MetaDrive-td3combine-expt_with_safe-leaky-adamw-in,78,143.5334738692515,391364,947,4957.042974948883,,9.247392654418945,17.191654205322266,0.27
391,MetaDrive-td3combine-expt_with_safe-leaky-adamw-in,78,141.45090882980207,392365,948,4969.303664922714,-22.785236358642578,22.499427795410156,21.985836029052734,0.27
392,MetaDrive-td3combine-expt_with_safe-leaky-adamw-in,78,140.88411319150754,393366,949,4981.102383136749,,14.555002212524414,22.74386215209961,0.27
393,MetaDrive-td3combine-expt_with_safe-leaky-adamw-in,78,142.1753674149238,394470,951,4994.470819950104,,47.43480682373047,20.261579513549805,0.27
394,MetaDrive-td3combine-expt_with_safe-leaky-adamw-in,78,142.9824826179841,395471,952,5006.706465005875,-18.782400131225586,5.883234977722168,18.610382080078125,0.27
395,MetaDrive-td3combine-expt_with_safe-leaky-adamw-in,78,142.68522248323924,396472,953,5019.538628101349,,7.729011535644531,23.013172149658203,0.26
396,MetaDrive-td3combine-expt_with_safe-leaky-adamw-in,78,146.7239486406628,397929,955,5037.409348011017,-16.051776885986328,14.188467979431152,15.300480842590332,0.27
397,MetaDrive-td3combine-expt_with_safe-leaky-adamw-in,78,146.25450778177648,398121,956,5039.906053066254,-25.7365779876709,7.211997032165527,26.093505859375,0.27
398,MetaDrive-td3combine-expt_with_safe-leaky-adamw-in,79,145.94391560392867,399122,957,5051.833861112595,,11.0652437210083,20.84099769592285,0.27
