TanmayH/CS269-RL-project-code/MetaDrive-test-small-conv-colab-actor-dropout1d/td3/progress.csv
,log_dir,frame_per_second,episode_reward,total_steps,total_episodes,total_time,target_q,actor_loss,critic_loss,success_rate
0,MetaDrive-test-small-conv-colab-actor-dropout1d,375,7.460703662605411,1589,2,4.228070497512817,,,,0.0
1,MetaDrive-test-small-conv-colab-actor-dropout1d,367,7.8298344320391955,2590,3,7.0391974449157715,,,,0.0
2,MetaDrive-test-small-conv-colab-actor-dropout1d,366,8.557898643895662,3591,4,9.800105810165405,,,,0.0
3,MetaDrive-test-small-conv-colab-actor-dropout1d,327,8.886613169276478,4592,5,14.035953044891357,,,,0.0
4,MetaDrive-test-small-conv-colab-actor-dropout1d,261,9.499711027438863,5593,6,21.363297700881958,,,,0.0
5,MetaDrive-test-small-conv-colab-actor-dropout1d,262,9.66556547325072,6594,7,25.121424674987793,,,,0.0
6,MetaDrive-test-small-conv-colab-actor-dropout1d,268,9.44024814792613,7575,8,28.22265625,,,,0.0
7,MetaDrive-test-small-conv-colab-actor-dropout1d,262,9.327033378272438,8576,9,32.6113498210907,,,,0.0
8,MetaDrive-test-small-conv-colab-actor-dropout1d,281,8.592387251174504,9982,11,35.51288175582886,,,,0.0
9,MetaDrive-test-small-conv-colab-actor-dropout1d,230,7.552240274231316,10113,12,43.807474851608276,-0.0969281867146492,0.11853620409965515,0.0010011947015300393,0.0
10,MetaDrive-test-small-conv-colab-actor-dropout1d,190,-0.36623040945548496,11004,44,57.67522644996643,-0.09098979830741882,,0.004983882419764996,0.0
11,MetaDrive-test-small-conv-colab-actor-dropout1d,166,-0.5833981309841997,12976,49,78.03199744224548,-0.0511319525539875,,0.012644164264202118,0.0
12,MetaDrive-test-small-conv-colab-actor-dropout1d,165,-0.6698649019408393,13091,50,79.19107484817505,-0.04347577691078186,0.06842656433582306,0.00812613032758236,0.0
13,MetaDrive-test-small-conv-colab-actor-dropout1d,157,-0.588181852925065,14092,51,89.42795157432556,-0.05177859961986542,,0.023756757378578186,0.0
14,MetaDrive-test-small-conv-colab-actor-dropout1d,150,1.486299846912672,15003,58,99.57780599594116,-0.029009193181991577,0.04304702579975128,0.04201372712850571,0.0
15,MetaDrive-test-small-conv-colab-actor-dropout1d,139,0.7619241308089436,16013,96,115.08965969085693,-0.04683393985033035,-0.03141229599714279,0.8152910470962524,0.0
16,MetaDrive-test-small-conv-colab-actor-dropout1d,131,2.441242075826246,17005,122,128.9103283882141,0.13442891836166382,-0.12738551199436188,0.03448290750384331,0.0
17,MetaDrive-test-small-conv-colab-actor-dropout1d,126,5.982189505231761,18005,145,142.66502952575684,0.31443285942077637,-0.38297945261001587,0.023163218051195145,0.0
18,MetaDrive-test-small-conv-colab-actor-dropout1d,121,7.3867808547889515,19024,171,156.7882981300354,0.4528707265853882,,1.8475985527038574,0.0
19,MetaDrive-test-small-conv-colab-actor-dropout1d,117,10.834562271910798,20011,192,170.26524019241333,0.8392342329025269,-0.8956807851791382,0.09380371868610382,0.0
20,MetaDrive-test-small-conv-colab-actor-dropout1d,114,12.660514745608785,21003,214,182.96786642074585,1.1660830974578857,-1.183573842048645,0.19803282618522644,0.0
21,MetaDrive-test-small-conv-colab-actor-dropout1d,111,15.717781141390486,22009,233,197.1688268184662,1.538614273071289,-1.659957766532898,1.684535026550293,0.0
22,MetaDrive-test-small-conv-colab-actor-dropout1d,108,16.14055384830828,23027,256,211.7964062690735,1.738836646080017,-1.988115906715393,2.5108752250671387,0.0
23,MetaDrive-test-small-conv-colab-actor-dropout1d,106,15.93473429236033,24023,277,225.15992283821106,1.9450379610061646,-2.324083089828491,4.717405319213867,0.0
24,MetaDrive-test-small-conv-colab-actor-dropout1d,104,17.807859591978332,25063,297,239.55131125450134,2.6569252014160156,-2.7532565593719482,0.2328324317932129,0.0
25,MetaDrive-test-small-conv-colab-actor-dropout1d,103,18.23331351256069,26030,313,252.42064094543457,3.2357327938079834,,0.28452205657958984,0.0
26,MetaDrive-test-small-conv-colab-actor-dropout1d,101,17.467514158435332,27055,333,265.8907861709595,2.9177730083465576,-3.479189872741699,11.045685768127441,0.0
27,MetaDrive-test-small-conv-colab-actor-dropout1d,100,20.274970851413258,28043,348,278.59695267677307,3.9652318954467773,-4.073860168457031,3.620563507080078,0.0
28,MetaDrive-test-small-conv-colab-actor-dropout1d,99,22.4745408831035,29064,365,291.2913703918457,4.786864757537842,,0.24152317643165588,0.0
29,MetaDrive-test-small-conv-colab-actor-dropout1d,98,24.20601085402081,30060,380,304.5489661693573,5.130766868591309,,5.785621643066406,0.0
30,MetaDrive-test-small-conv-colab-actor-dropout1d,98,27.489300163778076,31010,392,316.2234785556793,5.486370086669922,,9.107717514038086,0.0
31,MetaDrive-test-small-conv-colab-actor-dropout1d,97,30.31992090859123,32008,404,328.7486889362335,6.7917046546936035,,0.3451593816280365,0.0
32,MetaDrive-test-small-conv-colab-actor-dropout1d,96,33.351162389294174,33066,418,341.3958375453949,7.391060829162598,,4.572214126586914,0.0
33,MetaDrive-test-small-conv-colab-actor-dropout1d,96,38.1980519496947,34015,428,353.80623722076416,7.854410171508789,-8.212594985961914,0.21865618228912354,0.0
34,MetaDrive-test-small-conv-colab-actor-dropout1d,95,43.29075686544467,35143,440,367.7397668361664,8.777325630187988,-8.954961776733398,3.923001289367676,0.0
35,MetaDrive-test-small-conv-colab-actor-dropout1d,95,44.737819924418524,36074,450,379.2350764274597,9.612068176269531,,5.718090057373047,0.0
36,MetaDrive-test-small-conv-colab-actor-dropout1d,94,49.27353014924922,37071,460,391.30466985702515,9.703160285949707,-10.071917533874512,0.282675564289093,0.0
37,MetaDrive-test-small-conv-colab-actor-dropout1d,94,53.77052853830096,38038,470,403.7852132320404,11.557500839233398,,1.080366611480713,0.0
38,MetaDrive-test-small-conv-colab-actor-dropout1d,94,59.4854523150944,39089,479,415.51336455345154,11.776632308959961,-12.169865608215332,6.051401138305664,0.0
39,MetaDrive-test-small-conv-colab-actor-dropout1d,93,62.09903137480806,40056,489,427.4659535884857,12.828826904296875,,0.4832429587841034,0.0
40,MetaDrive-test-small-conv-colab-actor-dropout1d,93,63.35981477017589,41057,499,439.8573851585388,12.075185775756836,-12.846546173095703,17.70256233215332,0.0
41,MetaDrive-test-small-conv-colab-actor-dropout1d,93,67.0496589518748,42026,508,451.4590792655945,14.193137168884277,,0.9940164685249329,0.0
42,MetaDrive-test-small-conv-colab-actor-dropout1d,92,71.00315754075241,43012,517,463.9389991760254,14.290220260620117,,15.700170516967773,0.0
43,MetaDrive-test-small-conv-colab-actor-dropout1d,92,72.96797488561081,44082,527,477.15563130378723,15.853472709655762,,1.8614672422409058,0.0
44,MetaDrive-test-small-conv-colab-actor-dropout1d,91,72.73236372384484,45040,537,489.60885667800903,16.31201934814453,,2.203352928161621,0.0
45,MetaDrive-test-small-conv-colab-actor-dropout1d,91,74.93213273313832,46031,546,502.3565845489502,17.9130916595459,-17.788490295410156,1.7165727615356445,0.0
46,MetaDrive-test-small-conv-colab-actor-dropout1d,91,76.12182488902054,47074,556,514.9237842559814,15.426042556762695,,3.1613192558288574,0.0
47,MetaDrive-test-small-conv-colab-actor-dropout1d,91,79.5633663088101,48001,563,526.9122722148895,18.81429672241211,-19.56781005859375,14.47844123840332,0.0
48,MetaDrive-test-small-conv-colab-actor-dropout1d,89,85.26348635569536,49941,568,558.1571388244629,18.713735580444336,-18.393131256103516,1.416608214378357,0.0
49,MetaDrive-test-small-conv-colab-actor-dropout1d,89,86.75377709099628,50388,569,563.9413318634033,20.703569412231445,,17.999977111816406,0.0
50,MetaDrive-test-small-conv-colab-actor-dropout1d,88,85.88756795315008,51076,571,574.9471552371979,18.883262634277344,,32.3800048828125,0.0
51,MetaDrive-test-small-conv-colab-actor-dropout1d,88,87.16297005361704,52231,574,589.2154319286346,20.70406150817871,-20.729782104492188,6.514052867889404,0.0
52,MetaDrive-test-small-conv-colab-actor-dropout1d,88,88.92898615570647,53016,578,599.3963317871094,20.022048950195312,,13.679130554199219,0.01
53,MetaDrive-test-small-conv-colab-actor-dropout1d,88,91.84338828785076,54070,583,612.3859601020813,21.283369064331055,,35.382476806640625,0.02
54,MetaDrive-test-small-conv-colab-actor-dropout1d,87,94.9549423668299,55005,586,625.3722305297852,24.625110626220703,-24.983089447021484,6.182336807250977,0.03
55,MetaDrive-test-small-conv-colab-actor-dropout1d,87,98.74993586853479,56076,590,639.3596432209015,24.959463119506836,,3.4012935161590576,0.04
56,MetaDrive-test-small-conv-colab-actor-dropout1d,87,101.71054685503725,57048,596,650.5471334457397,24.975894927978516,,2.3510453701019287,0.05
57,MetaDrive-test-small-conv-colab-actor-dropout1d,87,106.41804029145054,58278,600,666.5765664577484,25.22076416015625,,8.86708927154541,0.07
58,MetaDrive-test-small-conv-colab-actor-dropout1d,87,109.48712997147759,59308,604,678.750034570694,27.003070831298828,,2.985095500946045,0.07
59,MetaDrive-test-small-conv-colab-actor-dropout1d,87,109.9541830919324,60090,608,688.6183178424835,25.990135192871094,,2.5271964073181152,0.07
60,MetaDrive-test-small-conv-colab-actor-dropout1d,87,111.90482027141492,61062,614,700.7836711406708,26.501693725585938,,5.412017345428467,0.08
61,MetaDrive-test-small-conv-colab-actor-dropout1d,86,113.03100783649371,62020,620,712.957316160202,27.21692657470703,,25.82890510559082,0.09
62,MetaDrive-test-small-conv-colab-actor-dropout1d,86,116.28890931778149,63220,626,728.9896874427795,29.66037368774414,,3.5995612144470215,0.1
63,MetaDrive-test-small-conv-colab-actor-dropout1d,86,119.24114457671637,64241,632,739.7669377326965,28.433259963989258,-28.638965606689453,3.9917151927948,0.11
64,MetaDrive-test-small-conv-colab-actor-dropout1d,86,121.19341511842107,65028,635,750.5585491657257,28.42766761779785,,6.389322757720947,0.11
65,MetaDrive-test-small-conv-colab-actor-dropout1d,86,123.47349362267863,66009,641,761.5682382583618,29.063365936279297,-30.227802276611328,29.145763397216797,0.12
66,MetaDrive-test-small-conv-colab-actor-dropout1d,86,127.866797581469,67483,648,778.5151114463806,30.4251766204834,-31.707550048828125,24.526586532592773,0.13
67,MetaDrive-test-small-conv-colab-actor-dropout1d,86,128.68023762902914,68106,652,785.4835276603699,27.678741455078125,,24.89388656616211,0.13
68,MetaDrive-test-small-conv-colab-actor-dropout1d,86,131.12786816246316,69092,657,796.6838872432709,29.384906768798828,,12.743635177612305,0.13
69,MetaDrive-test-small-conv-colab-actor-dropout1d,86,130.5165860079144,70074,663,810.5681450366974,31.15605354309082,,2.59696102142334,0.13
70,MetaDrive-test-small-conv-colab-actor-dropout1d,86,124.69646627294676,71086,670,824.3801972866058,29.112953186035156,,8.874418258666992,0.13
71,MetaDrive-test-small-conv-colab-actor-dropout1d,86,123.9816209109625,72027,676,836.3439009189606,32.352760314941406,-33.34021759033203,3.652345657348633,0.14
72,MetaDrive-test-small-conv-colab-actor-dropout1d,85,122.42830985475746,73085,682,849.8642373085022,33.161407470703125,-33.5528678894043,6.009137153625488,0.12
73,MetaDrive-test-small-conv-colab-actor-dropout1d,85,117.58262314447252,74075,689,863.1480457782745,31.604440689086914,-32.74846267700195,37.978515625,0.1
74,MetaDrive-test-small-conv-colab-actor-dropout1d,85,115.52177363666719,75023,697,874.5905508995056,33.517578125,-34.7341194152832,5.399478912353516,0.09
75,MetaDrive-test-small-conv-colab-actor-dropout1d,85,115.4539390586023,76241,701,894.6696920394897,35.4516716003418,-36.614585876464844,3.55271577835083,0.07
76,MetaDrive-test-small-conv-colab-actor-dropout1d,85,113.72814144223302,77053,704,905.3797397613525,31.725187301635742,-32.24118423461914,8.861920356750488,0.07
77,MetaDrive-test-small-conv-colab-actor-dropout1d,85,114.00749412215018,78025,711,917.1352443695068,32.49326705932617,-33.36518859863281,17.31179428100586,0.07
78,MetaDrive-test-small-conv-colab-actor-dropout1d,84,113.54992257877313,79109,716,932.2218923568726,35.38297653198242,-36.04021072387695,1.7725610733032227,0.05
79,MetaDrive-test-small-conv-colab-actor-dropout1d,84,113.61052497146181,80042,723,944.1343152523041,35.461334228515625,,7.754115581512451,0.06
80,MetaDrive-test-small-conv-colab-actor-dropout1d,84,112.02850084598106,81060,729,956.0034625530243,36.29917526245117,,5.483813285827637,0.05
81,MetaDrive-test-small-conv-colab-actor-dropout1d,84,110.16637845571793,82266,736,972.6756517887115,39.49860382080078,,10.927906036376953,0.04
82,MetaDrive-test-small-conv-colab-actor-dropout1d,84,110.45859694557204,83222,741,985.7580323219299,37.02149963378906,,3.867155075073242,0.03
83,MetaDrive-test-small-conv-colab-actor-dropout1d,84,111.11976732372086,84126,746,996.1283338069916,35.47726821899414,,21.28966522216797,0.03
84,MetaDrive-test-small-conv-colab-actor-dropout1d,84,109.36527741458835,85027,750,1007.6535596847534,36.80788803100586,-37.76764678955078,6.330350399017334,0.03
85,MetaDrive-test-small-conv-colab-actor-dropout1d,84,104.85336134726411,86087,760,1021.0356774330139,35.20403289794922,-35.676273345947266,6.18562126159668,0.03
86,MetaDrive-test-small-conv-colab-actor-dropout1d,84,107.34855310223921,87073,765,1032.1572966575623,38.16358184814453,-38.88774490356445,5.5682172775268555,0.04
87,MetaDrive-test-small-conv-colab-actor-dropout1d,84,108.35630211067209,88049,770,1044.3575570583344,38.009334564208984,-37.9709358215332,3.027540683746338,0.04
88,MetaDrive-test-small-conv-colab-actor-dropout1d,84,108.62606047127684,89185,777,1058.118614435196,36.915496826171875,-36.86001968383789,8.8208646774292,0.04
89,MetaDrive-test-small-conv-colab-actor-dropout1d,84,110.224949407859,90008,780,1068.4431977272034,39.39794158935547,,2.5197033882141113,0.05
90,MetaDrive-test-small-conv-colab-actor-dropout1d,84,113.27912648722098,91154,784,1084.2865521907806,37.83384704589844,,4.842596530914307,0.06
91,MetaDrive-test-small-conv-colab-actor-dropout1d,84,115.51213189083515,92083,787,1095.2392556667328,35.404319763183594,-35.70551300048828,3.8613803386688232,0.07
92,MetaDrive-test-small-conv-colab-actor-dropout1d,84,116.72232788232863,93129,794,1107.8713483810425,36.354248046875,-36.6282958984375,5.369703769683838,0.07
93,MetaDrive-test-small-conv-colab-actor-dropout1d,84,117.45986286028241,94193,800,1119.8174657821655,36.58782196044922,-36.65691375732422,4.021292209625244,0.08
94,MetaDrive-test-small-conv-colab-actor-dropout1d,84,115.74358358584394,95131,804,1132.367368221283,36.24375915527344,-36.158538818359375,9.606173515319824,0.09
95,MetaDrive-test-small-conv-colab-actor-dropout1d,84,119.1903421815829,96010,808,1142.4304065704346,34.52969741821289,,4.950710296630859,0.09
96,MetaDrive-test-small-conv-colab-actor-dropout1d,83,122.05426596745038,97137,811,1157.5665736198425,38.783042907714844,-38.19835662841797,7.549441337585449,0.1
97,MetaDrive-test-small-conv-colab-actor-dropout1d,83,121.36357893379632,98059,815,1168.3064682483673,39.762481689453125,-40.1445426940918,4.398075580596924,0.11
98,MetaDrive-test-small-conv-colab-actor-dropout1d,83,121.27463992743864,99123,818,1183.4862160682678,37.44998550415039,-38.51476287841797,26.723899841308594,0.11
99,MetaDrive-test-small-conv-colab-actor-dropout1d,83,127.14744716288145,100262,821,1199.706242799759,36.348182678222656,,50.50926971435547,0.12
100,MetaDrive-test-small-conv-colab-actor-dropout1d,83,131.79278996166965,101176,822,1213.373753786087,40.04383087158203,,4.815768241882324,0.13
101,MetaDrive-test-small-conv-colab-actor-dropout1d,83,135.68600545279554,102380,826,1227.7267739772797,34.9715576171875,,57.327598571777344,0.15
102,MetaDrive-test-small-conv-colab-actor-dropout1d,83,134.91133662509702,103032,828,1236.1970748901367,34.04270553588867,,49.142948150634766,0.15
103,MetaDrive-test-small-conv-colab-actor-dropout1d,83,139.16774151217396,104268,832,1250.3554356098175,40.90177917480469,,3.4371747970581055,0.16
104,MetaDrive-test-small-conv-colab-actor-dropout1d,83,140.58742311764846,105409,837,1263.6031024456024,37.29689025878906,-38.178016662597656,16.405899047851562,0.18
105,MetaDrive-test-small-conv-colab-actor-dropout1d,83,140.81166392532958,106233,840,1274.3442645072937,37.40422439575195,-37.27375030517578,11.881387710571289,0.18
106,MetaDrive-test-small-conv-colab-actor-dropout1d,83,140.44291995447531,107054,842,1285.13303232193,39.53351974487305,,45.354881286621094,0.19
107,MetaDrive-test-small-conv-colab-actor-dropout1d,83,144.01681406997378,108183,845,1300.0795760154724,37.512420654296875,-38.603458404541016,7.184021949768066,0.19
108,MetaDrive-test-small-conv-colab-actor-dropout1d,83,148.857131819345,109122,847,1311.1616785526276,39.47977828979492,,8.482243537902832,0.21
109,MetaDrive-test-small-conv-colab-actor-dropout1d,83,149.788227937975,110001,848,1325.1338047981262,41.80536651611328,-43.180885314941406,5.1600494384765625,0.21
110,MetaDrive-test-small-conv-colab-actor-dropout1d,83,154.02748003000647,111123,852,1338.2432827949524,38.9074592590332,-39.24928283691406,5.392217636108398,0.22
111,MetaDrive-test-small-conv-colab-actor-dropout1d,82,158.76418335022123,112316,854,1354.5180761814117,38.73933410644531,,4.313656806945801,0.24
112,MetaDrive-test-small-conv-colab-actor-dropout1d,82,163.9315744488196,113222,856,1367.298870563507,39.427703857421875,,4.454165458679199,0.25
113,MetaDrive-test-small-conv-colab-actor-dropout1d,82,167.50009356415717,114153,859,1378.5771989822388,39.233638763427734,-39.50954055786133,57.779388427734375,0.26
114,MetaDrive-test-small-conv-colab-actor-dropout1d,82,170.69066593720396,115477,862,1395.5013806819916,40.25786590576172,-41.062408447265625,6.239948272705078,0.27
115,MetaDrive-test-small-conv-colab-actor-dropout1d,82,172.74530046785927,116154,864,1403.8868310451508,37.4699821472168,,4.813637733459473,0.27
116,MetaDrive-test-small-conv-colab-actor-dropout1d,82,175.48890258580155,117004,865,1415.9451169967651,36.50260925292969,,33.506752014160156,0.28
117,MetaDrive-test-small-conv-colab-actor-dropout1d,82,181.27683438180765,118484,868,1433.7835319042206,38.68046569824219,,3.767153739929199,0.3
118,MetaDrive-test-small-conv-colab-actor-dropout1d,82,183.58544274778896,119409,869,1449.7535059452057,39.141510009765625,-40.254669189453125,6.950502395629883,0.31
119,MetaDrive-test-small-conv-colab-actor-dropout1d,82,187.76623443880754,120487,871,1463.4948334693909,36.3095703125,-38.22661590576172,52.59975051879883,0.33
120,MetaDrive-test-small-conv-colab-actor-dropout1d,82,187.24939310422124,121083,873,1470.6514053344727,38.80802536010742,-38.669273376464844,10.707366943359375,0.32
121,MetaDrive-test-small-conv-colab-actor-dropout1d,82,191.28883260700115,122251,875,1486.394499540329,41.853633880615234,-42.77421569824219,96.03778076171875,0.33
122,MetaDrive-test-small-conv-colab-actor-dropout1d,82,192.3727742733654,123343,878,1503.7795794010162,40.35423278808594,-40.84321594238281,3.991337299346924,0.33
123,MetaDrive-test-small-conv-colab-actor-dropout1d,81,193.34511744937444,124344,879,1518.6980197429657,37.24537658691406,,62.53941345214844,0.33
124,MetaDrive-test-small-conv-colab-actor-dropout1d,81,193.7513885491487,125102,880,1530.722218990326,40.867530822753906,,16.595378875732422,0.32
125,MetaDrive-test-small-conv-colab-actor-dropout1d,81,193.83088869709624,126574,884,1551.388151884079,39.12192916870117,,4.96779727935791,0.32
126,MetaDrive-test-small-conv-colab-actor-dropout1d,81,194.9847952908043,127018,885,1555.8527233600616,39.936798095703125,,6.469079971313477,0.33
127,MetaDrive-test-small-conv-colab-actor-dropout1d,81,195.0034500330734,128019,886,1576.6815059185028,38.34477233886719,-40.530765533447266,94.6834716796875,0.32
128,MetaDrive-test-small-conv-colab-actor-dropout1d,80,199.00708788254192,129993,889,1606.527803182602,39.74361801147461,-39.64552688598633,6.781575679779053,0.32
129,MetaDrive-test-small-conv-colab-actor-dropout1d,80,203.0715220073637,130622,890,1615.8558733463287,41.234344482421875,,64.2848129272461,0.33
130,MetaDrive-test-small-conv-colab-actor-dropout1d,80,205.71970534154488,131587,892,1627.515179157257,38.15028381347656,-38.215232849121094,6.103232383728027,0.33
131,MetaDrive-test-small-conv-colab-actor-dropout1d,80,206.54162559808836,132438,894,1642.3138654232025,37.272254943847656,,134.77133178710938,0.33
132,MetaDrive-test-small-conv-colab-actor-dropout1d,80,209.48808121318433,133093,895,1649.445167541504,36.96855926513672,-36.81025695800781,4.6500725746154785,0.34
133,MetaDrive-test-small-conv-colab-actor-dropout1d,80,209.91778184711308,134057,898,1660.003966808319,36.95614242553711,-37.089195251464844,7.1192474365234375,0.33
134,MetaDrive-test-small-conv-colab-actor-dropout1d,80,214.02655857896787,135055,900,1671.3978905677795,38.85304641723633,-38.51524353027344,5.587916851043701,0.35
135,MetaDrive-test-small-conv-colab-actor-dropout1d,80,220.13377753117632,136273,903,1685.9461131095886,40.2607536315918,-39.95502853393555,19.896774291992188,0.37
136,MetaDrive-test-small-conv-colab-actor-dropout1d,80,216.80861449401016,137039,906,1694.3030574321747,37.37158203125,-37.49748611450195,11.348907470703125,0.36
137,MetaDrive-test-small-conv-colab-actor-dropout1d,80,219.94121943161537,138344,908,1709.5911040306091,38.59404373168945,,26.550357818603516,0.38
138,MetaDrive-test-small-conv-colab-actor-dropout1d,80,221.32912864442022,139003,910,1719.2592689990997,40.14846420288086,-40.92643356323242,3.933009624481201,0.38
139,MetaDrive-test-small-conv-colab-actor-dropout1d,80,222.08484833832657,140345,913,1739.258136510849,40.51348876953125,-41.163368225097656,7.748215675354004,0.37
140,MetaDrive-test-small-conv-colab-actor-dropout1d,80,222.606015791625,141184,916,1749.1219317913055,39.17090606689453,,3.543851852416992,0.37
141,MetaDrive-test-small-conv-colab-actor-dropout1d,80,223.2837694118621,142070,919,1757.7519125938416,39.073238372802734,,6.785443305969238,0.37
142,MetaDrive-test-small-conv-colab-actor-dropout1d,80,217.45900592030452,143315,923,1771.834582567215,41.35478973388672,-41.74139404296875,8.518661499023438,0.37
143,MetaDrive-test-small-conv-colab-actor-dropout1d,80,219.77486890279826,144191,925,1782.417767047882,38.34891891479492,-39.5245246887207,53.71599578857422,0.38
144,MetaDrive-test-small-conv-colab-actor-dropout1d,80,219.19422834723377,145090,928,1794.884793996811,39.69427490234375,,4.817204475402832,0.38
145,MetaDrive-test-small-conv-colab-actor-dropout1d,80,217.88595686853495,146091,929,1807.8161594867706,38.27470397949219,-38.55060577392578,26.65217399597168,0.37
146,MetaDrive-test-small-conv-colab-actor-dropout1d,80,222.62101254168508,147860,933,1839.254472732544,36.138729095458984,,62.39757537841797,0.37
147,MetaDrive-test-small-conv-colab-actor-dropout1d,80,221.5947335313728,148202,934,1843.8548545837402,42.44258499145508,,8.31716251373291,0.36
148,MetaDrive-test-small-conv-colab-actor-dropout1d,80,224.25284049044853,149617,938,1864.8428237438202,42.682395935058594,-42.49095916748047,9.417278289794922,0.36
149,MetaDrive-test-small-conv-colab-actor-dropout1d,80,226.97667231047527,150201,939,1871.311769247055,39.51863098144531,-40.9208984375,40.80698013305664,0.37
150,MetaDrive-test-small-conv-colab-actor-dropout1d,80,229.78687713657075,151292,941,1888.327026605606,41.16414260864258,,3.968949794769287,0.38
151,MetaDrive-test-small-conv-colab-actor-dropout1d,80,228.8648316009269,152104,944,1899.0677332878113,39.33042907714844,,7.634148120880127,0.38
152,MetaDrive-test-small-conv-colab-actor-dropout1d,79,228.0078883699394,153105,945,1915.4150457382202,41.44221496582031,-41.954524993896484,17.086990356445312,0.38
153,MetaDrive-test-small-conv-colab-actor-dropout1d,79,226.89098415834923,154037,947,1925.9673669338226,39.7227783203125,-40.13215637207031,8.632637023925781,0.38
154,MetaDrive-test-small-conv-colab-actor-dropout1d,79,227.90868926591725,155079,949,1938.8217556476593,39.62312698364258,-39.632911682128906,4.282050609588623,0.39
155,MetaDrive-test-small-conv-colab-actor-dropout1d,79,232.70147707276465,156806,951,1963.5034084320068,36.771873474121094,,8.977395057678223,0.4
156,MetaDrive-test-small-conv-colab-actor-dropout1d,79,234.25806363101958,157345,952,1969.2017033100128,36.68194580078125,-37.094337463378906,89.78297424316406,0.41
157,MetaDrive-test-small-conv-colab-actor-dropout1d,79,232.775954722922,158663,955,1985.9367911815643,38.07958984375,-38.06861114501953,4.198742866516113,0.4
158,MetaDrive-test-small-conv-colab-actor-dropout1d,79,234.76735960106194,159545,956,1997.1646332740784,39.93730163574219,-40.91855239868164,9.70798397064209,0.41
159,MetaDrive-test-small-conv-colab-actor-dropout1d,79,238.2532011818174,160546,957,2014.3124639987946,38.49371337890625,,4.443802833557129,0.41
160,MetaDrive-test-small-conv-colab-actor-dropout1d,79,238.5039725272067,161617,959,2031.5161468982697,41.48155975341797,-41.98090362548828,3.024451732635498,0.41
161,MetaDrive-test-small-conv-colab-actor-dropout1d,79,238.6284388658123,162843,961,2053.1274859905243,41.266212463378906,-42.58958435058594,7.8936967849731445,0.4
162,MetaDrive-test-small-conv-colab-actor-dropout1d,79,237.19208594752658,163298,962,2057.4169795513153,40.58502197265625,,2.440889835357666,0.4
163,MetaDrive-test-small-conv-colab-actor-dropout1d,79,241.718561600331,164450,964,2071.4442801475525,40.816749572753906,,32.38249969482422,0.42
164,MetaDrive-test-small-conv-colab-actor-dropout1d,79,236.07218099580635,165056,967,2078.268358707428,40.62169647216797,,5.686228275299072,0.4
165,MetaDrive-test-small-conv-colab-actor-dropout1d,79,235.20592902102453,166288,969,2092.342680454254,40.36110305786133,,11.787553787231445,0.39
166,MetaDrive-test-small-conv-colab-actor-dropout1d,79,231.620001260236,167392,972,2107.5641877651215,37.35078811645508,,8.556000709533691,0.37
167,MetaDrive-test-small-conv-colab-actor-dropout1d,79,230.60084359209094,168496,974,2127.9197993278503,38.70472717285156,,13.615840911865234,0.37
168,MetaDrive-test-small-conv-colab-actor-dropout1d,79,230.60275624793067,169136,977,2134.84224653244,38.073707580566406,,13.271406173706055,0.37
169,MetaDrive-test-small-conv-colab-actor-dropout1d,79,232.93240650230152,170447,979,2151.506502866745,40.65068817138672,-40.99850845336914,3.2446024417877197,0.39
170,MetaDrive-test-small-conv-colab-actor-dropout1d,79,230.19768232978734,171058,980,2161.4609394073486,38.134132385253906,,12.887130737304688,0.39
171,MetaDrive-test-small-conv-colab-actor-dropout1d,79,234.63516279975696,172013,982,2171.229119539261,38.67253875732422,-39.47380065917969,83.2728271484375,0.4
172,MetaDrive-test-small-conv-colab-actor-dropout1d,79,235.3366518905345,173376,984,2190.3816890716553,39.63597869873047,,6.433162212371826,0.41
173,MetaDrive-test-small-conv-colab-actor-dropout1d,79,230.15858384471306,174189,987,2199.879373073578,41.2133674621582,-40.956932067871094,5.442539215087891,0.41
174,MetaDrive-test-small-conv-colab-actor-dropout1d,79,224.3706291637474,175369,993,2217.092208623886,40.15041732788086,-40.80738830566406,7.887295722961426,0.4
175,MetaDrive-test-small-conv-colab-actor-dropout1d,79,220.89747334301458,176001,995,2225.2034826278687,39.301414489746094,-38.85767364501953,4.333542823791504,0.39
176,MetaDrive-test-small-conv-colab-actor-dropout1d,79,222.9466697810655,177487,999,2241.6996829509735,40.09355926513672,-40.500083923339844,37.18861389160156,0.4
177,MetaDrive-test-small-conv-colab-actor-dropout1d,79,222.95906968546677,178025,1000,2248.324769973755,34.7884635925293,-35.377586364746094,10.116443634033203,0.4
178,MetaDrive-test-small-conv-colab-actor-dropout1d,79,223.69512919765305,179917,1003,2273.399264574051,38.36189270019531,-38.87690734863281,5.608675956726074,0.38
179,MetaDrive-test-small-conv-colab-actor-dropout1d,79,226.25484020476455,180456,1004,2279.1836626529694,36.40115737915039,,13.231943130493164,0.39
180,MetaDrive-test-small-conv-colab-actor-dropout1d,79,227.3622562137868,181116,1006,2286.7277369499207,40.4496955871582,,4.211268424987793,0.4
181,MetaDrive-test-small-conv-colab-actor-dropout1d,79,225.95820986247662,182068,1008,2298.488637447357,41.8984260559082,,38.95240020751953,0.39
182,MetaDrive-test-small-conv-colab-actor-dropout1d,79,228.19839689189888,183231,1010,2315.2228882312775,37.627098083496094,-38.18537139892578,5.9509477615356445,0.4
183,MetaDrive-test-small-conv-colab-actor-dropout1d,79,228.20131787912604,184103,1012,2325.755360364914,39.75666809082031,-39.672271728515625,8.773216247558594,0.4
184,MetaDrive-test-small-conv-colab-actor-dropout1d,78,231.28959059961065,185383,1014,2346.9080171585083,39.471214294433594,-39.48347091674805,4.582815170288086,0.41
185,MetaDrive-test-small-conv-colab-actor-dropout1d,78,230.92358883045603,186619,1016,2363.025545358658,40.84130096435547,-41.64250564575195,3.9883296489715576,0.41
186,MetaDrive-test-small-conv-colab-actor-dropout1d,79,231.85414464164103,187160,1018,2369.0186419487,38.06106185913086,,10.018787384033203,0.42
187,MetaDrive-test-small-conv-colab-actor-dropout1d,79,233.41335309651402,188634,1021,2386.629173517227,42.183509826660156,,4.431389331817627,0.42
188,MetaDrive-test-small-conv-colab-actor-dropout1d,79,236.67001319930864,189213,1022,2393.003138065338,40.56546401977539,-40.72560119628906,7.016510486602783,0.43
189,MetaDrive-test-small-conv-colab-actor-dropout1d,79,232.32861069081846,190061,1025,2403.4093968868256,39.39070129394531,-41.58005142211914,83.75788879394531,0.4
190,MetaDrive-test-small-conv-colab-actor-dropout1d,79,230.67778111138097,191038,1029,2414.8991816043854,40.04353713989258,,4.911248207092285,0.39
191,MetaDrive-test-small-conv-colab-actor-dropout1d,78,234.85300191282985,192039,1030,2431.3733723163605,37.28351974487305,-38.036155700683594,32.823463439941406,0.39
192,MetaDrive-test-small-conv-colab-actor-dropout1d,79,233.64558045680573,193555,1034,2448.8397052288055,39.51737976074219,-39.455440521240234,104.620361328125,0.39
193,MetaDrive-test-small-conv-colab-actor-dropout1d,79,236.51136659297717,194183,1035,2455.913728237152,38.81403350830078,-38.77482604980469,3.275798797607422,0.4
194,MetaDrive-test-small-conv-colab-actor-dropout1d,79,235.84266745768477,195366,1038,2471.002297401428,40.51155090332031,,4.342318534851074,0.4
195,MetaDrive-test-small-conv-colab-actor-dropout1d,79,235.12565259190953,196586,1040,2485.328443288803,37.47276306152344,,29.097476959228516,0.39
196,MetaDrive-test-small-conv-colab-actor-dropout1d,79,239.61327945262127,197649,1042,2496.958606004715,37.92421340942383,-37.881317138671875,6.890670299530029,0.41
197,MetaDrive-test-small-conv-colab-actor-dropout1d,79,237.94587841033626,198035,1043,2501.863374233246,34.73094177246094,-34.89345932006836,29.669307708740234,0.4
198,MetaDrive-test-small-conv-colab-actor-dropout1d,79,241.62498366682408,199063,1045,2513.7035250663757,39.196083068847656,-39.55463409423828,3.837486743927002,0.42
199,MetaDrive-test-small-conv-colab-actor-dropout1d,79,239.58952094333796,200013,1048,2524.173129796982,33.38459777832031,-34.843162536621094,26.028831481933594,0.4
200,MetaDrive-test-small-conv-colab-actor-dropout1d,79,231.32158507511352,201423,1051,2546.8762798309326,40.728004455566406,-40.75370788574219,6.739582061767578,0.37
201,MetaDrive-test-small-conv-colab-actor-dropout1d,79,232.4463720467655,202261,1052,2557.3017117977142,36.331478118896484,-36.94087219238281,14.53454303741455,0.37
202,MetaDrive-test-small-conv-colab-actor-dropout1d,79,235.3001554904249,203011,1053,2567.161736726761,41.23810577392578,-41.30893325805664,4.601947784423828,0.38
203,MetaDrive-test-small-conv-colab-actor-dropout1d,79,237.38655307977535,204333,1055,2582.2328083515167,39.59848403930664,-39.99973678588867,5.818335056304932,0.38
204,MetaDrive-test-small-conv-colab-actor-dropout1d,79,232.80833529995968,205140,1057,2590.7014372348785,38.060054779052734,,35.95292663574219,0.38
205,MetaDrive-test-small-conv-colab-actor-dropout1d,79,231.73281495820692,206099,1060,2601.9567878246307,42.238468170166016,-42.82170867919922,15.276578903198242,0.37
206,MetaDrive-test-small-conv-colab-actor-dropout1d,79,234.0405365571836,207780,1062,2626.227875471115,37.875389099121094,,4.916842460632324,0.38
207,MetaDrive-test-small-conv-colab-actor-dropout1d,79,234.21626155945242,208362,1063,2633.9649579524994,40.68310546875,,5.449489116668701,0.38
208,MetaDrive-test-small-conv-colab-actor-dropout1d,79,233.5816028481516,209132,1065,2643.1201207637787,39.44801330566406,,3.344233512878418,0.38
209,MetaDrive-test-small-conv-colab-actor-dropout1d,79,232.36569953993032,210034,1068,2653.4099266529083,37.313419342041016,,51.72796630859375,0.38
210,MetaDrive-test-small-conv-colab-actor-dropout1d,79,233.2410710454244,211236,1071,2667.139228820801,40.56013488769531,,5.860658168792725,0.39
211,MetaDrive-test-small-conv-colab-actor-dropout1d,79,236.45147344349817,212720,1074,2685.285908937454,40.455692291259766,,6.589850425720215,0.41
212,MetaDrive-test-small-conv-colab-actor-dropout1d,79,238.68694231317005,213224,1075,2691.1864790916443,39.166259765625,,8.846334457397461,0.42
213,MetaDrive-test-small-conv-colab-actor-dropout1d,79,237.8878249776642,214378,1078,2704.3170137405396,38.808502197265625,,30.97966957092285,0.42
214,MetaDrive-test-small-conv-colab-actor-dropout1d,79,237.66723255278396,215453,1080,2717.6758818626404,37.68983840942383,-37.564430236816406,6.291574478149414,0.41
215,MetaDrive-test-small-conv-colab-actor-dropout1d,79,234.51195151542,216003,1082,2724.4511461257935,39.94734191894531,-40.44209289550781,4.383884429931641,0.4
216,MetaDrive-test-small-conv-colab-actor-dropout1d,79,233.41975464788203,217063,1084,2741.8551485538483,38.351959228515625,-38.58729553222656,23.886882781982422,0.38
217,MetaDrive-test-small-conv-colab-actor-dropout1d,79,236.78877010483683,218555,1087,2759.9212946891785,37.707000732421875,-38.08738708496094,37.72545623779297,0.38
218,MetaDrive-test-small-conv-colab-actor-dropout1d,79,239.64984178256236,219719,1089,2776.5408976078033,38.50067138671875,-38.79053497314453,4.618780136108398,0.38
219,MetaDrive-test-small-conv-colab-actor-dropout1d,79,241.9416165311005,220530,1090,2789.079035282135,36.69147872924805,,5.2965288162231445,0.38
220,MetaDrive-test-small-conv-colab-actor-dropout1d,79,247.0061724849282,221621,1092,2802.1898198127747,39.01980209350586,-38.84018325805664,13.061758041381836,0.39
221,MetaDrive-test-small-conv-colab-actor-dropout1d,79,249.51196429724783,222571,1094,2813.292830467224,39.65959548950195,-39.796600341796875,20.868614196777344,0.39
222,MetaDrive-test-small-conv-colab-actor-dropout1d,79,251.30849711274996,223572,1095,2829.6767354011536,36.12248992919922,,6.8423919677734375,0.4
223,MetaDrive-test-small-conv-colab-actor-dropout1d,79,247.13291002448864,224045,1098,2835.3062512874603,40.300758361816406,-40.87994384765625,54.45097351074219,0.39
224,MetaDrive-test-small-conv-colab-actor-dropout1d,79,238.2509982125404,225272,1103,2850.326537132263,42.771080017089844,,7.73063325881958,0.37
225,MetaDrive-test-small-conv-colab-actor-dropout1d,79,240.77834749392406,226573,1105,2863.901999473572,44.18232727050781,-44.589881896972656,7.748573303222656,0.38
226,MetaDrive-test-small-conv-colab-actor-dropout1d,79,237.93247159940879,227024,1107,2868.934616088867,38.16458511352539,,3.547780990600586,0.36
227,MetaDrive-test-small-conv-colab-actor-dropout1d,79,238.107335509911,228507,1110,2889.0410532951355,42.38372039794922,-43.755531311035156,6.982392311096191,0.36
228,MetaDrive-test-small-conv-colab-actor-dropout1d,79,237.44379493663268,229243,1112,2897.5377671718597,38.91146469116211,-38.58787536621094,4.248054027557373,0.36
229,MetaDrive-test-small-conv-colab-actor-dropout1d,79,230.95786223782952,230058,1116,2906.909572124481,40.14952087402344,,10.017472267150879,0.35
230,MetaDrive-test-small-conv-colab-actor-dropout1d,79,232.5671601543898,231351,1119,2928.0071098804474,41.74577331542969,-42.486297607421875,6.79777717590332,0.34
231,MetaDrive-test-small-conv-colab-actor-dropout1d,79,220.89711466620466,232103,1124,2936.9913091659546,38.16950988769531,-38.649559020996094,18.000722885131836,0.31
232,MetaDrive-test-small-conv-colab-actor-dropout1d,79,221.8692241454469,233009,1127,2947.767338991165,40.80934524536133,-40.579402923583984,2.172045946121216,0.32
233,MetaDrive-test-small-conv-colab-actor-dropout1d,79,222.88085299973218,234542,1131,2966.1695771217346,41.590476989746094,,5.73143196105957,0.33
234,MetaDrive-test-small-conv-colab-actor-dropout1d,79,222.10458034170927,235280,1133,2976.5615017414093,42.514068603515625,,11.444473266601562,0.33
235,MetaDrive-test-small-conv-colab-actor-dropout1d,79,222.56340130383307,236371,1135,2989.549432992935,40.900390625,-40.96025848388672,4.82100772857666,0.34
236,MetaDrive-test-small-conv-colab-actor-dropout1d,79,222.41172371699338,237172,1137,2999.521115064621,41.401912689208984,,15.871536254882812,0.34
237,MetaDrive-test-small-conv-colab-actor-dropout1d,79,224.17604016824532,238630,1139,3018.0219707489014,43.23163604736328,,9.365921974182129,0.36
238,MetaDrive-test-small-conv-colab-actor-dropout1d,79,220.90233177871184,239304,1141,3024.947675228119,41.93994140625,,4.6866679191589355,0.35
239,MetaDrive-test-small-conv-colab-actor-dropout1d,79,217.32576595609683,240488,1144,3039.487304210663,40.86186599731445,,110.76863861083984,0.34
240,MetaDrive-test-small-conv-colab-actor-dropout1d,79,213.16033842656958,241451,1147,3051.890457868576,39.88147735595703,-39.89780044555664,4.125382423400879,0.33
241,MetaDrive-test-small-conv-colab-actor-dropout1d,79,213.6948259895107,242218,1150,3060.514676809311,40.82842254638672,,4.207338333129883,0.34
242,MetaDrive-test-small-conv-colab-actor-dropout1d,79,211.2556368141068,243125,1152,3072.9981620311737,42.818572998046875,-42.32221984863281,8.547752380371094,0.33
243,MetaDrive-test-small-conv-colab-actor-dropout1d,79,202.46482567997842,244224,1156,3084.9310216903687,40.89258575439453,,5.098377227783203,0.31
244,MetaDrive-test-small-conv-colab-actor-dropout1d,79,202.80190705157355,245310,1158,3102.56014752388,41.05083084106445,,5.87376594543457,0.3
245,MetaDrive-test-small-conv-colab-actor-dropout1d,79,206.5665479791985,246638,1160,3120.6073668003082,35.30628204345703,,8.723633766174316,0.32
246,MetaDrive-test-small-conv-colab-actor-dropout1d,79,206.11998640103295,247191,1161,3128.6622800827026,44.18341064453125,-43.630210876464844,6.959872722625732,0.31
247,MetaDrive-test-small-conv-colab-actor-dropout1d,79,202.54872441594426,248208,1163,3139.7810740470886,43.475364685058594,,4.370368957519531,0.3
248,MetaDrive-test-small-conv-colab-actor-dropout1d,79,202.91873925055214,249233,1165,3150.7287261486053,41.129940032958984,-42.14287567138672,4.712481498718262,0.3
249,MetaDrive-test-small-conv-colab-actor-dropout1d,79,203.29774976865673,250447,1168,3163.750720024109,44.31327438354492,-44.43159484863281,5.175498008728027,0.3
250,MetaDrive-test-small-conv-colab-actor-dropout1d,79,205.33434016446532,251448,1169,3176.301543712616,37.430946350097656,,5.655625820159912,0.3
251,MetaDrive-test-small-conv-colab-actor-dropout1d,79,207.90306484315067,252397,1170,3189.6927466392517,41.48476791381836,-41.45894241333008,5.911923408508301,0.31
252,MetaDrive-test-small-conv-colab-actor-dropout1d,79,204.52617441220207,253150,1172,3197.7818751335144,44.16413497924805,,5.23737907409668,0.29
253,MetaDrive-test-small-conv-colab-actor-dropout1d,79,204.1241008977232,254399,1175,3212.305521965027,43.85823059082031,-44.134788513183594,4.07909631729126,0.28
254,MetaDrive-test-small-conv-colab-actor-dropout1d,79,205.0984922830652,255605,1177,3227.2052211761475,42.73589324951172,-42.115760803222656,17.44677734375,0.28
255,MetaDrive-test-small-conv-colab-actor-dropout1d,79,200.5960493422824,256148,1180,3232.9978425502777,43.4333381652832,,5.138718605041504,0.27
256,MetaDrive-test-small-conv-colab-actor-dropout1d,79,203.7177043694837,257052,1182,3244.885508775711,43.25776672363281,,5.979735851287842,0.28
257,MetaDrive-test-small-conv-colab-actor-dropout1d,79,205.13042051390985,258427,1184,3262.7429831027985,46.643836975097656,-46.55437469482422,4.924468040466309,0.3
258,MetaDrive-test-small-conv-colab-actor-dropout1d,79,206.90533207389745,259030,1185,3269.927627325058,42.40094757080078,,6.094915390014648,0.3
259,MetaDrive-test-small-conv-colab-actor-dropout1d,79,202.75267999113464,260432,1189,3284.8762998580933,41.12889099121094,,23.713693618774414,0.31
260,MetaDrive-test-small-conv-colab-actor-dropout1d,79,203.24411819165454,261079,1190,3292.924340248108,38.672264099121094,-38.24085235595703,13.481788635253906,0.32
261,MetaDrive-test-small-conv-colab-actor-dropout1d,79,204.03882128057924,262411,1192,3311.9898071289062,39.35272216796875,-39.076847076416016,4.380523681640625,0.32
262,MetaDrive-test-small-conv-colab-actor-dropout1d,79,205.89811877962,263103,1193,3321.3414170742035,39.37474822998047,-39.33976745605469,3.7096924781799316,0.33
263,MetaDrive-test-small-conv-colab-actor-dropout1d,79,204.31739716952688,264104,1194,3333.3007106781006,43.586631774902344,,4.858379364013672,0.33
264,MetaDrive-test-small-conv-colab-actor-dropout1d,79,206.92930737467768,265414,1196,3348.8295197486877,40.16063690185547,,23.95245361328125,0.33
265,MetaDrive-test-small-conv-colab-actor-dropout1d,79,210.50653241907196,266254,1197,3358.380924463272,42.893898010253906,,6.611580848693848,0.34
266,MetaDrive-test-small-conv-colab-actor-dropout1d,79,213.0561967294201,267541,1200,3375.0012650489807,41.4798583984375,-41.89594268798828,7.313519477844238,0.35
267,MetaDrive-test-small-conv-colab-actor-dropout1d,79,216.00753122874713,268507,1201,3389.9047791957855,40.81673049926758,-40.83098602294922,6.246860504150391,0.36
268,MetaDrive-test-small-conv-colab-actor-dropout1d,79,215.75472799674614,269421,1203,3402.6926283836365,42.095741271972656,-42.093746185302734,9.481185913085938,0.36
269,MetaDrive-test-small-conv-colab-actor-dropout1d,79,215.52931865321796,270898,1205,3420.8150424957275,39.22338104248047,,17.88091278076172,0.35
270,MetaDrive-test-small-conv-colab-actor-dropout1d,79,216.80354570439835,271503,1206,3428.8760664463043,45.442474365234375,-45.331233978271484,4.306182861328125,0.36
271,MetaDrive-test-small-conv-colab-actor-dropout1d,79,220.8879261294818,272654,1208,3444.5777168273926,40.800193786621094,,3.467521905899048,0.37
272,MetaDrive-test-small-conv-colab-actor-dropout1d,79,218.9081810595777,273660,1210,3457.7275636196136,41.63005828857422,,18.532384872436523,0.37
273,MetaDrive-test-small-conv-colab-actor-dropout1d,79,218.69823083505477,274356,1212,3465.0027873516083,40.46364974975586,,6.6616034507751465,0.36
274,MetaDrive-test-small-conv-colab-actor-dropout1d,79,221.17203098567316,275209,1213,3475.760426044464,42.40863800048828,-43.1090202331543,12.241096496582031,0.37
275,MetaDrive-test-small-conv-colab-actor-dropout1d,79,226.05325028040386,276810,1217,3496.416555404663,41.52535629272461,,4.949919700622559,0.38
276,MetaDrive-test-small-conv-colab-actor-dropout1d,79,229.12875562590526,277755,1218,3510.6648383140564,42.487300872802734,-42.8790397644043,9.934453010559082,0.39
277,MetaDrive-test-small-conv-colab-actor-dropout1d,79,229.01757472803973,278559,1219,3519.0613689422607,43.740638732910156,-43.13127899169922,4.748251914978027,0.4
278,MetaDrive-test-small-conv-colab-actor-dropout1d,79,232.0607462022151,279428,1220,3531.1512172222137,43.226295471191406,,19.173818588256836,0.41
279,MetaDrive-test-small-conv-colab-actor-dropout1d,79,236.73038105961325,280641,1222,3546.283837556839,43.8548698425293,-42.82393264770508,6.801553726196289,0.42
280,MetaDrive-test-small-conv-colab-actor-dropout1d,79,239.75671688320676,281486,1223,3557.653746843338,42.77570343017578,,11.38614273071289,0.43
281,MetaDrive-test-small-conv-colab-actor-dropout1d,79,241.3310467728884,282228,1225,3565.686161994934,39.31562805175781,,13.21235466003418,0.43
282,MetaDrive-test-small-conv-colab-actor-dropout1d,79,243.31596634790654,283231,1227,3577.279796361923,41.938323974609375,-42.462894439697266,5.276622295379639,0.43
283,MetaDrive-test-small-conv-colab-actor-dropout1d,79,244.62256042257548,284065,1229,3586.240108728409,42.853153228759766,-42.49635314941406,7.66478157043457,0.43
284,MetaDrive-test-small-conv-colab-actor-dropout1d,79,246.68717280022236,285066,1230,3598.1079688072205,43.106929779052734,,11.259527206420898,0.43
285,MetaDrive-test-small-conv-colab-actor-dropout1d,79,248.0459421960625,286509,1232,3619.201826810837,41.247894287109375,-41.756141662597656,6.091253280639648,0.43
286,MetaDrive-test-small-conv-colab-actor-dropout1d,79,245.03324911881884,287236,1234,3628.2489743232727,39.80259323120117,,15.33141803741455,0.42
287,MetaDrive-test-small-conv-colab-actor-dropout1d,79,246.87326215138287,288355,1236,3641.4273467063904,45.84746170043945,-45.67234802246094,5.4269633293151855,0.42
288,MetaDrive-test-small-conv-colab-actor-dropout1d,79,247.3388811144311,289356,1237,3652.878134727478,38.98535919189453,,7.020033359527588,0.41
289,MetaDrive-test-small-conv-colab-actor-dropout1d,79,244.02563107223912,290114,1239,3660.834726333618,40.98656463623047,,7.224238395690918,0.39
290,MetaDrive-test-small-conv-colab-actor-dropout1d,79,245.82566807735466,291115,1240,3673.7890305519104,42.32887268066406,-42.68428421020508,6.051572799682617,0.39
291,MetaDrive-test-small-conv-colab-actor-dropout1d,79,249.75385738703946,292726,1242,3692.2606790065765,39.36485290527344,,6.804811477661133,0.4
292,MetaDrive-test-small-conv-colab-actor-dropout1d,79,252.89864611829316,293280,1243,3698.2547047138214,44.43977737426758,,10.769251823425293,0.41
293,MetaDrive-test-small-conv-colab-actor-dropout1d,79,256.79261359816786,294642,1245,3714.5566399097443,43.329689025878906,,2.8972983360290527,0.42
294,MetaDrive-test-small-conv-colab-actor-dropout1d,79,258.3855412646801,295078,1246,3719.019485473633,39.92784118652344,,5.6503496170043945,0.42
295,MetaDrive-test-small-conv-colab-actor-dropout1d,79,260.73680868452055,296913,1249,3747.6052963733673,39.537452697753906,-40.35664749145508,31.227951049804688,0.42
296,MetaDrive-test-small-conv-colab-actor-dropout1d,79,261.09129958990235,297614,1250,3756.95076584816,43.3420524597168,,19.0492000579834,0.41
297,MetaDrive-test-small-conv-colab-actor-dropout1d,79,263.0224379614103,298304,1251,3766.034475326538,41.12950134277344,,3.643821954727173,0.42
298,MetaDrive-test-small-conv-colab-actor-dropout1d,79,265.04261410986237,299180,1252,3779.505916595459,40.60505676269531,,9.968847274780273,0.43
299,MetaDrive-test-small-conv-colab-actor-dropout1d,79,269.3515519507196,300552,1254,3797.847147703171,38.69142150878906,,13.019174575805664,0.44
300,MetaDrive-test-small-conv-colab-actor-dropout1d,79,269.3024896087598,301235,1256,3804.999288082123,37.3758544921875,-37.46096420288086,7.617790699005127,0.44
301,MetaDrive-test-small-conv-colab-actor-dropout1d,79,269.7843572190822,302015,1257,3813.952839612961,36.97208786010742,-37.79997634887695,5.150456428527832,0.45
302,MetaDrive-test-small-conv-colab-actor-dropout1d,79,269.7190903145167,303071,1259,3826.1721107959747,36.38462829589844,-37.10400390625,7.689247131347656,0.45
303,MetaDrive-test-small-conv-colab-actor-dropout1d,79,266.74841185317325,304201,1261,3842.5499761104584,37.10186004638672,-38.02415466308594,11.934200286865234,0.44
304,MetaDrive-test-small-conv-colab-actor-dropout1d,79,265.88103162192215,305026,1263,3853.5493059158325,42.27461624145508,,6.287918567657471,0.44
305,MetaDrive-test-small-conv-colab-actor-dropout1d,79,265.6457914193259,306208,1266,3867.2087733745575,44.457191467285156,,3.688335418701172,0.44
306,MetaDrive-test-small-conv-colab-actor-dropout1d,79,267.2446128830498,307420,1268,3882.0808284282684,41.262325286865234,,4.469110012054443,0.44
307,MetaDrive-test-small-conv-colab-actor-dropout1d,79,264.39242946961485,308509,1270,3896.3592686653137,41.64165115356445,-41.97241973876953,3.2021238803863525,0.44
308,MetaDrive-test-small-conv-colab-actor-dropout1d,79,267.2383821068507,309778,1272,3911.4946868419647,41.26618957519531,,6.561596393585205,0.46
309,MetaDrive-test-small-conv-colab-actor-dropout1d,79,267.33402624353045,310331,1273,3916.8291063308716,44.391361236572266,-46.10010528564453,7.965078353881836,0.45
310,MetaDrive-test-small-conv-colab-actor-dropout1d,79,269.088945133252,311206,1274,3929.9392960071564,39.589603424072266,,7.3629045486450195,0.46
311,MetaDrive-test-small-conv-colab-actor-dropout1d,79,268.60792519025824,312113,1276,3939.516541004181,43.5072135925293,-44.2950439453125,9.37716293334961,0.47
312,MetaDrive-test-small-conv-colab-actor-dropout1d,79,269.535565958641,313069,1278,3949.7333800792694,43.573997497558594,-43.80242156982422,5.954387664794922,0.47
313,MetaDrive-test-small-conv-colab-actor-dropout1d,79,272.0582149539973,314294,1281,3962.948937177658,42.99658966064453,,5.5983734130859375,0.48
314,MetaDrive-test-small-conv-colab-actor-dropout1d,79,271.27659485463283,315295,1282,3983.2126269340515,45.21778869628906,-46.1600227355957,8.009725570678711,0.47
315,MetaDrive-test-small-conv-colab-actor-dropout1d,79,268.26570977850105,316590,1285,3998.8492991924286,40.11470031738281,,9.722579002380371,0.46
316,MetaDrive-test-small-conv-colab-actor-dropout1d,79,272.3321767932753,317474,1286,4012.2204914093018,41.43284606933594,,7.863394260406494,0.47
317,MetaDrive-test-small-conv-colab-actor-dropout1d,79,274.8245304494826,318794,1288,4032.5717792510986,42.74293518066406,,6.789379596710205,0.47
318,MetaDrive-test-small-conv-colab-actor-dropout1d,79,276.2262416897662,319690,1289,4044.905007123947,41.97553253173828,,6.584864616394043,0.47
319,MetaDrive-test-small-conv-colab-actor-dropout1d,79,276.8005707606829,320569,1290,4056.293428182602,41.106239318847656,-40.65657043457031,5.227560043334961,0.47
320,MetaDrive-test-small-conv-colab-actor-dropout1d,79,274.778189859662,321035,1291,4060.965750694275,41.50214385986328,-41.63147735595703,3.861790180206299,0.47
321,MetaDrive-test-small-conv-colab-actor-dropout1d,79,275.4824302055579,322003,1292,4072.081046819687,34.969520568847656,-36.363037109375,6.309840202331543,0.48
322,MetaDrive-test-small-conv-colab-actor-dropout1d,79,272.47616082852727,323080,1295,4082.933265209198,41.259891510009766,,4.887198448181152,0.48
323,MetaDrive-test-small-conv-colab-actor-dropout1d,79,272.1432994970007,324081,1296,4101.621073722839,43.745460510253906,-44.93450927734375,5.660188674926758,0.48
324,MetaDrive-test-small-conv-colab-actor-dropout1d,79,274.8580090389186,325811,1298,4119.368241786957,40.595542907714844,-40.66643142700195,6.026607036590576,0.49
325,MetaDrive-test-small-conv-colab-actor-dropout1d,79,276.3325684369683,326325,1299,4124.639723300934,41.52677917480469,-41.94693374633789,4.130464553833008,0.5
326,MetaDrive-test-small-conv-colab-actor-dropout1d,79,273.4516056172825,327236,1301,4134.563621997833,39.71070098876953,,23.43001937866211,0.49
327,MetaDrive-test-small-conv-colab-actor-dropout1d,79,277.2549954269236,328645,1303,4154.49586391449,41.8460807800293,-42.00221252441406,6.454216957092285,0.5
328,MetaDrive-test-small-conv-colab-actor-dropout1d,79,276.9877812964661,329332,1304,4160.726591825485,44.4314079284668,,10.05616569519043,0.5
329,MetaDrive-test-small-conv-colab-actor-dropout1d,79,278.0473676250972,330925,1306,4178.1925213336945,43.794647216796875,-43.92001724243164,62.1517219543457,0.51
330,MetaDrive-test-small-conv-colab-actor-dropout1d,79,279.82918338946297,331815,1307,4186.1931211948395,39.53962707519531,-39.93556594848633,3.0280098915100098,0.52
331,MetaDrive-test-small-conv-colab-actor-dropout1d,79,278.4462186865776,332449,1308,4192.466101169586,41.98044204711914,-42.11882019042969,5.043180465698242,0.52
332,MetaDrive-test-small-conv-colab-actor-dropout1d,79,279.69384088739093,333072,1309,4199.075401544571,41.77030944824219,,5.568843841552734,0.53
333,MetaDrive-test-small-conv-colab-actor-dropout1d,79,278.2443160324885,334211,1311,4211.219554424286,41.39430236816406,-42.28631591796875,7.465539932250977,0.53
334,MetaDrive-test-small-conv-colab-actor-dropout1d,79,279.7713011916136,335054,1312,4221.451105594635,41.49592590332031,,3.637010097503662,0.54
335,MetaDrive-test-small-conv-colab-actor-dropout1d,79,279.7202132558066,336650,1315,4242.114490270615,41.617958068847656,,13.355245590209961,0.54
336,MetaDrive-test-small-conv-colab-actor-dropout1d,79,279.6993322545931,337309,1316,4249.700324773788,39.824012756347656,-39.77360916137695,11.281831741333008,0.54
337,MetaDrive-test-small-conv-colab-actor-dropout1d,79,277.4028885350134,338797,1318,4273.8692417144775,40.6663818359375,-41.08441925048828,2.3385677337646484,0.52
338,MetaDrive-test-small-conv-colab-actor-dropout1d,79,272.89450392423055,339556,1320,4281.781412601471,37.48662567138672,,53.71574401855469,0.51
339,MetaDrive-test-small-conv-colab-actor-dropout1d,79,272.20388543844473,340557,1321,4294.991516590118,37.24658203125,-37.3540153503418,4.618346214294434,0.51
340,MetaDrive-test-small-conv-colab-actor-dropout1d,79,271.9061097849486,341448,1322,4305.326457500458,39.762046813964844,,3.6511268615722656,0.51
341,MetaDrive-test-small-conv-colab-actor-dropout1d,79,270.7225414691989,342173,1323,4312.213531494141,43.151100158691406,-43.522300720214844,49.51113510131836,0.51
342,MetaDrive-test-small-conv-colab-actor-dropout1d,79,272.069553162394,343765,1325,4328.170488357544,40.762550354003906,-41.03545379638672,18.287519454956055,0.52
343,MetaDrive-test-small-conv-colab-actor-dropout1d,79,273.9229440775708,344408,1326,4335.991757154465,39.373046875,,32.87096405029297,0.53
344,MetaDrive-test-small-conv-colab-actor-dropout1d,79,275.91681203930364,345379,1327,4349.281874418259,45.35071563720703,-45.44487762451172,3.63079571723938,0.54
345,MetaDrive-test-small-conv-colab-actor-dropout1d,79,278.0840087812749,346380,1328,4366.5881333351135,40.56907653808594,,6.37905216217041,0.54
346,MetaDrive-test-small-conv-colab-actor-dropout1d,79,279.28589597262715,347785,1330,4382.973110437393,40.441619873046875,-41.31993865966797,4.913119316101074,0.56
347,MetaDrive-test-small-conv-colab-actor-dropout1d,79,277.9859575111724,348640,1331,4391.28869342804,42.850650787353516,,10.85425090789795,0.56
348,MetaDrive-test-small-conv-colab-actor-dropout1d,79,278.6568670323058,349300,1332,4399.229277133942,44.229339599609375,,7.390109062194824,0.57
349,MetaDrive-test-small-conv-colab-actor-dropout1d,79,280.31846287069243,350463,1334,4411.306532382965,40.81048583984375,-41.05565643310547,3.148409366607666,0.58
350,MetaDrive-test-small-conv-colab-actor-dropout1d,79,279.68223630406357,351464,1335,4428.419672727585,41.46607971191406,,61.30511474609375,0.57
351,MetaDrive-test-small-conv-colab-actor-dropout1d,79,279.7408442060394,352931,1337,4446.475660324097,41.895816802978516,-42.79317855834961,4.0194091796875,0.59
352,MetaDrive-test-small-conv-colab-actor-dropout1d,79,282.5912856684269,353932,1338,4464.08891248703,39.79730224609375,,14.489492416381836,0.59
353,MetaDrive-test-small-conv-colab-actor-dropout1d,79,283.47538038486704,354933,1339,4475.965231180191,40.74686813354492,-40.652687072753906,4.771338939666748,0.59
354,MetaDrive-test-small-conv-colab-actor-dropout1d,79,281.7380316896426,355108,1340,4478.052663803101,40.22200393676758,,12.04677963256836,0.59
355,MetaDrive-test-small-conv-colab-actor-dropout1d,79,281.1997670578232,356109,1341,4488.870418548584,37.664215087890625,-37.53340148925781,31.595691680908203,0.58
356,MetaDrive-test-small-conv-colab-actor-dropout1d,79,278.0916283826889,357189,1343,4500.3705723285675,42.70137023925781,-42.91118621826172,2.6653542518615723,0.57
357,MetaDrive-test-small-conv-colab-actor-dropout1d,79,275.65684508468354,358681,1345,4516.855729341507,40.8873176574707,-41.573463439941406,4.877384185791016,0.55
358,MetaDrive-test-small-conv-colab-actor-dropout1d,79,276.0540749938693,359781,1347,4528.99685716629,43.795860290527344,-43.94310760498047,11.056907653808594,0.56
359,MetaDrive-test-small-conv-colab-actor-dropout1d,79,276.4629751732964,360668,1348,4538.038860797882,40.17674255371094,,7.167740821838379,0.55
360,MetaDrive-test-small-conv-colab-actor-dropout1d,79,274.84906263047134,361354,1349,4545.400792598724,39.725799560546875,,5.758021354675293,0.55
361,MetaDrive-test-small-conv-colab-actor-dropout1d,79,275.7236292974266,362018,1350,4553.212736129761,37.253170013427734,,7.375148773193359,0.56
362,MetaDrive-test-small-conv-colab-actor-dropout1d,79,274.8741390505294,363784,1352,4578.121206521988,44.5899658203125,,6.254682540893555,0.55
363,MetaDrive-test-small-conv-colab-actor-dropout1d,79,276.36285460750605,364437,1353,4584.922948598862,37.06366729736328,-37.83729934692383,67.12348937988281,0.56
364,MetaDrive-test-small-conv-colab-actor-dropout1d,79,275.50721984177,365344,1354,4593.542408466339,42.540367126464844,,5.066154479980469,0.56
365,MetaDrive-test-small-conv-colab-actor-dropout1d,79,277.7415201794218,366179,1355,4601.391058206558,38.85110855102539,-38.6973876953125,2.3231306076049805,0.57
366,MetaDrive-test-small-conv-colab-actor-dropout1d,79,274.38377855404406,367622,1358,4616.728135585785,42.591461181640625,,8.587857246398926,0.55
367,MetaDrive-test-small-conv-colab-actor-dropout1d,79,273.5775483748374,368143,1360,4622.874445438385,40.69857406616211,-41.50981521606445,5.745497703552246,0.54
368,MetaDrive-test-small-conv-colab-actor-dropout1d,79,276.70245742064566,369516,1362,4640.973155498505,38.847984313964844,,5.003453254699707,0.55
369,MetaDrive-test-small-conv-colab-actor-dropout1d,79,278.20524110967955,370966,1364,4662.017724514008,38.56454849243164,,18.356082916259766,0.55
370,MetaDrive-test-small-conv-colab-actor-dropout1d,79,278.6170960524064,371252,1365,4665.152160167694,39.589149475097656,,5.386845588684082,0.55
371,MetaDrive-test-small-conv-colab-actor-dropout1d,79,280.3225735129097,372398,1367,4678.4959082603455,38.215538024902344,,9.815681457519531,0.56
372,MetaDrive-test-small-conv-colab-actor-dropout1d,79,280.13350079145164,373054,1368,4686.831344366074,41.26031494140625,,9.097773551940918,0.56
373,MetaDrive-test-small-conv-colab-actor-dropout1d,79,284.1725875423306,374759,1370,4708.782467365265,43.70735168457031,-43.442237854003906,15.190218925476074,0.57
374,MetaDrive-test-small-conv-colab-actor-dropout1d,79,282.7988803377737,375760,1371,4720.485374212265,42.825096130371094,,16.46764373779297,0.56
375,MetaDrive-test-small-conv-colab-actor-dropout1d,79,281.9556127541999,376440,1372,4727.33721280098,41.314876556396484,,7.701385498046875,0.56
376,MetaDrive-test-small-conv-colab-actor-dropout1d,79,282.1080691656765,377022,1373,4734.431469202042,38.089942932128906,,4.949303150177002,0.57
377,MetaDrive-test-small-conv-colab-actor-dropout1d,79,285.29239452449303,378538,1375,4753.900801181793,43.80010986328125,,6.060465335845947,0.57
378,MetaDrive-test-small-conv-colab-actor-dropout1d,79,284.23560601406575,379539,1376,4769.1032156944275,38.86689758300781,-38.50431823730469,5.658834457397461,0.56
379,MetaDrive-test-small-conv-colab-actor-dropout1d,79,284.7689391738042,380281,1377,4777.913177251816,39.93077087402344,-40.35892105102539,8.805404663085938,0.56
380,MetaDrive-test-small-conv-colab-actor-dropout1d,79,284.62830411443423,381045,1379,4787.709773778915,44.4892692565918,-44.97747039794922,3.3793022632598877,0.56
381,MetaDrive-test-small-conv-colab-actor-dropout1d,79,288.50666280705883,382631,1381,4805.8674437999725,45.05952835083008,-45.11754608154297,10.401994705200195,0.58
382,MetaDrive-test-small-conv-colab-actor-dropout1d,79,288.49740440596145,383632,1382,4825.814965248108,42.94135284423828,,82.40234375,0.58
383,MetaDrive-test-small-conv-colab-actor-dropout1d,79,290.63518696893186,384553,1383,4835.843461275101,39.03879165649414,-39.29783630371094,3.7484915256500244,0.59
384,MetaDrive-test-small-conv-colab-actor-dropout1d,79,292.25784315799245,385023,1384,4840.076012849808,36.112083435058594,-35.74153518676758,4.362260818481445,0.6
385,MetaDrive-test-small-conv-colab-actor-dropout1d,79,291.22547672278705,386421,1386,4858.28969669342,38.98142623901367,-38.99570083618164,9.724953651428223,0.6
386,MetaDrive-test-small-conv-colab-actor-dropout1d,79,289.10753978283753,387285,1388,4869.390635967255,37.31285858154297,-36.39855194091797,5.991263389587402,0.6
387,MetaDrive-test-small-conv-colab-actor-dropout1d,79,285.0488897762387,388179,1390,4880.146985769272,43.11265563964844,-44.08265686035156,8.12490177154541,0.59
388,MetaDrive-test-small-conv-colab-actor-dropout1d,79,286.50460732259836,389180,1391,4896.002829551697,39.12547302246094,,7.396790504455566,0.58
389,MetaDrive-test-small-conv-colab-actor-dropout1d,79,285.10984914747553,390103,1393,4905.7695524692535,42.54171371459961,-42.70753479003906,8.667232513427734,0.57
390,MetaDrive-test-small-conv-colab-actor-dropout1d,79,286.8745602757246,391104,1394,4925.961357116699,41.05282974243164,,8.684248924255371,0.56
391,MetaDrive-test-small-conv-colab-actor-dropout1d,79,287.8591840413282,392089,1396,4936.50382733345,42.621788024902344,-42.50093460083008,5.547304153442383,0.57
392,MetaDrive-test-small-conv-colab-actor-dropout1d,79,287.0511927969621,393366,1398,4952.499279022217,37.96119689941406,,5.159124851226807,0.57
393,MetaDrive-test-small-conv-colab-actor-dropout1d,79,284.53688270538373,394398,1401,4966.69458937645,43.483394622802734,,4.92756986618042,0.56
394,MetaDrive-test-small-conv-colab-actor-dropout1d,79,285.02100291428644,395212,1402,4982.07839512825,38.38520050048828,,24.84262466430664,0.56
395,MetaDrive-test-small-conv-colab-actor-dropout1d,79,283.83860083031476,396496,1404,4995.384705543518,38.501487731933594,,9.149129867553711,0.56
396,MetaDrive-test-small-conv-colab-actor-dropout1d,79,281.7363405236529,397497,1405,5008.351348400116,37.36418151855469,-37.92247009277344,7.5862321853637695,0.55
397,MetaDrive-test-small-conv-colab-actor-dropout1d,79,278.18706272068647,398352,1407,5020.0548396110535,38.24806594848633,,12.503950119018555,0.53
398,MetaDrive-test-small-conv-colab-actor-dropout1d,79,279.48761310328433,399647,1410,5036.487262964249,41.17011260986328,-41.449363708496094,3.636610984802246,0.53
399,MetaDrive-test-small-conv-colab-actor-dropout1d,79,280.1328730327383,400254,1411,5042.686965703964,41.00824737548828,,5.8533935546875,0.53
400,MetaDrive-test-small-conv-colab-actor-dropout1d,79,279.1509768408399,401834,1413,5063.362148523331,40.69964599609375,,12.970623970031738,0.53
401,MetaDrive-test-small-conv-colab-actor-dropout1d,79,284.19025449668385,402706,1414,5077.571192979813,36.57400894165039,,16.377830505371094,0.54
402,MetaDrive-test-small-conv-colab-actor-dropout1d,79,282.60141471088554,403230,1415,5082.833774805069,42.85408020019531,,6.178906440734863,0.53
403,MetaDrive-test-small-conv-colab-actor-dropout1d,79,284.24451118075694,404162,1417,5093.6039271354675,42.875892639160156,,3.3575901985168457,0.54
404,MetaDrive-test-small-conv-colab-actor-dropout1d,79,286.5435427066196,405961,1419,5115.526366472244,41.165767669677734,-41.5651969909668,5.561591625213623,0.55
405,MetaDrive-test-small-conv-colab-actor-dropout1d,79,285.90409380235474,406394,1420,5119.582931995392,42.783973693847656,,4.992331504821777,0.55
406,MetaDrive-test-small-conv-colab-actor-dropout1d,79,288.1273752644784,407156,1421,5127.747448682785,40.44117736816406,,8.189980506896973,0.56
407,MetaDrive-test-small-conv-colab-actor-dropout1d,79,289.17145626757997,408494,1423,5142.449745416641,41.175048828125,,14.718376159667969,0.56
408,MetaDrive-test-small-conv-colab-actor-dropout1d,79,290.2240932883303,409373,1424,5156.0585997104645,37.63422393798828,-37.82402038574219,3.7175331115722656,0.56
409,MetaDrive-test-small-conv-colab-actor-dropout1d,79,289.89518373319765,410852,1426,5181.273645401001,40.85441970825195,,6.0403289794921875,0.54
410,MetaDrive-test-small-conv-colab-actor-dropout1d,79,289.9188570936529,411536,1427,5188.952681541443,40.7546272277832,,2.6491048336029053,0.54
411,MetaDrive-test-small-conv-colab-actor-dropout1d,79,286.5300052180352,412280,1429,5197.931385278702,40.72184753417969,,4.762155532836914,0.54
412,MetaDrive-test-small-conv-colab-actor-dropout1d,79,286.52473314833566,413023,1430,5207.8635103702545,36.981483459472656,-38.7551383972168,18.252994537353516,0.54
413,MetaDrive-test-small-conv-colab-actor-dropout1d,79,286.27572677932307,414071,1432,5219.872255563736,39.810508728027344,-40.16337203979492,5.1865620613098145,0.54
414,MetaDrive-test-small-conv-colab-actor-dropout1d,79,285.7928704883739,415609,1434,5238.857597112656,44.39304733276367,-44.02558135986328,4.105918884277344,0.53
415,MetaDrive-test-small-conv-colab-actor-dropout1d,79,286.1623226797353,416034,1435,5243.143749237061,36.52775192260742,,18.071928024291992,0.54
416,MetaDrive-test-small-conv-colab-actor-dropout1d,79,281.1151933988229,417138,1438,5255.2787029743195,40.93132781982422,,18.379451751708984,0.53
417,MetaDrive-test-small-conv-colab-actor-dropout1d,79,278.70313887662365,418164,1442,5267.735596179962,45.515472412109375,,4.772554397583008,0.53
418,MetaDrive-test-small-conv-colab-actor-dropout1d,79,279.8658224336068,419075,1444,5278.385905265808,40.79488754272461,-40.1072883605957,5.62410831451416,0.54
419,MetaDrive-test-small-conv-colab-actor-dropout1d,79,282.3485741399132,420089,1446,5288.167358875275,39.11516571044922,-39.61162185668945,8.557561874389648,0.56
420,MetaDrive-test-small-conv-colab-actor-dropout1d,79,282.9939373833946,421405,1448,5303.046031713486,42.665809631347656,-42.74732971191406,5.449344635009766,0.56
421,MetaDrive-test-small-conv-colab-actor-dropout1d,79,283.3987906232344,422478,1450,5315.869900465012,46.8609733581543,,3.3289170265197754,0.56
422,MetaDrive-test-small-conv-colab-actor-dropout1d,79,280.0204478738822,423244,1452,5326.71349978447,41.85894012451172,,6.851632118225098,0.55
423,MetaDrive-test-small-conv-colab-actor-dropout1d,79,278.9641831173056,424391,1454,5337.676691055298,37.561805725097656,-38.073360443115234,3.231555700302124,0.54
424,MetaDrive-test-small-conv-colab-actor-dropout1d,79,279.55331100719985,425265,1456,5347.848076343536,42.654762268066406,-43.00102233886719,5.080843925476074,0.54
425,MetaDrive-test-small-conv-colab-actor-dropout1d,79,282.98523363628607,426478,1459,5362.757233142853,42.802490234375,,10.417855262756348,0.54
426,MetaDrive-test-small-conv-colab-actor-dropout1d,79,281.2948467202525,427039,1461,5369.539926290512,41.93753433227539,-42.90986633300781,4.996389389038086,0.54
427,MetaDrive-test-small-conv-colab-actor-dropout1d,79,283.6348267682949,428507,1463,5387.312838554382,39.49816131591797,-39.28839111328125,7.738760471343994,0.54
428,MetaDrive-test-small-conv-colab-actor-dropout1d,79,282.5304292793126,429385,1465,5397.894032239914,39.840606689453125,-40.238189697265625,11.857550621032715,0.54
429,MetaDrive-test-small-conv-colab-actor-dropout1d,79,280.46490274404374,430265,1467,5409.2362015247345,40.64697265625,-41.04100036621094,87.58465576171875,0.52
430,MetaDrive-test-small-conv-colab-actor-dropout1d,79,278.42964942349977,431401,1469,5423.255683422089,39.728492736816406,-40.67925262451172,5.579792022705078,0.52
431,MetaDrive-test-small-conv-colab-actor-dropout1d,79,279.8384215506561,432682,1471,5438.8678460121155,41.71814727783203,,15.694768905639648,0.51
432,MetaDrive-test-small-conv-colab-actor-dropout1d,79,280.48428655258436,433351,1472,5446.321979761124,44.11979675292969,-44.308448791503906,16.64641571044922,0.51
433,MetaDrive-test-small-conv-colab-actor-dropout1d,79,279.2274169744787,434352,1473,5460.038692235947,40.738285064697266,,7.516388893127441,0.5
434,MetaDrive-test-small-conv-colab-actor-dropout1d,79,281.1846718293233,435290,1474,5471.637624502182,43.821136474609375,,12.044422149658203,0.5
435,MetaDrive-test-small-conv-colab-actor-dropout1d,79,279.00032582851577,436291,1475,5486.972952365875,42.79616165161133,-43.3988151550293,5.458471298217773,0.5
436,MetaDrive-test-small-conv-colab-actor-dropout1d,79,281.7801345490602,437135,1476,5499.709589004517,43.688236236572266,-43.73500061035156,52.810791015625,0.51
437,MetaDrive-test-small-conv-colab-actor-dropout1d,79,281.9541865058731,438535,1479,5516.264054775238,41.175880432128906,-41.72986602783203,47.60321807861328,0.51
438,MetaDrive-test-small-conv-colab-actor-dropout1d,79,278.34780669018494,439209,1481,5524.062169790268,41.12445831298828,-40.3431396484375,3.8123931884765625,0.49
439,MetaDrive-test-small-conv-colab-actor-dropout1d,79,278.29154713640446,440457,1483,5539.902829408646,44.070648193359375,-44.33393096923828,19.2509822845459,0.5
440,MetaDrive-test-small-conv-colab-actor-dropout1d,79,278.0243221919264,441063,1484,5548.044205665588,40.23487091064453,-41.10474395751953,42.585472106933594,0.49
441,MetaDrive-test-small-conv-colab-actor-dropout1d,79,277.2767028307896,442064,1485,5561.869600772858,43.17899703979492,,90.48382568359375,0.48
442,MetaDrive-test-small-conv-colab-actor-dropout1d,79,275.9762018071987,443292,1487,5579.117418289185,39.219093322753906,,9.047122955322266,0.47
443,MetaDrive-test-small-conv-colab-actor-dropout1d,79,274.87919310270246,444153,1489,5588.971274137497,43.25753402709961,-44.56175994873047,6.389270305633545,0.46
444,MetaDrive-test-small-conv-colab-actor-dropout1d,79,275.06675906345123,445120,1491,5601.570617437363,44.295650482177734,,4.425688743591309,0.47
445,MetaDrive-test-small-conv-colab-actor-dropout1d,79,276.66834674750754,446014,1493,5611.676078081131,38.901580810546875,,8.833677291870117,0.48
446,MetaDrive-test-small-conv-colab-actor-dropout1d,79,275.8949021942148,447015,1494,5626.677685022354,41.72088623046875,-41.97560119628906,8.149759292602539,0.48
447,MetaDrive-test-small-conv-colab-actor-dropout1d,79,274.3686120983233,448593,1497,5648.68446969986,38.551971435546875,-39.08228302001953,16.65350341796875,0.47
448,MetaDrive-test-small-conv-colab-actor-dropout1d,79,275.33883915476713,449438,1499,5659.899010896683,41.68743133544922,,5.785887241363525,0.46
449,MetaDrive-test-small-conv-colab-actor-dropout1d,79,276.9577449749593,450450,1501,5672.33682847023,42.055015563964844,,8.637618064880371,0.46
450,MetaDrive-test-small-conv-colab-actor-dropout1d,79,273.1946523933242,451389,1504,5682.533024311066,41.825984954833984,-41.883338928222656,4.26241397857666,0.45
451,MetaDrive-test-small-conv-colab-actor-dropout1d,79,272.41332984181855,452593,1507,5695.961015224457,41.264442443847656,-42.35018539428711,13.995805740356445,0.46
452,MetaDrive-test-small-conv-colab-actor-dropout1d,79,274.4945946948169,453153,1508,5704.013920307159,42.79643249511719,-42.609718322753906,10.178985595703125,0.46
453,MetaDrive-test-small-conv-colab-actor-dropout1d,79,271.72578478670954,454041,1510,5715.624258518219,39.46895217895508,-39.50236892700195,7.139005661010742,0.45
454,MetaDrive-test-small-conv-colab-actor-dropout1d,79,270.9023545388786,455560,1513,5734.092773199081,45.15301513671875,,6.9334235191345215,0.45
455,MetaDrive-test-small-conv-colab-actor-dropout1d,79,270.2184487408211,456926,1515,5749.161947488785,40.23634338378906,,9.13032341003418,0.46
456,MetaDrive-test-small-conv-colab-actor-dropout1d,79,269.4728999803693,457077,1516,5750.859876155853,40.826412200927734,-41.296932220458984,7.285126686096191,0.46
457,MetaDrive-test-small-conv-colab-actor-dropout1d,79,267.80194432190655,458099,1518,5762.473570585251,40.78657150268555,-40.924434661865234,14.793359756469727,0.45
458,MetaDrive-test-small-conv-colab-actor-dropout1d,79,270.40877392788707,459182,1520,5773.582311868668,41.22855758666992,,3.9588701725006104,0.46
459,MetaDrive-test-small-conv-colab-actor-dropout1d,79,268.6868478161666,460074,1522,5783.133415937424,44.926963806152344,,6.749500751495361,0.44
460,MetaDrive-test-small-conv-colab-actor-dropout1d,79,268.4389602668278,461490,1524,5802.036974668503,40.32025909423828,,6.220053672790527,0.44
461,MetaDrive-test-small-conv-colab-actor-dropout1d,79,269.55495007400907,462093,1525,5808.704960107803,39.633941650390625,-39.75291061401367,6.640192031860352,0.45
462,MetaDrive-test-small-conv-colab-actor-dropout1d,79,267.5227269803235,463247,1527,5822.171712398529,43.99029541015625,-43.92961120605469,11.418241500854492,0.46
463,MetaDrive-test-small-conv-colab-actor-dropout1d,79,271.5636637726904,464201,1528,5836.301739931107,44.50715637207031,-45.002662658691406,14.368934631347656,0.47
464,MetaDrive-test-small-conv-colab-actor-dropout1d,79,270.7819068506395,465778,1530,5854.322938203812,41.01548767089844,,7.641655921936035,0.46
465,MetaDrive-test-small-conv-colab-actor-dropout1d,79,268.91512720749796,466883,1532,5871.0789675712585,41.70882034301758,-42.003719329833984,3.785386562347412,0.44
466,MetaDrive-test-small-conv-colab-actor-dropout1d,79,268.9545291181761,467332,1533,5875.32400226593,40.91755676269531,,10.799955368041992,0.44
467,MetaDrive-test-small-conv-colab-actor-dropout1d,79,268.1156449948587,468122,1535,5885.451334953308,41.92658233642578,,4.689945220947266,0.43
468,MetaDrive-test-small-conv-colab-actor-dropout1d,79,269.5103590193778,469123,1536,5900.42515039444,41.731483459472656,-42.135093688964844,4.691854953765869,0.43
469,MetaDrive-test-small-conv-colab-actor-dropout1d,79,274.3412970897193,470682,1538,5925.528988599777,43.167091369628906,,14.90119743347168,0.44
470,MetaDrive-test-small-conv-colab-actor-dropout1d,79,276.4990057864496,471683,1539,5940.9007177352905,38.022300720214844,-38.65132141113281,7.967255592346191,0.44
471,MetaDrive-test-small-conv-colab-actor-dropout1d,79,277.81539189891157,472684,1540,5954.272620916367,39.8564453125,,4.248425006866455,0.44
472,MetaDrive-test-small-conv-colab-actor-dropout1d,79,278.6343077127873,473235,1541,5960.660259723663,40.92822265625,-41.5653190612793,7.883055686950684,0.45
473,MetaDrive-test-small-conv-colab-actor-dropout1d,79,277.3394241220657,474013,1543,5969.381822109222,45.137428283691406,-44.71294403076172,8.494617462158203,0.44
474,MetaDrive-test-small-conv-colab-actor-dropout1d,79,278.68250780565285,475366,1545,5984.930850982666,42.62865447998047,,7.11932897567749,0.44
475,MetaDrive-test-small-conv-colab-actor-dropout1d,79,276.19243523666813,476469,1548,5999.612832546234,44.750160217285156,-44.197757720947266,9.151348114013672,0.43
476,MetaDrive-test-small-conv-colab-actor-dropout1d,79,277.18568702029626,477984,1550,6024.006607532501,40.235389709472656,,12.198890686035156,0.42
477,MetaDrive-test-small-conv-colab-actor-dropout1d,79,278.1377363368151,478513,1551,6031.513463020325,42.05502700805664,-42.54815673828125,3.7262237071990967,0.42
478,MetaDrive-test-small-conv-colab-actor-dropout1d,79,278.60627392183005,479514,1552,6047.404558420181,40.58796691894531,,4.935919761657715,0.42
479,MetaDrive-test-small-conv-colab-actor-dropout1d,79,278.64510350538103,480646,1554,6061.618142366409,42.746986389160156,,14.14578628540039,0.42
480,MetaDrive-test-small-conv-colab-actor-dropout1d,79,278.50278294059535,481385,1555,6072.314960241318,45.98562240600586,-46.37384033203125,7.679978370666504,0.41
481,MetaDrive-test-small-conv-colab-actor-dropout1d,79,280.5026128200107,482002,1556,6078.72437953949,37.21903991699219,,5.933741569519043,0.42
482,MetaDrive-test-small-conv-colab-actor-dropout1d,79,283.74854041144556,483003,1557,6096.0067303180695,43.38606262207031,-43.69853210449219,7.308106899261475,0.42
483,MetaDrive-test-small-conv-colab-actor-dropout1d,79,283.86121445626463,484305,1559,6112.856473207474,42.52666473388672,-42.83686447143555,3.954624891281128,0.44
484,MetaDrive-test-small-conv-colab-actor-dropout1d,79,285.9305635720227,485145,1561,6122.137517929077,40.96538162231445,-40.72981262207031,22.201488494873047,0.44
485,MetaDrive-test-small-conv-colab-actor-dropout1d,79,283.5905302238484,486519,1563,6142.543137550354,44.245086669921875,-44.234458923339844,6.833250045776367,0.44
486,MetaDrive-test-small-conv-colab-actor-dropout1d,79,285.55623182442395,487181,1564,6151.080668926239,46.94518280029297,-47.642616271972656,6.251003742218018,0.45
487,MetaDrive-test-small-conv-colab-actor-dropout1d,79,282.1549043356957,488023,1567,6161.112915992737,38.19819641113281,-38.530494689941406,6.3663787841796875,0.44
488,MetaDrive-test-small-conv-colab-actor-dropout1d,79,277.7969488895021,489055,1570,6176.866555690765,41.23018264770508,-41.456993103027344,3.3283400535583496,0.42
489,MetaDrive-test-small-conv-colab-actor-dropout1d,79,275.76286440157725,490323,1573,6191.729925870895,45.8769645690918,-46.45494842529297,6.263790130615234,0.43
490,MetaDrive-test-small-conv-colab-actor-dropout1d,79,275.15331270728586,491586,1575,6208.2530081272125,40.84190368652344,,10.546548843383789,0.44
491,MetaDrive-test-small-conv-colab-actor-dropout1d,79,274.70307498264344,492319,1576,6217.110208034515,39.52142333984375,-39.31426239013672,9.496110916137695,0.43
492,MetaDrive-test-small-conv-colab-actor-dropout1d,79,277.4504916784621,493649,1578,6234.079788684845,42.311832427978516,-42.9156608581543,4.9310526847839355,0.42
493,MetaDrive-test-small-conv-colab-actor-dropout1d,79,276.1229068410334,494107,1579,6238.572568893433,44.78443145751953,-44.95772171020508,4.877035617828369,0.42
494,MetaDrive-test-small-conv-colab-actor-dropout1d,79,272.3096788522158,495318,1582,6254.157730102539,47.113990783691406,,4.277144432067871,0.41
495,MetaDrive-test-small-conv-colab-actor-dropout1d,79,271.66590714803647,496922,1585,6277.265651226044,40.80006408691406,,5.002396583557129,0.41
496,MetaDrive-test-small-conv-colab-actor-dropout1d,79,270.7035026832153,497353,1586,6281.309251070023,42.652442932128906,-43.52226638793945,69.09428405761719,0.41
497,MetaDrive-test-small-conv-colab-actor-dropout1d,79,273.4355630278087,498323,1587,6295.610854387283,38.638954162597656,-38.15560531616211,4.900834083557129,0.42
498,MetaDrive-test-small-conv-colab-actor-dropout1d,79,273.50624934117684,499106,1589,6305.783210515976,41.765281677246094,,14.03287124633789,0.43
