TanmayH/CS269-RL-project-code/MetaDrive-Gen-DrivingReward-v0/td3/progress.csv
,log_dir,frame_per_second,episode_reward,total_steps,total_episodes,total_time,target_q,actor_loss,critic_loss,success_rate
0,MetaDrive-Gen-DrivingReward-v0,344,56.11116062018174,2001,2,5.811218023300171,,,,0.0
1,MetaDrive-Gen-DrivingReward-v0,372,46.792349978203184,3581,4,9.617210149765015,,,,0.0
2,MetaDrive-Gen-DrivingReward-v0,379,46.48841609322109,4582,5,12.070967197418213,,,,0.0
3,MetaDrive-Gen-DrivingReward-v0,401,48.345818512020195,5583,6,13.902367115020752,,,,0.0
4,MetaDrive-Gen-DrivingReward-v0,404,46.21017334389074,6266,7,15.47349214553833,,,,0.0
5,MetaDrive-Gen-DrivingReward-v0,390,45.71805987010202,7931,9,20.3179452419281,,,,0.0
6,MetaDrive-Gen-DrivingReward-v0,387,42.391411101504424,8298,10,21.43657398223877,,,,0.0
7,MetaDrive-Gen-DrivingReward-v0,398,43.20728054736242,9299,11,23.34350323677063,,,,0.0
8,MetaDrive-Gen-DrivingReward-v0,352,48.50417738401375,10065,12,28.576276063919067,0.08082317560911179,-0.10122025012969971,0.07240233570337296,0.0
9,MetaDrive-Gen-DrivingReward-v0,138,15.62904466357837,11013,50,79.45116329193115,0.39936307072639465,-0.5031865239143372,0.39566463232040405,0.0
10,MetaDrive-Gen-DrivingReward-v0,90,10.52447618842387,12033,89,132.73236107826233,0.7391947507858276,-0.8080838918685913,0.4283447265625,0.0
11,MetaDrive-Gen-DrivingReward-v0,70,3.8401416146738803,13010,127,183.66459798812866,0.9849251508712769,,0.6494582891464233,0.0
12,MetaDrive-Gen-DrivingReward-v0,56,4.0542990212945655,14002,164,246.95702815055847,1.292037010192871,,0.5986886024475098,0.0
13,MetaDrive-Gen-DrivingReward-v0,49,6.349204123223444,15026,201,301.5067489147186,1.821047067642212,,0.13133221864700317,0.0
14,MetaDrive-Gen-DrivingReward-v0,45,27.835535221951307,16065,223,354.5395929813385,2.6333253383636475,-3.011573314666748,1.564441204071045,0.0
15,MetaDrive-Gen-DrivingReward-v0,42,36.900455109773695,17059,251,403.65026116371155,3.5714051723480225,-4.256168365478516,4.32863712310791,0.0
16,MetaDrive-Gen-DrivingReward-v0,39,42.903143980097745,18052,281,452.56851720809937,4.699092864990234,,3.035820245742798,0.0
17,MetaDrive-Gen-DrivingReward-v0,38,62.839142812069504,19031,292,495.4843780994415,7.055345058441162,-7.343236446380615,5.774118423461914,0.0
18,MetaDrive-Gen-DrivingReward-v0,37,91.27733383602191,20008,298,537.3203840255737,9.559993743896484,,2.47906494140625,0.01
19,MetaDrive-Gen-DrivingReward-v0,35,129.61908230008285,21298,304,592.2758150100708,13.540372848510742,,11.898896217346191,0.03
20,MetaDrive-Gen-DrivingReward-v0,35,161.67613692949143,22330,307,637.642412185669,15.956586837768555,,25.502506256103516,0.04
21,MetaDrive-Gen-DrivingReward-v0,34,184.19191757924256,23171,311,674.1566898822784,21.77904510498047,-22.5568904876709,15.962618827819824,0.04
22,MetaDrive-Gen-DrivingReward-v0,33,200.6915930134355,24174,317,718.104593038559,24.94952964782715,,6.079623699188232,0.04
23,MetaDrive-Gen-DrivingReward-v0,32,226.77355143964942,25043,320,759.5443551540375,26.772666931152344,-27.739818572998047,32.05295181274414,0.04
24,MetaDrive-Gen-DrivingReward-v0,32,255.13947061443653,26157,326,809.4739420413971,31.120014190673828,-32.4948844909668,28.49717903137207,0.04
25,MetaDrive-Gen-DrivingReward-v0,31,289.3154121643497,27152,328,855.2189121246338,38.67189407348633,,10.866578102111816,0.06
26,MetaDrive-Gen-DrivingReward-v0,31,327.1326070796182,28149,331,901.433657169342,38.643333435058594,-40.94106674194336,124.95986938476562,0.06
27,MetaDrive-Gen-DrivingReward-v0,30,354.02015985184744,29046,335,941.6733620166779,43.6900520324707,,27.71890640258789,0.07
28,MetaDrive-Gen-DrivingReward-v0,30,394.16838076519093,30238,340,995.690826177597,50.78339385986328,,20.901935577392578,0.08
29,MetaDrive-Gen-DrivingReward-v0,30,421.1557835564183,31011,343,1028.1836321353912,53.42203903198242,-54.549251556396484,74.4908447265625,0.09
30,MetaDrive-Gen-DrivingReward-v0,29,455.0825435981766,32039,347,1069.82683801651,57.13713836669922,-58.72030258178711,53.73966979980469,0.1
31,MetaDrive-Gen-DrivingReward-v0,29,499.88856812753363,33234,351,1120.0071082115173,63.98796081542969,,43.38227081298828,0.11
32,MetaDrive-Gen-DrivingReward-v0,29,528.282365092688,34004,354,1152.703928232193,68.55133056640625,,111.89860534667969,0.12
33,MetaDrive-Gen-DrivingReward-v0,29,569.0805639483223,35134,359,1204.4560849666595,73.49585723876953,,95.86940002441406,0.13
34,MetaDrive-Gen-DrivingReward-v0,28,609.340025075289,36098,362,1247.6673140525818,79.65019989013672,,61.48625946044922,0.14
35,MetaDrive-Gen-DrivingReward-v0,28,650.8924626516635,37197,367,1297.900230884552,85.01360321044922,-85.98835754394531,169.95867919921875,0.14
36,MetaDrive-Gen-DrivingReward-v0,28,686.8675642255547,38054,371,1336.533830165863,86.48128509521484,,61.41938018798828,0.14
37,MetaDrive-Gen-DrivingReward-v0,28,728.8272076820832,39073,375,1383.643809080124,93.6075210571289,-95.1064224243164,19.725914001464844,0.15
38,MetaDrive-Gen-DrivingReward-v0,28,768.9119286007391,40037,380,1424.8837802410126,96.68539428710938,-97.57197570800781,66.14372253417969,0.15
39,MetaDrive-Gen-DrivingReward-v0,27,803.0820660975759,41049,386,1469.0775711536407,101.62190246582031,-104.37059020996094,166.6522216796875,0.15
40,MetaDrive-Gen-DrivingReward-v0,27,834.9792803855022,42080,391,1516.7646269798279,108.39301300048828,,210.27301025390625,0.15
41,MetaDrive-Gen-DrivingReward-v0,27,845.6903896406287,43104,397,1563.9919612407684,112.5322036743164,,111.90802001953125,0.14
42,MetaDrive-Gen-DrivingReward-v0,27,858.2859421386045,44069,402,1608.5750489234924,116.41121673583984,-118.31854248046875,148.95501708984375,0.14
43,MetaDrive-Gen-DrivingReward-v0,27,846.6426938974067,45113,408,1655.3527250289917,121.47904968261719,-122.3747329711914,82.85100555419922,0.12
44,MetaDrive-Gen-DrivingReward-v0,27,858.6103266339045,46152,414,1703.433499097824,122.80734252929688,,327.3463134765625,0.12
45,MetaDrive-Gen-DrivingReward-v0,26,876.0323313268965,47240,418,1754.86576628685,133.6249542236328,,72.8357162475586,0.14
46,MetaDrive-Gen-DrivingReward-v0,26,876.7561662327954,48190,422,1799.7208020687103,135.22874450683594,,187.90182495117188,0.15
47,MetaDrive-Gen-DrivingReward-v0,26,893.5519156085419,49018,425,1839.7895832061768,132.92181396484375,,254.75660705566406,0.16
48,MetaDrive-Gen-DrivingReward-v0,26,887.0531625662491,50120,429,1893.0972402095795,140.59515380859375,,385.88433837890625,0.15
49,MetaDrive-Gen-DrivingReward-v0,26,885.5681957381887,51394,433,1952.769044160843,140.71649169921875,,148.47354125976562,0.15
50,MetaDrive-Gen-DrivingReward-v0,26,887.3610663110755,52005,438,1980.6089360713959,146.3103790283203,-146.34927368164062,134.21356201171875,0.15
51,MetaDrive-Gen-DrivingReward-v0,26,871.4496238289779,53118,445,2033.3525030612946,147.65867614746094,,125.51927947998047,0.12
52,MetaDrive-Gen-DrivingReward-v0,26,847.2393211339466,54131,452,2081.028042078018,155.157958984375,-156.56756591796875,49.11982727050781,0.11
53,MetaDrive-Gen-DrivingReward-v0,25,806.1599541837719,55126,461,2125.3976941108704,156.072998046875,,121.03581237792969,0.09
54,MetaDrive-Gen-DrivingReward-v0,25,776.5057016627105,56059,468,2166.7250831127167,162.96258544921875,-163.4146270751953,189.807373046875,0.09
55,MetaDrive-Gen-DrivingReward-v0,25,742.1735072752261,57063,476,2212.0552990436554,162.60430908203125,-164.55406188964844,276.15130615234375,0.08
56,MetaDrive-Gen-DrivingReward-v0,25,736.0231811510203,58045,484,2256.3329701423645,161.85931396484375,-162.93809509277344,196.61083984375,0.08
57,MetaDrive-Gen-DrivingReward-v0,25,720.0611314612705,59196,492,2308.117688179016,171.18179321289062,,410.6175537109375,0.09
58,MetaDrive-Gen-DrivingReward-v0,25,714.244319034832,60007,499,2346.466381072998,176.41842651367188,-179.7787628173828,479.3890380859375,0.09
59,MetaDrive-Gen-DrivingReward-v0,25,702.2888422203246,61082,506,2396.2597031593323,178.24563598632812,,275.33099365234375,0.09
60,MetaDrive-Gen-DrivingReward-v0,25,684.8583381952141,62197,515,2448.628263950348,177.4845733642578,-178.3052978515625,213.8514404296875,0.08
61,MetaDrive-Gen-DrivingReward-v0,25,667.8347898764373,63185,522,2496.4639980793,184.4958038330078,-186.35357666015625,319.0304260253906,0.06
62,MetaDrive-Gen-DrivingReward-v0,25,660.8373449489262,64267,527,2546.9514651298523,187.63063049316406,-189.7415008544922,677.6232299804688,0.05
63,MetaDrive-Gen-DrivingReward-v0,25,669.9465536451868,65092,530,2584.403666973114,181.00216674804688,,316.9891357421875,0.06
64,MetaDrive-Gen-DrivingReward-v0,25,666.3677884565705,66060,533,2627.786250114441,191.11676025390625,,176.52731323242188,0.07
65,MetaDrive-Gen-DrivingReward-v0,25,706.1602129345152,67312,536,2686.354212284088,198.92198181152344,,200.36892700195312,0.09
66,MetaDrive-Gen-DrivingReward-v0,25,723.1674917279047,68034,537,2721.1494312286377,195.0197296142578,,188.6751251220703,0.09
67,MetaDrive-Gen-DrivingReward-v0,24,757.2732061130619,69471,542,2788.485136270523,198.98988342285156,-200.9487762451172,249.3697509765625,0.12
68,MetaDrive-Gen-DrivingReward-v0,24,755.3566688309163,70261,546,2824.6983439922333,196.33480834960938,-199.7689666748047,388.94940185546875,0.13
69,MetaDrive-Gen-DrivingReward-v0,24,758.9151047850738,71109,550,2866.3350899219513,193.83851623535156,-195.37918090820312,432.60809326171875,0.13
70,MetaDrive-Gen-DrivingReward-v0,24,769.418355765713,72023,556,2910.290781021118,200.5946502685547,-204.06204223632812,648.1705322265625,0.14
71,MetaDrive-Gen-DrivingReward-v0,24,791.7198887589162,73232,561,2967.931025981903,204.62774658203125,,138.63330078125,0.15
72,MetaDrive-Gen-DrivingReward-v0,24,789.130650585707,74369,569,3027.204348087311,207.90469360351562,-211.0934295654297,687.1556396484375,0.15
73,MetaDrive-Gen-DrivingReward-v0,24,791.9761106426851,75077,573,3060.9355041980743,207.36195373535156,-209.47442626953125,100.70259094238281,0.16
74,MetaDrive-Gen-DrivingReward-v0,24,804.7509231662912,76043,579,3107.3946380615234,207.29934692382812,-211.2817840576172,570.7406616210938,0.17
75,MetaDrive-Gen-DrivingReward-v0,24,807.2563389293948,77134,586,3157.1925151348114,208.79409790039062,,298.73516845703125,0.18
76,MetaDrive-Gen-DrivingReward-v0,24,830.4555939952687,78224,589,3205.7473080158234,210.3740997314453,,272.6129455566406,0.2
77,MetaDrive-Gen-DrivingReward-v0,24,844.6222396434589,79073,592,3244.8938071727753,218.90701293945312,-222.91427612304688,410.41717529296875,0.2
78,MetaDrive-Gen-DrivingReward-v0,24,864.1072888945558,80088,597,3291.0398321151733,212.88079833984375,,123.9162368774414,0.21
79,MetaDrive-Gen-DrivingReward-v0,24,876.6642638972382,81100,602,3337.642795085907,214.2758331298828,,493.3939208984375,0.21
80,MetaDrive-Gen-DrivingReward-v0,24,890.0811394141274,82072,606,3385.903247117996,224.6771697998047,,263.2147216796875,0.23
81,MetaDrive-Gen-DrivingReward-v0,24,921.274375799245,83070,609,3434.8980202674866,223.1579132080078,,897.0050659179688,0.24
82,MetaDrive-Gen-DrivingReward-v0,24,953.737979459248,84418,614,3500.82053399086,219.73922729492188,,157.0107421875,0.26
83,MetaDrive-Gen-DrivingReward-v0,24,971.8101939087965,85396,616,3547.4362099170685,229.55873107910156,,524.7169189453125,0.27
84,MetaDrive-Gen-DrivingReward-v0,24,985.5614002961561,86365,619,3593.206624031067,222.17544555664062,-224.6113739013672,317.1768493652344,0.29
85,MetaDrive-Gen-DrivingReward-v0,23,994.9900436710524,87344,623,3644.6922760009766,231.34182739257812,,135.13681030273438,0.3
86,MetaDrive-Gen-DrivingReward-v0,23,1021.0894817997718,88395,625,3700.0862312316895,228.33009338378906,-233.33615112304688,225.69839477539062,0.32
87,MetaDrive-Gen-DrivingReward-v0,23,995.8602823409649,89087,629,3733.44447517395,236.46705627441406,-237.27435302734375,432.271484375,0.31
88,MetaDrive-Gen-DrivingReward-v0,23,999.5359944620598,90011,632,3776.9873220920563,231.78924560546875,-234.17288208007812,447.0700378417969,0.32
89,MetaDrive-Gen-DrivingReward-v0,23,982.2466471415745,91457,636,3847.7536721229553,229.97314453125,-233.17584228515625,238.86209106445312,0.31
90,MetaDrive-Gen-DrivingReward-v0,23,970.2273278291785,92182,638,3883.4835181236267,234.8126983642578,,163.42820739746094,0.31
91,MetaDrive-Gen-DrivingReward-v0,23,957.3959165537442,93046,642,3925.107800245285,242.94552612304688,,366.33984375,0.3
92,MetaDrive-Gen-DrivingReward-v0,23,997.6737203787703,94436,645,3992.9923620224,243.59393310546875,,137.52835083007812,0.33
93,MetaDrive-Gen-DrivingReward-v0,23,988.0287966295822,95333,648,4035.8501830101013,235.7825927734375,-241.08572387695312,334.5327453613281,0.33
94,MetaDrive-Gen-DrivingReward-v0,23,986.9413355179769,96024,652,4068.950082063675,236.7616729736328,,998.623291015625,0.34
95,MetaDrive-Gen-DrivingReward-v0,23,1016.8352554112475,97270,654,4132.492287158966,240.6639404296875,,280.78656005859375,0.35
96,MetaDrive-Gen-DrivingReward-v0,23,1032.8302002254352,98090,656,4172.353414297104,233.49099731445312,,219.8408203125,0.37
97,MetaDrive-Gen-DrivingReward-v0,23,1039.3542150825242,99080,660,4221.022444009781,243.3880615234375,,128.0634002685547,0.37
98,MetaDrive-Gen-DrivingReward-v0,23,1062.7810630262281,100320,665,4278.259665966034,251.0540313720703,,116.85093688964844,0.4
99,MetaDrive-Gen-DrivingReward-v0,23,1100.168627428543,101451,667,4333.85248208046,241.66029357910156,-246.98623657226562,152.3277130126953,0.42
100,MetaDrive-Gen-DrivingReward-v0,23,1107.1234229003132,102367,669,4378.900336265564,245.98402404785156,-250.28396606445312,380.2196044921875,0.42
101,MetaDrive-Gen-DrivingReward-v0,23,1126.8514988770323,103055,670,4413.351669073105,246.8642120361328,-248.60464477539062,499.161376953125,0.43
102,MetaDrive-Gen-DrivingReward-v0,23,1151.4660826313602,104311,673,4472.612175226212,249.27870178222656,-254.90914916992188,426.62286376953125,0.45
103,MetaDrive-Gen-DrivingReward-v0,23,1163.4684472358351,105106,675,4512.394030094147,248.54302978515625,,355.08306884765625,0.45
104,MetaDrive-Gen-DrivingReward-v0,23,1181.728385836951,106198,678,4563.249417066574,250.0998992919922,,448.18017578125,0.47
105,MetaDrive-Gen-DrivingReward-v0,23,1214.1475174008556,107325,680,4619.470930099487,252.45870971679688,-256.01934814453125,182.87844848632812,0.49
106,MetaDrive-Gen-DrivingReward-v0,23,1227.4081350095305,108216,682,4661.227061033249,246.43460083007812,,153.0222930908203,0.5
107,MetaDrive-Gen-DrivingReward-v0,23,1246.3874950533698,109143,684,4705.9973430633545,249.87353515625,-248.38046264648438,134.1886749267578,0.52
108,MetaDrive-Gen-DrivingReward-v0,23,1252.4514797669349,110012,687,4748.810190200806,257.0309753417969,,174.5366973876953,0.52
109,MetaDrive-Gen-DrivingReward-v0,23,1242.4046481641917,111090,690,4799.168930053711,253.75746154785156,,734.7672119140625,0.52
110,MetaDrive-Gen-DrivingReward-v0,23,1258.7783870475357,112338,693,4858.748018980026,258.28753662109375,,390.50372314453125,0.55
111,MetaDrive-Gen-DrivingReward-v0,23,1263.9474730392735,113089,695,4895.558128118515,259.1612548828125,-260.643798828125,104.40382385253906,0.56
112,MetaDrive-Gen-DrivingReward-v0,23,1286.520684704618,114438,698,4961.756122112274,261.06951904296875,,359.60223388671875,0.59
113,MetaDrive-Gen-DrivingReward-v0,23,1297.2983121837838,115320,700,5007.734791994095,248.3182830810547,,501.2038879394531,0.6
114,MetaDrive-Gen-DrivingReward-v0,23,1306.4634038208887,116023,702,5042.069892168045,261.5018005371094,-263.3695983886719,128.55087280273438,0.6
115,MetaDrive-Gen-DrivingReward-v0,22,1318.934232273231,117194,704,5098.018415212631,257.9493713378906,,167.72320556640625,0.61
116,MetaDrive-Gen-DrivingReward-v0,22,1314.2199334657184,118231,707,5151.578929901123,264.45208740234375,-270.0755310058594,121.52029418945312,0.61
117,MetaDrive-Gen-DrivingReward-v0,22,1326.7664050860037,119201,709,5198.911281347275,262.593017578125,-264.06011962890625,377.71392822265625,0.63
118,MetaDrive-Gen-DrivingReward-v0,22,1337.7746648257641,120127,711,5244.176743030548,257.4773864746094,-261.33197021484375,711.5123901367188,0.65
119,MetaDrive-Gen-DrivingReward-v0,22,1356.143365806961,121047,713,5288.893567085266,252.2030029296875,-253.1717987060547,253.39341735839844,0.66
120,MetaDrive-Gen-DrivingReward-v0,22,1349.2094045923225,122414,716,5354.902172088623,264.5694274902344,,151.42861938476562,0.67
121,MetaDrive-Gen-DrivingReward-v0,22,1366.5194126297076,123199,718,5394.190828084946,260.9668273925781,-267.6398620605469,492.8945007324219,0.68
122,MetaDrive-Gen-DrivingReward-v0,22,1374.270556065918,124396,721,5452.156314134598,259.7626037597656,,177.05372619628906,0.7
123,MetaDrive-Gen-DrivingReward-v0,22,1399.861941187023,125203,722,5494.669060230255,259.5119934082031,-262.31353759765625,224.825927734375,0.71
124,MetaDrive-Gen-DrivingReward-v0,22,1380.826548028784,126245,725,5544.360625982285,254.9505157470703,-257.9145202636719,1332.67236328125,0.71
125,MetaDrive-Gen-DrivingReward-v0,22,1399.5482180234683,127267,728,5595.167454004288,261.0809631347656,-260.40521240234375,641.3538208007812,0.73
126,MetaDrive-Gen-DrivingReward-v0,22,1418.8920374551722,128224,730,5644.082508087158,262.9466857910156,,665.0469970703125,0.74
127,MetaDrive-Gen-DrivingReward-v0,22,1420.6245795679224,129016,732,5682.874202251434,258.68084716796875,,231.8134765625,0.74
128,MetaDrive-Gen-DrivingReward-v0,22,1435.3895756147122,130406,735,5753.418122053146,262.5613708496094,,727.459716796875,0.75
129,MetaDrive-Gen-DrivingReward-v0,22,1438.125058434202,131112,736,5790.787874221802,261.27154541015625,,166.73236083984375,0.75
130,MetaDrive-Gen-DrivingReward-v0,22,1446.6073026451,132112,738,5840.349910020828,269.63958740234375,,519.492919921875,0.76
131,MetaDrive-Gen-DrivingReward-v0,22,1468.4523114807378,133125,740,5890.9153480529785,262.6993713378906,-265.202880859375,155.33306884765625,0.77
132,MetaDrive-Gen-DrivingReward-v0,22,1432.3142326675818,134533,746,5961.1075739860535,260.10003662109375,-262.8560791015625,746.54248046875,0.74
133,MetaDrive-Gen-DrivingReward-v0,22,1445.4865975458222,135038,747,5985.239742040634,267.00848388671875,,580.7706298828125,0.75
134,MetaDrive-Gen-DrivingReward-v0,22,1468.7679224495546,136317,750,6048.872537136078,261.8596496582031,-262.2943420410156,99.49073028564453,0.76
135,MetaDrive-Gen-DrivingReward-v0,22,1488.034501653334,137033,751,6086.136219263077,260.47735595703125,-262.1590576171875,504.3463439941406,0.77
136,MetaDrive-Gen-DrivingReward-v0,22,1476.3481365822108,138371,754,6151.923654317856,265.649169921875,-273.6302795410156,364.965576171875,0.77
137,MetaDrive-Gen-DrivingReward-v0,22,1483.5042072974911,139350,756,6202.638018131256,259.9488525390625,,505.465087890625,0.76
138,MetaDrive-Gen-DrivingReward-v0,22,1504.2683675868495,140424,758,6258.0054631233215,268.1019592285156,,127.12167358398438,0.78
139,MetaDrive-Gen-DrivingReward-v0,22,1508.0423100645319,141263,760,6299.538693189621,264.314208984375,-266.5899658203125,325.7980041503906,0.79
140,MetaDrive-Gen-DrivingReward-v0,22,1502.1993456736143,142054,763,6339.064284086227,263.7665710449219,,322.28863525390625,0.78
141,MetaDrive-Gen-DrivingReward-v0,22,1520.2591215752013,143421,765,6412.226466178894,259.46759033203125,-264.0820617675781,986.6583251953125,0.78
142,MetaDrive-Gen-DrivingReward-v0,22,1506.563244448907,144281,767,6455.588548183441,263.218505859375,-263.8114013671875,200.02023315429688,0.78
143,MetaDrive-Gen-DrivingReward-v0,22,1499.5135454554695,145097,769,6497.753809928894,260.5663757324219,-264.91339111328125,211.96734619140625,0.78
144,MetaDrive-Gen-DrivingReward-v0,22,1486.799752173201,146177,772,6554.169481992722,264.8026428222656,-267.0452575683594,255.58340454101562,0.77
145,MetaDrive-Gen-DrivingReward-v0,22,1496.5657343616892,147006,774,6595.110112190247,269.05743408203125,,160.431884765625,0.78
146,MetaDrive-Gen-DrivingReward-v0,22,1498.8479218130235,148070,776,6650.2553679943085,264.6216125488281,,510.00762939453125,0.78
147,MetaDrive-Gen-DrivingReward-v0,22,1497.772771637855,149130,779,6705.713574171066,265.6230163574219,,733.6920166015625,0.78
148,MetaDrive-Gen-DrivingReward-v0,22,1487.8795323140055,150594,782,6783.161219120026,267.1575927734375,,313.1625671386719,0.78
149,MetaDrive-Gen-DrivingReward-v0,22,1495.5882241052564,151094,783,6810.892679929733,262.61444091796875,,140.92282104492188,0.78
150,MetaDrive-Gen-DrivingReward-v0,22,1500.493279831014,152489,786,6890.010220050812,260.492431640625,-260.2442626953125,350.3045349121094,0.77
151,MetaDrive-Gen-DrivingReward-v0,22,1523.381353962855,153180,787,6927.180614233017,269.7022705078125,,280.0343017578125,0.78
152,MetaDrive-Gen-DrivingReward-v0,22,1535.4499046867477,154464,790,6996.009005069733,267.8512268066406,,149.4663848876953,0.78
153,MetaDrive-Gen-DrivingReward-v0,22,1535.3822026522569,155772,793,7067.256509065628,268.8821105957031,,185.4715576171875,0.77
154,MetaDrive-Gen-DrivingReward-v0,22,1520.2642044468273,156546,796,7108.688751220703,264.2856750488281,,233.27879333496094,0.75
155,MetaDrive-Gen-DrivingReward-v0,22,1521.8993722929608,157030,797,7133.849543094635,265.6421813964844,,211.25079345703125,0.75
156,MetaDrive-Gen-DrivingReward-v0,21,1517.090438763033,158165,800,7196.34627199173,266.90472412109375,-266.835693359375,395.2363586425781,0.75
157,MetaDrive-Gen-DrivingReward-v0,21,1520.5033775992408,159417,803,7267.808324098587,264.40234375,-266.88531494140625,289.99725341796875,0.75
158,MetaDrive-Gen-DrivingReward-v0,21,1524.8224436291005,160174,805,7311.842506170273,262.2806701660156,,188.82699584960938,0.76
159,MetaDrive-Gen-DrivingReward-v0,21,1514.451986882047,161096,808,7364.168852090836,264.78021240234375,,258.19659423828125,0.74
160,MetaDrive-Gen-DrivingReward-v0,21,1504.9910006466619,162245,811,7427.784548282623,265.213134765625,-268.99786376953125,186.42013549804688,0.73
161,MetaDrive-Gen-DrivingReward-v0,21,1499.6257086095866,163077,813,7473.482997179031,262.0140686035156,-263.39886474609375,347.48858642578125,0.73
162,MetaDrive-Gen-DrivingReward-v0,21,1503.5452230291955,164011,815,7522.803903102875,258.8560791015625,-260.8454895019531,368.82794189453125,0.73
163,MetaDrive-Gen-DrivingReward-v0,21,1496.4198045825326,165157,818,7585.358252048492,261.79217529296875,-266.2865905761719,137.26844787597656,0.72
164,MetaDrive-Gen-DrivingReward-v0,21,1495.7202765659488,166343,821,7647.8700630664825,269.7488098144531,-271.0692443847656,579.9588623046875,0.71
165,MetaDrive-Gen-DrivingReward-v0,21,1482.3045090608307,167411,824,7705.621530294418,265.9436340332031,-265.0676574707031,290.71087646484375,0.7
166,MetaDrive-Gen-DrivingReward-v0,21,1509.4497043799136,168510,826,7764.7273581027985,269.08221435546875,,492.2157287597656,0.71
167,MetaDrive-Gen-DrivingReward-v0,21,1502.7360752528184,169200,828,7799.522475004196,268.02532958984375,,229.9981689453125,0.71
168,MetaDrive-Gen-DrivingReward-v0,21,1482.7548807513315,170178,831,7852.074846029282,260.25567626953125,,112.78849792480469,0.7
169,MetaDrive-Gen-DrivingReward-v0,21,1469.7688979761963,171457,835,7921.364484071732,263.49090576171875,-263.24951171875,157.90528869628906,0.7
170,MetaDrive-Gen-DrivingReward-v0,21,1453.6077194219895,172214,837,7961.154704093933,266.9601135253906,,167.75125122070312,0.7
171,MetaDrive-Gen-DrivingReward-v0,21,1456.3611379912702,173177,839,8012.842739105225,266.8314514160156,-268.5569152832031,373.07635498046875,0.71
172,MetaDrive-Gen-DrivingReward-v0,21,1456.7907218123237,174129,841,8063.8385181427,258.8096618652344,-260.2015686035156,262.850341796875,0.72
173,MetaDrive-Gen-DrivingReward-v0,21,1476.9686415915594,175206,845,8123.3765959739685,266.7894287109375,,150.6688232421875,0.74
174,MetaDrive-Gen-DrivingReward-v0,21,1478.279381435047,176269,847,8183.989629983902,260.65899658203125,-263.4502868652344,289.5328369140625,0.73
175,MetaDrive-Gen-DrivingReward-v0,21,1484.2676929754275,177387,849,8252.868829011917,260.7240905761719,-264.93658447265625,158.3956298828125,0.74
176,MetaDrive-Gen-DrivingReward-v0,21,1474.604346247838,178354,851,8307.830693244934,259.1231689453125,,190.23199462890625,0.74
177,MetaDrive-Gen-DrivingReward-v0,21,1441.6624549287728,179373,855,8364.488899230957,266.4580078125,-270.2735595703125,192.8142547607422,0.72
178,MetaDrive-Gen-DrivingReward-v0,21,1438.5024725552146,180219,857,8415.867742061615,258.4939270019531,-260.37908935546875,232.57455444335938,0.72
179,MetaDrive-Gen-DrivingReward-v0,21,1441.6034248829028,181219,859,8475.958128213882,261.07257080078125,-266.1222229003906,420.26312255859375,0.72
180,MetaDrive-Gen-DrivingReward-v0,21,1448.460084480975,182035,861,8521.49490904808,255.09390258789062,-258.89605712890625,258.35577392578125,0.73
181,MetaDrive-Gen-DrivingReward-v0,21,1461.6988033977375,183206,864,8587.694941997528,259.62652587890625,,332.41253662109375,0.72
182,MetaDrive-Gen-DrivingReward-v0,21,1455.1544781842917,184317,866,8649.428598165512,261.5973815917969,-260.3821716308594,372.709716796875,0.73
183,MetaDrive-Gen-DrivingReward-v0,21,1463.4988074484309,185062,867,8690.479228019714,256.9792785644531,,271.5433349609375,0.73
184,MetaDrive-Gen-DrivingReward-v0,21,1447.8852325908895,186131,871,8752.032882928848,264.3728332519531,-264.51513671875,388.99542236328125,0.72
185,MetaDrive-Gen-DrivingReward-v0,21,1454.719713094855,187115,873,8808.674978017807,248.47996520996094,-247.56195068359375,163.79299926757812,0.73
186,MetaDrive-Gen-DrivingReward-v0,21,1428.6218618947896,188155,876,8866.197202920914,255.2264404296875,-258.1166687011719,345.4698486328125,0.72
187,MetaDrive-Gen-DrivingReward-v0,21,1441.9160471790376,189518,878,8944.609979867935,253.50759887695312,,157.24459838867188,0.72
188,MetaDrive-Gen-DrivingReward-v0,21,1460.4567170324708,190636,880,9009.454285144806,253.26596069335938,,219.95953369140625,0.72
189,MetaDrive-Gen-DrivingReward-v0,21,1452.6068535704646,191389,882,9055.049057006836,255.10414123535156,-256.8887939453125,339.3150939941406,0.71
190,MetaDrive-Gen-DrivingReward-v0,21,1456.2915330087365,192601,884,9124.81449007988,247.21424865722656,-250.15171813964844,260.2520751953125,0.71
191,MetaDrive-Gen-DrivingReward-v0,21,1452.1097695803528,193149,885,9153.928267002106,257.4979248046875,-260.513671875,242.21084594726562,0.72
192,MetaDrive-Gen-DrivingReward-v0,21,1449.2734341238506,194702,888,9242.688254117966,254.88818359375,,394.91473388671875,0.73
193,MetaDrive-Gen-DrivingReward-v0,21,1431.6444728671931,195357,890,9279.68597817421,255.68698120117188,-256.50262451171875,250.18246459960938,0.72
194,MetaDrive-Gen-DrivingReward-v0,21,1452.568414323419,196528,892,9347.572006940842,248.54324340820312,,237.2899627685547,0.72
195,MetaDrive-Gen-DrivingReward-v0,21,1443.8021455008502,197026,893,9376.42460489273,250.39512634277344,,951.64697265625,0.72
196,MetaDrive-Gen-DrivingReward-v0,20,1474.7495369479557,198124,895,9440.235652208328,248.1641082763672,,255.95729064941406,0.74
197,MetaDrive-Gen-DrivingReward-v0,20,1464.022473904281,199252,898,9504.676265001297,243.47116088867188,,211.49398803710938,0.73
198,MetaDrive-Gen-DrivingReward-v0,20,1455.9905946509693,200254,901,9565.734601020813,247.93255615234375,,245.84532165527344,0.74
199,MetaDrive-Gen-DrivingReward-v0,20,1453.4064084130152,201433,904,9637.808922290802,254.48138427734375,-254.5767822265625,169.32281494140625,0.73
200,MetaDrive-Gen-DrivingReward-v0,20,1448.113355563312,202446,907,9699.702235937119,249.910888671875,,154.54705810546875,0.73
201,MetaDrive-Gen-DrivingReward-v0,20,1450.86429291445,203094,909,9735.770825147629,256.1859130859375,,129.09814453125,0.73
202,MetaDrive-Gen-DrivingReward-v0,20,1445.0409828175298,204071,912,9791.99901509285,250.02037048339844,-256.0757751464844,751.3880615234375,0.72
203,MetaDrive-Gen-DrivingReward-v0,20,1444.4999626659376,205016,914,9845.487552165985,248.34938049316406,,275.0245666503906,0.72
204,MetaDrive-Gen-DrivingReward-v0,20,1450.626475328017,206393,917,9926.47572517395,247.02333068847656,-250.11912536621094,178.44708251953125,0.73
205,MetaDrive-Gen-DrivingReward-v0,20,1445.5418849503956,207258,920,9977.1620490551,249.92391967773438,,155.81512451171875,0.73
206,MetaDrive-Gen-DrivingReward-v0,20,1457.9616901789952,208110,922,10027.282234191895,253.1845703125,,272.2344665527344,0.74
207,MetaDrive-Gen-DrivingReward-v0,20,1444.7200497034084,209212,925,10093.270690202713,240.81976318359375,,288.80615234375,0.72
208,MetaDrive-Gen-DrivingReward-v0,20,1430.1862852691486,210213,926,10150.975949048996,239.67556762695312,-240.1644287109375,221.04269409179688,0.71
209,MetaDrive-Gen-DrivingReward-v0,20,1433.77018198945,211292,929,10216.213745117188,250.55377197265625,,149.82479858398438,0.69
210,MetaDrive-Gen-DrivingReward-v0,20,1448.0823340488787,212316,931,10277.878032922745,246.76124572753906,,458.96405029296875,0.7
211,MetaDrive-Gen-DrivingReward-v0,20,1454.9959285778573,213033,933,10323.548966884613,245.0235595703125,-248.63882446289062,373.2564697265625,0.7
212,MetaDrive-Gen-DrivingReward-v0,20,1456.4178285282549,214048,935,10385.784963130951,237.11451721191406,,263.1622619628906,0.7
213,MetaDrive-Gen-DrivingReward-v0,20,1458.592761521694,215018,937,10445.888966321945,243.27976989746094,,385.065673828125,0.7
214,MetaDrive-Gen-DrivingReward-v0,20,1460.1977839779183,216451,940,10537.629703044891,246.6755828857422,-249.06004333496094,291.27679443359375,0.7
215,MetaDrive-Gen-DrivingReward-v0,20,1457.2896097952655,217445,943,10600.76351594925,241.3951416015625,-243.07884216308594,186.36593627929688,0.7
216,MetaDrive-Gen-DrivingReward-v0,20,1476.0925689204557,218065,944,10645.199109315872,241.47019958496094,-244.76011657714844,470.5050964355469,0.71
217,MetaDrive-Gen-DrivingReward-v0,20,1464.8940726288304,219442,947,10748.913635253906,229.9404296875,,178.29736328125,0.71
218,MetaDrive-Gen-DrivingReward-v0,20,1453.8869098045177,220237,949,10802.739645004272,237.96632385253906,-241.17816162109375,313.252685546875,0.7
219,MetaDrive-Gen-DrivingReward-v0,20,1454.368056991066,221058,951,10867.224113941193,234.89324951171875,,174.85955810546875,0.69
220,MetaDrive-Gen-DrivingReward-v0,20,1465.4129016984364,222060,953,10934.87341427803,232.88900756835938,,180.76641845703125,0.7
221,MetaDrive-Gen-DrivingReward-v0,20,1475.654539086975,223042,955,10995.9904692173,245.84938049316406,,437.90576171875,0.71
222,MetaDrive-Gen-DrivingReward-v0,20,1480.7854104803607,224315,958,11074.426908016205,235.3944091796875,-237.45193481445312,220.25384521484375,0.72
223,MetaDrive-Gen-DrivingReward-v0,20,1477.120766014949,225242,960,11130.37997508049,235.22354125976562,,194.63999938964844,0.71
224,MetaDrive-Gen-DrivingReward-v0,20,1468.7593572147823,226081,963,11180.104324102402,239.76927185058594,-242.27835083007812,192.8709259033203,0.7
225,MetaDrive-Gen-DrivingReward-v0,20,1469.2291101199087,227065,965,11238.400082111359,229.470703125,-231.52523803710938,267.85711669921875,0.71
226,MetaDrive-Gen-DrivingReward-v0,20,1468.1402119692443,228145,967,11305.131537914276,234.33331298828125,-238.59060668945312,427.82794189453125,0.71
227,MetaDrive-Gen-DrivingReward-v0,20,1475.7328434683918,229324,970,11374.996618032455,238.66366577148438,,148.16696166992188,0.7
228,MetaDrive-Gen-DrivingReward-v0,20,1491.2494735990365,230510,972,11446.433859109879,228.4966278076172,,222.27711486816406,0.71
229,MetaDrive-Gen-DrivingReward-v0,20,1493.4231723299465,231060,973,11479.964887142181,229.2606658935547,,226.6284942626953,0.71
230,MetaDrive-Gen-DrivingReward-v0,20,1504.2781371907577,232364,976,11555.691088199615,233.0415496826172,,290.0975341796875,0.72
231,MetaDrive-Gen-DrivingReward-v0,20,1474.631926542812,233199,979,11603.148707151413,231.83200073242188,-234.2954864501953,175.4290771484375,0.71
232,MetaDrive-Gen-DrivingReward-v0,20,1479.8708926596037,234234,981,11663.69241809845,235.010986328125,,169.3629150390625,0.72
233,MetaDrive-Gen-DrivingReward-v0,20,1466.5170344028156,235434,984,11735.526278972626,238.80072021484375,,183.04876708984375,0.71
234,MetaDrive-Gen-DrivingReward-v0,20,1460.460877388975,236375,986,11788.683881044388,229.05870056152344,-230.8271484375,249.93026733398438,0.71
235,MetaDrive-Gen-DrivingReward-v0,20,1460.9505002880435,237073,988,11830.017926931381,234.46075439453125,-239.88999938964844,300.2572326660156,0.71
236,MetaDrive-Gen-DrivingReward-v0,20,1457.2569079299556,238095,991,11889.074456214905,224.11447143554688,-226.74087524414062,249.33660888671875,0.71
237,MetaDrive-Gen-DrivingReward-v0,20,1445.4243351966606,239499,994,11973.407083034515,232.543212890625,-232.34178161621094,738.767822265625,0.71
238,MetaDrive-Gen-DrivingReward-v0,19,1442.203022911522,240963,996,12056.220946073532,231.7705535888672,-237.9967041015625,228.11094665527344,0.7
239,MetaDrive-Gen-DrivingReward-v0,19,1457.0647958895154,241415,997,12082.597577095032,234.24420166015625,-239.10792541503906,238.19699096679688,0.71
240,MetaDrive-Gen-DrivingReward-v0,19,1451.8295372376313,242185,999,12129.319781303406,222.5924530029297,-225.36041259765625,429.6822814941406,0.71
241,MetaDrive-Gen-DrivingReward-v0,19,1463.820795228048,243429,1001,12206.225084066391,221.1839599609375,-225.1402587890625,306.009521484375,0.71
242,MetaDrive-Gen-DrivingReward-v0,19,1468.330111307776,244410,1003,12265.493355035782,230.70614624023438,,335.05731201171875,0.72
243,MetaDrive-Gen-DrivingReward-v0,19,1474.2444678253387,245114,1004,12310.498489141464,233.95245361328125,,262.70050048828125,0.72
244,MetaDrive-Gen-DrivingReward-v0,19,1485.8795688442708,246036,1006,12367.386611938477,223.07489013671875,,344.6766662597656,0.72
245,MetaDrive-Gen-DrivingReward-v0,19,1501.0436520786432,247377,1009,12450.927713155746,223.76690673828125,-221.8666229248047,224.0972442626953,0.72
246,MetaDrive-Gen-DrivingReward-v0,19,1520.042975314905,248414,1011,12514.207576036453,220.07748413085938,,167.70156860351562,0.74
247,MetaDrive-Gen-DrivingReward-v0,19,1510.0808934575991,249353,1013,12570.21759223938,236.1957244873047,-239.08314514160156,181.62937927246094,0.73
248,MetaDrive-Gen-DrivingReward-v0,19,1497.9678794122935,250003,1015,12610.04698395729,226.5380401611328,-230.49722290039062,164.66082763671875,0.72
249,MetaDrive-Gen-DrivingReward-v0,19,1510.9856581985491,251169,1017,12681.6200902462,224.67324829101562,-225.05294799804688,370.9002685546875,0.72
250,MetaDrive-Gen-DrivingReward-v0,19,1515.735673307123,252251,1020,12748.498096227646,229.8284912109375,-229.7570343017578,242.00955200195312,0.71
251,MetaDrive-Gen-DrivingReward-v0,19,1511.3008336037487,253087,1022,12798.5002450943,222.6654510498047,-226.69639587402344,424.09490966796875,0.71
252,MetaDrive-Gen-DrivingReward-v0,19,1503.904854243986,254145,1025,12862.717591047287,229.8788299560547,-232.00538635253906,275.3633728027344,0.72
253,MetaDrive-Gen-DrivingReward-v0,19,1525.9698089651379,255494,1027,12946.283147096634,230.4420166015625,,219.2109832763672,0.74
254,MetaDrive-Gen-DrivingReward-v0,19,1535.9794588827103,256017,1028,12979.187903165817,231.12078857421875,-233.48641967773438,224.09066772460938,0.75
255,MetaDrive-Gen-DrivingReward-v0,19,1498.5700152260456,257373,1033,13061.213501930237,229.78550720214844,-233.3714141845703,124.72803497314453,0.73
256,MetaDrive-Gen-DrivingReward-v0,19,1501.2736323653126,258192,1034,13112.698182106018,229.50759887695312,,227.48748779296875,0.73
257,MetaDrive-Gen-DrivingReward-v0,19,1505.3462112227103,259211,1036,13175.489865064621,232.01388549804688,-234.6581268310547,260.0721435546875,0.73
258,MetaDrive-Gen-DrivingReward-v0,19,1497.9398149929632,260216,1038,13239.229400157928,220.0756072998047,,132.46511840820312,0.73
259,MetaDrive-Gen-DrivingReward-v0,19,1505.474239805197,261319,1040,13308.397362947464,227.23553466796875,-228.8417510986328,175.78948974609375,0.73
260,MetaDrive-Gen-DrivingReward-v0,19,1514.9699669343372,262114,1042,13354.90130519867,219.4015655517578,,262.69549560546875,0.74
261,MetaDrive-Gen-DrivingReward-v0,19,1515.6924739295025,263298,1044,13426.472964286804,225.25082397460938,,255.91921997070312,0.74
262,MetaDrive-Gen-DrivingReward-v0,19,1522.5248394622788,264271,1046,13484.562235116959,215.8582305908203,-218.19801330566406,260.9969177246094,0.75
263,MetaDrive-Gen-DrivingReward-v0,19,1513.5111213971593,265012,1048,13528.524917125702,229.15155029296875,,287.88421630859375,0.74
264,MetaDrive-Gen-DrivingReward-v0,19,1511.135064513643,266084,1051,13592.310564279556,228.17269897460938,,143.11587524414062,0.75
265,MetaDrive-Gen-DrivingReward-v0,19,1512.863572899962,267409,1054,13673.278846979141,227.81307983398438,-232.59811401367188,145.8105926513672,0.74
266,MetaDrive-Gen-DrivingReward-v0,19,1517.9858361137349,268382,1056,13732.438532114029,218.59457397460938,,374.28369140625,0.74
267,MetaDrive-Gen-DrivingReward-v0,19,1517.2477857097588,269361,1058,13792.918948173523,217.5139617919922,-219.80467224121094,163.51058959960938,0.73
268,MetaDrive-Gen-DrivingReward-v0,19,1512.368015371758,270230,1060,13844.51173210144,226.2171630859375,,173.154541015625,0.74
269,MetaDrive-Gen-DrivingReward-v0,19,1527.7403906640359,271080,1062,13895.204047203064,226.94309997558594,,131.89959716796875,0.75
270,MetaDrive-Gen-DrivingReward-v0,19,1526.199173472786,272380,1065,13974.949781179428,212.94541931152344,,232.75634765625,0.75
271,MetaDrive-Gen-DrivingReward-v0,19,1524.0506871974308,273417,1067,14039.1871240139,221.57249450683594,-222.21896362304688,156.58956909179688,0.75
272,MetaDrive-Gen-DrivingReward-v0,19,1534.5294167542984,274482,1069,14102.952358961105,227.43759155273438,,213.40957641601562,0.76
273,MetaDrive-Gen-DrivingReward-v0,19,1538.2942050137492,275467,1071,14161.406230211258,226.17164611816406,-228.60540771484375,149.93032836914062,0.76
274,MetaDrive-Gen-DrivingReward-v0,19,1534.5171804896006,276023,1072,14195.573421239853,223.85647583007812,-224.77227783203125,202.74264526367188,0.76
275,MetaDrive-Gen-DrivingReward-v0,19,1540.2789886516146,277712,1075,14300.309565067291,219.89430236816406,,210.52996826171875,0.76
276,MetaDrive-Gen-DrivingReward-v0,19,1536.3631874005575,278164,1076,14327.118394136429,222.62030029296875,,475.8486328125,0.76
277,MetaDrive-Gen-DrivingReward-v0,19,1545.5651705745756,279056,1078,14381.966784000397,221.7490692138672,,202.2945556640625,0.77
278,MetaDrive-Gen-DrivingReward-v0,19,1552.0090133871242,280169,1080,14453.755116224289,222.4647674560547,-222.79721069335938,329.28509521484375,0.77
279,MetaDrive-Gen-DrivingReward-v0,19,1555.3713524507461,281401,1082,14528.420694112778,231.51040649414062,-235.4661865234375,273.81768798828125,0.77
280,MetaDrive-Gen-DrivingReward-v0,19,1551.2808295489374,282494,1084,14593.08909702301,219.97105407714844,,302.3263854980469,0.77
281,MetaDrive-Gen-DrivingReward-v0,19,1547.938161979673,283135,1086,14628.562865972519,224.6224822998047,-225.0140380859375,291.9499206542969,0.77
282,MetaDrive-Gen-DrivingReward-v0,19,1565.6868454174994,284401,1088,14703.388538122177,215.76771545410156,-215.14974975585938,237.6112060546875,0.78
283,MetaDrive-Gen-DrivingReward-v0,19,1573.8433433624302,285231,1090,14749.75760102272,216.9443359375,-218.88565063476562,393.3938293457031,0.79
284,MetaDrive-Gen-DrivingReward-v0,19,1583.6467576499003,286525,1093,14827.440618038177,221.688232421875,-224.20838928222656,435.0172119140625,0.79
285,MetaDrive-Gen-DrivingReward-v0,19,1574.4948308853027,287319,1095,14872.156306028366,213.87255859375,-219.72042846679688,267.3899230957031,0.79
286,MetaDrive-Gen-DrivingReward-v0,19,1577.8164668498198,288422,1098,14934.837997198105,226.20399475097656,,192.47900390625,0.81
287,MetaDrive-Gen-DrivingReward-v0,19,1552.1621196636022,289256,1101,14981.662750959396,216.93496704101562,,163.1317138671875,0.8
288,MetaDrive-Gen-DrivingReward-v0,19,1560.2642861266268,290289,1103,15040.123542070389,207.94729614257812,-209.60279846191406,247.72283935546875,0.8
289,MetaDrive-Gen-DrivingReward-v0,19,1568.1328322270388,291744,1105,15125.427866220474,221.7360076904297,,235.94447326660156,0.8
290,MetaDrive-Gen-DrivingReward-v0,19,1563.3229968747994,292059,1106,15143.175104141235,226.67578125,-227.3179473876953,123.44971466064453,0.8
291,MetaDrive-Gen-DrivingReward-v0,19,1565.209122521712,293492,1109,15225.541718006134,221.62989807128906,,257.5611572265625,0.81
292,MetaDrive-Gen-DrivingReward-v0,19,1573.6068399834248,294233,1110,15267.639351129532,222.58282470703125,-223.61965942382812,251.89910888671875,0.81
293,MetaDrive-Gen-DrivingReward-v0,19,1553.7276593996703,295560,1114,15345.621628046036,225.12417602539062,,189.6842498779297,0.8
294,MetaDrive-Gen-DrivingReward-v0,19,1570.038310315993,296490,1116,15399.71945309639,220.79544067382812,,263.6964111328125,0.81
295,MetaDrive-Gen-DrivingReward-v0,19,1555.673594982815,297254,1118,15444.301119089127,217.02008056640625,,185.82139587402344,0.8
296,MetaDrive-Gen-DrivingReward-v0,19,1560.7898605457979,298308,1120,15504.20726108551,222.27053833007812,,366.9154052734375,0.82
297,MetaDrive-Gen-DrivingReward-v0,19,1565.9212886381306,299628,1123,15580.360838890076,221.35899353027344,,191.94015502929688,0.82
298,MetaDrive-Gen-DrivingReward-v0,19,1580.76272286927,300118,1124,15608.998899936676,224.191650390625,,329.19683837890625,0.83
299,MetaDrive-Gen-DrivingReward-v0,19,1561.2291531361889,301254,1127,15672.48085308075,216.61898803710938,,180.82070922851562,0.83
300,MetaDrive-Gen-DrivingReward-v0,19,1579.908785188085,302412,1129,15741.876073122025,210.56243896484375,,206.12777709960938,0.84
301,MetaDrive-Gen-DrivingReward-v0,19,1598.3975118964563,303091,1131,15781.592653036118,218.4879913330078,-222.38072204589844,195.43988037109375,0.85
302,MetaDrive-Gen-DrivingReward-v0,19,1597.9671835219729,304049,1133,15838.778321027756,219.26345825195312,-222.35308837890625,258.11260986328125,0.84
303,MetaDrive-Gen-DrivingReward-v0,19,1567.182012769555,305224,1137,15911.291565179825,224.6922149658203,,204.18792724609375,0.82
304,MetaDrive-Gen-DrivingReward-v0,19,1561.1144290410923,306419,1140,15976.157774209976,222.81105041503906,-222.2591552734375,181.2705078125,0.82
305,MetaDrive-Gen-DrivingReward-v0,19,1548.3855363449627,307294,1143,16021.518659114838,213.18328857421875,,162.72341918945312,0.81
306,MetaDrive-Gen-DrivingReward-v0,19,1545.1209053120367,308694,1146,16095.360966205597,222.39501953125,,216.2812957763672,0.8
307,MetaDrive-Gen-DrivingReward-v0,19,1551.257223937089,309409,1147,16134.510251998901,219.84469604492188,-220.82766723632812,227.96826171875,0.8
308,MetaDrive-Gen-DrivingReward-v0,19,1566.601083393582,310043,1149,16167.43503689766,216.22340393066406,-217.58155822753906,393.37225341796875,0.81
309,MetaDrive-Gen-DrivingReward-v0,19,1570.7380944621168,311010,1151,16217.43782711029,215.28672790527344,,245.7138671875,0.81
310,MetaDrive-Gen-DrivingReward-v0,19,1583.594304267927,312228,1153,16286.066431999207,225.36480712890625,,242.42803955078125,0.82
311,MetaDrive-Gen-DrivingReward-v0,19,1565.153299873016,313162,1156,16334.736108064651,220.74050903320312,,246.12142944335938,0.81
312,MetaDrive-Gen-DrivingReward-v0,19,1578.8725725220872,314062,1157,16385.559818983078,225.3958740234375,,168.5142059326172,0.81
313,MetaDrive-Gen-DrivingReward-v0,19,1584.9330404411885,315310,1159,16451.802245140076,219.54917907714844,,124.04583740234375,0.82
314,MetaDrive-Gen-DrivingReward-v0,19,1569.908564956412,316174,1162,16496.647772073746,216.09524536132812,,157.0948028564453,0.81
315,MetaDrive-Gen-DrivingReward-v0,19,1552.0953239181445,317074,1165,16545.951674222946,218.59503173828125,,152.72744750976562,0.8
316,MetaDrive-Gen-DrivingReward-v0,19,1534.047351569562,318136,1168,16603.884423971176,218.1141815185547,,213.89476013183594,0.79
317,MetaDrive-Gen-DrivingReward-v0,19,1538.4837799569923,319130,1170,16661.22409915924,221.80477905273438,,176.00631713867188,0.8
318,MetaDrive-Gen-DrivingReward-v0,19,1539.7930509807888,320305,1172,16725.824465036392,217.0843505859375,-214.7102508544922,500.82513427734375,0.8
319,MetaDrive-Gen-DrivingReward-v0,19,1516.1123477745555,321078,1175,16764.688616991043,224.6554718017578,,167.39898681640625,0.78
320,MetaDrive-Gen-DrivingReward-v0,19,1530.818885289497,322231,1177,16822.73731303215,212.40614318847656,-211.03587341308594,180.66824340820312,0.79
321,MetaDrive-Gen-DrivingReward-v0,19,1521.645031839561,323194,1179,16872.33126091957,226.2902069091797,,145.80963134765625,0.78
322,MetaDrive-Gen-DrivingReward-v0,19,1499.5288241955288,324138,1182,16919.074901103973,220.22569274902344,,140.1136474609375,0.77
323,MetaDrive-Gen-DrivingReward-v0,19,1511.9033549620144,325119,1184,16968.858646154404,210.2358856201172,-211.23585510253906,191.49520874023438,0.77
324,MetaDrive-Gen-DrivingReward-v0,19,1523.261803680759,326219,1186,17024.743248939514,218.34750366210938,-218.91757202148438,238.3780517578125,0.77
325,MetaDrive-Gen-DrivingReward-v0,19,1512.5841919630786,327284,1188,17078.363844156265,226.02999877929688,,272.7861022949219,0.77
326,MetaDrive-Gen-DrivingReward-v0,19,1518.4192734412143,328335,1190,17129.087628126144,219.81253051757812,-221.762939453125,222.76010131835938,0.77
327,MetaDrive-Gen-DrivingReward-v0,19,1530.371631192523,329531,1192,17185.399826049805,216.24179077148438,-214.09510803222656,232.0106201171875,0.78
328,MetaDrive-Gen-DrivingReward-v0,19,1529.9068464939858,330019,1193,17207.415724039078,220.92623901367188,-223.7004852294922,161.24114990234375,0.78
329,MetaDrive-Gen-DrivingReward-v0,19,1518.5633180419695,331356,1197,17269.11352610588,210.49078369140625,,359.892333984375,0.77
330,MetaDrive-Gen-DrivingReward-v0,19,1520.201663894273,332360,1200,17317.70290207863,216.5142822265625,,173.9647216796875,0.76
331,MetaDrive-Gen-DrivingReward-v0,19,1525.140957936785,333599,1202,17378.391936063766,210.55508422851562,-211.3173828125,181.40036010742188,0.76
332,MetaDrive-Gen-DrivingReward-v0,19,1519.7937932801765,334441,1204,17416.998971939087,203.42630004882812,-205.392333984375,373.3505554199219,0.76
333,MetaDrive-Gen-DrivingReward-v0,19,1515.151965246826,335032,1205,17444.46316218376,212.3975830078125,,610.5039672851562,0.76
334,MetaDrive-Gen-DrivingReward-v0,19,1520.3116756222284,336182,1207,17503.800988912582,206.7374267578125,,313.0968017578125,0.77
335,MetaDrive-Gen-DrivingReward-v0,19,1523.0426377730446,337402,1209,17564.887909173965,208.76803588867188,,244.62693786621094,0.77
336,MetaDrive-Gen-DrivingReward-v0,19,1531.28730430277,338487,1211,17630.212086200714,216.23533630371094,-215.3934326171875,355.97576904296875,0.78
337,MetaDrive-Gen-DrivingReward-v0,19,1529.6710412254492,339117,1212,17660.42607307434,211.0040740966797,-214.34201049804688,192.27915954589844,0.78
338,MetaDrive-Gen-DrivingReward-v0,19,1539.051172411404,340092,1214,17707.285816192627,212.97323608398438,,375.9799499511719,0.79
339,MetaDrive-Gen-DrivingReward-v0,19,1539.673863495721,341256,1216,17768.995182275772,218.97027587890625,,189.5369873046875,0.79
340,MetaDrive-Gen-DrivingReward-v0,19,1543.5685029356312,342107,1218,17802.56276011467,213.04296875,-213.22064208984375,199.6060791015625,0.8
341,MetaDrive-Gen-DrivingReward-v0,19,1545.428115188112,343461,1221,17861.383896112442,217.6516876220703,-220.4402313232422,199.4518585205078,0.79
342,MetaDrive-Gen-DrivingReward-v0,19,1543.6490644708026,344492,1223,17902.04326915741,213.04867553710938,,183.0679168701172,0.79
343,MetaDrive-Gen-DrivingReward-v0,19,1549.2348550346867,345458,1225,17937.859359025955,212.62074279785156,,212.53775024414062,0.79
344,MetaDrive-Gen-DrivingReward-v0,19,1550.9242670803565,346274,1227,17971.911073207855,209.29708862304688,,900.0888671875,0.79
345,MetaDrive-Gen-DrivingReward-v0,19,1547.5488420206457,347338,1229,18017.95449614525,220.99879455566406,,224.47117614746094,0.79
346,MetaDrive-Gen-DrivingReward-v0,19,1566.6557865132334,348048,1230,18051.926165103912,213.41024780273438,,162.24545288085938,0.8
347,MetaDrive-Gen-DrivingReward-v0,19,1572.9682117095697,349400,1232,18119.49741911888,219.34146118164062,,351.1824645996094,0.8
348,MetaDrive-Gen-DrivingReward-v0,19,1581.7059612863093,350469,1234,18170.719373226166,205.93218994140625,-207.90830993652344,157.565185546875,0.81
349,MetaDrive-Gen-DrivingReward-v0,19,1590.1743841096127,351087,1235,18201.20717215538,218.73451232910156,-220.4413299560547,552.66015625,0.82
350,MetaDrive-Gen-DrivingReward-v0,19,1613.3240797909034,352088,1236,18251.39990091324,219.47079467773438,,228.3666534423828,0.82
351,MetaDrive-Gen-DrivingReward-v0,19,1620.163461991906,353426,1239,18318.65519595146,210.44635009765625,,281.17315673828125,0.82
352,MetaDrive-Gen-DrivingReward-v0,19,1628.513091613156,354487,1241,18370.40127515793,213.79379272460938,-217.039794921875,211.37310791015625,0.83
353,MetaDrive-Gen-DrivingReward-v0,19,1622.7155896306149,355305,1244,18413.582939863205,208.8390350341797,-210.62399291992188,357.68194580078125,0.82
354,MetaDrive-Gen-DrivingReward-v0,19,1609.0861507965394,356250,1246,18464.04504609108,207.4409942626953,,154.4441375732422,0.82
355,MetaDrive-Gen-DrivingReward-v0,19,1610.1352838344603,357431,1248,18535.454406261444,214.79067993164062,-218.75503540039062,246.91293334960938,0.83
356,MetaDrive-Gen-DrivingReward-v0,19,1596.190936713801,358022,1250,18563.83471417427,206.73545837402344,,216.2738037109375,0.82
357,MetaDrive-Gen-DrivingReward-v0,19,1603.3215123148036,359023,1252,18603.799817085266,215.8704833984375,-215.6829376220703,271.77752685546875,0.82
358,MetaDrive-Gen-DrivingReward-v0,19,1614.2329148792442,360460,1255,18671.692337989807,206.31301879882812,,275.6203918457031,0.83
359,MetaDrive-Gen-DrivingReward-v0,19,1596.1992101010903,361276,1257,18705.714573144913,213.42581176757812,,187.48928833007812,0.83
360,MetaDrive-Gen-DrivingReward-v0,19,1591.0265551293348,362173,1259,18740.63950419426,209.61215209960938,-208.19931030273438,145.40792846679688,0.83
361,MetaDrive-Gen-DrivingReward-v0,19,1598.7097502207469,363147,1262,18782.304064035416,203.83984375,-206.80032348632812,130.17405700683594,0.83
362,MetaDrive-Gen-DrivingReward-v0,19,1610.4042052695256,364300,1265,18830.56631922722,208.73609924316406,,229.47634887695312,0.84
363,MetaDrive-Gen-DrivingReward-v0,19,1630.2091248432262,365352,1267,18874.159659147263,219.108642578125,,228.4662628173828,0.85
364,MetaDrive-Gen-DrivingReward-v0,19,1632.2566811428644,366367,1269,18930.061546087265,214.71954345703125,-215.06695556640625,200.64218139648438,0.85
365,MetaDrive-Gen-DrivingReward-v0,19,1610.8645576865053,367118,1271,18971.8178191185,211.39581298828125,,147.2947998046875,0.84
366,MetaDrive-Gen-DrivingReward-v0,19,1621.2498067478416,368224,1274,19031.491441965103,220.1788787841797,,404.4241943359375,0.85
367,MetaDrive-Gen-DrivingReward-v0,19,1635.0170989449305,369236,1276,19087.65546822548,206.23965454101562,,397.43914794921875,0.86
368,MetaDrive-Gen-DrivingReward-v0,19,1616.4460623122152,370024,1278,19129.809301137924,215.3804473876953,,386.6234130859375,0.85
369,MetaDrive-Gen-DrivingReward-v0,19,1629.0500246159156,371670,1282,19217.84003305435,213.0787353515625,,138.16021728515625,0.86
370,MetaDrive-Gen-DrivingReward-v0,19,1615.1829783643468,372260,1284,19249.807869911194,212.14280700683594,,260.66253662109375,0.85
371,MetaDrive-Gen-DrivingReward-v0,19,1603.662653210622,373034,1286,19292.223991155624,208.16717529296875,,220.0414581298828,0.84
