TanmayH/CS269-RL-project-code/MetaDrive-test-noise-reduction-0_3_lr-td3_ignore/td3/progress.csv
,log_dir,frame_per_second,episode_reward,total_steps,total_episodes,total_time,actor_loss,critic_loss,target_q,success_rate
0,MetaDrive-test-noise-reduction-0_3_lr-td3,355,4.720193304247485,1018,2,2.867400884628296,,0.0025967005640268326,0.02808292582631111,0.0
1,MetaDrive-test-noise-reduction-0_3_lr-td3,141,-1.6084118878594853,2278,14,16.149847745895386,,0.01069663092494011,0.0465182363986969,0.0
2,MetaDrive-test-noise-reduction-0_3_lr-td3,130,-2.3347885205279097,3801,19,29.116429805755615,-0.03303484991192818,0.7754722237586975,-0.034820105880498886,0.0
3,MetaDrive-test-noise-reduction-0_3_lr-td3,125,-2.3811203525220486,4444,20,35.40345883369446,,0.0017189716454595327,0.03115614503622055,0.0
4,MetaDrive-test-noise-reduction-0_3_lr-td3,115,-2.804710420906349,5017,42,43.594998836517334,-0.026731306686997414,0.8079632520675659,-0.025574039667844772,0.0
5,MetaDrive-test-noise-reduction-0_3_lr-td3,108,-2.6783052431590177,6474,65,59.72307372093201,,0.029209669679403305,0.011936417780816555,0.0
6,MetaDrive-test-noise-reduction-0_3_lr-td3,107,-2.702148842358183,7569,67,70.37702083587646,0.04879982769489288,0.007833549752831459,-0.03168660029768944,0.0
7,MetaDrive-test-noise-reduction-0_3_lr-td3,109,-2.6160887809813698,8570,68,78.610111951828,,0.45763272047042847,-0.1428506076335907,0.0
8,MetaDrive-test-noise-reduction-0_3_lr-td3,109,-2.6061605381015416,9571,69,87.56848073005676,0.0837121233344078,0.009075365029275417,-0.08385442942380905,0.0
9,MetaDrive-test-noise-reduction-0_3_lr-td3,109,-2.586808155928928,10572,70,96.3302948474884,,0.006540114060044289,-0.0874219685792923,0.0
10,MetaDrive-test-noise-reduction-0_3_lr-td3,109,-2.506495705796437,11573,71,105.54346489906311,0.09320784360170364,0.6481231451034546,-0.1644223928451538,0.0
11,MetaDrive-test-noise-reduction-0_3_lr-td3,110,-2.468851829289686,12684,73,114.89522790908813,,0.6952904462814331,-0.17003382742404938,0.0
12,MetaDrive-test-noise-reduction-0_3_lr-td3,110,-2.3973075227538048,13685,74,123.3106586933136,0.07171638309955597,0.01402760948985815,-0.08434823900461197,0.0
13,MetaDrive-test-noise-reduction-0_3_lr-td3,111,-2.362081365908216,14826,76,132.94939184188843,,0.09235988557338715,-0.07864758372306824,0.0
14,MetaDrive-test-noise-reduction-0_3_lr-td3,112,-2.293214559832502,15827,77,141.29280185699463,0.10524848103523254,0.00444915983825922,-0.08347934484481812,0.0
15,MetaDrive-test-noise-reduction-0_3_lr-td3,112,-2.223039881302307,16828,78,149.8576877117157,,0.007974732667207718,-0.09632512927055359,0.0
16,MetaDrive-test-noise-reduction-0_3_lr-td3,112,-2.21867011607242,17829,79,158.12338590621948,0.1221880167722702,0.005083040334284306,-0.10413852334022522,0.0
17,MetaDrive-test-noise-reduction-0_3_lr-td3,112,-2.207867469924006,18830,80,166.88949370384216,,0.004989544861018658,-0.10470929741859436,0.0
18,MetaDrive-test-noise-reduction-0_3_lr-td3,112,-2.1687305972458555,19831,81,175.59346795082092,0.1168476790189743,0.02953455038368702,-0.10823424160480499,0.0
19,MetaDrive-test-noise-reduction-0_3_lr-td3,113,-2.09995098058436,20832,82,183.9403998851776,,0.00917698536068201,-0.10890086740255356,0.0
20,MetaDrive-test-noise-reduction-0_3_lr-td3,113,-2.037400202076199,21833,83,192.49957299232483,0.11796728521585464,0.6758437752723694,-0.1942809820175171,0.0
21,MetaDrive-test-noise-reduction-0_3_lr-td3,113,-2.029222744788179,22834,84,201.31447672843933,,0.004295419901609421,-0.15070685744285583,0.0
22,MetaDrive-test-noise-reduction-0_3_lr-td3,113,-1.9696466322966468,23835,85,210.64056491851807,0.13386189937591553,0.5923886299133301,-0.20436981320381165,0.0
23,MetaDrive-test-noise-reduction-0_3_lr-td3,113,-1.937213998788285,24836,86,219.32663679122925,,0.00038214708911255,-0.13153819739818573,0.0
24,MetaDrive-test-noise-reduction-0_3_lr-td3,113,-1.9745618786087764,25044,87,221.2719748020172,,0.030883055180311203,-0.12978439033031464,0.0
25,MetaDrive-test-noise-reduction-0_3_lr-td3,113,-1.9682975865577157,26045,88,230.10476088523865,0.15634852647781372,0.0025624774862080812,-0.1457189917564392,0.0
26,MetaDrive-test-noise-reduction-0_3_lr-td3,113,-2.0281571612976865,27362,91,241.10890078544617,,0.030049508437514305,-0.17102482914924622,0.0
27,MetaDrive-test-noise-reduction-0_3_lr-td3,113,-2.1019786421725466,28203,93,248.06540870666504,0.17678417265415192,0.04907504469156265,-0.20075158774852753,0.0
28,MetaDrive-test-noise-reduction-0_3_lr-td3,113,-2.1203433586347544,29342,95,257.81783390045166,,0.015317562967538834,-0.19546321034431458,0.0
29,MetaDrive-test-noise-reduction-0_3_lr-td3,114,-2.115873780039133,30343,96,265.84743571281433,0.2208690196275711,0.013194646686315536,-0.23737800121307373,0.0
30,MetaDrive-test-noise-reduction-0_3_lr-td3,114,-2.1434643808274694,31320,97,273.89191198349,,0.007403491996228695,-0.21604380011558533,0.0
31,MetaDrive-test-noise-reduction-0_3_lr-td3,114,-2.140249889891577,32321,98,283.14895486831665,0.2644505500793457,0.04452089965343475,-0.23189178109169006,0.0
32,MetaDrive-test-noise-reduction-0_3_lr-td3,114,-2.1356804516842933,33322,99,291.5457637310028,,0.005552609451115131,-0.23059628903865814,0.0
33,MetaDrive-test-noise-reduction-0_3_lr-td3,114,-2.3600524792414355,34122,101,299.0071997642517,,0.0011455952189862728,-0.25357043743133545,0.0
34,MetaDrive-test-noise-reduction-0_3_lr-td3,114,-2.288408896880378,35123,102,306.9443368911743,0.26347044110298157,0.0021365738939493895,-0.2501750588417053,0.0
35,MetaDrive-test-noise-reduction-0_3_lr-td3,114,-2.3463136794614026,36254,104,316.8040919303894,,0.0058688935823738575,-0.27512025833129883,0.0
36,MetaDrive-test-noise-reduction-0_3_lr-td3,114,-2.285281238144225,37255,105,325.5794486999512,0.2833693325519562,0.5425628423690796,-0.36877450346946716,0.0
37,MetaDrive-test-noise-reduction-0_3_lr-td3,114,-2.2145247064374978,38256,106,334.21783566474915,,0.005059363786131144,-0.3033250570297241,0.0
38,MetaDrive-test-noise-reduction-0_3_lr-td3,114,-2.1827440494357124,39423,108,343.7033998966217,0.30402061343193054,0.006567788310348988,-0.31285569071769714,0.0
39,MetaDrive-test-noise-reduction-0_3_lr-td3,114,-2.109688616372689,40424,109,352.3573968410492,,0.0006999883335083723,-0.3270884156227112,0.0
40,MetaDrive-test-noise-reduction-0_3_lr-td3,114,-2.109009911667746,41425,110,360.90173387527466,0.32428979873657227,0.001546807587146759,-0.3197122812271118,0.0
41,MetaDrive-test-noise-reduction-0_3_lr-td3,114,-2.0303833565957388,42426,111,369.4903419017792,,0.005900246091187,-0.34678953886032104,0.0
42,MetaDrive-test-noise-reduction-0_3_lr-td3,114,-2.032982577862903,43427,112,378.9883418083191,0.36003410816192627,0.009088006801903248,-0.35530993342399597,0.0
43,MetaDrive-test-noise-reduction-0_3_lr-td3,114,-2.0042282866792194,44428,113,387.63686180114746,,0.001101306057535112,-0.3569346070289612,0.0
44,MetaDrive-test-noise-reduction-0_3_lr-td3,114,-2.0795676133587904,45163,115,394.2103388309479,0.35978561639785767,0.005243639461696148,-0.36799558997154236,0.0
45,MetaDrive-test-noise-reduction-0_3_lr-td3,114,-2.0028435094367305,46365,118,404.9262080192566,0.373760849237442,0.0004396118165459484,-0.36741548776626587,0.0
46,MetaDrive-test-noise-reduction-0_3_lr-td3,114,-2.004068703145691,47366,119,413.8381199836731,,0.04396028071641922,-0.4463043212890625,0.0
47,MetaDrive-test-noise-reduction-0_3_lr-td3,114,-1.9829060644537029,48367,120,423.1171736717224,0.4316551685333252,0.0949489027261734,-0.37583523988723755,0.0
48,MetaDrive-test-noise-reduction-0_3_lr-td3,113,-1.9798477133419075,49368,121,433.34299397468567,,0.0017613248201087117,-0.3697037696838379,0.0
49,MetaDrive-test-noise-reduction-0_3_lr-td3,113,-1.9511421589611286,50369,122,442.26991176605225,0.376852810382843,0.002043268410488963,-0.3773869276046753,0.0
50,MetaDrive-test-noise-reduction-0_3_lr-td3,114,-1.900291678948846,51672,124,452.8180480003357,,0.0030624927021563053,-0.38599640130996704,0.0
51,MetaDrive-test-noise-reduction-0_3_lr-td3,114,-1.8446566387025416,52673,125,461.1671419143677,0.38095828890800476,0.000857254839502275,-0.39227432012557983,0.0
52,MetaDrive-test-noise-reduction-0_3_lr-td3,114,-1.8058265291464204,53809,127,470.76327991485596,0.42726293206214905,0.14073315262794495,-0.45886003971099854,0.0
53,MetaDrive-test-noise-reduction-0_3_lr-td3,114,-1.7335581012667887,54810,128,479.3256757259369,,0.6238222122192383,-0.46770304441452026,0.0
54,MetaDrive-test-noise-reduction-0_3_lr-td3,114,-1.7123324214777305,55811,129,487.97089076042175,0.4109761118888855,0.0021426593884825706,-0.4064990282058716,0.0
55,MetaDrive-test-noise-reduction-0_3_lr-td3,114,-1.679431847579687,56812,130,497.2907989025116,,0.0014820473734289408,-0.3939567506313324,0.0
56,MetaDrive-test-noise-reduction-0_3_lr-td3,114,-1.6544290878249046,57813,131,506.0686128139496,0.4039676785469055,0.4930597245693207,-0.4668750464916229,0.0
57,MetaDrive-test-noise-reduction-0_3_lr-td3,114,-1.6003567292009788,58814,132,514.7544898986816,,0.0014006644487380981,-0.3885696530342102,0.0
58,MetaDrive-test-noise-reduction-0_3_lr-td3,114,-1.570509718323124,59815,133,523.8415257930756,0.4062079191207886,0.0008949550101533532,-0.3988291025161743,0.0
59,MetaDrive-test-noise-reduction-0_3_lr-td3,114,-1.5149139734884631,60816,134,532.3493678569794,,0.0010952595621347427,-0.37807154655456543,0.0
60,MetaDrive-test-noise-reduction-0_3_lr-td3,114,-1.5464865817628706,61045,135,534.3015098571777,0.38422608375549316,0.009855590760707855,-0.3771824538707733,0.0
61,MetaDrive-test-noise-reduction-0_3_lr-td3,114,-1.573603847654549,63001,139,551.3657946586609,0.37105056643486023,0.001570013235323131,-0.37890350818634033,0.0
62,MetaDrive-test-noise-reduction-0_3_lr-td3,114,-1.6389510782840448,64415,141,563.8949499130249,0.40513819456100464,0.03945893421769142,-0.4117712080478668,0.0
63,MetaDrive-test-noise-reduction-0_3_lr-td3,114,-1.6717370639990257,65265,142,570.5502038002014,0.3753580152988434,0.0014414482284337282,-0.3732541501522064,0.0
64,MetaDrive-test-noise-reduction-0_3_lr-td3,114,-1.6044105834097235,66266,143,579.7974717617035,,0.001336236484348774,-0.380437970161438,0.0
65,MetaDrive-test-noise-reduction-0_3_lr-td3,114,-1.6014892400843477,67267,144,588.212201833725,0.37440624833106995,0.4689275920391083,-0.434421569108963,0.0
66,MetaDrive-test-noise-reduction-0_3_lr-td3,114,-1.578410856897103,68268,145,596.7931468486786,,0.0006507076323032379,-0.37021881341934204,0.0
67,MetaDrive-test-noise-reduction-0_3_lr-td3,114,-1.5608561995400287,69509,148,608.3227519989014,0.36381345987319946,0.013280510902404785,-0.3694457709789276,0.0
68,MetaDrive-test-noise-reduction-0_3_lr-td3,114,-1.5025501900676692,70510,149,617.7277126312256,,0.000848992436658591,-0.35492679476737976,0.0
69,MetaDrive-test-noise-reduction-0_3_lr-td3,114,-1.4838940409140156,71609,151,627.3826198577881,0.3652711510658264,0.00050219742115587,-0.355031281709671,0.0
70,MetaDrive-test-noise-reduction-0_3_lr-td3,113,-1.4404913229424128,72710,153,637.9816637039185,,0.638309121131897,-0.4298902451992035,0.0
71,MetaDrive-test-noise-reduction-0_3_lr-td3,113,-1.4033426888229703,73711,154,646.8143219947815,0.37599173188209534,0.0004018592298962176,-0.36016178131103516,0.0
72,MetaDrive-test-noise-reduction-0_3_lr-td3,114,-1.4267951552946638,74712,155,655.1209559440613,,0.0011792413424700499,-0.3395242393016815,0.0
73,MetaDrive-test-noise-reduction-0_3_lr-td3,114,-1.4583529028974636,75950,157,665.8382477760315,,0.00037725811125710607,-0.35444629192352295,0.0
74,MetaDrive-test-noise-reduction-0_3_lr-td3,114,-1.488723462624008,76067,158,666.8863668441772,0.3538278043270111,0.000559561129193753,-0.35063740611076355,0.0
75,MetaDrive-test-noise-reduction-0_3_lr-td3,114,-1.4893932503285916,77068,159,676.0005638599396,,0.0028564361855387688,-0.34817641973495483,0.0
76,MetaDrive-test-noise-reduction-0_3_lr-td3,114,-1.4882373309423251,78069,160,684.4917650222778,0.32729414105415344,0.6688371896743774,-0.41676855087280273,0.0
77,MetaDrive-test-noise-reduction-0_3_lr-td3,113,-1.4135561051360062,79070,161,694.1123359203339,,0.0006918287836015224,-0.34764018654823303,0.0
78,MetaDrive-test-noise-reduction-0_3_lr-td3,113,-1.4130854480031403,80260,164,704.9161548614502,,0.00017068732995539904,-0.34207430481910706,0.0
79,MetaDrive-test-noise-reduction-0_3_lr-td3,113,-1.3995189655292648,81261,165,715.3019037246704,0.3412506580352783,0.00022772466763854027,-0.3313290476799011,0.0
80,MetaDrive-test-noise-reduction-0_3_lr-td3,113,-1.32282415307357,82262,166,724.4745688438416,,0.003566408297047019,-0.333805650472641,0.0
81,MetaDrive-test-noise-reduction-0_3_lr-td3,113,-1.3920638461862587,83486,168,735.7832977771759,,0.0005201019812375307,-0.3341827988624573,0.0
82,MetaDrive-test-noise-reduction-0_3_lr-td3,113,-1.3489312801362947,84487,169,744.8769307136536,0.3357992470264435,0.003409427823498845,-0.3226832151412964,0.0
83,MetaDrive-test-noise-reduction-0_3_lr-td3,113,-1.3303258491094334,85488,170,753.752475976944,,0.0023784933146089315,-0.3386121392250061,0.0
84,MetaDrive-test-noise-reduction-0_3_lr-td3,113,-1.3369380239023776,86489,171,763.5002770423889,0.32007017731666565,0.0025546280667185783,-0.32140040397644043,0.0
85,MetaDrive-test-noise-reduction-0_3_lr-td3,113,-1.261703811070299,87490,172,772.9386639595032,,0.0006111599504947662,-0.3251889646053314,0.0
86,MetaDrive-test-noise-reduction-0_3_lr-td3,113,-1.4262591866191943,88232,174,779.7073218822479,,0.00045359155046753585,-0.3334045708179474,0.0
87,MetaDrive-test-noise-reduction-0_3_lr-td3,112,-1.6118573717725846,89856,178,795.4440257549286,,0.0009856497636064887,-0.3365533947944641,0.0
88,MetaDrive-test-noise-reduction-0_3_lr-td3,112,-1.5660028341312522,90857,179,804.6753227710724,0.34458136558532715,0.000922482053283602,-0.33824819326400757,0.0
89,MetaDrive-test-noise-reduction-0_3_lr-td3,112,-1.6624845600960945,91055,181,806.6504907608032,0.34502968192100525,0.0006223776726983488,-0.3291926681995392,0.0
90,MetaDrive-test-noise-reduction-0_3_lr-td3,112,-1.6677635694721307,92056,182,815.7721948623657,,0.0018343264237046242,-0.32412615418434143,0.0
91,MetaDrive-test-noise-reduction-0_3_lr-td3,112,-1.6659614241825087,93057,183,825.0341629981995,0.3206906318664551,0.0028734379447996616,-0.32483381032943726,0.0
92,MetaDrive-test-noise-reduction-0_3_lr-td3,112,-1.7790608319895174,94658,186,839.3004128932953,,0.0021710344590246677,-0.337481826543808,0.0
93,MetaDrive-test-noise-reduction-0_3_lr-td3,112,-1.7320183781039185,95783,188,850.2669248580933,0.34333083033561707,0.002033549128100276,-0.3315112888813019,0.0
94,MetaDrive-test-noise-reduction-0_3_lr-td3,112,-1.655798172443134,96918,190,861.0801658630371,,0.002116940449923277,-0.3196772336959839,0.0
95,MetaDrive-test-noise-reduction-0_3_lr-td3,112,-1.6985501362132438,97211,191,863.4668486118317,0.3582547903060913,0.6680772304534912,-0.42010605335235596,0.0
96,MetaDrive-test-noise-reduction-0_3_lr-td3,112,-1.7128804779705384,98291,195,872.9293797016144,0.3439190983772278,0.0017621330916881561,-0.33569687604904175,0.0
97,MetaDrive-test-noise-reduction-0_3_lr-td3,112,-1.7275582275332568,99095,196,880.070191860199,0.36053651571273804,0.0022755300160497427,-0.33982720971107483,0.0
98,MetaDrive-test-noise-reduction-0_3_lr-td3,112,-1.6481185008681567,100096,197,888.9648547172546,,0.0035648420453071594,-0.33165672421455383,0.0
99,MetaDrive-test-noise-reduction-0_3_lr-td3,112,-1.6869348740297492,101774,200,904.82106590271,,0.003285786136984825,-0.3436639606952667,0.0
100,MetaDrive-test-noise-reduction-0_3_lr-td3,112,-1.6034813752330845,102775,201,913.6884548664093,0.39897456765174866,0.007207029033452272,-0.372562974691391,0.0
101,MetaDrive-test-noise-reduction-0_3_lr-td3,112,-1.6489863117214225,103776,202,922.3908858299255,,0.0011686071520671248,-0.34033769369125366,0.0
102,MetaDrive-test-noise-reduction-0_3_lr-td3,112,-1.6050102441939438,104777,203,930.6333038806915,0.3325924873352051,0.00045634221169166267,-0.33627399802207947,0.0
103,MetaDrive-test-noise-reduction-0_3_lr-td3,112,-1.6448079812867737,105865,205,940.6075367927551,0.3245023488998413,0.0038832949940115213,-0.32434025406837463,0.0
104,MetaDrive-test-noise-reduction-0_3_lr-td3,112,-1.6914297691913835,106866,206,949.4115610122681,,0.0002557008992880583,-0.345949649810791,0.0
105,MetaDrive-test-noise-reduction-0_3_lr-td3,112,-1.76273990126717,107125,208,951.9898347854614,0.30861639976501465,0.003142965491861105,-0.31779614090919495,0.0
106,MetaDrive-test-noise-reduction-0_3_lr-td3,112,-1.9385897200505149,108907,211,968.0618708133698,0.29872092604637146,0.0005543591687455773,-0.3134542405605316,0.0
107,MetaDrive-test-noise-reduction-0_3_lr-td3,112,-1.8874484506842268,109908,212,976.8523058891296,,0.0041038100607693195,-0.3420346975326538,0.0
108,MetaDrive-test-noise-reduction-0_3_lr-td3,112,-1.8681660801388043,110909,213,985.0893828868866,0.34214353561401367,0.0005541034624911845,-0.34927892684936523,0.0
109,MetaDrive-test-noise-reduction-0_3_lr-td3,112,-1.7955076091276774,111910,214,994.07830286026,,0.0006618410698138177,-0.3465808629989624,0.0
110,MetaDrive-test-noise-reduction-0_3_lr-td3,112,-1.7566279932261168,112911,215,1002.969420671463,0.36573803424835205,0.005357139743864536,-0.3488966226577759,0.0
111,MetaDrive-test-noise-reduction-0_3_lr-td3,112,-1.7264535129459424,113912,216,1011.3573668003082,,0.003934463020414114,-0.3665020167827606,0.0
112,MetaDrive-test-noise-reduction-0_3_lr-td3,112,-1.6660230599902053,114913,217,1020.5267968177795,0.3612275719642639,0.00047480763169005513,-0.3589320182800293,0.0
113,MetaDrive-test-noise-reduction-0_3_lr-td3,112,-1.657932729141337,115914,218,1029.4147877693176,,0.062048330903053284,-0.36303091049194336,0.0
114,MetaDrive-test-noise-reduction-0_3_lr-td3,112,-1.6098224464014341,116915,219,1038.11235165596,0.36574646830558777,0.0008340923232026398,-0.3656345307826996,0.0
115,MetaDrive-test-noise-reduction-0_3_lr-td3,112,-1.6139192616470377,117916,220,1046.7977197170258,,0.0004896401660516858,-0.3994695544242859,0.0
116,MetaDrive-test-noise-reduction-0_3_lr-td3,112,-1.6451924000206295,118021,221,1047.7052857875824,0.3948203921318054,0.002396959811449051,-0.39276593923568726,0.0
117,MetaDrive-test-noise-reduction-0_3_lr-td3,112,-1.6631266514263712,119147,223,1057.6545858383179,0.34727561473846436,0.0022993008606135845,-0.372918963432312,0.0
118,MetaDrive-test-noise-reduction-0_3_lr-td3,112,-1.8324059682165181,120248,226,1067.378161907196,,0.0005445939605124295,-0.37994611263275146,0.0
119,MetaDrive-test-noise-reduction-0_3_lr-td3,112,-1.9415646972148028,121426,229,1078.1409878730774,,0.006884637288749218,-0.3919825553894043,0.0
120,MetaDrive-test-noise-reduction-0_3_lr-td3,112,-1.8911267136766903,122427,230,1086.165100812912,0.3735782504081726,0.00038657686673104763,-0.3868602514266968,0.0
121,MetaDrive-test-noise-reduction-0_3_lr-td3,112,-1.8462103420702214,123428,231,1095.653975725174,,0.00425010547041893,-0.40404361486434937,0.0
122,MetaDrive-test-noise-reduction-0_3_lr-td3,112,-1.8427027300048278,124429,232,1104.2893738746643,0.3868231475353241,0.5524075627326965,-0.4469122588634491,0.0
123,MetaDrive-test-noise-reduction-0_3_lr-td3,112,-1.9065588003759502,125534,234,1113.7528347969055,,0.0023830579593777657,-0.3643817603588104,0.0
124,MetaDrive-test-noise-reduction-0_3_lr-td3,112,-1.8689157617438419,126535,235,1122.568009853363,0.5115045309066772,0.056030936539173126,-0.47780585289001465,0.0
125,MetaDrive-test-noise-reduction-0_3_lr-td3,112,-1.7884464407127367,127536,236,1131.574334859848,,0.0012924971524626017,-0.37433579564094543,0.0
126,MetaDrive-test-noise-reduction-0_3_lr-td3,112,-1.743486589645281,128682,238,1141.9784986972809,,0.0010743821039795876,-0.40927964448928833,0.0
127,MetaDrive-test-noise-reduction-0_3_lr-td3,112,-1.8310697025469214,129651,241,1150.7635598182678,0.42106735706329346,0.0012397242244333029,-0.39793577790260315,0.0
128,MetaDrive-test-noise-reduction-0_3_lr-td3,112,-1.7486258420211696,130652,242,1160.2352409362793,,0.0013282770523801446,-0.3782776892185211,0.0
129,MetaDrive-test-noise-reduction-0_3_lr-td3,112,-1.797089293863476,131653,243,1169.4623348712921,0.43126463890075684,0.0004709059139713645,-0.4347062110900879,0.0
130,MetaDrive-test-noise-reduction-0_3_lr-td3,112,-1.7717077173976696,132654,244,1178.707636833191,,0.5472226738929749,-0.5173916220664978,0.0
131,MetaDrive-test-noise-reduction-0_3_lr-td3,112,-1.7697861330407785,133655,245,1187.636519908905,0.3686279058456421,0.001964585157111287,-0.37192872166633606,0.0
132,MetaDrive-test-noise-reduction-0_3_lr-td3,112,-1.7732126958447127,134633,246,1196.916571855545,0.40801554918289185,0.0222143717110157,-0.45754000544548035,0.0
133,MetaDrive-test-noise-reduction-0_3_lr-td3,112,-1.7760375586107529,135722,248,1206.6919088363647,,0.0008063358836807311,-0.35825759172439575,0.0
134,MetaDrive-test-noise-reduction-0_3_lr-td3,112,-1.7845806259175478,136723,249,1215.3207528591156,0.4512009918689728,0.0012244537938386202,-0.4576416015625,0.0
135,MetaDrive-test-noise-reduction-0_3_lr-td3,112,-1.702527814788149,137724,250,1224.2945296764374,,0.0030266321264207363,-0.3895719051361084,0.0
136,MetaDrive-test-noise-reduction-0_3_lr-td3,112,-1.7023392180803614,138725,251,1233.62566781044,0.4464816749095917,0.0021257027983665466,-0.4262765944004059,0.0
137,MetaDrive-test-noise-reduction-0_3_lr-td3,112,-1.7135053326345897,139502,252,1240.254686832428,,0.0005779890343546867,-0.42872294783592224,0.0
138,MetaDrive-test-noise-reduction-0_3_lr-td3,112,-1.7873646841662159,140979,254,1253.542760848999,0.5294165015220642,0.5103865265846252,-0.5745341181755066,0.0
139,MetaDrive-test-noise-reduction-0_3_lr-td3,112,-1.82351763985692,141088,255,1254.578715801239,,0.0005406185518950224,-0.44251748919487,0.0
140,MetaDrive-test-noise-reduction-0_3_lr-td3,112,-1.7908452887504422,142577,258,1268.5688438415527,0.4202968180179596,0.0004343256587162614,-0.42543572187423706,0.0
141,MetaDrive-test-noise-reduction-0_3_lr-td3,112,-1.7409810745250303,143578,259,1276.8594868183136,,0.011781212873756886,-0.5518844127655029,0.0
142,MetaDrive-test-noise-reduction-0_3_lr-td3,112,-1.8059097751714852,144708,261,1286.2422578334808,,0.0009581090416759253,-0.5176355838775635,0.0
143,MetaDrive-test-noise-reduction-0_3_lr-td3,112,-1.7753074065017231,145709,262,1294.5966248512268,0.49191418290138245,0.004070143681019545,-0.4832010865211487,0.0
144,MetaDrive-test-noise-reduction-0_3_lr-td3,112,-1.74377592358643,146710,263,1303.26873087883,,0.004461576696485281,-0.452740341424942,0.0
145,MetaDrive-test-noise-reduction-0_3_lr-td3,112,-1.7446099564862139,147711,264,1312.1880209445953,0.6419268846511841,0.004124826285988092,-0.6555986404418945,0.0
146,MetaDrive-test-noise-reduction-0_3_lr-td3,112,-1.7441685095435984,148712,265,1320.6253776550293,,0.6634568572044373,-0.3940020799636841,0.0
147,MetaDrive-test-noise-reduction-0_3_lr-td3,112,-1.790067851149978,149713,266,1329.4746429920197,0.5538774132728577,0.0056630689650774,-0.5251476764678955,0.0
148,MetaDrive-test-noise-reduction-0_3_lr-td3,112,-1.7543475299264306,150714,267,1338.9654188156128,,0.006474226713180542,-0.4823664724826813,0.0
149,MetaDrive-test-noise-reduction-0_3_lr-td3,112,-1.7658136191376508,151715,268,1347.4596009254456,0.35443681478500366,0.001001277705654502,-0.3435904085636139,0.0
150,MetaDrive-test-noise-reduction-0_3_lr-td3,112,-1.7577813434039615,152716,269,1355.660953760147,,0.0005047379527240992,-0.42248719930648804,0.0
151,MetaDrive-test-noise-reduction-0_3_lr-td3,112,-1.7437162483364548,153717,270,1364.2424409389496,0.6284052729606628,0.039719320833683014,-0.6121944189071655,0.0
152,MetaDrive-test-noise-reduction-0_3_lr-td3,112,-1.8254856650829532,154008,271,1366.7323818206787,,0.004290286917239428,-0.4212554097175598,0.0
153,MetaDrive-test-noise-reduction-0_3_lr-td3,112,-1.8189379347637262,155009,272,1375.2672309875488,0.4767031669616699,0.001326826517470181,-0.4658185839653015,0.0
154,MetaDrive-test-noise-reduction-0_3_lr-td3,112,-1.7233619625596335,156916,274,1392.3451578617096,,0.0006632219883613288,-0.4346502721309662,0.0
155,MetaDrive-test-noise-reduction-0_3_lr-td3,112,-1.6569369196216428,157917,275,1400.9931766986847,0.4534495174884796,0.004244022071361542,-0.49086350202560425,0.0
156,MetaDrive-test-noise-reduction-0_3_lr-td3,112,-1.6490710445857644,158011,276,1401.8094918727875,0.7475697994232178,0.0029983632266521454,-0.7661308646202087,0.0
157,MetaDrive-test-noise-reduction-0_3_lr-td3,112,-1.7348286941436037,159469,278,1414.2435829639435,0.5587952136993408,0.0006452824454754591,-0.5579708218574524,0.0
158,MetaDrive-test-noise-reduction-0_3_lr-td3,112,-1.7798799954321176,160470,279,1422.5715637207031,,0.003707780037075281,-0.4258820414543152,0.0
159,MetaDrive-test-noise-reduction-0_3_lr-td3,112,-1.7498222963453662,161572,281,1431.5292427539825,,0.0006994016002863646,-0.5194784998893738,0.0
160,MetaDrive-test-noise-reduction-0_3_lr-td3,112,-1.7457450783829065,162573,282,1440.0015256404877,0.7777963876724243,0.41419363021850586,-0.8108800649642944,0.0
161,MetaDrive-test-noise-reduction-0_3_lr-td3,112,-1.7475867156865166,163797,284,1450.1630358695984,0.5694043636322021,0.0027954017277806997,-0.58773273229599,0.0
162,MetaDrive-test-noise-reduction-0_3_lr-td3,112,-1.6970122227144597,164798,285,1458.5268669128418,,0.0006788506871089339,-0.49709224700927734,0.0
163,MetaDrive-test-noise-reduction-0_3_lr-td3,112,-1.7306055072356494,165799,286,1467.37979388237,0.6289063692092896,0.0012075369013473392,-0.6288352012634277,0.0
164,MetaDrive-test-noise-reduction-0_3_lr-td3,113,-1.6913225788719577,166800,287,1476.0208237171173,,0.004332712851464748,-0.5348989963531494,0.0
165,MetaDrive-test-noise-reduction-0_3_lr-td3,112,-1.7411602562928263,167898,289,1486.182912826538,,0.001885116915218532,-0.517716109752655,0.0
166,MetaDrive-test-noise-reduction-0_3_lr-td3,113,-1.745745156388514,168899,290,1494.3905827999115,0.5158810615539551,0.0005215748678892851,-0.5093430280685425,0.0
167,MetaDrive-test-noise-reduction-0_3_lr-td3,113,-1.7102082662641214,169900,291,1502.815836906433,,0.0006455398979596794,-0.617929220199585,0.0
168,MetaDrive-test-noise-reduction-0_3_lr-td3,113,-1.7094078502414343,170041,292,1504.2122340202332,0.6012884974479675,0.0033372396137565374,-0.6106113195419312,0.0
169,MetaDrive-test-noise-reduction-0_3_lr-td3,113,-1.6297544926742895,171042,293,1512.8723328113556,,0.0010825381614267826,-0.4905011057853699,0.0
170,MetaDrive-test-noise-reduction-0_3_lr-td3,113,-1.5967560048612623,172201,296,1523.323852777481,0.5056787729263306,0.0009880953002721071,-0.518661379814148,0.0
171,MetaDrive-test-noise-reduction-0_3_lr-td3,113,-1.6471986378288077,173202,297,1532.2667689323425,,0.00038550153840333223,-0.6012294888496399,0.0
172,MetaDrive-test-noise-reduction-0_3_lr-td3,113,-1.5652799380704918,174203,298,1540.8351969718933,0.5778153538703918,0.0008346757967956364,-0.5829041600227356,0.0
173,MetaDrive-test-noise-reduction-0_3_lr-td3,113,-1.522629829472204,175204,299,1549.8852260112762,,0.0007194207282736897,-0.5311382412910461,0.0
174,MetaDrive-test-noise-reduction-0_3_lr-td3,113,-1.4846565074516704,176205,300,1558.3116698265076,0.7159405946731567,0.007838758639991283,-0.6889176368713379,0.0
175,MetaDrive-test-noise-reduction-0_3_lr-td3,113,-1.4721042233353245,177206,301,1567.0792968273163,,0.0010556590277701616,-0.5489728450775146,0.0
176,MetaDrive-test-noise-reduction-0_3_lr-td3,113,-1.477616990859873,178207,302,1575.7591228485107,0.6549475193023682,0.0005340484203770757,-0.6530967950820923,0.0
177,MetaDrive-test-noise-reduction-0_3_lr-td3,113,-1.4710099187507166,179355,304,1585.9939856529236,0.5698117017745972,0.0011103020515292883,-0.5650015473365784,0.0
178,MetaDrive-test-noise-reduction-0_3_lr-td3,113,-1.4232953157713277,180356,305,1594.6826457977295,,0.0011998272966593504,-0.5513176918029785,0.0
179,MetaDrive-test-noise-reduction-0_3_lr-td3,113,-1.3756571618432774,181357,306,1603.2984509468079,0.5127664804458618,0.0004427855892572552,-0.5096003413200378,0.0
180,MetaDrive-test-noise-reduction-0_3_lr-td3,113,-1.3079290154322973,182358,307,1612.170287847519,,0.0028077405877411366,-0.6017391085624695,0.0
181,MetaDrive-test-noise-reduction-0_3_lr-td3,113,-1.2161605079385363,183811,310,1625.2754666805267,0.6162033081054688,0.0006764284335076809,-0.6344557404518127,0.0
182,MetaDrive-test-noise-reduction-0_3_lr-td3,113,-1.2513326754911815,184949,312,1635.6887197494507,0.4550657868385315,0.0018611812265589833,-0.45403578877449036,0.0
183,MetaDrive-test-noise-reduction-0_3_lr-td3,113,-1.2473880412191818,185950,313,1644.406065940857,,0.0019978764466941357,-0.4640573263168335,0.0
184,MetaDrive-test-noise-reduction-0_3_lr-td3,113,-1.318525120996482,186087,314,1645.7313778400421,0.6209213137626648,0.0008588699856773019,-0.6327551603317261,0.0
185,MetaDrive-test-noise-reduction-0_3_lr-td3,113,-1.3080989799399405,187853,316,1661.3372628688812,0.3392046093940735,0.003040947951376438,-0.3728581964969635,0.0
186,MetaDrive-test-noise-reduction-0_3_lr-td3,113,-1.2880917446894649,188854,317,1670.185029745102,,0.00036660151090472937,-0.6417276859283447,0.0
187,MetaDrive-test-noise-reduction-0_3_lr-td3,113,-1.2894506007456508,189855,318,1679.195188999176,0.5871695280075073,0.000864416710101068,-0.5768576860427856,0.0
188,MetaDrive-test-noise-reduction-0_3_lr-td3,113,-1.337831893785873,190856,319,1688.251434803009,,0.007631571032106876,-0.5546966791152954,0.0
189,MetaDrive-test-noise-reduction-0_3_lr-td3,113,-1.2892883677523668,191935,321,1697.0336909294128,0.5214531421661377,0.002172051230445504,-0.5119688510894775,0.0
190,MetaDrive-test-noise-reduction-0_3_lr-td3,113,-1.2895802700894012,192053,322,1698.1128568649292,0.5115543007850647,0.0021838676184415817,-0.508588969707489,0.0
191,MetaDrive-test-noise-reduction-0_3_lr-td3,113,-1.2917425678784078,193778,325,1713.5124368667603,,0.0050000958144664764,-0.574080765247345,0.0
192,MetaDrive-test-noise-reduction-0_3_lr-td3,113,-1.2037456103320823,194779,326,1721.9552400112152,0.5031911730766296,0.0011619507567957044,-0.49684834480285645,0.0
193,MetaDrive-test-noise-reduction-0_3_lr-td3,113,-1.1232055787010318,195780,327,1730.262051820755,,0.4762752056121826,-0.7582131028175354,0.0
194,MetaDrive-test-noise-reduction-0_3_lr-td3,113,-1.20247405170684,196953,330,1740.2800378799438,0.49801427125930786,0.0009456145926378667,-0.529365599155426,0.0
195,MetaDrive-test-noise-reduction-0_3_lr-td3,113,-1.2521649239392267,197954,331,1748.9269819259644,,0.0008938910905271769,-0.4996766448020935,0.0
196,MetaDrive-test-noise-reduction-0_3_lr-td3,113,-1.2510789947295289,198955,332,1757.3428690433502,0.3942009508609772,0.0003772149793803692,-0.3861706256866455,0.0
197,MetaDrive-test-noise-reduction-0_3_lr-td3,113,-1.1798064351887745,199956,333,1765.977472782135,,0.007146933116018772,-0.4488368630409241,0.0
198,MetaDrive-test-noise-reduction-0_3_lr-td3,113,-1.2116970345971634,200154,334,1767.8417007923126,,0.0012867110781371593,-0.7359278202056885,0.0
199,MetaDrive-test-noise-reduction-0_3_lr-td3,113,-1.1810690014754857,201155,335,1776.7074687480927,0.5380553007125854,0.0022459574975073338,-0.509281575679779,0.0
200,MetaDrive-test-noise-reduction-0_3_lr-td3,113,-1.1687944140417625,202156,336,1785.5230820178986,,0.004576977342367172,-0.4954448342323303,0.0
201,MetaDrive-test-noise-reduction-0_3_lr-td3,113,-1.1369723269108096,203157,337,1793.589514017105,0.6891620755195618,0.005255908239632845,-0.6791880130767822,0.0
202,MetaDrive-test-noise-reduction-0_3_lr-td3,113,-1.1112214035926717,204458,339,1805.259533882141,,0.0013887995155528188,-0.561059296131134,0.0
203,MetaDrive-test-noise-reduction-0_3_lr-td3,113,-1.0807396679330141,205459,340,1813.5489978790283,0.5879624485969543,0.49528294801712036,-0.6718206405639648,0.0
204,MetaDrive-test-noise-reduction-0_3_lr-td3,113,-1.1504933605578045,206425,342,1821.5003468990326,0.5161352157592773,0.0009882040321826935,-0.5221030712127686,0.0
205,MetaDrive-test-noise-reduction-0_3_lr-td3,113,-1.0968069177413111,207426,343,1830.1811096668243,,0.0031373051460832357,-0.5982134342193604,0.0
206,MetaDrive-test-noise-reduction-0_3_lr-td3,113,-1.1670727628020412,208139,344,1836.1327328681946,0.46012434363365173,0.0012689137365669012,-0.47393858432769775,0.0
207,MetaDrive-test-noise-reduction-0_3_lr-td3,113,-1.1291237170433936,209140,345,1844.1980917453766,,0.010212801396846771,-0.4228042960166931,0.0
208,MetaDrive-test-noise-reduction-0_3_lr-td3,113,-1.0669559950363494,210141,346,1852.9305338859558,0.5665683150291443,0.0024396784137934446,-0.5668409466743469,0.0
209,MetaDrive-test-noise-reduction-0_3_lr-td3,113,-1.0335679681711365,211142,347,1861.8039498329163,,0.0038926806300878525,-0.4952884912490845,0.0
210,MetaDrive-test-noise-reduction-0_3_lr-td3,113,-1.1147302515276107,212276,349,1871.1144597530365,,0.00040436963899992406,-0.5154770016670227,0.0
211,MetaDrive-test-noise-reduction-0_3_lr-td3,113,-1.1609878879171092,213277,350,1880.193413734436,0.5162229537963867,0.005395692773163319,-0.499386191368103,0.0
212,MetaDrive-test-noise-reduction-0_3_lr-td3,113,-1.211984494238378,214278,351,1889.7606918811798,,0.00032482901588082314,-0.48416614532470703,0.0
213,MetaDrive-test-noise-reduction-0_3_lr-td3,113,-1.1663931995645942,215279,352,1898.6444218158722,0.5259338021278381,0.004603501874953508,-0.5523229241371155,0.0
214,MetaDrive-test-noise-reduction-0_3_lr-td3,113,-1.123420086971469,216280,353,1907.3171138763428,,0.0006851142970845103,-0.6207839846611023,0.0
215,MetaDrive-test-noise-reduction-0_3_lr-td3,113,-1.1300234341283737,217529,356,1918.7251427173615,0.4478972554206848,0.00019776832778006792,-0.45109570026397705,0.0
216,MetaDrive-test-noise-reduction-0_3_lr-td3,113,-1.158452960906013,218672,358,1929.5332708358765,,0.004290112294256687,-0.3814500570297241,0.0
217,MetaDrive-test-noise-reduction-0_3_lr-td3,113,-1.2584104869423047,219892,361,1940.8368318080902,,0.0005954917869530618,-0.573686957359314,0.0
218,MetaDrive-test-noise-reduction-0_3_lr-td3,113,-1.219190861378034,220893,362,1949.3716397285461,0.4737091064453125,0.0009035831317305565,-0.48785051703453064,0.0
219,MetaDrive-test-noise-reduction-0_3_lr-td3,113,-1.179909487224763,221894,363,1957.9343547821045,,0.00034729225444607437,-0.6110745668411255,0.0
220,MetaDrive-test-noise-reduction-0_3_lr-td3,113,-1.1918395791018157,222895,364,1966.7257900238037,0.4098814129829407,0.0014793085865676403,-0.42285099625587463,0.0
221,MetaDrive-test-noise-reduction-0_3_lr-td3,113,-1.1480967483546842,223896,365,1975.2446479797363,,0.0006751665496267378,-0.435941219329834,0.0
222,MetaDrive-test-noise-reduction-0_3_lr-td3,113,-1.1867461638071855,224343,366,1979.161200761795,0.5017489790916443,0.00047563971020281315,-0.500584065914154,0.0
223,MetaDrive-test-noise-reduction-0_3_lr-td3,113,-1.181383512094014,225344,367,1988.6977667808533,,0.00270762643776834,-0.37890541553497314,0.0
224,MetaDrive-test-noise-reduction-0_3_lr-td3,113,-1.2615286192197475,226431,369,1998.9973058700562,0.6010380983352661,0.3162437975406647,-0.640216588973999,0.0
225,MetaDrive-test-noise-reduction-0_3_lr-td3,113,-1.25272558584307,227432,370,2008.913578748703,,0.0035298673901706934,-0.6577062010765076,0.0
226,MetaDrive-test-noise-reduction-0_3_lr-td3,113,-1.2457147587170834,228554,372,2019.232820034027,,0.0005439871456474066,-0.537463366985321,0.0
227,MetaDrive-test-noise-reduction-0_3_lr-td3,113,-1.3443442490072743,229243,374,2025.7154476642609,0.37651607394218445,0.004033670295029879,-0.35595977306365967,0.0
228,MetaDrive-test-noise-reduction-0_3_lr-td3,113,-1.3783979568548859,230349,376,2035.9888849258423,0.5593814253807068,0.002838813466951251,-0.5271723866462708,0.0
229,MetaDrive-test-noise-reduction-0_3_lr-td3,113,-1.273351325507888,231495,378,2047.2231798171997,0.4749446213245392,0.0040923068299889565,-0.47917529940605164,0.0
230,MetaDrive-test-noise-reduction-0_3_lr-td3,112,-1.2378601860707916,232496,379,2058.1704337596893,,0.002751650521531701,-0.3963499069213867,0.0
231,MetaDrive-test-noise-reduction-0_3_lr-td3,112,-1.1997097626953603,233497,380,2067.127287864685,0.667445957660675,0.000818082015030086,-0.6502236127853394,0.0
232,MetaDrive-test-noise-reduction-0_3_lr-td3,112,-1.2150381886796453,234461,381,2075.707499742508,0.4057025909423828,0.00046514521818608046,-0.39314648509025574,0.0
233,MetaDrive-test-noise-reduction-0_3_lr-td3,112,-1.2187004921045317,235462,382,2084.5678186416626,,0.0007550775771960616,-0.4101852774620056,0.0
234,MetaDrive-test-noise-reduction-0_3_lr-td3,112,-1.1825314187018217,236463,383,2093.151130914688,0.7229512333869934,0.0022771572694182396,-0.7164530754089355,0.0
235,MetaDrive-test-noise-reduction-0_3_lr-td3,112,-1.3129840835157425,237043,385,2097.981219768524,0.4505305588245392,0.0017097214004024863,-0.42802876234054565,0.0
236,MetaDrive-test-noise-reduction-0_3_lr-td3,112,-1.2734201531179843,238044,386,2106.717576980591,,0.004497463349252939,-0.5351475477218628,0.0
237,MetaDrive-test-noise-reduction-0_3_lr-td3,113,-1.234320830821167,239045,387,2115.3655757904053,0.5250791311264038,0.27353137731552124,-0.5629841089248657,0.0
238,MetaDrive-test-noise-reduction-0_3_lr-td3,112,-1.2040612784201654,240046,388,2124.6171946525574,,0.637628436088562,-0.583154559135437,0.0
239,MetaDrive-test-noise-reduction-0_3_lr-td3,112,-1.2332373534278709,241117,390,2134.5263407230377,0.4984143376350403,0.0027691603172570467,-0.49023541808128357,0.0
240,MetaDrive-test-noise-reduction-0_3_lr-td3,112,-1.2656989741397267,242377,393,2145.0254719257355,0.5326378345489502,0.0007529893191531301,-0.5311411619186401,0.0
241,MetaDrive-test-noise-reduction-0_3_lr-td3,113,-1.1827764367257108,243378,394,2153.3998317718506,,0.0020422586239874363,-0.4020788073539734,0.0
242,MetaDrive-test-noise-reduction-0_3_lr-td3,113,-1.1509269065160992,244379,395,2162.387765645981,0.6873915791511536,0.0005285769002512097,-0.6845230460166931,0.0
243,MetaDrive-test-noise-reduction-0_3_lr-td3,112,-1.1355901077071884,245380,396,2172.0683059692383,,0.001157652703113854,-0.3977411389350891,0.0
244,MetaDrive-test-noise-reduction-0_3_lr-td3,112,-1.0859444564046021,246381,397,2180.852989912033,0.5509765148162842,0.0021302569657564163,-0.5618150234222412,0.0
245,MetaDrive-test-noise-reduction-0_3_lr-td3,112,-1.1145470265230548,247382,398,2189.6399018764496,,0.0008776725153438747,-0.4898235499858856,0.0
246,MetaDrive-test-noise-reduction-0_3_lr-td3,112,-1.227717601703331,248737,401,2202.2938368320465,0.43818575143814087,0.0005977617693133652,-0.43801507353782654,0.0
247,MetaDrive-test-noise-reduction-0_3_lr-td3,112,-1.2285893108076906,249738,402,2211.4013187885284,,0.0017045644344761968,-0.6677693128585815,0.0
248,MetaDrive-test-noise-reduction-0_3_lr-td3,112,-1.1469707704295835,250739,403,2220.2841160297394,0.4754207730293274,0.0008715097210370004,-0.4621332585811615,0.0
249,MetaDrive-test-noise-reduction-0_3_lr-td3,112,-1.1075523426668754,251740,404,2228.997121810913,,0.0019709672778844833,-0.552250325679779,0.0
250,MetaDrive-test-noise-reduction-0_3_lr-td3,112,-1.151510900333164,252741,405,2238.0840198993683,0.47788292169570923,0.001450028270483017,-0.48223668336868286,0.0
251,MetaDrive-test-noise-reduction-0_3_lr-td3,112,-1.23999293056418,253141,406,2241.735138654709,0.4140705466270447,0.0009025777690112591,-0.4209872782230377,0.0
252,MetaDrive-test-noise-reduction-0_3_lr-td3,112,-1.2689924353421334,254256,408,2252.4013538360596,,0.0012956717982888222,-0.548160195350647,0.0
253,MetaDrive-test-noise-reduction-0_3_lr-td3,112,-1.3625175857165943,255001,411,2258.9369938373566,0.39062148332595825,0.00043204176472499967,-0.38710570335388184,0.0
254,MetaDrive-test-noise-reduction-0_3_lr-td3,112,-1.3608480757096248,256002,412,2267.5174527168274,,0.0006295542698353529,-0.4657959043979645,0.0
255,MetaDrive-test-noise-reduction-0_3_lr-td3,112,-1.3652379152034753,257003,413,2275.699065923691,0.4232626259326935,0.0010520421201363206,-0.43559154868125916,0.0
256,MetaDrive-test-noise-reduction-0_3_lr-td3,112,-1.282651064487438,258004,414,2284.4453027248383,,0.000375964940758422,-0.36681753396987915,0.0
257,MetaDrive-test-noise-reduction-0_3_lr-td3,112,-1.1898217383463896,259005,415,2293.2580378055573,0.4075588285923004,0.0005083179567009211,-0.3920517861843109,0.0
258,MetaDrive-test-noise-reduction-0_3_lr-td3,112,-1.2847648554865492,260182,417,2303.7419667243958,,0.0007734988466836512,-0.6076865792274475,0.0
259,MetaDrive-test-noise-reduction-0_3_lr-td3,112,-1.2833165700652958,261183,418,2312.78586602211,0.5552091002464294,0.0009277585777454078,-0.5607473850250244,0.0
260,MetaDrive-test-noise-reduction-0_3_lr-td3,112,-1.2794790023038596,262184,419,2322.018901824951,,0.0007190062897279859,-0.431430459022522,0.0
261,MetaDrive-test-noise-reduction-0_3_lr-td3,112,-1.1983572387231027,263185,420,2331.214840888977,0.6926410794258118,0.02892601117491722,-0.6520278453826904,0.0
262,MetaDrive-test-noise-reduction-0_3_lr-td3,112,-1.213182970413351,264766,423,2347.648798942566,,0.0011055062059313059,-0.39983662962913513,0.0
263,MetaDrive-test-noise-reduction-0_3_lr-td3,112,-1.2075197404520914,265052,424,2350.5193889141083,,0.003982917405664921,-0.4478711485862732,0.0
264,MetaDrive-test-noise-reduction-0_3_lr-td3,112,-1.1639543369077294,266053,425,2359.3096017837524,0.33394142985343933,0.0012155103031545877,-0.35476216673851013,0.0
265,MetaDrive-test-noise-reduction-0_3_lr-td3,112,-1.320298861899505,267428,427,2371.599104642868,,0.0031173042953014374,-0.5241292119026184,0.0
266,MetaDrive-test-noise-reduction-0_3_lr-td3,112,-1.2366255187216186,268509,429,2381.2073109149933,0.38139915466308594,0.0009144165669567883,-0.39796483516693115,0.0
267,MetaDrive-test-noise-reduction-0_3_lr-td3,112,-1.2371652715793493,269510,430,2389.8563199043274,,0.010410279035568237,-0.6186701059341431,0.0
268,MetaDrive-test-noise-reduction-0_3_lr-td3,112,-1.272487489476076,270693,432,2400.987646818161,0.4415592551231384,0.0013604024425148964,-0.43874669075012207,0.0
269,MetaDrive-test-noise-reduction-0_3_lr-td3,112,-1.3123641350212083,271694,433,2409.4302186965942,,0.00044859660556539893,-0.32321685552597046,0.0
270,MetaDrive-test-noise-reduction-0_3_lr-td3,112,-1.2958929004763644,272803,435,2418.820102930069,0.5335433483123779,0.0019336155382916331,-0.5619511604309082,0.0
271,MetaDrive-test-noise-reduction-0_3_lr-td3,112,-1.3373755599654575,273973,437,2429.5043947696686,0.47938454151153564,0.0011200503213331103,-0.48561030626296997,0.0
272,MetaDrive-test-noise-reduction-0_3_lr-td3,112,-1.3299067454146098,274110,438,2430.7815356254578,,0.0027682522777467966,-0.5131281018257141,0.0
273,MetaDrive-test-noise-reduction-0_3_lr-td3,112,-1.3152421071359206,275111,439,2439.712118625641,0.4868259131908417,0.0009112509433180094,-0.48818063735961914,0.0
274,MetaDrive-test-noise-reduction-0_3_lr-td3,112,-1.440345682637362,276359,443,2450.37348985672,0.5370402932167053,0.0005541520658880472,-0.5291392207145691,0.0
275,MetaDrive-test-noise-reduction-0_3_lr-td3,112,-1.3936071065474949,277360,444,2458.7950308322906,,0.0006248264689929783,-0.45535334944725037,0.0
276,MetaDrive-test-noise-reduction-0_3_lr-td3,112,-1.5491578137089999,278577,446,2469.2261247634888,0.4069931209087372,0.00018487930356059223,-0.40684834122657776,0.0
277,MetaDrive-test-noise-reduction-0_3_lr-td3,112,-1.5502933802980947,279578,447,2478.237390756607,,0.0005378996720537543,-0.46328529715538025,0.0
278,MetaDrive-test-noise-reduction-0_3_lr-td3,112,-1.549128178430094,280672,449,2488.474157810211,,0.0029488112777471542,-0.5250256061553955,0.0
279,MetaDrive-test-noise-reduction-0_3_lr-td3,112,-1.5019301795199689,281673,450,2497.2751727104187,0.39791250228881836,0.0011296513257548213,-0.3756813704967499,0.0
280,MetaDrive-test-noise-reduction-0_3_lr-td3,112,-1.5033458769957166,282674,451,2506.6441259384155,,0.0009362701675854623,-0.34529170393943787,0.0
281,MetaDrive-test-noise-reduction-0_3_lr-td3,112,-1.508571561169516,283675,452,2515.114756822586,0.4947870969772339,0.0028651426546275616,-0.4728449881076813,0.0
282,MetaDrive-test-noise-reduction-0_3_lr-td3,112,-1.5098894452590117,284676,453,2523.5446107387543,,0.0009383540600538254,-0.5142700672149658,0.0
283,MetaDrive-test-noise-reduction-0_3_lr-td3,112,-1.4265363292871687,285677,454,2531.9844827651978,0.41773685812950134,0.00036483508301898837,-0.4094211161136627,0.0
284,MetaDrive-test-noise-reduction-0_3_lr-td3,112,-1.4183658969974149,286785,456,2542.015670776367,0.6350009441375732,0.004149697255343199,-0.5896210670471191,0.0
285,MetaDrive-test-noise-reduction-0_3_lr-td3,112,-1.3414921115361218,287786,457,2550.2227687835693,,0.0002537404652684927,-0.25455498695373535,0.0
286,MetaDrive-test-noise-reduction-0_3_lr-td3,112,-1.2957856223161262,288787,458,2558.911936044693,0.3299834728240967,0.0006232670857571065,-0.33784785866737366,0.0
287,MetaDrive-test-noise-reduction-0_3_lr-td3,112,-1.2127667615126116,289788,459,2567.173369884491,,0.0005048192106187344,-0.48477572202682495,0.0
288,MetaDrive-test-noise-reduction-0_3_lr-td3,112,-1.1903638500489058,290864,461,2576.9916348457336,,0.007635568268597126,-0.386940062046051,0.0
289,MetaDrive-test-noise-reduction-0_3_lr-td3,112,-1.1800011384003752,291865,462,2585.9827189445496,0.2682207524776459,0.30021125078201294,-0.30239543318748474,0.0
290,MetaDrive-test-noise-reduction-0_3_lr-td3,112,-1.2167323735433104,292866,463,2594.6105909347534,,0.003071785904467106,-0.38240480422973633,0.0
291,MetaDrive-test-noise-reduction-0_3_lr-td3,112,-1.284595317673225,293019,464,2596.141012907028,0.4804917573928833,0.0015789454337209463,-0.45975640416145325,0.0
292,MetaDrive-test-noise-reduction-0_3_lr-td3,112,-1.33102697935646,294790,467,2611.492973804474,,0.0011609996436163783,-0.438896119594574,0.0
293,MetaDrive-test-noise-reduction-0_3_lr-td3,112,-1.3008289893982306,295791,468,2620.4689497947693,0.4586099684238434,0.007376928348094225,-0.44561487436294556,0.0
294,MetaDrive-test-noise-reduction-0_3_lr-td3,112,-1.3337104806614763,296897,470,2629.6966297626495,0.605240523815155,0.000520179164595902,-0.5958695411682129,0.0
295,MetaDrive-test-noise-reduction-0_3_lr-td3,112,-1.346409639443264,297546,471,2635.265770673752,,0.0016990300500765443,-0.39749231934547424,0.0
296,MetaDrive-test-noise-reduction-0_3_lr-td3,112,-1.3979682787209733,298547,472,2644.2881438732147,0.41295892000198364,0.001142629305832088,-0.4222836494445801,0.0
297,MetaDrive-test-noise-reduction-0_3_lr-td3,112,-1.4090035136307506,299316,473,2650.577858686447,,0.000895772478543222,-0.4214981496334076,0.0
298,MetaDrive-test-noise-reduction-0_3_lr-td3,112,-1.3671615478560784,300577,475,2661.124487876892,0.3882242441177368,0.0011218285653740168,-0.3795999586582184,0.0
299,MetaDrive-test-noise-reduction-0_3_lr-td3,112,-1.3163339807271197,301578,476,2669.798868894577,,0.0009255506447516382,-0.4364953339099884,0.0
300,MetaDrive-test-noise-reduction-0_3_lr-td3,112,-1.3528784714854063,302730,478,2680.386914730072,,0.0005591051303781569,-0.38602712750434875,0.0
301,MetaDrive-test-noise-reduction-0_3_lr-td3,112,-1.4306307796307747,303280,479,2685.010363817215,,0.0021053834352642298,-0.45539557933807373,0.0
302,MetaDrive-test-noise-reduction-0_3_lr-td3,112,-1.39116508953827,304281,480,2693.5917687416077,0.5833139419555664,0.0018672009464353323,-0.5835880637168884,0.0
303,MetaDrive-test-noise-reduction-0_3_lr-td3,112,-1.3239662188039523,305282,481,2702.2436258792877,,0.0007969707367010415,-0.457571804523468,0.0
304,MetaDrive-test-noise-reduction-0_3_lr-td3,112,-1.3819904817790882,306351,483,2711.6822748184204,0.3311580419540405,0.0014661101158708334,-0.30535686016082764,0.0
305,MetaDrive-test-noise-reduction-0_3_lr-td3,112,-1.345066708247646,307494,485,2722.2418987751007,,0.0013082136865705252,-0.5678030848503113,0.0
306,MetaDrive-test-noise-reduction-0_3_lr-td3,112,-1.4325554077049956,308565,487,2731.760130882263,0.4307277500629425,0.0005288133979775012,-0.43117451667785645,0.0
307,MetaDrive-test-noise-reduction-0_3_lr-td3,112,-1.4753000532944158,309341,488,2738.4928588867188,0.4441278576850891,0.000983924139291048,-0.45283833146095276,0.0
308,MetaDrive-test-noise-reduction-0_3_lr-td3,112,-1.4723571007255751,310465,490,2748.3120419979095,0.40561729669570923,0.0008244408527389169,-0.4126359224319458,0.0
309,MetaDrive-test-noise-reduction-0_3_lr-td3,112,-1.3877097153956937,311466,491,2757.1389598846436,,0.0015814158832654357,-0.3677251636981964,0.0
310,MetaDrive-test-noise-reduction-0_3_lr-td3,112,-1.551466084335237,312923,495,2769.7761306762695,0.5214628577232361,0.00043691362952813506,-0.517250120639801,0.0
311,MetaDrive-test-noise-reduction-0_3_lr-td3,112,-1.5605601282546022,313924,496,2778.995890855789,,0.0006281158421188593,-0.5301698446273804,0.0
312,MetaDrive-test-noise-reduction-0_3_lr-td3,112,-1.6438509691243761,314148,497,2781.0272300243378,,0.0009267828427255154,-0.4435308575630188,0.0
313,MetaDrive-test-noise-reduction-0_3_lr-td3,112,-1.658369426741058,315149,498,2789.8311257362366,0.46703869104385376,0.001218181336298585,-0.4666234254837036,0.0
314,MetaDrive-test-noise-reduction-0_3_lr-td3,112,-1.572908301107351,316242,500,2798.970484972,,0.0019997302442789078,-0.2897612750530243,0.0
315,MetaDrive-test-noise-reduction-0_3_lr-td3,112,-1.6617716961138398,317630,502,2810.892805814743,,0.0005067514139227569,-0.36855441331863403,0.0
316,MetaDrive-test-noise-reduction-0_3_lr-td3,112,-1.8726192953779424,318362,505,2817.7226786613464,,0.0012870978098362684,-0.39794501662254333,0.0
317,MetaDrive-test-noise-reduction-0_3_lr-td3,112,-1.7800244718488463,319363,506,2827.2194287776947,0.5930722951889038,0.0015781857073307037,-0.5785154104232788,0.0
318,MetaDrive-test-noise-reduction-0_3_lr-td3,112,-1.8234261161978855,320692,509,2838.7401926517487,,0.00033712302683852613,-0.43504855036735535,0.0
319,MetaDrive-test-noise-reduction-0_3_lr-td3,112,-1.7413486881366413,321693,510,2847.6826758384705,0.4009295105934143,0.003084098920226097,-0.429033100605011,0.0
320,MetaDrive-test-noise-reduction-0_3_lr-td3,112,-1.659734186427716,322694,511,2856.4447927474976,,0.00224948488175869,-0.47005805373191833,0.0
321,MetaDrive-test-noise-reduction-0_3_lr-td3,112,-1.6672122387717756,323695,512,2864.975649833679,0.41005682945251465,0.0014555283123627305,-0.39958325028419495,0.0
322,MetaDrive-test-noise-reduction-0_3_lr-td3,112,-1.660855055405981,324696,513,2873.6513488292694,,0.0004763004253618419,-0.40621715784072876,0.0
323,MetaDrive-test-noise-reduction-0_3_lr-td3,112,-1.7510222492013512,325011,514,2876.4983508586884,0.48125720024108887,0.0038211962673813105,-0.512302041053772,0.0
324,MetaDrive-test-noise-reduction-0_3_lr-td3,112,-1.8311312283590844,326992,517,2894.3441457748413,,0.0008156704716384411,-0.3637276887893677,0.0
325,MetaDrive-test-noise-reduction-0_3_lr-td3,112,-1.9233999148202034,327425,518,2897.935418844223,0.4104664921760559,0.0009839802514761686,-0.42390596866607666,0.0
326,MetaDrive-test-noise-reduction-0_3_lr-td3,112,-1.9228457832684007,328426,519,2906.9184868335724,,0.0005471457843668759,-0.34513092041015625,0.0
327,MetaDrive-test-noise-reduction-0_3_lr-td3,112,-1.929648909785906,329427,520,2915.808311700821,0.4185279607772827,0.0015807163435965776,-0.42760443687438965,0.0
328,MetaDrive-test-noise-reduction-0_3_lr-td3,112,-1.845932898373946,330428,521,2924.50035572052,,0.0005108291516080499,-0.4250712990760803,0.0
329,MetaDrive-test-noise-reduction-0_3_lr-td3,112,-1.8110415323938245,331429,522,2933.052984714508,0.422352135181427,0.00039931933861225843,-0.42199796438217163,0.0
330,MetaDrive-test-noise-reduction-0_3_lr-td3,113,-1.8192771792540656,332430,523,2941.363429784775,,0.003150559961795807,-0.5523239970207214,0.0
331,MetaDrive-test-noise-reduction-0_3_lr-td3,113,-1.8632726798297632,333698,526,2951.939395904541,,0.0020879271905869246,-0.5906496644020081,0.0
332,MetaDrive-test-noise-reduction-0_3_lr-td3,113,-1.7944536920120202,334699,527,2960.789793729782,0.444614052772522,0.5866875648498535,-0.5331404805183411,0.0
333,MetaDrive-test-noise-reduction-0_3_lr-td3,113,-1.7636929789401248,335700,528,2969.76366686821,,0.00065320247085765,-0.4080406427383423,0.0
334,MetaDrive-test-noise-reduction-0_3_lr-td3,113,-1.8513380324223023,336800,530,2979.135666847229,,0.00030442402930930257,-0.35467857122421265,0.0
335,MetaDrive-test-noise-reduction-0_3_lr-td3,113,-1.7683757937664861,337801,531,2987.8102798461914,0.46766212582588196,0.0038979933597147465,-0.4711134433746338,0.0
336,MetaDrive-test-noise-reduction-0_3_lr-td3,113,-1.7686532885135,338802,532,2996.191559791565,,0.0005618647555820644,-0.4533090591430664,0.0
337,MetaDrive-test-noise-reduction-0_3_lr-td3,113,-1.7875126445639475,339650,533,3003.733428001404,,0.00039017555536702275,-0.4032944142818451,0.0
338,MetaDrive-test-noise-reduction-0_3_lr-td3,113,-1.7076210887348369,340651,534,3011.7759017944336,0.2752198576927185,0.001108328578993678,-0.27353042364120483,0.0
339,MetaDrive-test-noise-reduction-0_3_lr-td3,113,-1.7534856674932613,341652,535,3020.186117887497,,0.00885288417339325,-0.4578927457332611,0.0
340,MetaDrive-test-noise-reduction-0_3_lr-td3,113,-1.804742105756182,342507,537,3027.9510610103607,0.5151927471160889,0.016174063086509705,-0.4616771340370178,0.0
341,MetaDrive-test-noise-reduction-0_3_lr-td3,113,-1.7725632244095366,343508,538,3036.560648918152,,0.0016939854249358177,-0.5861563682556152,0.0
342,MetaDrive-test-noise-reduction-0_3_lr-td3,113,-1.7731364629432615,344509,539,3044.9462847709656,0.403709352016449,0.0009964199271053076,-0.39634570479393005,0.0
343,MetaDrive-test-noise-reduction-0_3_lr-td3,113,-1.7594287173839294,345491,540,3054.4221749305725,0.4234794080257416,0.000398549425881356,-0.42658936977386475,0.0
344,MetaDrive-test-noise-reduction-0_3_lr-td3,113,-1.727937612736132,346572,542,3064.2738089561462,,0.00025507673854008317,-0.3136179745197296,0.0
345,MetaDrive-test-noise-reduction-0_3_lr-td3,113,-1.6740562641805392,347654,544,3073.4934318065643,,0.0004967485438100994,-0.4133493900299072,0.0
346,MetaDrive-test-noise-reduction-0_3_lr-td3,113,-1.6312558369784242,348655,545,3082.9799268245697,0.4948442280292511,0.0011608926579356194,-0.4743209481239319,0.0
347,MetaDrive-test-noise-reduction-0_3_lr-td3,113,-1.5727065053103813,349755,547,3092.5109629631042,0.5414978265762329,0.0037969129625707865,-0.5156627297401428,0.0
348,MetaDrive-test-noise-reduction-0_3_lr-td3,113,-1.4889124705975814,350756,548,3101.311718940735,,0.0008793475572019815,-0.3415435552597046,0.0
349,MetaDrive-test-noise-reduction-0_3_lr-td3,113,-1.4867587335798005,351757,549,3109.5503118038177,0.43104979395866394,0.0032841803040355444,-0.385215699672699,0.0
350,MetaDrive-test-noise-reduction-0_3_lr-td3,113,-1.5678683323294735,352856,551,3119.364291906357,,0.0018858148250728846,-0.4096881151199341,0.0
351,MetaDrive-test-noise-reduction-0_3_lr-td3,113,-1.6314696137549458,353042,553,3121.2911219596863,,0.0008212713291868567,-0.5211070775985718,0.0
352,MetaDrive-test-noise-reduction-0_3_lr-td3,113,-1.6299258134267425,354043,554,3129.7002398967743,0.5062475800514221,0.0008211046224460006,-0.5088991522789001,0.0
353,MetaDrive-test-noise-reduction-0_3_lr-td3,113,-1.5464150165549484,355044,555,3138.653656721115,,0.00044987734872847795,-0.45477649569511414,0.0
354,MetaDrive-test-noise-reduction-0_3_lr-td3,113,-1.6764800807517863,356657,557,3152.512972831726,0.4675692915916443,0.0008699679165147245,-0.47696346044540405,0.0
355,MetaDrive-test-noise-reduction-0_3_lr-td3,113,-1.6810135969656286,357658,558,3161.4404888153076,,0.0011311620473861694,-0.27254384756088257,0.0
356,MetaDrive-test-noise-reduction-0_3_lr-td3,113,-1.715433250862501,358659,559,3169.7998979091644,0.4364800751209259,0.0008219597511924803,-0.4276857078075409,0.0
357,MetaDrive-test-noise-reduction-0_3_lr-td3,113,-1.634510897897148,359660,560,3178.6265087127686,,0.0008275406435132027,-0.4526464343070984,0.0
358,MetaDrive-test-noise-reduction-0_3_lr-td3,113,-1.6827854388202774,360631,561,3186.625918865204,0.39350447058677673,0.0008172022644430399,-0.4119897484779358,0.0
359,MetaDrive-test-noise-reduction-0_3_lr-td3,113,-1.7248543012101463,361632,562,3195.5726447105408,,0.0008646636852063239,-0.6340485215187073,0.0
360,MetaDrive-test-noise-reduction-0_3_lr-td3,113,-1.6814812600244065,362633,563,3203.9364717006683,0.32517656683921814,0.013221368193626404,-0.35883334279060364,0.0
361,MetaDrive-test-noise-reduction-0_3_lr-td3,113,-1.6030595869619675,363634,564,3212.463052749634,,0.0010791760869324207,-0.5214313268661499,0.0
362,MetaDrive-test-noise-reduction-0_3_lr-td3,113,-1.5198932500052738,364635,565,3221.1489260196686,0.4391089379787445,0.0016073567094281316,-0.4339335858821869,0.0
363,MetaDrive-test-noise-reduction-0_3_lr-td3,113,-1.5815219354600651,365576,567,3229.4246668815613,,0.0018223004881292582,-0.42898625135421753,0.0
364,MetaDrive-test-noise-reduction-0_3_lr-td3,113,-1.6202420580820467,366186,568,3235.0157330036163,,0.0009301035897806287,-0.43405982851982117,0.0
365,MetaDrive-test-noise-reduction-0_3_lr-td3,113,-1.6490703067469255,367721,572,3249.3055686950684,0.3912191689014435,0.0003810669295489788,-0.38503316044807434,0.0
366,MetaDrive-test-noise-reduction-0_3_lr-td3,113,-1.6033732301002834,368722,573,3257.5610258579254,,0.000833619327750057,-0.3866462707519531,0.0
367,MetaDrive-test-noise-reduction-0_3_lr-td3,113,-1.5154528751229968,369723,574,3267.3709547519684,0.3522544801235199,0.00031629676232114434,-0.3507727384567261,0.0
368,MetaDrive-test-noise-reduction-0_3_lr-td3,113,-1.5594286014318213,370078,575,3270.3733468055725,,0.6725879907608032,-0.5102266073226929,0.0
369,MetaDrive-test-noise-reduction-0_3_lr-td3,113,-1.5705793789002909,371079,576,3279.1162538528442,0.3450189530849457,0.000711368047632277,-0.34121814370155334,0.0
370,MetaDrive-test-noise-reduction-0_3_lr-td3,113,-1.5395289201726197,372080,577,3287.664487838745,,0.0035733203403651714,-0.49383002519607544,0.0
371,MetaDrive-test-noise-reduction-0_3_lr-td3,113,-1.50496720686806,373081,578,3296.049111843109,0.3708425760269165,0.0004056929028593004,-0.35628241300582886,0.0
372,MetaDrive-test-noise-reduction-0_3_lr-td3,113,-1.4116276035704123,374082,579,3304.569645881653,,0.0007278408156707883,-0.4570194184780121,0.0
373,MetaDrive-test-noise-reduction-0_3_lr-td3,113,-1.5042031610798166,375984,582,3321.9565048217773,,0.001461708452552557,-0.28335580229759216,0.0
374,MetaDrive-test-noise-reduction-0_3_lr-td3,113,-1.4794811498236817,376985,583,3331.0924968719482,0.35263770818710327,0.0009461181471124291,-0.3406887948513031,0.0
375,MetaDrive-test-noise-reduction-0_3_lr-td3,113,-1.3985701425102999,377986,584,3339.5473918914795,,0.011742202565073967,-0.4690978527069092,0.0
376,MetaDrive-test-noise-reduction-0_3_lr-td3,113,-1.4358283502713913,378278,585,3342.0866298675537,,0.008760186843574047,-0.5008136034011841,0.0
377,MetaDrive-test-noise-reduction-0_3_lr-td3,113,-1.4235232633694341,379366,587,3351.6840028762817,,0.00048577002598904073,-0.5099015235900879,0.0
378,MetaDrive-test-noise-reduction-0_3_lr-td3,113,-1.3331443717164786,380367,588,3359.835807800293,0.2778557240962982,0.00029628799529746175,-0.2952195405960083,0.0
379,MetaDrive-test-noise-reduction-0_3_lr-td3,113,-1.2649971969658003,381368,589,3368.596517801285,,0.000643217412289232,-0.2855074107646942,0.0
380,MetaDrive-test-noise-reduction-0_3_lr-td3,113,-1.3470433185661026,382497,591,3378.0641539096832,0.3048502206802368,0.0013961495133116841,-0.31124600768089294,0.0
381,MetaDrive-test-noise-reduction-0_3_lr-td3,113,-1.2786603430787868,383498,592,3386.818844795227,,0.0023822453804314137,-0.3750618100166321,0.0
382,MetaDrive-test-noise-reduction-0_3_lr-td3,113,-1.2052978439314073,384951,594,3399.601501941681,0.48424232006073,0.002113149967044592,-0.46473583579063416,0.0
383,MetaDrive-test-noise-reduction-0_3_lr-td3,113,-1.2404120148683802,385025,595,3400.365135908127,0.6934682130813599,0.004755707457661629,-0.6902536153793335,0.0
384,MetaDrive-test-noise-reduction-0_3_lr-td3,113,-1.2416970679981758,386026,596,3408.783745765686,,0.005417628213763237,-0.40209728479385376,0.0
385,MetaDrive-test-noise-reduction-0_3_lr-td3,113,-1.1602984820474331,387027,597,3417.4981319904327,0.4146322011947632,0.00876406580209732,-0.3576279282569885,0.0
386,MetaDrive-test-noise-reduction-0_3_lr-td3,113,-1.13207285030521,388028,598,3426.937094926834,,0.005510543007403612,-0.4543949365615845,0.0
387,MetaDrive-test-noise-reduction-0_3_lr-td3,113,-1.2243401642761231,389023,600,3436.3822627067566,0.5850762724876404,0.0024258594494313,-0.5822206735610962,0.0
388,MetaDrive-test-noise-reduction-0_3_lr-td3,113,-1.185101681353994,390024,601,3445.3969259262085,,0.0013353556860238314,-0.5780700445175171,0.0
389,MetaDrive-test-noise-reduction-0_3_lr-td3,113,-1.1843917801527886,391025,602,3453.9932799339294,0.3449639081954956,0.0005290505941957235,-0.35021695494651794,0.0
