TanmayH/CS269-RL-project-code/MetaDrive-test-conv3-colab/td3/progress.csv
,log_dir,frame_per_second,episode_reward,total_steps,total_episodes,total_time,target_q,actor_loss,critic_loss,success_rate
0,MetaDrive-test-conv3-colab,287,9.291536713386797,1988,2,6.918739318847656,,,,0.0
1,MetaDrive-test-conv3-colab,222,9.866910338722533,2989,3,13.443037509918213,,,,0.0
2,MetaDrive-test-conv3-colab,223,7.6456256702764485,3602,4,16.098022937774658,,,,0.0
3,MetaDrive-test-conv3-colab,233,8.213411156436457,4603,5,19.71768283843994,,,,0.0
4,MetaDrive-test-conv3-colab,198,9.012210838768778,5604,6,28.200748205184937,,,,0.0
5,MetaDrive-test-conv3-colab,200,7.898494785952701,6117,7,30.580607175827026,,,,0.0
6,MetaDrive-test-conv3-colab,206,8.665770110886369,7118,8,34.52469754219055,,,,0.0
7,MetaDrive-test-conv3-colab,213,8.632235610400507,8119,9,37.96454620361328,,,,0.0
8,MetaDrive-test-conv3-colab,217,8.902371954402835,9120,10,41.9221088886261,,,,0.0
9,MetaDrive-test-conv3-colab,202,8.964079894942756,10080,11,49.72017741203308,-0.05867353826761246,,0.0007029171101748943,0.0
10,MetaDrive-test-conv3-colab,161,-0.060568330085505065,11756,40,72.64040207862854,-0.003189845010638237,,0.002440530341118574,0.0
11,MetaDrive-test-conv3-colab,149,-0.09034234428061587,12826,42,85.60361862182617,0.01507908757776022,,0.00347242527641356,0.0
12,MetaDrive-test-conv3-colab,145,-0.1758828711172239,13558,43,93.3494553565979,0.02931950055062771,,0.008425558917224407,0.0
13,MetaDrive-test-conv3-colab,138,-0.09350042935579017,14559,44,104.81258344650269,0.031362757086753845,-0.03817307949066162,0.001557019306346774,0.0
14,MetaDrive-test-conv3-colab,135,-0.4967627364756648,15034,48,110.64172744750977,0.020069517195224762,,0.004241310525685549,0.0
15,MetaDrive-test-conv3-colab,128,-0.5918813600525593,16349,58,127.29253339767456,0.041173055768013,-0.07452133297920227,0.006535662803798914,0.0
16,MetaDrive-test-conv3-colab,125,-0.6381320928398619,17348,59,137.69140243530273,0.06889088451862335,,0.0010231436463072896,0.0
17,MetaDrive-test-conv3-colab,123,-0.7288181772164158,18460,61,150.05458188056946,0.08667945861816406,,0.005951954051852226,0.0
18,MetaDrive-test-conv3-colab,120,-0.7392717393316576,19072,63,158.12397456169128,0.07935374975204468,,0.005339852534234524,0.0
19,MetaDrive-test-conv3-colab,116,-0.11774772672850206,20097,74,172.1879482269287,0.08077212423086166,-0.06590282171964645,0.0048649488016963005,0.0
20,MetaDrive-test-conv3-colab,112,0.20373619318671168,21052,81,186.61497688293457,0.08682116866111755,,0.005857993848621845,0.0
21,MetaDrive-test-conv3-colab,108,0.23599177426627121,22085,107,202.94404339790344,0.20944884419441223,-0.22100108861923218,0.00887620635330677,0.0
22,MetaDrive-test-conv3-colab,105,1.216195386672443,23018,132,217.46831631660461,0.2731028199195862,,0.020230423659086227,0.0
23,MetaDrive-test-conv3-colab,103,3.962408297358579,24001,154,232.21335196495056,0.29417139291763306,-0.3229091167449951,0.9213153123855591,0.0
24,MetaDrive-test-conv3-colab,101,5.428329380493384,25011,179,247.53719806671143,0.5120177268981934,-0.5570539236068726,0.01605413481593132,0.0
25,MetaDrive-test-conv3-colab,98,8.37206650823589,26020,198,263.1988410949707,0.6233335733413696,,1.047834873199463,0.0
26,MetaDrive-test-conv3-colab,97,10.993552914871858,27007,215,278.37099742889404,0.8207436203956604,-0.9467074871063232,1.0287659168243408,0.0
27,MetaDrive-test-conv3-colab,95,15.615444565130463,28011,232,293.31610465049744,1.1980786323547363,-1.2270622253417969,1.2344348430633545,0.0
28,MetaDrive-test-conv3-colab,94,18.555665778417787,29064,250,308.4533829689026,1.70621657371521,,0.09951500594615936,0.0
29,MetaDrive-test-conv3-colab,92,21.69847699662413,30002,264,323.6443214416504,2.221036672592163,,0.09024588018655777,0.0
30,MetaDrive-test-conv3-colab,91,24.153431706854025,31044,282,337.5810601711273,2.745746612548828,,0.15916523337364197,0.0
31,MetaDrive-test-conv3-colab,90,26.70958315163494,32152,297,353.98422598838806,3.313009262084961,,1.8738808631896973,0.0
32,MetaDrive-test-conv3-colab,90,27.876286848865515,33046,311,366.581570148468,3.763895034790039,,3.3364830017089844,0.0
33,MetaDrive-test-conv3-colab,89,31.005758969890486,34082,323,381.00173020362854,4.307643890380859,,3.123091697692871,0.0
34,MetaDrive-test-conv3-colab,89,32.96464971289877,35002,335,393.0895674228668,5.0695624351501465,,0.20281624794006348,0.0
35,MetaDrive-test-conv3-colab,88,31.519013124784255,36057,352,408.6814262866974,5.71511173248291,-5.926911354064941,0.19719818234443665,0.0
36,MetaDrive-test-conv3-colab,87,33.97656033915434,37044,364,422.42273211479187,6.487133979797363,,0.42187660932540894,0.0
37,MetaDrive-test-conv3-colab,86,38.49781775693008,38019,374,437.6376442909241,7.4289445877075195,-7.415872573852539,0.4525490999221802,0.0
38,MetaDrive-test-conv3-colab,86,43.89529369386947,39106,383,451.9299280643463,8.064258575439453,,0.6439605951309204,0.0
39,MetaDrive-test-conv3-colab,86,47.568385504192996,40049,393,465.6445128917694,8.851658821105957,-9.309576034545898,4.979040145874023,0.0
40,MetaDrive-test-conv3-colab,85,49.50132005978958,41014,403,478.6464078426361,9.588482856750488,,0.4601409435272217,0.0
41,MetaDrive-test-conv3-colab,85,51.94623834351393,42006,414,492.77755403518677,10.279982566833496,,0.6760365962982178,0.0
42,MetaDrive-test-conv3-colab,84,51.611123471317576,43036,427,509.0290448665619,10.646387100219727,,11.120254516601562,0.0
43,MetaDrive-test-conv3-colab,84,53.322657224669264,44070,438,523.1763851642609,11.646827697753906,,1.1191710233688354,0.0
44,MetaDrive-test-conv3-colab,83,56.96857882510303,45031,448,538.1166217327118,12.643473625183105,-13.025866508483887,1.004292607307434,0.0
45,MetaDrive-test-conv3-colab,83,59.80311713015616,46068,458,552.3501029014587,12.62112808227539,,9.108854293823242,0.0
46,MetaDrive-test-conv3-colab,83,64.21958842603848,47139,462,567.5382018089294,14.120336532592773,-14.345983505249023,0.7709822654724121,0.0
47,MetaDrive-test-conv3-colab,82,63.988568419376094,48075,472,581.7508273124695,13.678245544433594,-14.550100326538086,19.13717269897461,0.0
48,MetaDrive-test-conv3-colab,81,64.0301832251643,49296,481,601.5484673976898,14.922853469848633,,1.3800671100616455,0.0
49,MetaDrive-test-conv3-colab,81,62.35854658701319,50042,490,612.3040592670441,15.44109058380127,,22.636674880981445,0.0
50,MetaDrive-test-conv3-colab,81,62.54720999763026,51018,500,625.904082775116,16.068029403686523,,0.5209808349609375,0.0
51,MetaDrive-test-conv3-colab,81,62.781885944403484,52177,511,643.3420536518097,17.78267478942871,-18.187305450439453,8.550106048583984,0.0
52,MetaDrive-test-conv3-colab,80,65.0064643692217,53072,516,657.7081959247589,17.615978240966797,,2.05259108543396,0.0
53,MetaDrive-test-conv3-colab,80,67.54686087224823,54042,525,672.2295074462891,18.537872314453125,,21.060672760009766,0.0
54,MetaDrive-test-conv3-colab,80,70.01672238751033,55047,533,687.2439429759979,17.09666633605957,-17.174510955810547,2.3379740715026855,0.0
55,MetaDrive-test-conv3-colab,79,69.91329383328099,56021,541,700.6656732559204,19.255016326904297,-19.14783477783203,16.32410430908203,0.0
56,MetaDrive-test-conv3-colab,79,71.70415648840535,57145,551,715.6173822879791,20.061275482177734,-20.127302169799805,1.2378982305526733,0.0
57,MetaDrive-test-conv3-colab,79,73.37543232417997,58010,558,728.1486835479736,20.966384887695312,,15.867048263549805,0.0
58,MetaDrive-test-conv3-colab,79,74.26985219725195,59333,566,749.3005747795105,21.373798370361328,-21.246295928955078,3.3795251846313477,0.01
59,MetaDrive-test-conv3-colab,78,72.5065283275704,60011,574,759.7820680141449,21.128124237060547,-21.718442916870117,21.404911041259766,0.01
60,MetaDrive-test-conv3-colab,78,72.3040555150688,61082,585,775.9695830345154,22.14420509338379,,1.7695313692092896,0.01
61,MetaDrive-test-conv3-colab,78,72.38387206361959,62054,595,790.0624597072601,20.99252700805664,,21.317279815673828,0.01
62,MetaDrive-test-conv3-colab,78,73.28131136129753,63015,605,803.6698293685913,20.87564468383789,-21.329635620117188,1.5164215564727783,0.01
63,MetaDrive-test-conv3-colab,78,69.57267765063857,64037,617,817.5785026550293,22.17681312561035,-22.814128875732422,26.581323623657227,0.01
64,MetaDrive-test-conv3-colab,78,65.79371399455408,65006,629,831.074866771698,22.007823944091797,,25.142147064208984,0.01
65,MetaDrive-test-conv3-colab,78,64.65025990157896,66035,640,845.658659696579,22.51913833618164,-23.123720169067383,2.690793514251709,0.01
66,MetaDrive-test-conv3-colab,77,64.97569974992012,67206,650,862.8965451717377,22.937763214111328,,26.925514221191406,0.01
67,MetaDrive-test-conv3-colab,77,65.14619179027186,68062,656,874.0308847427368,22.939231872558594,,2.721658229827881,0.01
68,MetaDrive-test-conv3-colab,77,58.31324031844922,69003,667,886.232744216919,24.447620391845703,-25.038393020629883,2.2892262935638428,0.0
69,MetaDrive-test-conv3-colab,77,62.239962009463625,70305,676,909.2357249259949,24.318740844726562,-24.80990982055664,2.619875907897949,0.0
70,MetaDrive-test-conv3-colab,77,63.98998207834816,71103,681,920.6556417942047,25.399293899536133,-25.645957946777344,20.449665069580078,0.0
71,MetaDrive-test-conv3-colab,77,65.5011453490297,72131,689,935.6161873340607,23.260944366455078,-23.955364227294922,2.5917391777038574,0.0
72,MetaDrive-test-conv3-colab,76,71.15571473053635,73362,693,955.4997787475586,23.021223068237305,,2.4787940979003906,0.01
73,MetaDrive-test-conv3-colab,76,71.93559824796768,74231,697,967.5132353305817,24.76312828063965,-25.294921875,3.8475394248962402,0.01
74,MetaDrive-test-conv3-colab,76,75.7827487470201,75138,703,981.1218020915985,24.86664581298828,,2.643554210662842,0.01
75,MetaDrive-test-conv3-colab,76,77.58243016416897,76037,708,995.8427929878235,23.821468353271484,-24.22216796875,11.788588523864746,0.01
76,MetaDrive-test-conv3-colab,76,81.62555777228573,77091,711,1013.93439245224,25.9691162109375,-26.08442497253418,3.0592734813690186,0.02
77,MetaDrive-test-conv3-colab,75,85.80918955518318,78079,716,1029.0363793373108,23.267091751098633,-23.745882034301758,8.61801815032959,0.02
78,MetaDrive-test-conv3-colab,75,90.30549888867489,79211,723,1045.919723033905,25.81146812438965,-26.475879669189453,24.297813415527344,0.02
79,MetaDrive-test-conv3-colab,75,94.8327449474979,80590,730,1067.7288284301758,23.56371307373047,,8.233729362487793,0.03
80,MetaDrive-test-conv3-colab,75,98.11627738429402,81262,733,1079.0712728500366,24.577022552490234,,26.004981994628906,0.03
81,MetaDrive-test-conv3-colab,74,102.22801316774444,82704,737,1103.0290186405182,25.797334671020508,,2.3985655307769775,0.04
82,MetaDrive-test-conv3-colab,74,104.6941661906595,83382,738,1112.0589292049408,27.14563751220703,,6.318203449249268,0.05
83,MetaDrive-test-conv3-colab,74,109.5211640292367,84305,741,1125.3319473266602,24.752458572387695,-25.49992561340332,29.933391571044922,0.06
84,MetaDrive-test-conv3-colab,74,112.64935899816446,85138,745,1136.4900846481323,24.762067794799805,,38.36376953125,0.07
85,MetaDrive-test-conv3-colab,74,118.6664840122039,86628,749,1160.3078112602234,26.54625129699707,,2.6592469215393066,0.08
86,MetaDrive-test-conv3-colab,74,119.40690263648548,87284,751,1168.5963416099548,29.141691207885742,,4.046107292175293,0.08
87,MetaDrive-test-conv3-colab,74,121.05053396971645,88032,754,1181.9957075119019,24.88755226135254,,2.7668094635009766,0.08
88,MetaDrive-test-conv3-colab,74,123.89564380940821,89264,758,1197.4062831401825,27.219497680664062,,2.068223476409912,0.08
89,MetaDrive-test-conv3-colab,74,126.5072251207348,90184,764,1209.4175560474396,25.49737548828125,,3.7911555767059326,0.08
90,MetaDrive-test-conv3-colab,74,129.99476424973912,91062,767,1223.0567972660065,25.252212524414062,,18.71721839904785,0.08
91,MetaDrive-test-conv3-colab,74,134.2307728463104,92450,771,1240.5393824577332,25.768177032470703,,4.47725772857666,0.09
92,MetaDrive-test-conv3-colab,74,138.56851218697605,93299,773,1256.1842975616455,25.24432373046875,-24.98952865600586,3.498793601989746,0.1
93,MetaDrive-test-conv3-colab,74,139.70825693015368,94259,777,1270.9107420444489,28.44354248046875,-28.81617546081543,31.631305694580078,0.1
94,MetaDrive-test-conv3-colab,74,143.07273349842137,95318,781,1286.2946200370789,28.5047550201416,,39.45941925048828,0.11
95,MetaDrive-test-conv3-colab,74,143.33293108114248,96001,785,1296.4672000408173,29.064857482910156,-29.708812713623047,3.3204421997070312,0.11
96,MetaDrive-test-conv3-colab,73,148.6401775862604,97246,788,1316.158320903778,28.466890335083008,,3.826915740966797,0.13
97,MetaDrive-test-conv3-colab,73,148.31995864165276,98191,791,1332.2116124629974,28.090801239013672,-28.696584701538086,5.828239917755127,0.13
98,MetaDrive-test-conv3-colab,73,147.10935023165624,99138,797,1344.1658499240875,29.150035858154297,,4.828120231628418,0.14
99,MetaDrive-test-conv3-colab,73,148.85119752449336,100675,803,1366.389045715332,31.307750701904297,-32.0748405456543,28.252063751220703,0.15
100,MetaDrive-test-conv3-colab,73,151.1602892728622,101239,804,1373.662514448166,32.63833999633789,-33.78656005859375,7.6480255126953125,0.16
101,MetaDrive-test-conv3-colab,73,152.95748486982836,102132,807,1386.414332151413,31.18094253540039,,3.3676552772521973,0.17
102,MetaDrive-test-conv3-colab,73,150.87939026898337,103350,813,1404.9701788425446,31.022109985351562,,41.94470977783203,0.17
103,MetaDrive-test-conv3-colab,73,153.4065872947138,104624,817,1425.983904838562,29.677711486816406,,5.216816425323486,0.18
104,MetaDrive-test-conv3-colab,73,156.39607718324405,105363,818,1438.414090871811,31.61678695678711,-32.21703338623047,3.3532888889312744,0.19
105,MetaDrive-test-conv3-colab,73,159.5397658453311,106154,820,1450.3760454654694,30.863399505615234,,57.56062316894531,0.2
106,MetaDrive-test-conv3-colab,73,159.70524347197423,107030,823,1463.630110502243,31.779191970825195,,5.20874547958374,0.2
107,MetaDrive-test-conv3-colab,73,162.4480315671336,108105,827,1479.0686209201813,31.75723648071289,-32.728179931640625,78.32278442382812,0.21
108,MetaDrive-test-conv3-colab,73,162.1664310471668,109075,832,1492.506545305252,34.540000915527344,-34.819129943847656,4.327219009399414,0.21
109,MetaDrive-test-conv3-colab,72,162.5889836542977,110430,835,1515.9192094802856,31.522924423217773,,34.9515380859375,0.22
110,MetaDrive-test-conv3-colab,72,164.52022057775105,111161,836,1532.0055177211761,32.495880126953125,-33.11592102050781,3.9181106090545654,0.22
111,MetaDrive-test-conv3-colab,72,156.0399169283656,112035,841,1543.4041557312012,33.717620849609375,-34.90858459472656,4.945630073547363,0.2
112,MetaDrive-test-conv3-colab,72,160.86714722688322,113123,843,1559.8358194828033,32.96086883544922,-33.00387191772461,5.932661533355713,0.22
113,MetaDrive-test-conv3-colab,72,157.56932832332822,114016,847,1571.9498245716095,35.091651916503906,,23.80875015258789,0.21
114,MetaDrive-test-conv3-colab,72,156.15834270742118,115266,850,1590.0674035549164,36.809200286865234,,4.90428352355957,0.21
115,MetaDrive-test-conv3-colab,72,158.66040163341597,116063,852,1600.500988483429,33.18632507324219,-33.80004119873047,6.821008205413818,0.22
116,MetaDrive-test-conv3-colab,72,160.06144856526217,117309,855,1618.000001192093,36.62882614135742,-37.135833740234375,5.185260772705078,0.24
117,MetaDrive-test-conv3-colab,72,160.57755316782533,118061,858,1628.154455423355,35.80694580078125,-35.867576599121094,8.264860153198242,0.25
118,MetaDrive-test-conv3-colab,72,164.07653829325204,119199,863,1644.1478555202484,32.88634490966797,-34.21833038330078,48.299598693847656,0.27
119,MetaDrive-test-conv3-colab,72,166.1636706100019,120023,864,1657.1087307929993,37.96928024291992,-38.582767486572266,4.5132575035095215,0.28
120,MetaDrive-test-conv3-colab,72,166.31418782615583,121035,868,1671.8541016578674,38.303558349609375,-38.75603485107422,4.052698612213135,0.29
121,MetaDrive-test-conv3-colab,72,163.36153807090233,122350,872,1691.8023948669434,38.062950134277344,,5.840479373931885,0.27
122,MetaDrive-test-conv3-colab,72,165.17963093291334,123385,875,1707.8395371437073,40.46615982055664,-40.443904876708984,4.647799491882324,0.28
123,MetaDrive-test-conv3-colab,72,164.06492712135199,124042,878,1715.6440477371216,37.10548400878906,,7.767796039581299,0.29
124,MetaDrive-test-conv3-colab,72,166.03436788807633,125503,883,1736.732089996338,41.06540298461914,-42.39434814453125,41.053123474121094,0.3
125,MetaDrive-test-conv3-colab,72,169.15629285683224,126281,885,1747.9798421859741,39.958045959472656,-41.294132232666016,13.87136459350586,0.31
126,MetaDrive-test-conv3-colab,72,168.8930557533599,127257,887,1760.8413081169128,40.73832702636719,-41.67390441894531,7.018685340881348,0.31
127,MetaDrive-test-conv3-colab,72,169.03335466145748,128137,888,1773.2138850688934,38.44985580444336,-38.38129425048828,2.963015079498291,0.31
128,MetaDrive-test-conv3-colab,72,172.5018617694234,129055,890,1790.0329585075378,41.222267150878906,-41.56052780151367,2.9335720539093018,0.31
129,MetaDrive-test-conv3-colab,72,172.45543975060033,130415,895,1808.132931470871,39.18603515625,-39.04153060913086,43.52592086791992,0.31
130,MetaDrive-test-conv3-colab,72,170.2030452878692,131059,899,1818.7696695327759,39.33367156982422,-39.91446304321289,3.3205714225769043,0.3
131,MetaDrive-test-conv3-colab,72,168.413527748408,132141,904,1832.5249698162079,37.98760986328125,-39.87489318847656,10.201019287109375,0.28
132,MetaDrive-test-conv3-colab,72,167.64136158570926,133021,908,1844.7124390602112,39.34564971923828,-40.13745880126953,10.762207984924316,0.28
133,MetaDrive-test-conv3-colab,72,169.38055516729418,134080,911,1859.0737698078156,35.3753662109375,,63.345584869384766,0.29
134,MetaDrive-test-conv3-colab,72,171.85919199111592,135241,913,1877.4000658988953,40.69896697998047,-41.387123107910156,23.895305633544922,0.29
135,MetaDrive-test-conv3-colab,71,176.9157664143075,136336,915,1893.6297407150269,39.824684143066406,,12.122516632080078,0.31
136,MetaDrive-test-conv3-colab,72,177.2493852161061,137173,917,1902.991014957428,43.911338806152344,-45.04859161376953,50.806644439697266,0.32
137,MetaDrive-test-conv3-colab,72,173.7231438875989,138131,920,1915.9968197345734,44.10784912109375,-44.92222595214844,5.934041500091553,0.31
138,MetaDrive-test-conv3-colab,72,174.9035199792466,139059,923,1929.2560336589813,43.08336639404297,-43.84373474121094,5.541717052459717,0.32
139,MetaDrive-test-conv3-colab,72,174.76429355564989,140009,927,1942.1450064182281,40.838653564453125,-41.74304962158203,6.655872344970703,0.32
140,MetaDrive-test-conv3-colab,72,177.20137544089548,141085,930,1958.6973042488098,44.09352111816406,-43.63616180419922,6.25693941116333,0.33
141,MetaDrive-test-conv3-colab,72,176.96699341470324,142540,937,1977.0169909000397,41.67374801635742,,8.547901153564453,0.33
142,MetaDrive-test-conv3-colab,71,177.4450333456022,143631,939,1997.958244085312,39.054542541503906,-38.830360412597656,9.909080505371094,0.32
143,MetaDrive-test-conv3-colab,71,180.51012233698344,144237,940,2007.309110403061,40.21890640258789,-39.02869415283203,14.403745651245117,0.33
144,MetaDrive-test-conv3-colab,71,183.05408663747522,145552,942,2028.4880774021149,44.26059341430664,,4.245717525482178,0.33
145,MetaDrive-test-conv3-colab,71,183.6267371388689,146416,944,2038.738492012024,40.303138732910156,,6.219408988952637,0.33
146,MetaDrive-test-conv3-colab,71,186.18827157658018,147197,946,2048.9122920036316,43.18293762207031,-43.32057189941406,11.798910140991211,0.34
147,MetaDrive-test-conv3-colab,71,188.09161374114967,148264,948,2064.0381093025208,45.428462982177734,,9.727149963378906,0.34
148,MetaDrive-test-conv3-colab,71,191.71157899827148,149054,949,2074.319071531296,40.136512756347656,,87.37556457519531,0.35
149,MetaDrive-test-conv3-colab,71,188.70436849617542,150236,953,2090.8960769176483,41.364952087402344,,6.653993606567383,0.34
150,MetaDrive-test-conv3-colab,71,191.4154448968633,151439,955,2109.07422208786,42.39333724975586,-42.453147888183594,5.541228771209717,0.35
151,MetaDrive-test-conv3-colab,71,194.7031314519596,152440,956,2128.7398376464844,44.38508987426758,,8.145731925964355,0.35
152,MetaDrive-test-conv3-colab,71,194.79081764917967,153107,958,2138.118949174881,46.18587875366211,-46.19399642944336,5.368035316467285,0.35
153,MetaDrive-test-conv3-colab,71,195.41086642229402,154600,963,2161.9862957000732,44.40187072753906,,4.532397747039795,0.34
154,MetaDrive-test-conv3-colab,71,197.04798602793394,155298,965,2169.8515667915344,43.39073944091797,,10.708927154541016,0.35
155,MetaDrive-test-conv3-colab,71,196.98419778377186,156194,967,2182.8925836086273,43.4577751159668,,9.681884765625,0.35
156,MetaDrive-test-conv3-colab,71,200.70263779814871,157317,970,2197.983014345169,44.30586242675781,-44.381710052490234,9.639141082763672,0.37
157,MetaDrive-test-conv3-colab,71,201.2374592580878,158856,974,2219.627621412277,46.033470153808594,,5.095634937286377,0.38
158,MetaDrive-test-conv3-colab,71,202.17415093030723,159371,975,2226.9064860343933,45.548797607421875,-45.80345916748047,8.78646183013916,0.39
159,MetaDrive-test-conv3-colab,71,202.91135142393625,160201,978,2236.9806299209595,47.146156311035156,-47.635887145996094,100.3864974975586,0.39
160,MetaDrive-test-conv3-colab,71,203.080076267386,161098,981,2248.288591146469,48.04090881347656,,3.606023073196411,0.39
161,MetaDrive-test-conv3-colab,71,201.0437610684376,162221,984,2264.6268911361694,44.5266227722168,-45.879539489746094,105.184326171875,0.38
162,MetaDrive-test-conv3-colab,71,201.8148901501335,163085,986,2277.130630016327,43.511505126953125,-44.21406555175781,3.511286497116089,0.38
163,MetaDrive-test-conv3-colab,71,201.6709546574427,164318,989,2296.4273858070374,46.26750183105469,,63.09843063354492,0.38
164,MetaDrive-test-conv3-colab,71,201.1683364105516,165002,991,2306.102143764496,43.87699890136719,,14.799793243408203,0.37
165,MetaDrive-test-conv3-colab,71,203.31474124159413,166115,995,2321.3396742343903,44.25065612792969,-45.748435974121094,99.05453491210938,0.38
166,MetaDrive-test-conv3-colab,71,209.25471409058468,167401,998,2338.263899564743,45.823429107666016,-46.102142333984375,6.947983264923096,0.41
167,MetaDrive-test-conv3-colab,71,212.4461475289513,168039,999,2348.4228241443634,41.0821533203125,-40.837547302246094,13.62672233581543,0.42
168,MetaDrive-test-conv3-colab,71,217.32397745895818,169714,1003,2370.1551978588104,42.75091552734375,,89.5145263671875,0.45
169,MetaDrive-test-conv3-colab,71,219.65700279454867,170432,1004,2380.806305408478,50.597923278808594,,18.433040618896484,0.46
170,MetaDrive-test-conv3-colab,71,220.0124974791762,171204,1006,2391.980954170227,49.2711296081543,,9.240309715270996,0.46
171,MetaDrive-test-conv3-colab,71,222.15575207351864,172008,1008,2403.8406574726105,45.78575134277344,,13.741944313049316,0.46
172,MetaDrive-test-conv3-colab,71,223.16984132524817,173215,1011,2422.1847603321075,45.83965301513672,-46.816497802734375,14.679940223693848,0.46
173,MetaDrive-test-conv3-colab,71,225.91644363697026,174193,1012,2439.946503639221,47.252994537353516,-47.725318908691406,105.55928039550781,0.47
174,MetaDrive-test-conv3-colab,71,224.25074145344107,175997,1015,2464.9012529850006,49.78565979003906,-50.78521728515625,13.711295127868652,0.45
175,MetaDrive-test-conv3-colab,71,226.24958630539254,176769,1016,2478.869803905487,47.77104187011719,-48.627845764160156,8.641809463500977,0.45
176,MetaDrive-test-conv3-colab,71,227.15005241518426,177215,1017,2484.264370203018,52.34761047363281,-53.26791000366211,6.834602355957031,0.45
177,MetaDrive-test-conv3-colab,71,230.2238420175597,178048,1018,2497.1251690387726,45.951595306396484,,78.55860900878906,0.46
178,MetaDrive-test-conv3-colab,71,230.6584951464048,179002,1021,2510.6551463603973,48.022151947021484,,10.283679962158203,0.46
179,MetaDrive-test-conv3-colab,71,232.23226209902583,180398,1024,2533.263687849045,48.79293441772461,,5.632333755493164,0.46
180,MetaDrive-test-conv3-colab,71,234.28123587156446,181184,1026,2544.6132328510284,48.5780029296875,,55.13926696777344,0.47
181,MetaDrive-test-conv3-colab,71,232.10904949988796,182060,1029,2557.350407600403,48.86839294433594,,7.687090873718262,0.45
182,MetaDrive-test-conv3-colab,71,232.1436337715865,183139,1031,2573.9887704849243,47.97711181640625,-48.36154556274414,8.69594669342041,0.44
183,MetaDrive-test-conv3-colab,71,236.70455510296523,184174,1033,2588.3816425800323,48.12638854980469,,11.601068496704102,0.46
184,MetaDrive-test-conv3-colab,71,241.40728022121246,185175,1034,2605.099778652191,47.42668151855469,-45.77709197998047,20.99899673461914,0.46
185,MetaDrive-test-conv3-colab,71,244.52610307309854,186034,1036,2616.3381118774414,47.037757873535156,,185.20166015625,0.47
186,MetaDrive-test-conv3-colab,71,245.86719830551135,187026,1038,2629.86257314682,47.04405975341797,,12.539971351623535,0.47
187,MetaDrive-test-conv3-colab,71,242.47403921864628,188179,1041,2644.552832841873,46.22045135498047,-45.893836975097656,6.818885803222656,0.47
188,MetaDrive-test-conv3-colab,71,242.9434014852544,189046,1042,2657.8810527324677,51.13221740722656,,33.396209716796875,0.48
189,MetaDrive-test-conv3-colab,71,243.48551682293922,190047,1043,2671.0888752937317,50.141685485839844,-49.77021026611328,14.791315078735352,0.48
190,MetaDrive-test-conv3-colab,71,238.70714339207893,191545,1047,2694.3670620918274,50.13490295410156,-50.024261474609375,9.689525604248047,0.47
191,MetaDrive-test-conv3-colab,71,237.70451623067248,192193,1049,2704.612242937088,46.125511169433594,-45.73267364501953,9.286761283874512,0.47
192,MetaDrive-test-conv3-colab,71,237.90419988879347,193003,1051,2715.481924533844,50.61249542236328,-50.743858337402344,3.2791225910186768,0.47
193,MetaDrive-test-conv3-colab,71,240.4307021323226,194466,1054,2736.059286594391,49.23952102661133,,13.607189178466797,0.48
194,MetaDrive-test-conv3-colab,71,239.97278988711608,195707,1056,2755.7891852855682,51.27485275268555,-52.56072235107422,130.3197021484375,0.48
195,MetaDrive-test-conv3-colab,70,239.146341160628,196136,1058,2762.647040128708,43.898094177246094,,16.68033218383789,0.47
196,MetaDrive-test-conv3-colab,70,240.857958450735,197137,1059,2779.5395650863647,48.884971618652344,-49.124656677246094,4.36094856262207,0.47
197,MetaDrive-test-conv3-colab,70,243.8379494436787,198040,1060,2793.403411388397,51.84209442138672,,6.817801475524902,0.48
198,MetaDrive-test-conv3-colab,70,246.6586007807358,199218,1062,2811.1601343154907,47.428855895996094,,70.8348159790039,0.49
199,MetaDrive-test-conv3-colab,70,247.41603059918333,200063,1063,2823.9404237270355,47.55534744262695,-49.32415008544922,162.87246704101562,0.5
200,MetaDrive-test-conv3-colab,70,249.68781471431635,201579,1066,2842.8711001873016,49.900245666503906,-50.93714141845703,13.462129592895508,0.5
201,MetaDrive-test-conv3-colab,70,249.33760712593667,202003,1067,2848.8482825756073,50.44480514526367,-50.853057861328125,11.226926803588867,0.49
202,MetaDrive-test-conv3-colab,70,251.29005377765313,203290,1069,2870.2998416423798,43.0984992980957,,262.7979736328125,0.49
203,MetaDrive-test-conv3-colab,70,249.84158073066206,204185,1071,2882.687680721283,48.451881408691406,-48.705665588378906,10.07130241394043,0.48
204,MetaDrive-test-conv3-colab,70,256.5178348111721,205435,1073,2899.929489850998,49.743377685546875,-50.56267547607422,10.95242691040039,0.5
205,MetaDrive-test-conv3-colab,70,253.74120760500003,206609,1076,2920.7437477111816,50.32853698730469,-50.7518424987793,33.423133850097656,0.49
206,MetaDrive-test-conv3-colab,70,255.5724145113445,207207,1077,2929.4247756004333,49.912078857421875,-50.14710235595703,12.018028259277344,0.5
207,MetaDrive-test-conv3-colab,70,257.6750160160507,208166,1079,2943.7747654914856,48.88121795654297,,6.903703212738037,0.5
208,MetaDrive-test-conv3-colab,70,261.4813600909684,209377,1081,2959.5611777305603,50.706390380859375,-52.10291290283203,7.976545333862305,0.51
209,MetaDrive-test-conv3-colab,70,263.4556723240646,210378,1082,2977.1631450653076,50.31647872924805,,5.117115020751953,0.51
210,MetaDrive-test-conv3-colab,70,262.8886305361533,211117,1083,2988.618573665619,48.06000518798828,-48.657676696777344,8.188835144042969,0.51
211,MetaDrive-test-conv3-colab,70,262.0131455809666,212259,1086,3004.807928085327,48.67842102050781,-50.25644302368164,9.444060325622559,0.51
212,MetaDrive-test-conv3-colab,70,262.2851033346696,213299,1088,3018.580536842346,49.68708801269531,-49.206336975097656,7.635152816772461,0.52
213,MetaDrive-test-conv3-colab,70,262.5226094081708,214262,1090,3036.150781393051,47.85676574707031,,30.250713348388672,0.53
214,MetaDrive-test-conv3-colab,70,263.37266141116515,215846,1092,3058.8220438957214,50.9811897277832,,9.844451904296875,0.53
215,MetaDrive-test-conv3-colab,70,265.150182452632,216512,1093,3070.957674264908,48.05668640136719,,9.912076950073242,0.53
216,MetaDrive-test-conv3-colab,70,267.86096708926067,217311,1094,3081.1670355796814,48.03030776977539,-47.56482696533203,15.469106674194336,0.54
217,MetaDrive-test-conv3-colab,70,268.8301629429377,218681,1096,3099.877369403839,50.92606735229492,-51.69197463989258,6.769215106964111,0.55
218,MetaDrive-test-conv3-colab,70,267.8553439878114,219010,1097,3104.454538822174,51.66663360595703,,3.8327760696411133,0.54
219,MetaDrive-test-conv3-colab,70,265.3077569776103,220410,1100,3123.6995770931244,47.89348602294922,,6.16162633895874,0.52
220,MetaDrive-test-conv3-colab,70,268.88340666305623,221465,1102,3139.0359065532684,55.3964958190918,-55.63264465332031,5.524740219116211,0.52
221,MetaDrive-test-conv3-colab,70,268.93508134780694,222294,1103,3149.79740190506,47.47920227050781,,10.759224891662598,0.52
222,MetaDrive-test-conv3-colab,70,268.9395212785492,223045,1104,3160.8008205890656,50.12263488769531,-51.40087127685547,8.448457717895508,0.52
223,MetaDrive-test-conv3-colab,70,269.02098296511247,224114,1106,3175.5742383003235,50.371646881103516,,85.22254180908203,0.51
224,MetaDrive-test-conv3-colab,70,272.8226059298002,225275,1108,3194.249858856201,53.082942962646484,-53.67528533935547,19.398536682128906,0.53
225,MetaDrive-test-conv3-colab,70,273.79954322313705,226071,1110,3206.7616381645203,48.99213409423828,-49.606876373291016,7.432887077331543,0.53
226,MetaDrive-test-conv3-colab,70,273.92657590150344,227072,1111,3219.5942871570587,49.15010070800781,,6.323769569396973,0.52
227,MetaDrive-test-conv3-colab,70,271.7729321289506,228158,1113,3234.5821504592896,53.748291015625,,7.729446887969971,0.51
228,MetaDrive-test-conv3-colab,70,271.2139472521385,229056,1115,3248.2325372695923,46.51405334472656,,25.626361846923828,0.51
229,MetaDrive-test-conv3-colab,70,267.4180659738268,230170,1117,3264.91459774971,47.8924560546875,,87.39505004882812,0.5
230,MetaDrive-test-conv3-colab,70,267.96971852953897,231285,1119,3283.71270775795,50.952842712402344,-51.76412582397461,6.707705974578857,0.51
231,MetaDrive-test-conv3-colab,70,269.2364896142597,232295,1121,3297.727879047394,51.47581100463867,-53.16249465942383,134.6817626953125,0.51
232,MetaDrive-test-conv3-colab,70,268.72604310881025,233297,1124,3312.4203283786774,50.11095428466797,-50.07911682128906,4.741117477416992,0.5
233,MetaDrive-test-conv3-colab,70,268.8326372127119,234146,1126,3324.3890686035156,53.87439727783203,,102.02404022216797,0.5
234,MetaDrive-test-conv3-colab,70,272.5996174754254,235126,1128,3335.3611104488373,47.681758880615234,,18.8482666015625,0.52
235,MetaDrive-test-conv3-colab,70,273.6538513342392,236860,1130,3357.1879456043243,52.230712890625,,9.79286003112793,0.53
236,MetaDrive-test-conv3-colab,70,273.72252580034547,237317,1131,3363.292722940445,50.498661041259766,-51.15715408325195,19.67237091064453,0.53
237,MetaDrive-test-conv3-colab,70,275.1944629161464,238318,1132,3380.1578917503357,48.147796630859375,,12.704263687133789,0.52
238,MetaDrive-test-conv3-colab,70,272.55998331840084,239673,1134,3398.094514131546,50.631465911865234,-50.1890983581543,10.660361289978027,0.52
239,MetaDrive-test-conv3-colab,70,274.3690417488148,240248,1135,3406.564458847046,50.14195251464844,,145.7615509033203,0.53
240,MetaDrive-test-conv3-colab,70,272.8826233390941,241133,1137,3417.531598329544,51.33348083496094,-51.8996467590332,88.86773681640625,0.53
241,MetaDrive-test-conv3-colab,70,271.4016195645596,242168,1139,3433.2347724437714,50.82697296142578,,93.3106689453125,0.52
242,MetaDrive-test-conv3-colab,70,266.6055448001592,243362,1143,3451.2089626789093,48.42963409423828,,82.30418395996094,0.5
243,MetaDrive-test-conv3-colab,70,268.846893804615,244071,1145,3461.664304971695,52.18364715576172,-52.06095886230469,9.038959503173828,0.5
244,MetaDrive-test-conv3-colab,70,264.3172064254193,245178,1149,3475.9466688632965,51.41729736328125,,71.42301940917969,0.48
245,MetaDrive-test-conv3-colab,70,262.3619896112272,246179,1150,3491.329871892929,51.28619384765625,-49.98918533325195,14.320405960083008,0.47
246,MetaDrive-test-conv3-colab,70,263.28138055441593,247830,1152,3518.9535620212555,54.367496490478516,,21.150192260742188,0.47
247,MetaDrive-test-conv3-colab,70,265.6807704557409,248748,1153,3535.492917537689,51.10292053222656,,11.673900604248047,0.47
248,MetaDrive-test-conv3-colab,70,266.9277714425029,249354,1154,3542.9490118026733,51.108642578125,,9.884504318237305,0.47
249,MetaDrive-test-conv3-colab,70,267.93107844122494,250448,1156,3557.7238779067993,51.958038330078125,,9.32298755645752,0.48
250,MetaDrive-test-conv3-colab,70,271.92358399143666,251673,1158,3573.0113112926483,47.03806686401367,-46.828453063964844,11.588106155395508,0.5
251,MetaDrive-test-conv3-colab,70,272.6805044958252,252217,1159,3580.126871585846,51.50616455078125,-50.915733337402344,8.841371536254883,0.51
252,MetaDrive-test-conv3-colab,70,270.94455786605573,253256,1161,3593.8260900974274,52.50370788574219,,22.978004455566406,0.51
253,MetaDrive-test-conv3-colab,70,269.88285379142155,254277,1163,3606.8852479457855,52.08940505981445,-52.4964599609375,13.649369239807129,0.51
254,MetaDrive-test-conv3-colab,70,268.0479874652742,255241,1164,3619.7520678043365,53.371681213378906,-53.559593200683594,3.9084553718566895,0.5
255,MetaDrive-test-conv3-colab,70,267.04255347814353,256025,1166,3629.1260311603546,52.360076904296875,-53.63188171386719,126.95661926269531,0.5
256,MetaDrive-test-conv3-colab,70,268.041590063668,257162,1168,3644.1208815574646,49.39080047607422,,49.06003952026367,0.51
257,MetaDrive-test-conv3-colab,70,265.24201681576966,258333,1171,3660.490398168564,50.116546630859375,-49.5894775390625,11.634012222290039,0.51
258,MetaDrive-test-conv3-colab,70,263.07645904080266,259305,1174,3674.905662059784,55.776710510253906,-56.09033203125,4.016598701477051,0.5
259,MetaDrive-test-conv3-colab,70,262.9094019219127,260159,1176,3687.060301065445,51.375457763671875,-50.91040802001953,24.22625160217285,0.5
260,MetaDrive-test-conv3-colab,70,262.89059980550957,261262,1178,3700.9429121017456,52.02819061279297,,7.604732513427734,0.5
261,MetaDrive-test-conv3-colab,70,263.40010411604044,262263,1179,3720.7819867134094,50.747337341308594,-51.597503662109375,15.564386367797852,0.5
262,MetaDrive-test-conv3-colab,70,261.630518557539,263277,1181,3735.9576036930084,52.403282165527344,-53.10054016113281,7.726407051086426,0.49
263,MetaDrive-test-conv3-colab,70,261.029764014653,264153,1183,3749.466297864914,52.06263732910156,-52.23148727416992,142.62657165527344,0.49
264,MetaDrive-test-conv3-colab,70,261.04588027342,265199,1186,3764.8061656951904,55.17472839355469,-55.87919616699219,14.07585334777832,0.49
265,MetaDrive-test-conv3-colab,70,260.397861062268,266272,1188,3778.8255202770233,50.90629959106445,,69.53492736816406,0.49
266,MetaDrive-test-conv3-colab,70,261.07190230029977,267183,1190,3791.4269483089447,51.05607223510742,-51.4283447265625,14.565774917602539,0.49
267,MetaDrive-test-conv3-colab,70,256.83013066311753,268350,1193,3809.740526199341,50.62830352783203,,10.054654121398926,0.48
268,MetaDrive-test-conv3-colab,70,255.49509961427322,269202,1195,3821.3133158683777,53.1478271484375,,19.902835845947266,0.47
269,MetaDrive-test-conv3-colab,70,254.84981760686875,270538,1197,3840.6514282226562,59.21113204956055,,5.578527927398682,0.46
270,MetaDrive-test-conv3-colab,70,257.26151594362204,271108,1198,3847.794485807419,56.59324645996094,,133.62857055664062,0.47
271,MetaDrive-test-conv3-colab,70,255.16416024746843,272217,1201,3864.624085187912,50.62051010131836,-50.13684844970703,9.198596954345703,0.47
272,MetaDrive-test-conv3-colab,70,252.93648409382504,273544,1203,3880.9270136356354,48.39337158203125,,13.138965606689453,0.47
273,MetaDrive-test-conv3-colab,70,253.18799862135307,274166,1204,3889.600620508194,55.072879791259766,,103.67424011230469,0.47
274,MetaDrive-test-conv3-colab,70,253.18808173753703,275005,1206,3899.1828372478485,52.97029113769531,-52.909873962402344,11.728857040405273,0.48
275,MetaDrive-test-conv3-colab,70,248.65195346976734,276157,1210,3915.8039882183075,48.627845764160156,-48.61669921875,113.28828430175781,0.48
276,MetaDrive-test-conv3-colab,70,249.42317936352708,277285,1212,3934.02121925354,50.14103698730469,-52.04774856567383,74.35885620117188,0.49
277,MetaDrive-test-conv3-colab,70,248.9652955970202,278079,1214,3947.063822746277,49.00517272949219,-49.51713562011719,10.931400299072266,0.49
278,MetaDrive-test-conv3-colab,70,247.88838578294087,279501,1218,3965.594322681427,55.37315368652344,-55.52995300292969,12.072935104370117,0.49
279,MetaDrive-test-conv3-colab,70,246.686513072918,280039,1219,3972.69114613533,55.422061920166016,-55.93337631225586,5.3905229568481445,0.49
280,MetaDrive-test-conv3-colab,70,243.93773375531583,281625,1224,3996.5982506275177,53.58286666870117,-53.30576705932617,8.809813499450684,0.49
281,MetaDrive-test-conv3-colab,70,243.4156776077464,282295,1226,4006.9838252067566,54.15522766113281,-54.54480743408203,12.061263084411621,0.48
282,MetaDrive-test-conv3-colab,70,239.46053569242576,283465,1229,4022.1880383491516,51.169010162353516,-51.64727783203125,43.05308532714844,0.47
283,MetaDrive-test-conv3-colab,70,240.3541668036271,284466,1230,4043.0520553588867,54.564239501953125,,9.842304229736328,0.47
284,MetaDrive-test-conv3-colab,70,238.82317162866732,285185,1232,4053.2381539344788,52.486549377441406,-53.20721435546875,10.481964111328125,0.48
285,MetaDrive-test-conv3-colab,70,238.45543860576902,286183,1234,4070.0676851272583,48.40447998046875,-48.711570739746094,35.8659553527832,0.47
286,MetaDrive-test-conv3-colab,70,235.7510562785848,287159,1237,4083.891217947006,56.35070037841797,-55.63595962524414,135.50491333007812,0.46
287,MetaDrive-test-conv3-colab,70,236.21336264546756,288354,1239,4102.340300559998,54.99767303466797,,30.961753845214844,0.46
288,MetaDrive-test-conv3-colab,70,238.50308859083955,289038,1241,4112.398964881897,52.725677490234375,,21.299455642700195,0.47
289,MetaDrive-test-conv3-colab,70,243.89780253112235,290556,1244,4134.8347589969635,49.559513092041016,,17.10881233215332,0.49
290,MetaDrive-test-conv3-colab,70,245.34893474348814,291203,1245,4142.648948907852,54.8382568359375,-54.8274040222168,5.873782157897949,0.5
291,MetaDrive-test-conv3-colab,70,246.23855511107516,292347,1248,4160.215812206268,51.265724182128906,-52.55809020996094,26.715782165527344,0.5
292,MetaDrive-test-conv3-colab,70,247.64955856622032,293113,1249,4173.615653514862,52.23802185058594,-52.23406982421875,8.066361427307129,0.5
293,MetaDrive-test-conv3-colab,70,247.27599071689224,294114,1250,4189.158954381943,52.82281494140625,,27.57093048095703,0.5
294,MetaDrive-test-conv3-colab,70,247.03582201548525,295069,1252,4202.0520350933075,54.47175979614258,-55.639713287353516,71.5818099975586,0.5
295,MetaDrive-test-conv3-colab,70,246.86558925461307,296346,1254,4221.428726673126,51.24103927612305,,12.660500526428223,0.51
296,MetaDrive-test-conv3-colab,70,243.49374641641944,297088,1256,4231.106026172638,53.281978607177734,,28.527793884277344,0.5
297,MetaDrive-test-conv3-colab,70,241.3233448455614,298506,1259,4254.691990375519,51.660011291503906,,9.924938201904297,0.48
298,MetaDrive-test-conv3-colab,70,240.05808750208672,299383,1261,4266.710580587387,58.42827606201172,-58.28215408325195,10.14858341217041,0.47
299,MetaDrive-test-conv3-colab,70,240.97811248202265,300360,1262,4283.043740987778,51.24817657470703,,73.8121566772461,0.47
300,MetaDrive-test-conv3-colab,70,241.79482248982436,301023,1263,4291.264646530151,56.03052520751953,-56.17138671875,24.897689819335938,0.47
301,MetaDrive-test-conv3-colab,70,245.5838760444648,302344,1265,4310.866213560104,58.52998733520508,,23.98802947998047,0.49
302,MetaDrive-test-conv3-colab,70,242.51777314789615,303049,1268,4320.976102352142,50.87664794921875,-51.53380584716797,6.957122802734375,0.48
303,MetaDrive-test-conv3-colab,70,243.21478233253146,304018,1270,4333.522583961487,54.32921600341797,,8.469171524047852,0.48
304,MetaDrive-test-conv3-colab,70,245.39998055854724,305212,1272,4353.209228992462,50.100929260253906,,13.264799118041992,0.48
305,MetaDrive-test-conv3-colab,70,245.07207853857824,306100,1274,4364.323614835739,50.70051956176758,,18.008995056152344,0.47
306,MetaDrive-test-conv3-colab,70,245.43846553854016,307130,1276,4378.007910728455,55.52821350097656,,7.678141117095947,0.47
307,MetaDrive-test-conv3-colab,70,244.41203514002595,308304,1278,4393.5323574543,49.183128356933594,,113.14167022705078,0.46
308,MetaDrive-test-conv3-colab,70,245.8227500572745,309226,1280,4404.77422785759,55.50189971923828,,17.685447692871094,0.47
309,MetaDrive-test-conv3-colab,70,246.1836759500605,310327,1282,4423.097516536713,53.76172637939453,-55.578914642333984,7.334477424621582,0.47
310,MetaDrive-test-conv3-colab,70,243.94537699887732,311320,1285,4439.336785078049,56.35293197631836,,31.459732055664062,0.46
311,MetaDrive-test-conv3-colab,70,245.32890279410705,312425,1287,4455.062435626984,52.34389114379883,-53.213043212890625,10.643802642822266,0.46
312,MetaDrive-test-conv3-colab,70,244.8453359702363,313390,1289,4466.929089784622,51.897247314453125,,10.052347183227539,0.46
313,MetaDrive-test-conv3-colab,70,246.1027440645569,314177,1291,4477.5516884326935,56.4875373840332,-56.901283264160156,9.068819046020508,0.47
314,MetaDrive-test-conv3-colab,70,253.9780031517952,315767,1293,4506.546873092651,50.78705596923828,-51.617835998535156,137.09820556640625,0.49
315,MetaDrive-test-conv3-colab,70,255.93334006156266,316451,1294,4516.969487190247,50.59355163574219,-51.76398468017578,12.279827117919922,0.5
316,MetaDrive-test-conv3-colab,70,254.32528983276427,317422,1297,4529.586360216141,58.15787124633789,,16.138708114624023,0.5
317,MetaDrive-test-conv3-colab,70,252.71345623668836,318124,1299,4539.317021608353,52.33966064453125,,14.141481399536133,0.49
318,MetaDrive-test-conv3-colab,70,252.47795083283995,319135,1301,4552.892610311508,53.545650482177734,-54.4561653137207,157.2430877685547,0.49
319,MetaDrive-test-conv3-colab,70,246.89994891667075,320737,1304,4576.2793962955475,55.47900390625,-55.749393463134766,11.478019714355469,0.46
320,MetaDrive-test-conv3-colab,70,246.90418698407862,321087,1305,4581.519142150879,52.840606689453125,-53.386924743652344,10.711551666259766,0.46
321,MetaDrive-test-conv3-colab,70,247.33632786820917,322107,1307,4594.643065452576,52.52320861816406,-53.692745208740234,91.13450622558594,0.46
322,MetaDrive-test-conv3-colab,70,247.8636075735696,323207,1310,4610.052967071533,52.64337921142578,-53.20049285888672,67.91642761230469,0.45
323,MetaDrive-test-conv3-colab,70,246.5509635095329,324012,1312,4621.538672208786,51.07843780517578,,92.84644317626953,0.45
324,MetaDrive-test-conv3-colab,70,247.37750674640384,325502,1315,4643.666656255722,53.59214401245117,,23.093626022338867,0.44
325,MetaDrive-test-conv3-colab,70,248.8857132346589,326452,1317,4659.153697490692,51.77386474609375,,7.235734939575195,0.45
326,MetaDrive-test-conv3-colab,70,249.13674719095394,327088,1318,4667.217636823654,56.496849060058594,,10.981380462646484,0.45
327,MetaDrive-test-conv3-colab,70,250.80755930321683,328371,1321,4683.130005121231,53.988426208496094,-55.34714889526367,87.68760681152344,0.46
328,MetaDrive-test-conv3-colab,70,252.99559950586266,329599,1324,4702.72025179863,52.191551208496094,-52.61036682128906,4.6650896072387695,0.46
329,MetaDrive-test-conv3-colab,70,254.0770676929868,330911,1326,4722.145796298981,53.78925323486328,-54.3013801574707,11.26744556427002,0.46
330,MetaDrive-test-conv3-colab,70,257.1961808331396,331779,1327,4737.535214662552,49.317256927490234,-49.45342254638672,27.909954071044922,0.47
331,MetaDrive-test-conv3-colab,70,257.25800572845316,332248,1328,4743.136246204376,55.84553527832031,,52.2430305480957,0.46
332,MetaDrive-test-conv3-colab,70,256.4897879300159,333137,1330,4755.11852312088,51.682220458984375,-53.263214111328125,19.13375473022461,0.46
333,MetaDrive-test-conv3-colab,69,259.38961123006715,334428,1332,4777.685658454895,52.17119598388672,,19.304323196411133,0.46
334,MetaDrive-test-conv3-colab,69,263.0166599692071,335191,1333,4789.634876251221,56.348388671875,-56.941993713378906,33.26820373535156,0.47
335,MetaDrive-test-conv3-colab,70,264.04549705755915,336549,1335,4806.396439790726,53.73851776123047,-54.76927947998047,6.950875282287598,0.49
336,MetaDrive-test-conv3-colab,69,267.40235405980116,337491,1336,4822.671033859253,55.802406311035156,-55.885501861572266,9.247818946838379,0.5
337,MetaDrive-test-conv3-colab,69,267.08625822891986,338289,1337,4833.7237339019775,53.84445571899414,-53.22418975830078,15.988656044006348,0.5
338,MetaDrive-test-conv3-colab,70,265.4301639149716,339064,1339,4843.301941156387,53.37687683105469,,15.7772216796875,0.5
339,MetaDrive-test-conv3-colab,70,265.88584181425784,340035,1341,4855.683801174164,49.88566207885742,-50.375396728515625,11.853537559509277,0.5
340,MetaDrive-test-conv3-colab,70,265.1058754363774,341056,1343,4867.849833250046,52.91273498535156,,23.897804260253906,0.5
341,MetaDrive-test-conv3-colab,70,263.4994684888953,342138,1345,4881.265070438385,53.8105354309082,,11.545488357543945,0.49
342,MetaDrive-test-conv3-colab,70,269.38763244144707,343659,1347,4901.74688410759,54.86512756347656,-55.61700439453125,10.431396484375,0.51
343,MetaDrive-test-conv3-colab,70,269.2381306191864,344239,1348,4910.106392145157,53.54522705078125,-53.636199951171875,11.204886436462402,0.5
344,MetaDrive-test-conv3-colab,70,270.01011427169635,345229,1350,4927.119111299515,50.201332092285156,-50.68571853637695,7.758412837982178,0.51
345,MetaDrive-test-conv3-colab,70,270.23887210112116,346230,1351,4940.764039993286,52.447540283203125,,12.81552505493164,0.5
346,MetaDrive-test-conv3-colab,70,268.03024972619494,347059,1353,4950.772588968277,54.958290100097656,-54.557167053222656,17.43792152404785,0.5
347,MetaDrive-test-conv3-colab,70,265.93717830781327,348033,1356,4964.048686742783,49.323692321777344,-49.61564254760742,8.119565963745117,0.49
348,MetaDrive-test-conv3-colab,70,265.55394071863464,349484,1359,4984.22558760643,55.477970123291016,,13.20827579498291,0.48
349,MetaDrive-test-conv3-colab,70,266.89557359771044,350829,1361,5007.492561101913,49.94695281982422,-51.02928924560547,18.28813362121582,0.47
350,MetaDrive-test-conv3-colab,70,267.07640709708284,351435,1362,5016.058385848999,55.6815299987793,-56.52879333496094,12.452556610107422,0.47
351,MetaDrive-test-conv3-colab,70,266.4688845041966,352650,1364,5030.890779495239,57.680416107177734,,9.327293395996094,0.47
352,MetaDrive-test-conv3-colab,70,265.2867492966051,353176,1365,5037.818536996841,56.651126861572266,,90.01227569580078,0.47
353,MetaDrive-test-conv3-colab,70,270.2321105429795,354520,1367,5057.9490394592285,53.85143280029297,,18.8906192779541,0.49
354,MetaDrive-test-conv3-colab,70,271.17527931396637,355471,1368,5071.198784351349,58.0262451171875,-58.22187423706055,17.356216430664062,0.49
355,MetaDrive-test-conv3-colab,70,271.6598939827273,356219,1369,5082.599956035614,52.02583312988281,-52.484954833984375,12.52670955657959,0.49
356,MetaDrive-test-conv3-colab,70,272.3127300833336,357220,1370,5092.594377994537,53.399017333984375,,29.386566162109375,0.49
357,MetaDrive-test-conv3-colab,70,269.4546372837665,358846,1372,5112.795377969742,55.860286712646484,,13.063334465026855,0.49
358,MetaDrive-test-conv3-colab,70,270.90214499808326,359761,1373,5125.384224653244,53.839168548583984,-53.44501495361328,12.920296669006348,0.5
359,MetaDrive-test-conv3-colab,70,272.44132779621265,360762,1374,5136.975779771805,48.52158737182617,,8.414424896240234,0.5
360,MetaDrive-test-conv3-colab,70,271.98426224875755,361398,1375,5146.50132226944,53.772254943847656,,15.345375061035156,0.5
361,MetaDrive-test-conv3-colab,70,275.67797695184095,362399,1376,5161.283312320709,52.787322998046875,-53.58019256591797,9.953653335571289,0.5
362,MetaDrive-test-conv3-colab,70,274.7729771056387,363565,1378,5177.180751800537,53.231483459472656,-51.97160339355469,14.18486213684082,0.5
363,MetaDrive-test-conv3-colab,70,275.38551880675925,364376,1379,5190.283039331436,55.31861877441406,,11.016335487365723,0.5
364,MetaDrive-test-conv3-colab,70,277.3512535480583,365778,1381,5211.204666137695,57.63050842285156,,8.223773956298828,0.51
365,MetaDrive-test-conv3-colab,70,277.1356049561331,366779,1382,5223.483870506287,49.792808532714844,-50.64943313598633,20.098894119262695,0.5
366,MetaDrive-test-conv3-colab,70,279.66222518582725,367310,1383,5230.341194391251,58.12948989868164,,15.501508712768555,0.51
367,MetaDrive-test-conv3-colab,70,281.57897129468,368107,1384,5244.121254682541,54.60088348388672,-55.73196029663086,40.69556427001953,0.51
368,MetaDrive-test-conv3-colab,70,280.98081799539005,369601,1386,5263.004357814789,56.936561584472656,-57.56419372558594,6.741124153137207,0.51
369,MetaDrive-test-conv3-colab,70,281.6966245395741,370213,1387,5271.137647628784,53.137062072753906,-53.17155075073242,15.193552017211914,0.52
370,MetaDrive-test-conv3-colab,70,280.3081337813726,371241,1389,5284.361817121506,53.065345764160156,-53.76044464111328,15.625483512878418,0.51
371,MetaDrive-test-conv3-colab,70,283.9772159451894,372030,1390,5296.500807285309,55.22869873046875,,9.060972213745117,0.52
372,MetaDrive-test-conv3-colab,70,284.208643345985,373006,1391,5311.221936702728,54.300682067871094,,22.749298095703125,0.52
373,MetaDrive-test-conv3-colab,70,277.42138930252173,374632,1394,5336.791617393494,51.17694854736328,,12.363189697265625,0.49
374,MetaDrive-test-conv3-colab,70,278.0978337175224,375633,1395,5351.874838590622,51.622802734375,-52.25605392456055,20.39682388305664,0.49
375,MetaDrive-test-conv3-colab,70,277.3512091277706,376634,1396,5367.8752784729,54.862762451171875,,17.539165496826172,0.49
376,MetaDrive-test-conv3-colab,70,276.4270447862406,377001,1397,5373.257617473602,49.72892761230469,-49.8060417175293,7.218411445617676,0.48
377,MetaDrive-test-conv3-colab,70,276.3100586321939,378002,1398,5388.434875011444,56.84901428222656,,12.21519660949707,0.48
378,MetaDrive-test-conv3-colab,70,277.0818905346876,379363,1401,5408.056270122528,52.99810791015625,-52.41288757324219,12.5861177444458,0.49
379,MetaDrive-test-conv3-colab,70,278.922209463789,380265,1403,5420.1809849739075,53.68370819091797,-55.422847747802734,10.681583404541016,0.5
380,MetaDrive-test-conv3-colab,70,280.5047943464873,381259,1405,5432.706618309021,57.222015380859375,-57.25577163696289,24.919164657592773,0.51
381,MetaDrive-test-conv3-colab,70,283.0359282802895,382734,1407,5455.43638920784,54.748680114746094,,12.979236602783203,0.51
382,MetaDrive-test-conv3-colab,70,284.5866645346298,383119,1408,5460.34353017807,50.92887878417969,-51.86988067626953,10.02267074584961,0.51
383,MetaDrive-test-conv3-colab,70,284.9403560916785,384378,1410,5478.254724264145,49.39836120605469,,13.987516403198242,0.51
384,MetaDrive-test-conv3-colab,70,285.7397759535684,385845,1412,5496.468881368637,55.97430419921875,-57.27318572998047,11.259495735168457,0.51
385,MetaDrive-test-conv3-colab,70,286.79827675398855,386327,1413,5504.002015590668,48.59402847290039,-50.00115966796875,33.74613952636719,0.51
386,MetaDrive-test-conv3-colab,70,284.0380797940014,387245,1415,5519.808453798294,53.25053405761719,-54.88536071777344,15.311808586120605,0.5
387,MetaDrive-test-conv3-colab,70,284.1135871665743,388966,1418,5543.360093355179,55.502891540527344,,34.5606803894043,0.48
388,MetaDrive-test-conv3-colab,70,282.0458593437294,389137,1419,5545.54940366745,57.368133544921875,-58.19028854370117,13.572602272033691,0.47
389,MetaDrive-test-conv3-colab,70,280.89287295985815,390426,1422,5559.993169546127,54.689483642578125,,18.97571563720703,0.47
390,MetaDrive-test-conv3-colab,70,279.2561752823838,391221,1424,5572.27562379837,49.10369110107422,-50.83176040649414,18.20224380493164,0.47
391,MetaDrive-test-conv3-colab,70,281.715591538787,392098,1425,5587.34832072258,57.20063400268555,,10.942801475524902,0.48
392,MetaDrive-test-conv3-colab,70,281.60267132242507,393830,1427,5611.815316915512,51.15325164794922,,28.36437225341797,0.47
393,MetaDrive-test-conv3-colab,70,283.42667567224726,394730,1428,5626.322566747665,57.60137939453125,,23.70043182373047,0.48
394,MetaDrive-test-conv3-colab,70,284.6913294794037,395731,1429,5641.437838077545,56.29234313964844,-56.4015007019043,15.189784049987793,0.47
395,MetaDrive-test-conv3-colab,70,285.2954932328824,396502,1430,5653.481981754303,48.24321365356445,,17.294414520263672,0.48
396,MetaDrive-test-conv3-colab,70,287.38876694155647,397434,1431,5669.524052619934,54.373538970947266,,5.656101703643799,0.49
397,MetaDrive-test-conv3-colab,70,283.56146732331877,398617,1433,5684.9414694309235,51.16299819946289,-51.43507385253906,12.426887512207031,0.48
398,MetaDrive-test-conv3-colab,70,283.1631011370043,399618,1434,5696.525248527527,52.74281311035156,,25.389087677001953,0.47
399,MetaDrive-test-conv3-colab,70,284.265649477055,400393,1435,5706.491980552673,46.65692901611328,-46.049560546875,77.62715148925781,0.47
400,MetaDrive-test-conv3-colab,70,283.17937319591687,401108,1436,5714.760390996933,53.439308166503906,,11.537593841552734,0.46
401,MetaDrive-test-conv3-colab,70,286.1309647471827,402500,1438,5732.025446176529,51.71708679199219,,11.426200866699219,0.45
402,MetaDrive-test-conv3-colab,70,287.03764619361493,403137,1439,5740.599688768387,55.520904541015625,-55.80860137939453,6.892462253570557,0.45
403,MetaDrive-test-conv3-colab,70,287.00695028947854,404138,1440,5764.35239481926,54.412410736083984,,12.336803436279297,0.44
404,MetaDrive-test-conv3-colab,70,290.3780137957258,405124,1441,5782.112185239792,49.88953399658203,,13.739702224731445,0.44
405,MetaDrive-test-conv3-colab,70,289.07170728224037,406125,1442,5797.301184415817,51.18859100341797,-52.017539978027344,74.82070922851562,0.43
406,MetaDrive-test-conv3-colab,70,288.97045636040866,407828,1445,5817.938243627548,52.09288024902344,,16.535608291625977,0.42
407,MetaDrive-test-conv3-colab,70,286.68882308591327,408402,1446,5825.847144603729,56.28590774536133,,12.085769653320312,0.41
408,MetaDrive-test-conv3-colab,70,284.44583722620484,409380,1448,5837.618025302887,54.751678466796875,,7.474505424499512,0.41
409,MetaDrive-test-conv3-colab,70,287.4113097046618,410381,1449,5850.499036550522,56.322853088378906,-56.64316177368164,13.178831100463867,0.41
410,MetaDrive-test-conv3-colab,70,285.8341673255758,411382,1450,5863.02285194397,53.302703857421875,,23.635719299316406,0.4
411,MetaDrive-test-conv3-colab,70,285.7546978411334,412383,1451,5874.218663930893,55.487300872802734,-54.16062927246094,26.11724281311035,0.4
412,MetaDrive-test-conv3-colab,70,286.1124180354925,413340,1453,5887.225199699402,51.658775329589844,,13.22484016418457,0.39
413,MetaDrive-test-conv3-colab,70,287.2299010871951,414341,1454,5900.986754894257,52.70708465576172,-52.42000198364258,12.14677906036377,0.39
414,MetaDrive-test-conv3-colab,70,286.5745587022062,415024,1455,5908.315322160721,50.5049934387207,,9.836409568786621,0.38
415,MetaDrive-test-conv3-colab,70,289.8311510156096,416254,1457,5925.101365327835,53.149559020996094,,20.11902618408203,0.4
416,MetaDrive-test-conv3-colab,70,288.66828117446903,417255,1458,5938.933814287186,52.114593505859375,-52.539154052734375,12.008838653564453,0.4
417,MetaDrive-test-conv3-colab,70,290.669640320903,418460,1460,5960.156556844711,48.414512634277344,,12.261144638061523,0.4
418,MetaDrive-test-conv3-colab,70,288.6037540457752,419541,1462,5972.223865747452,55.25045394897461,-54.990501403808594,21.903831481933594,0.39
419,MetaDrive-test-conv3-colab,70,285.3495540022016,420195,1464,5981.733245134354,49.343162536621094,-49.011138916015625,14.233275413513184,0.37
420,MetaDrive-test-conv3-colab,70,287.2989863514907,421196,1465,5999.484621047974,55.75305938720703,,6.231832981109619,0.36
421,MetaDrive-test-conv3-colab,70,286.99845196880597,422577,1467,6016.227020740509,52.448822021484375,-52.809654235839844,7.630031585693359,0.34
422,MetaDrive-test-conv3-colab,70,287.5476066340283,423272,1468,6028.418590545654,52.49323272705078,,10.10024356842041,0.33
423,MetaDrive-test-conv3-colab,70,290.3262651555223,424647,1470,6047.1037809848785,48.69102096557617,-49.55663299560547,18.54900360107422,0.32
424,MetaDrive-test-conv3-colab,70,289.51250499323135,425648,1471,6060.8210508823395,49.869903564453125,,16.764522552490234,0.31
425,MetaDrive-test-conv3-colab,70,290.8631122262942,426649,1472,6072.8813009262085,54.233070373535156,-54.90309143066406,21.4539737701416,0.31
426,MetaDrive-test-conv3-colab,70,291.0706461223289,427214,1473,6080.867627382278,50.77686309814453,,5.971805572509766,0.3
427,MetaDrive-test-conv3-colab,70,291.4781585582584,428681,1475,6101.648818492889,52.96323776245117,-53.95062255859375,23.178829193115234,0.29
428,MetaDrive-test-conv3-colab,70,288.0084982448215,429358,1476,6109.102317094803,55.54216003417969,,16.391159057617188,0.29
429,MetaDrive-test-conv3-colab,70,288.66380331257545,430280,1478,6119.842073440552,52.143882751464844,,8.728460311889648,0.28
430,MetaDrive-test-conv3-colab,70,289.1439320691884,431215,1479,6132.888283729553,47.43951416015625,-48.55555725097656,19.43032455444336,0.28
431,MetaDrive-test-conv3-colab,70,288.71482667980234,432216,1480,6147.879282474518,50.227142333984375,,9.584929466247559,0.27
432,MetaDrive-test-conv3-colab,70,287.1291901705678,433577,1482,6168.059466838837,55.50248718261719,-56.555992126464844,10.986662864685059,0.26
433,MetaDrive-test-conv3-colab,70,287.7197896552558,434522,1483,6180.239841222763,51.56400680541992,,10.872722625732422,0.25
434,MetaDrive-test-conv3-colab,70,287.2089257098676,435139,1484,6187.546610116959,53.99053192138672,-53.7843132019043,11.971546173095703,0.25
435,MetaDrive-test-conv3-colab,70,287.14642747599095,436064,1485,6200.173424720764,50.05865478515625,,21.350147247314453,0.24
436,MetaDrive-test-conv3-colab,70,287.18110619806345,437146,1487,6214.431034564972,52.18029022216797,,109.58231353759766,0.22
437,MetaDrive-test-conv3-colab,70,288.4762530385881,438403,1489,6231.6659433841705,51.682701110839844,-51.400203704833984,6.575336456298828,0.22
438,MetaDrive-test-conv3-colab,70,287.5352679756228,439404,1490,6250.030650138855,51.228736877441406,,11.528776168823242,0.21
439,MetaDrive-test-conv3-colab,70,286.3602522540108,440010,1491,6257.880302429199,55.75937271118164,,6.78381872177124,0.2
440,MetaDrive-test-conv3-colab,70,289.5191423188047,441602,1493,6282.292110204697,54.46208190917969,,23.3699951171875,0.21
441,MetaDrive-test-conv3-colab,70,288.9073796462242,442295,1494,6290.431208372116,53.02092742919922,-53.208030700683594,5.531590938568115,0.21
442,MetaDrive-test-conv3-colab,70,289.0978316690036,443010,1495,6299.591784238815,53.41156005859375,,8.620896339416504,0.21
443,MetaDrive-test-conv3-colab,70,290.65736728270923,444043,1497,6315.44922709465,51.114906311035156,-50.98863983154297,27.61133575439453,0.21
444,MetaDrive-test-conv3-colab,70,291.2579136543698,445046,1499,6328.8352308273315,52.664268493652344,,20.09593963623047,0.21
445,MetaDrive-test-conv3-colab,70,291.73750661175717,446047,1500,6345.306350946426,54.383766174316406,-55.00373077392578,10.344486236572266,0.2
446,MetaDrive-test-conv3-colab,70,294.4208183400202,447502,1502,6364.569719791412,46.77046203613281,,23.228612899780273,0.19
447,MetaDrive-test-conv3-colab,70,291.82002845029723,448273,1504,6377.712406873703,53.00105285644531,-52.322608947753906,20.373153686523438,0.17
448,MetaDrive-test-conv3-colab,70,291.467010799563,449384,1506,6391.350874185562,47.19306945800781,,7.810063362121582,0.18
449,MetaDrive-test-conv3-colab,70,290.82420479073534,450344,1508,6403.497090101242,54.744972229003906,,10.975924491882324,0.18
450,MetaDrive-test-conv3-colab,70,291.22855734002775,451345,1509,6418.400463342667,54.59104919433594,-54.83879852294922,19.606300354003906,0.18
451,MetaDrive-test-conv3-colab,70,291.3514275678584,452180,1510,6431.331399202347,43.984466552734375,,7.7519097328186035,0.18
452,MetaDrive-test-conv3-colab,70,292.6402999834227,453056,1511,6445.851269245148,50.665077209472656,,11.094098091125488,0.17
453,MetaDrive-test-conv3-colab,70,291.5225949403368,454499,1514,6463.7118237018585,51.752464294433594,-52.080299377441406,45.33088302612305,0.17
454,MetaDrive-test-conv3-colab,70,293.4006322278611,455252,1515,6472.222549915314,47.8804931640625,,11.363580703735352,0.17
455,MetaDrive-test-conv3-colab,70,296.87764629788165,456157,1516,6484.719245672226,50.49340057373047,-49.68889236450195,17.632810592651367,0.18
456,MetaDrive-test-conv3-colab,70,296.2500989119166,457158,1517,6497.455375671387,51.229801177978516,,16.581523895263672,0.18
457,MetaDrive-test-conv3-colab,70,294.449573908523,458112,1518,6510.948910951614,49.004478454589844,,10.175148010253906,0.18
458,MetaDrive-test-conv3-colab,70,295.58702058567604,459327,1520,6526.706832170486,52.513153076171875,-51.99299621582031,13.586195945739746,0.17
459,MetaDrive-test-conv3-colab,70,298.9786421373256,460328,1521,6544.310616493225,49.08809280395508,,8.597063064575195,0.17
460,MetaDrive-test-conv3-colab,70,300.2254679590775,461329,1522,6557.5085344314575,50.94037628173828,-51.32089614868164,95.83541107177734,0.17
461,MetaDrive-test-conv3-colab,70,300.4568837375883,462330,1523,6571.4624400138855,51.06847381591797,,13.101454734802246,0.16
462,MetaDrive-test-conv3-colab,70,301.83746051393206,463331,1524,6581.033957242966,49.30179977416992,-49.21501159667969,7.552619934082031,0.16
463,MetaDrive-test-conv3-colab,70,299.6045334981645,464194,1525,6590.226668834686,50.947044372558594,,35.652671813964844,0.16
464,MetaDrive-test-conv3-colab,70,293.9956760996351,465583,1528,6612.442284822464,53.36588668823242,-53.26249694824219,8.444897651672363,0.16
465,MetaDrive-test-conv3-colab,70,295.03871782430167,466584,1529,6629.438435077667,48.145015716552734,,6.821043968200684,0.16
466,MetaDrive-test-conv3-colab,70,296.44310690873385,467502,1530,6646.042762994766,55.275787353515625,,4.197901725769043,0.16
467,MetaDrive-test-conv3-colab,70,292.846810409088,468507,1532,6658.135093927383,52.04228210449219,-52.87836456298828,16.055797576904297,0.16
468,MetaDrive-test-conv3-colab,70,291.17092631400624,469309,1534,6669.874551057816,53.270896911621094,-53.26056671142578,7.440839767456055,0.16
469,MetaDrive-test-conv3-colab,70,290.6631180760937,470377,1536,6685.25138926506,47.568233489990234,-48.09165573120117,9.606729507446289,0.15
470,MetaDrive-test-conv3-colab,70,288.8885640555831,471548,1538,6700.857668161392,53.77210998535156,,18.811683654785156,0.16
471,MetaDrive-test-conv3-colab,70,289.3313927506791,472549,1539,6715.587520837784,48.95925521850586,-49.101661682128906,9.512761116027832,0.15
472,MetaDrive-test-conv3-colab,70,289.6058088542867,473550,1540,6726.773491859436,52.56941223144531,,6.31663703918457,0.15
473,MetaDrive-test-conv3-colab,70,288.84678640064357,474299,1541,6736.971076726913,50.462379455566406,-49.6884651184082,12.833616256713867,0.16
474,MetaDrive-test-conv3-colab,70,291.85428627552426,475969,1543,6763.186764955521,47.792423248291016,-47.84272766113281,23.89335823059082,0.16
475,MetaDrive-test-conv3-colab,70,294.1182160018901,476970,1544,6780.155081748962,51.15467834472656,,15.009687423706055,0.16
476,MetaDrive-test-conv3-colab,70,293.63987810025793,477606,1545,6788.479517221451,45.71349334716797,,13.289655685424805,0.17
477,MetaDrive-test-conv3-colab,70,295.4698782350365,478516,1546,6800.162022352219,49.23814392089844,,5.977916717529297,0.18
478,MetaDrive-test-conv3-colab,70,294.2599076517362,479342,1548,6810.036246299744,48.970359802246094,,15.08165168762207,0.18
479,MetaDrive-test-conv3-colab,70,291.81584306618424,480280,1550,6823.714334011078,44.39317321777344,,11.25233268737793,0.19
480,MetaDrive-test-conv3-colab,70,289.4934430415256,481281,1551,6835.72203207016,47.617042541503906,-47.12993240356445,14.943678855895996,0.19
481,MetaDrive-test-conv3-colab,70,291.1221579704215,482808,1553,6855.747756242752,49.120872497558594,,11.820365905761719,0.21
482,MetaDrive-test-conv3-colab,70,290.8512664252184,483322,1554,6862.33766913414,48.29856872558594,,7.979673385620117,0.22
483,MetaDrive-test-conv3-colab,70,291.8931019457595,484186,1555,6877.41872882843,45.581809997558594,,13.09892463684082,0.22
484,MetaDrive-test-conv3-colab,70,289.9413173072447,485186,1558,6890.211613178253,46.79878234863281,,8.774703979492188,0.2
485,MetaDrive-test-conv3-colab,70,291.4481388283328,486187,1559,6905.498568534851,54.19505310058594,-53.702781677246094,14.004619598388672,0.2
486,MetaDrive-test-conv3-colab,70,287.7728267442243,487188,1560,6920.743489027023,47.74040985107422,,6.997939586639404,0.2
487,MetaDrive-test-conv3-colab,70,288.1902526828018,488740,1562,6940.407166481018,52.58217239379883,,9.876311302185059,0.21
488,MetaDrive-test-conv3-colab,70,290.1728162189213,489586,1563,6950.367916584015,50.3621711730957,,14.353677749633789,0.21
489,MetaDrive-test-conv3-colab,70,293.0607857139168,490587,1564,6964.451779603958,48.625728607177734,-49.54743957519531,11.284037590026855,0.21
490,MetaDrive-test-conv3-colab,70,291.4655516309408,491236,1565,6973.780458688736,48.20770263671875,,8.357498168945312,0.22
491,MetaDrive-test-conv3-colab,70,290.4572945241874,492519,1567,6989.47679066658,49.78799819946289,-50.37554931640625,8.286188125610352,0.22
492,MetaDrive-test-conv3-colab,70,289.2856505542458,493230,1568,6997.322451591492,45.79835510253906,,11.254094123840332,0.23
493,MetaDrive-test-conv3-colab,70,289.6004821575138,494020,1569,7006.448769330978,44.26649475097656,,44.69822311401367,0.23
494,MetaDrive-test-conv3-colab,70,289.08267413516097,495021,1570,7021.063539981842,49.668312072753906,-50.23826599121094,7.939340591430664,0.23
495,MetaDrive-test-conv3-colab,70,292.32395253085264,496890,1572,7053.427852392197,48.62701416015625,,11.030904769897461,0.24
496,MetaDrive-test-conv3-colab,70,291.56696780272466,497605,1573,7061.727382659912,42.5665168762207,-43.21682357788086,14.078590393066406,0.25
497,MetaDrive-test-conv3-colab,70,292.4894531872217,498517,1574,7077.800857782364,48.52136993408203,-48.17894744873047,23.321456909179688,0.26
498,MetaDrive-test-conv3-colab,70,291.5902887794039,499426,1576,7089.972137212753,41.699554443359375,,21.72144317626953,0.27
