TanmayH/CS269-RL-project-code/MetaDrive-test-noise-reduction-td3/td3/progress.csv
,log_dir,frame_per_second,episode_reward,total_steps,total_episodes,total_time,target_q,actor_loss,critic_loss,success_rate
0,MetaDrive-test-noise-reduction-td3,966,11.559814895431149,2001,2,2.069483995437622,,,,0.0
1,MetaDrive-test-noise-reduction-td3,840,8.573187677012339,3498,4,4.161003112792969,,,,0.0
2,MetaDrive-test-noise-reduction-td3,631,7.686403910386196,4969,6,7.869815111160278,,,,0.0
3,MetaDrive-test-noise-reduction-td3,589,6.5642079015211525,5042,7,8.54783320426941,0.010153376497328281,,0.0017807786352932453,0.0
4,MetaDrive-test-noise-reduction-td3,280,-0.20983929514436808,6025,44,21.48044204711914,0.09135178476572037,-0.09777981042861938,0.007359632756561041,0.0
5,MetaDrive-test-noise-reduction-td3,184,-1.6368434412112507,7875,82,42.74887204170227,0.005073022097349167,-0.13027247786521912,0.8054147958755493,0.0
6,MetaDrive-test-noise-reduction-td3,167,-1.6130224535339526,9001,84,53.833948850631714,0.11121679097414017,-0.042915113270282745,0.057188939303159714,0.0
7,MetaDrive-test-noise-reduction-td3,158,-1.5522644234131007,10002,85,62.94912505149841,0.005589810200035572,,0.5546615123748779,0.0
8,MetaDrive-test-noise-reduction-td3,148,-1.2241821022053794,11197,94,75.49444198608398,0.10542534291744232,-0.03660610318183899,0.0551174134016037,0.0
9,MetaDrive-test-noise-reduction-td3,142,-1.2169277073389835,12001,101,84.32226300239563,0.1235557496547699,-0.11502295732498169,0.03885393589735031,0.0
10,MetaDrive-test-noise-reduction-td3,135,-0.6559822554635807,13080,111,96.57181811332703,0.22563695907592773,,0.0408940389752388,0.0
11,MetaDrive-test-noise-reduction-td3,129,0.6861183070460093,14070,126,108.72667908668518,0.28608930110931396,,0.19577357172966003,0.0
12,MetaDrive-test-noise-reduction-td3,125,3.3598118987141983,15057,138,120.10016703605652,0.4132083058357239,-0.49442386627197266,0.7812907695770264,0.0
13,MetaDrive-test-noise-reduction-td3,122,6.370829085016123,16023,152,130.95564603805542,0.6777641773223877,-0.8405323028564453,0.04780144244432449,0.0
14,MetaDrive-test-noise-reduction-td3,119,8.954712487373193,17001,170,142.53435111045837,0.7624027132987976,-1.0085475444793701,2.1442413330078125,0.0
15,MetaDrive-test-noise-reduction-td3,116,10.859196212475442,18013,192,155.17263197898865,1.0240117311477661,-1.2891676425933838,1.5301141738891602,0.0
16,MetaDrive-test-noise-reduction-td3,113,12.230329787347294,19036,209,167.43297410011292,1.5563280582427979,,0.14196036756038666,0.0
17,MetaDrive-test-noise-reduction-td3,111,13.931088106736125,20035,225,179.05506205558777,1.7685599327087402,-2.0064938068389893,0.9495636224746704,0.0
18,MetaDrive-test-noise-reduction-td3,110,13.092233771329882,21009,241,190.75265789031982,2.2398056983947754,-2.1591343879699707,0.2029632031917572,0.0
19,MetaDrive-test-noise-reduction-td3,108,16.025063054571707,22036,251,202.2504119873047,2.497443675994873,,2.023055076599121,0.01
20,MetaDrive-test-noise-reduction-td3,107,17.72232882688516,23065,262,213.83098006248474,2.9585366249084473,-3.1594505310058594,1.7717962265014648,0.01
21,MetaDrive-test-noise-reduction-td3,106,21.87579931481873,24071,272,225.14648294448853,3.162447690963745,-3.573270797729492,2.642026424407959,0.01
22,MetaDrive-test-noise-reduction-td3,105,26.319534221776024,25025,275,236.12305617332458,3.936530113220215,-3.7685232162475586,0.5765501260757446,0.02
23,MetaDrive-test-noise-reduction-td3,105,30.919772173240244,26035,280,247.81423425674438,4.2715840339660645,-4.301637649536133,1.8996058702468872,0.02
24,MetaDrive-test-noise-reduction-td3,103,36.450657807855166,27185,284,261.43010902404785,4.863100051879883,-4.905311584472656,0.15673574805259705,0.02
25,MetaDrive-test-noise-reduction-td3,103,41.04957322501739,28234,287,273.64832520484924,5.3299031257629395,,3.060133218765259,0.03
26,MetaDrive-test-noise-reduction-td3,102,46.026971638846724,29259,294,285.2244281768799,6.100815296173096,-6.033560276031494,0.45161402225494385,0.04
27,MetaDrive-test-noise-reduction-td3,102,49.549510246099054,30159,300,295.3931231498718,6.776457786560059,-6.788930416107178,0.6675975918769836,0.04
28,MetaDrive-test-noise-reduction-td3,101,55.705946158052896,31337,306,307.80587697029114,7.246925354003906,-7.5390849113464355,8.00201416015625,0.04
29,MetaDrive-test-noise-reduction-td3,101,57.99430650412462,32003,312,315.2774729728699,7.424078941345215,-7.919466972351074,8.412508010864258,0.04
30,MetaDrive-test-noise-reduction-td3,100,64.14122447281946,33046,320,327.3573429584503,7.779663562774658,,3.074153423309326,0.04
31,MetaDrive-test-noise-reduction-td3,100,68.74670378362542,34084,329,339.1963369846344,8.70193862915039,,0.5036373138427734,0.04
32,MetaDrive-test-noise-reduction-td3,99,74.35902878995546,35054,337,350.5890371799469,9.703508377075195,,0.24960064888000488,0.04
33,MetaDrive-test-noise-reduction-td3,99,79.26552271267545,36043,345,361.87721490859985,9.319472312927246,-9.296243667602539,3.6304409503936768,0.04
34,MetaDrive-test-noise-reduction-td3,99,80.32590204138423,37068,355,374.3435649871826,10.385724067687988,,0.6929603815078735,0.03
35,MetaDrive-test-noise-reduction-td3,98,85.21161061135328,38086,363,386.71327686309814,11.235067367553711,,8.582830429077148,0.03
36,MetaDrive-test-noise-reduction-td3,98,88.18241716737222,39054,372,398.22284603118896,11.454431533813477,,6.731463432312012,0.03
37,MetaDrive-test-noise-reduction-td3,97,85.61565013169053,40048,380,411.16643500328064,12.380390167236328,,0.3888287842273712,0.02
38,MetaDrive-test-noise-reduction-td3,96,80.97336252803252,41006,388,424.7032470703125,13.429767608642578,,5.305774688720703,0.01
39,MetaDrive-test-noise-reduction-td3,95,80.91986070765064,42084,398,438.9276340007782,13.318927764892578,,20.557109832763672,0.0
40,MetaDrive-test-noise-reduction-td3,95,78.99961697836248,43023,407,452.3729500770569,13.936497688293457,-14.595548629760742,0.8712301254272461,0.0
41,MetaDrive-test-noise-reduction-td3,94,81.47510237070016,44008,414,466.1760001182556,15.000842094421387,,15.372664451599121,0.0
42,MetaDrive-test-noise-reduction-td3,93,83.31600571153336,45059,422,481.8457601070404,14.814132690429688,-15.558357238769531,1.3473834991455078,0.0
43,MetaDrive-test-noise-reduction-td3,92,85.8797884261964,46129,430,496.2974820137024,15.115480422973633,-15.712878227233887,11.858640670776367,0.0
44,MetaDrive-test-noise-reduction-td3,92,83.35625425417575,47059,439,508.6753559112549,16.463163375854492,-17.115097045898438,12.322534561157227,0.0
45,MetaDrive-test-noise-reduction-td3,92,85.76711445767393,48007,447,521.2462630271912,19.002262115478516,-19.12918472290039,1.978285789489746,0.0
46,MetaDrive-test-noise-reduction-td3,91,86.60448523344968,49025,456,534.4148499965668,18.376331329345703,-18.20370101928711,1.3810274600982666,0.0
47,MetaDrive-test-noise-reduction-td3,91,89.00719587488565,50189,464,549.4861781597137,18.708171844482422,-19.01690673828125,13.168096542358398,0.01
48,MetaDrive-test-noise-reduction-td3,90,90.6670175213953,51110,471,562.2063491344452,19.215072631835938,,1.9230488538742065,0.01
49,MetaDrive-test-noise-reduction-td3,90,91.54848073858838,52177,479,577.0277440547943,18.51921844482422,-18.894216537475586,2.3037431240081787,0.01
50,MetaDrive-test-noise-reduction-td3,90,91.38300541338587,53024,486,588.3608629703522,19.37671661376953,,17.28276824951172,0.01
51,MetaDrive-test-noise-reduction-td3,89,91.36656464847802,54046,493,603.176399230957,22.3898868560791,,1.8773143291473389,0.01
52,MetaDrive-test-noise-reduction-td3,89,93.90866643138106,55197,500,619.5071091651917,21.664886474609375,-22.30908966064453,3.265824317932129,0.01
53,MetaDrive-test-noise-reduction-td3,88,97.3062119708242,56271,506,634.6843719482422,20.12853240966797,-20.298995971679688,5.192689895629883,0.01
54,MetaDrive-test-noise-reduction-td3,88,98.01594259991312,57038,511,645.8722639083862,22.009061813354492,,1.770397663116455,0.01
55,MetaDrive-test-noise-reduction-td3,88,101.47675655977937,58011,516,659.1618430614471,18.751941680908203,-19.40576934814453,3.0938968658447266,0.02
56,MetaDrive-test-noise-reduction-td3,87,103.5955096358822,59168,520,675.3077712059021,22.520374298095703,,22.997512817382812,0.02
57,MetaDrive-test-noise-reduction-td3,87,105.98281136728755,60374,525,692.9431359767914,22.138105392456055,,3.246948719024658,0.02
58,MetaDrive-test-noise-reduction-td3,86,106.9045148812991,61149,528,703.6076128482819,23.288761138916016,-23.782032012939453,2.7600603103637695,0.02
59,MetaDrive-test-noise-reduction-td3,86,110.09868185491383,62154,534,717.8367822170258,22.42085075378418,,3.9890520572662354,0.03
60,MetaDrive-test-noise-reduction-td3,86,113.58430215843667,63150,539,730.5821990966797,23.36760139465332,,8.936576843261719,0.04
61,MetaDrive-test-noise-reduction-td3,85,118.2756852326498,64352,542,748.3971982002258,25.981386184692383,,5.646208763122559,0.05
62,MetaDrive-test-noise-reduction-td3,85,119.92699805346604,65240,546,761.2808129787445,22.836652755737305,,4.285940170288086,0.05
63,MetaDrive-test-noise-reduction-td3,85,122.75889720796484,66063,550,771.0847260951996,27.078754425048828,-27.222423553466797,3.5122885704040527,0.05
64,MetaDrive-test-noise-reduction-td3,85,123.19734906378376,67289,557,788.6586129665375,24.744476318359375,-25.391216278076172,4.470290184020996,0.04
65,MetaDrive-test-noise-reduction-td3,85,124.65640267306686,68022,561,799.2875339984894,29.092344284057617,,8.81474781036377,0.05
66,MetaDrive-test-noise-reduction-td3,84,128.54125833185532,69066,565,814.3132832050323,27.849103927612305,,12.455324172973633,0.06
67,MetaDrive-test-noise-reduction-td3,84,132.60330475077998,70282,570,830.6725289821625,28.072418212890625,,25.8818359375,0.07
68,MetaDrive-test-noise-reduction-td3,84,133.00164653824748,71127,575,841.2578821182251,28.3820743560791,-28.759302139282227,3.746100425720215,0.07
69,MetaDrive-test-noise-reduction-td3,84,136.236882439299,72009,579,853.5828590393066,28.273347854614258,-28.7002010345459,12.89609146118164,0.07
70,MetaDrive-test-noise-reduction-td3,84,139.8792550396012,73028,584,866.962021112442,29.21285057067871,,4.526866912841797,0.08
71,MetaDrive-test-noise-reduction-td3,84,144.71720476666485,74040,588,880.7286992073059,29.884410858154297,,3.4109010696411133,0.09
72,MetaDrive-test-noise-reduction-td3,83,145.93545665533347,75127,593,895.8762729167938,30.515031814575195,-30.306339263916016,3.061546802520752,0.09
73,MetaDrive-test-noise-reduction-td3,83,148.43677670881482,76204,597,910.6756649017334,31.83120346069336,,3.575443744659424,0.1
74,MetaDrive-test-noise-reduction-td3,83,148.49894086733292,77406,600,929.8371798992157,29.474485397338867,,9.251972198486328,0.1
75,MetaDrive-test-noise-reduction-td3,83,147.97886583810632,78028,603,938.3338701725006,35.975608825683594,,5.096888542175293,0.1
76,MetaDrive-test-noise-reduction-td3,82,149.74238649715664,79045,606,954.9735090732574,31.170490264892578,-31.102012634277344,6.3870649337768555,0.1
77,MetaDrive-test-noise-reduction-td3,82,152.36695671193053,80306,610,974.020406961441,27.466087341308594,,42.58879089355469,0.11
78,MetaDrive-test-noise-reduction-td3,82,154.37774109888414,81245,612,987.0043289661407,29.974071502685547,-30.26226043701172,5.563970565795898,0.12
79,MetaDrive-test-noise-reduction-td3,82,153.1070908207974,82554,616,1003.9392220973969,33.60304641723633,,4.555394649505615,0.11
80,MetaDrive-test-noise-reduction-td3,82,150.910612251176,83050,619,1011.0869739055634,31.672950744628906,,6.513906478881836,0.11
81,MetaDrive-test-noise-reduction-td3,81,157.46139996102417,84393,622,1030.2947311401367,34.27439498901367,-34.5584716796875,5.236785888671875,0.13
82,MetaDrive-test-noise-reduction-td3,81,153.95284209138998,85130,626,1040.2257499694824,30.14970588684082,,4.3031439781188965,0.13
83,MetaDrive-test-noise-reduction-td3,81,157.3832853259749,86266,629,1056.933184146881,32.51103591918945,,4.755627632141113,0.14
84,MetaDrive-test-noise-reduction-td3,81,156.40955404831897,87151,634,1068.8330359458923,34.50362014770508,-34.668373107910156,54.459739685058594,0.13
85,MetaDrive-test-noise-reduction-td3,81,158.69351261281795,88034,638,1080.5183300971985,27.193248748779297,,14.736309051513672,0.14
86,MetaDrive-test-noise-reduction-td3,81,153.66654758189418,89032,643,1093.7944400310516,35.69940185546875,,5.040954113006592,0.13
87,MetaDrive-test-noise-reduction-td3,81,153.47235424856987,90339,648,1114.2545490264893,32.045501708984375,-33.068458557128906,6.175791263580322,0.13
88,MetaDrive-test-noise-reduction-td3,80,153.07007074599747,91115,652,1125.6299331188202,32.75556945800781,-33.18418884277344,3.9236860275268555,0.14
89,MetaDrive-test-noise-reduction-td3,80,153.96609315994482,92049,657,1138.8983581066132,31.958438873291016,-32.45731735229492,7.603863716125488,0.14
90,MetaDrive-test-noise-reduction-td3,80,158.7166141765871,93049,660,1153.9629170894623,30.8973445892334,-30.66407012939453,47.70801544189453,0.14
91,MetaDrive-test-noise-reduction-td3,80,158.46923991748707,94304,664,1169.6695098876953,38.22779846191406,,7.883624076843262,0.15
92,MetaDrive-test-noise-reduction-td3,80,156.7259374544242,95072,667,1180.582060098648,32.29010772705078,,43.38617706298828,0.14
93,MetaDrive-test-noise-reduction-td3,80,157.00266159200325,96149,670,1198.2412180900574,33.827266693115234,-33.889034271240234,6.123616695404053,0.14
94,MetaDrive-test-noise-reduction-td3,79,162.2353822748376,97492,673,1220.3679490089417,35.77531433105469,,3.993105411529541,0.15
95,MetaDrive-test-noise-reduction-td3,79,164.11446503652778,98472,675,1235.7368772029877,33.35060119628906,,103.24989318847656,0.15
96,MetaDrive-test-noise-reduction-td3,79,164.28264542798536,99163,677,1245.3664598464966,34.56145095825195,-35.333282470703125,5.284951210021973,0.16
97,MetaDrive-test-noise-reduction-td3,79,166.03261224068268,100081,680,1258.5884799957275,30.22883415222168,-31.401033401489258,14.375616073608398,0.17
98,MetaDrive-test-noise-reduction-td3,79,165.6424744294245,101366,684,1278.2960231304169,35.080665588378906,,4.516563892364502,0.16
99,MetaDrive-test-noise-reduction-td3,79,166.86936703373823,102112,686,1288.8914041519165,36.19285202026367,,35.94596862792969,0.16
100,MetaDrive-test-noise-reduction-td3,79,166.59624753225208,103225,690,1304.4473059177399,39.07836151123047,-40.12699890136719,34.89012145996094,0.15
101,MetaDrive-test-noise-reduction-td3,78,168.29576854314357,104867,694,1329.6150012016296,40.505252838134766,-40.796112060546875,7.163860321044922,0.16
102,MetaDrive-test-noise-reduction-td3,78,166.00387242487852,105193,696,1333.665188074112,41.810707092285156,-42.3350830078125,7.288853645324707,0.15
103,MetaDrive-test-noise-reduction-td3,78,165.44338823668468,106402,698,1348.2173171043396,38.20079040527344,,6.305085182189941,0.15
104,MetaDrive-test-noise-reduction-td3,78,164.21125777121387,107071,702,1357.5148570537567,36.964054107666016,-37.67223358154297,4.4418745040893555,0.15
105,MetaDrive-test-noise-reduction-td3,78,166.83732854884656,108607,706,1379.9059791564941,34.47008514404297,-34.268394470214844,9.62160873413086,0.16
106,MetaDrive-test-noise-reduction-td3,78,170.01512516645545,109112,707,1386.5128331184387,39.12847900390625,,69.20185852050781,0.17
107,MetaDrive-test-noise-reduction-td3,78,170.1434599326551,110165,710,1400.5141439437866,42.886192321777344,-43.54938888549805,5.819751739501953,0.16
108,MetaDrive-test-noise-reduction-td3,78,169.3846015466914,111029,714,1411.6867990493774,38.10251998901367,-38.292545318603516,7.4047088623046875,0.15
109,MetaDrive-test-noise-reduction-td3,78,168.49932573537083,112030,719,1425.7814991474152,37.783477783203125,,6.270858287811279,0.15
110,MetaDrive-test-noise-reduction-td3,78,166.14197904607744,113057,723,1439.8990881443024,38.46039962768555,-38.36115264892578,6.483960151672363,0.14
111,MetaDrive-test-noise-reduction-td3,78,167.14966360360648,114308,728,1459.3568272590637,35.783592224121094,,19.3502254486084,0.15
112,MetaDrive-test-noise-reduction-td3,78,167.65779025572084,115245,730,1473.7615549564362,33.9545783996582,-33.675048828125,5.815727710723877,0.15
113,MetaDrive-test-noise-reduction-td3,78,171.3971271191818,116033,731,1486.4621350765228,36.129615783691406,-36.978111267089844,7.2785964012146,0.16
114,MetaDrive-test-noise-reduction-td3,77,175.0473698143785,117277,734,1504.299376964569,40.97897720336914,-41.4965705871582,7.966329574584961,0.17
115,MetaDrive-test-noise-reduction-td3,77,177.33464561935176,118156,737,1515.9468290805817,40.743797302246094,,9.034671783447266,0.18
116,MetaDrive-test-noise-reduction-td3,77,179.1713329564501,119053,739,1528.017247915268,34.96106719970703,-35.524688720703125,11.485138893127441,0.18
117,MetaDrive-test-noise-reduction-td3,77,179.82717013604812,120032,743,1541.7310841083527,40.756893157958984,,10.682811737060547,0.18
118,MetaDrive-test-noise-reduction-td3,77,185.44265580548893,121245,745,1559.498249053955,43.735328674316406,-44.268524169921875,4.699575424194336,0.19
119,MetaDrive-test-noise-reduction-td3,77,184.57304450356395,122061,748,1569.8622620105743,43.32005310058594,-44.79228973388672,6.9801926612854,0.21
120,MetaDrive-test-noise-reduction-td3,77,188.01341181668096,123153,751,1587.6920890808105,42.40105438232422,-43.25340270996094,8.639737129211426,0.21
121,MetaDrive-test-noise-reduction-td3,77,188.3032755628574,124310,754,1603.3984189033508,44.2506103515625,,109.2257308959961,0.2
122,MetaDrive-test-noise-reduction-td3,77,190.2449436537477,125078,755,1617.3780269622803,37.792442321777344,,7.812387466430664,0.21
123,MetaDrive-test-noise-reduction-td3,77,193.89936016438153,126188,757,1632.8880641460419,36.913455963134766,,8.560783386230469,0.22
124,MetaDrive-test-noise-reduction-td3,77,193.09173456711198,127313,761,1650.1377029418945,42.434295654296875,-42.34082794189453,5.410262107849121,0.23
125,MetaDrive-test-noise-reduction-td3,77,186.79695298487889,128032,766,1660.0110840797424,40.66780090332031,,7.180485725402832,0.21
126,MetaDrive-test-noise-reduction-td3,77,186.23203535467863,129427,770,1679.2272109985352,45.37704086303711,-46.849544525146484,7.690276145935059,0.22
127,MetaDrive-test-noise-reduction-td3,77,181.9915784147068,130193,773,1690.589898109436,41.82247543334961,-41.54216003417969,10.498758316040039,0.21
128,MetaDrive-test-noise-reduction-td3,76,180.667492909147,131618,777,1712.8658349514008,44.312191009521484,,7.417027473449707,0.21
129,MetaDrive-test-noise-reduction-td3,76,181.57757105396718,132206,779,1720.8664681911469,38.992942810058594,,5.821994304656982,0.22
130,MetaDrive-test-noise-reduction-td3,76,180.8393768069239,133047,781,1732.1151418685913,43.1695556640625,-44.27992248535156,6.5886359214782715,0.22
131,MetaDrive-test-noise-reduction-td3,76,185.66498296817426,134250,783,1753.4251279830933,46.970420837402344,,5.402163505554199,0.23
132,MetaDrive-test-noise-reduction-td3,76,184.74622322861381,135125,786,1766.353502035141,43.77940368652344,-44.26988220214844,12.944430351257324,0.24
133,MetaDrive-test-noise-reduction-td3,76,190.52398561979703,136662,789,1791.2500190734863,47.334617614746094,,8.525755882263184,0.25
134,MetaDrive-test-noise-reduction-td3,76,189.78745606848167,137137,790,1799.4454789161682,45.76324462890625,-47.00532150268555,5.2324676513671875,0.25
135,MetaDrive-test-noise-reduction-td3,76,192.8798701466016,138437,793,1818.9644422531128,44.07268524169922,-44.00039291381836,11.091150283813477,0.26
136,MetaDrive-test-noise-reduction-td3,75,193.0429414527449,139236,795,1832.3820350170135,47.794124603271484,,52.648231506347656,0.26
137,MetaDrive-test-noise-reduction-td3,75,196.39806135275515,140614,797,1853.6053628921509,44.07556915283203,,10.505620956420898,0.28
138,MetaDrive-test-noise-reduction-td3,75,199.87153188591392,141249,798,1863.903655052185,42.36998748779297,-42.48448181152344,8.096563339233398,0.29
139,MetaDrive-test-noise-reduction-td3,75,201.00474675924647,142160,801,1877.7242181301117,43.075927734375,,7.751219749450684,0.3
140,MetaDrive-test-noise-reduction-td3,75,202.5509080555603,143144,804,1893.0419311523438,41.00764846801758,,9.040140151977539,0.3
141,MetaDrive-test-noise-reduction-td3,75,203.55422356305374,144244,806,1908.5401611328125,40.100921630859375,,11.198915481567383,0.31
142,MetaDrive-test-noise-reduction-td3,75,201.5530140959537,145032,809,1920.2121081352234,44.122528076171875,,6.596552848815918,0.3
143,MetaDrive-test-noise-reduction-td3,75,203.5690434002138,146130,812,1936.2523050308228,41.8277702331543,,9.787735939025879,0.31
144,MetaDrive-test-noise-reduction-td3,75,205.63756819665502,147215,814,1953.9887051582336,46.58256912231445,-46.4033088684082,7.801004409790039,0.32
145,MetaDrive-test-noise-reduction-td3,75,204.99550799234842,148047,818,1967.3936500549316,48.51387023925781,-49.187835693359375,31.271663665771484,0.32
146,MetaDrive-test-noise-reduction-td3,75,209.1046846973928,149564,822,1991.497885942459,44.71044158935547,,8.197966575622559,0.33
147,MetaDrive-test-noise-reduction-td3,75,208.01107206910444,150099,823,2000.0137679576874,40.631004333496094,-41.084938049316406,9.84909439086914,0.33
148,MetaDrive-test-noise-reduction-td3,74,211.38554077741279,151069,825,2015.791708946228,42.31480407714844,-42.42034149169922,6.0064496994018555,0.34
149,MetaDrive-test-noise-reduction-td3,74,209.69058734351123,152030,828,2030.7547688484192,43.20799255371094,,48.66056823730469,0.33
150,MetaDrive-test-noise-reduction-td3,74,205.73006754544673,153046,831,2047.5054619312286,46.57109451293945,,13.49581241607666,0.32
151,MetaDrive-test-noise-reduction-td3,74,206.75188844912304,154152,833,2069.669421195984,42.82870101928711,,17.900020599365234,0.32
152,MetaDrive-test-noise-reduction-td3,74,206.56589471709339,155194,836,2085.304724931717,46.160369873046875,,79.70503234863281,0.32
153,MetaDrive-test-noise-reduction-td3,74,207.03829360050793,156131,838,2099.0053062438965,46.98263168334961,-47.87601089477539,99.90737915039062,0.32
154,MetaDrive-test-noise-reduction-td3,74,207.55790469882754,157022,841,2112.5276300907135,48.566993713378906,,6.007002830505371,0.32
155,MetaDrive-test-noise-reduction-td3,74,212.30604014035987,158560,843,2140.4584250450134,49.677223205566406,,7.182687759399414,0.33
156,MetaDrive-test-noise-reduction-td3,74,209.0094439587414,159247,845,2150.8402230739594,44.56935119628906,-44.84308624267578,15.758278846740723,0.33
157,MetaDrive-test-noise-reduction-td3,73,211.21510380652356,160591,848,2172.1249890327454,39.683372497558594,-40.349693298339844,16.181371688842773,0.32
158,MetaDrive-test-noise-reduction-td3,73,213.11328927289355,161082,849,2179.455122947693,47.69233322143555,,88.03880310058594,0.33
159,MetaDrive-test-noise-reduction-td3,73,211.75950209105292,162183,851,2197.2991921901703,47.676658630371094,-47.74046325683594,5.758855819702148,0.33
160,MetaDrive-test-noise-reduction-td3,73,214.73048724375624,163024,853,2210.153887987137,41.988311767578125,,75.43817901611328,0.35
161,MetaDrive-test-noise-reduction-td3,73,212.38602099192397,164003,855,2225.6076531410217,44.11375045776367,-43.79584503173828,7.422846794128418,0.36
162,MetaDrive-test-noise-reduction-td3,73,214.64397248343926,165578,857,2254.427880048752,42.668739318847656,,7.168570041656494,0.36
163,MetaDrive-test-noise-reduction-td3,73,217.11031002679192,166307,859,2266.110687971115,48.221160888671875,-46.73591232299805,15.889033317565918,0.37
164,MetaDrive-test-noise-reduction-td3,73,219.53067715046345,167095,860,2278.1351528167725,43.860450744628906,-44.381229400634766,9.679457664489746,0.38
165,MetaDrive-test-noise-reduction-td3,73,223.95667382925242,168222,862,2295.5341062545776,46.627227783203125,,6.622369289398193,0.39
166,MetaDrive-test-noise-reduction-td3,73,227.83196449603227,169349,865,2313.325947999954,49.32335662841797,-49.92548370361328,11.78186321258545,0.39
167,MetaDrive-test-noise-reduction-td3,73,229.23195765864435,170129,867,2326.317971944809,46.53086471557617,-46.494422912597656,8.105077743530273,0.39
168,MetaDrive-test-noise-reduction-td3,72,231.90571615660664,171926,871,2358.7361390590668,46.52906036376953,,9.887542724609375,0.39
169,MetaDrive-test-noise-reduction-td3,72,233.3132463070104,172420,872,2366.6157801151276,46.29560470581055,,9.167495727539062,0.39
170,MetaDrive-test-noise-reduction-td3,72,234.9468306475359,173066,873,2377.3224380016327,51.49378204345703,,6.256711959838867,0.4
171,MetaDrive-test-noise-reduction-td3,72,240.07582595099467,174489,876,2401.3012220859528,45.105350494384766,-45.37849807739258,10.116958618164062,0.42
172,MetaDrive-test-noise-reduction-td3,72,240.38607661694772,175101,877,2411.2263560295105,42.3836669921875,-43.13016128540039,9.456598281860352,0.42
173,MetaDrive-test-noise-reduction-td3,72,238.37485896326842,176297,881,2430.7189350128174,50.46197509765625,-50.07246398925781,7.098871231079102,0.4
174,MetaDrive-test-noise-reduction-td3,72,234.27236935716644,177481,885,2449.0214800834656,50.66716384887695,-51.229164123535156,3.4497179985046387,0.39
175,MetaDrive-test-noise-reduction-td3,72,237.75394528807885,178764,887,2473.018409013748,49.25661087036133,,83.16548919677734,0.39
176,MetaDrive-test-noise-reduction-td3,72,238.30621872931016,179765,888,2492.1204018592834,48.29914093017578,-48.94593811035156,10.624555587768555,0.39
177,MetaDrive-test-noise-reduction-td3,72,237.45422685138735,180249,889,2499.7041580677032,47.70772171020508,-47.10530471801758,10.613101959228516,0.39
178,MetaDrive-test-noise-reduction-td3,72,237.55014350229885,181121,891,2515.10653591156,46.928916931152344,-47.928932189941406,8.178730010986328,0.4
179,MetaDrive-test-noise-reduction-td3,71,237.5567642650132,182203,894,2533.4971849918365,54.917884826660156,-55.36555480957031,8.160530090332031,0.39
180,MetaDrive-test-noise-reduction-td3,71,235.57563118439265,183545,897,2556.7984330654144,47.89118576049805,-47.725032806396484,15.783954620361328,0.38
181,MetaDrive-test-noise-reduction-td3,71,235.70253968821743,184182,898,2567.0752880573273,50.81117630004883,,10.44046688079834,0.38
182,MetaDrive-test-noise-reduction-td3,71,239.3580580225047,185654,901,2591.0193190574646,48.73229217529297,,10.11353874206543,0.39
183,MetaDrive-test-noise-reduction-td3,71,239.9135738493999,186192,902,2600.2972481250763,48.18333435058594,,6.330695152282715,0.39
184,MetaDrive-test-noise-reduction-td3,71,241.8077651160351,187061,904,2612.8590998649597,44.365142822265625,-45.078060150146484,12.214951515197754,0.41
185,MetaDrive-test-noise-reduction-td3,71,243.2811440046181,188062,905,2629.7455492019653,50.40152359008789,,118.50265502929688,0.4
186,MetaDrive-test-noise-reduction-td3,71,242.56291887390407,189420,907,2650.1543951034546,45.633392333984375,,10.055242538452148,0.4
187,MetaDrive-test-noise-reduction-td3,71,244.38469215477824,190109,909,2661.1419332027435,48.87689971923828,-48.787418365478516,12.741910934448242,0.4
188,MetaDrive-test-noise-reduction-td3,71,250.0122896822527,191680,911,2689.884411096573,50.02228546142578,,13.937825202941895,0.41
189,MetaDrive-test-noise-reduction-td3,71,249.75031785623622,192512,913,2704.0469901561737,48.77829360961914,,13.59626579284668,0.41
190,MetaDrive-test-noise-reduction-td3,71,250.81859208587434,193391,915,2717.752291202545,46.43452072143555,-47.08972930908203,8.253440856933594,0.42
191,MetaDrive-test-noise-reduction-td3,71,255.3769492903482,194804,918,2741.076724052429,43.62104034423828,,7.840795993804932,0.44
192,MetaDrive-test-noise-reduction-td3,71,255.57380453840713,195615,920,2754.091826915741,45.179264068603516,-44.654354095458984,6.980409622192383,0.45
193,MetaDrive-test-noise-reduction-td3,71,254.70026095330888,196106,922,2761.1089720726013,46.40339660644531,,11.212689399719238,0.45
194,MetaDrive-test-noise-reduction-td3,70,256.15598570844804,197012,923,2775.2499330043793,50.9998893737793,,9.144021034240723,0.45
195,MetaDrive-test-noise-reduction-td3,70,255.015752640702,198280,927,2794.895224094391,51.085479736328125,,8.790260314941406,0.46
196,MetaDrive-test-noise-reduction-td3,70,257.3764783310699,199303,929,2812.4906239509583,51.85308074951172,-51.97076416015625,5.662631034851074,0.46
197,MetaDrive-test-noise-reduction-td3,70,259.75172597253885,200661,931,2834.311346054077,47.87898254394531,-48.263916015625,4.2663421630859375,0.47
198,MetaDrive-test-noise-reduction-td3,70,261.9484164866,201012,932,2839.6760709285736,48.89274597167969,,7.981163501739502,0.48
199,MetaDrive-test-noise-reduction-td3,70,262.129896175109,202195,934,2860.686187982559,45.829254150390625,-46.73306655883789,101.037109375,0.49
200,MetaDrive-test-noise-reduction-td3,70,260.52070320253637,203196,935,2876.8047280311584,51.3809700012207,,5.223324775695801,0.48
201,MetaDrive-test-noise-reduction-td3,70,262.37055670288095,204351,937,2895.566435098648,43.89027786254883,-44.21123123168945,5.960293769836426,0.49
202,MetaDrive-test-noise-reduction-td3,70,264.82151444711155,205082,938,2906.9747631549835,48.65928268432617,,9.159554481506348,0.5
203,MetaDrive-test-noise-reduction-td3,70,266.35333116537356,206063,939,2925.8406970500946,48.114646911621094,-48.06294250488281,6.2293901443481445,0.51
204,MetaDrive-test-noise-reduction-td3,70,266.1991126282454,207138,942,2944.289118051529,52.71290969848633,,8.834221839904785,0.51
205,MetaDrive-test-noise-reduction-td3,70,265.8859694089997,208286,944,2964.154726266861,46.90015411376953,,11.72076416015625,0.52
206,MetaDrive-test-noise-reduction-td3,70,267.8248228424473,209242,946,2980.241106033325,51.24980163574219,,10.16447639465332,0.53
207,MetaDrive-test-noise-reduction-td3,70,269.05672319428743,210751,948,3007.2388648986816,50.881202697753906,-51.06074523925781,9.040460586547852,0.53
208,MetaDrive-test-noise-reduction-td3,70,267.5510679335641,211103,950,3013.1488790512085,46.438541412353516,-46.86180877685547,5.1045918464660645,0.52
209,MetaDrive-test-noise-reduction-td3,69,268.668845915697,212531,953,3038.791437149048,52.79206085205078,-53.03599548339844,7.59832763671875,0.52
210,MetaDrive-test-noise-reduction-td3,69,267.6265646308217,213084,954,3047.831906080246,41.65065002441406,,21.26865577697754,0.51
211,MetaDrive-test-noise-reduction-td3,69,263.90336336223436,214171,957,3065.704048871994,47.385169982910156,-48.58603286743164,6.291049003601074,0.51
212,MetaDrive-test-noise-reduction-td3,69,267.56914386286167,215090,958,3082.920634031296,47.595767974853516,,7.934395790100098,0.52
213,MetaDrive-test-noise-reduction-td3,69,266.24362061134866,216515,961,3107.5071952342987,54.58937454223633,-55.7651481628418,6.372676372528076,0.51
214,MetaDrive-test-noise-reduction-td3,69,264.15820128287527,217315,964,3120.3528180122375,49.92572021484375,-49.70941162109375,10.146387100219727,0.51
215,MetaDrive-test-noise-reduction-td3,69,260.14425472207205,218479,968,3142.0616250038147,52.6102294921875,-52.30174255371094,6.952930450439453,0.5
216,MetaDrive-test-noise-reduction-td3,69,262.2756685274015,219055,970,3151.7552530765533,54.341739654541016,-55.105018615722656,6.620083808898926,0.51
217,MetaDrive-test-noise-reduction-td3,69,261.33330843756426,220041,972,3171.0036129951477,53.668922424316406,-53.096527099609375,8.892475128173828,0.52
218,MetaDrive-test-noise-reduction-td3,69,263.23990962576806,221057,974,3188.611121892929,53.17213439941406,-54.00224685668945,9.81412410736084,0.53
219,MetaDrive-test-noise-reduction-td3,69,261.8633897738884,222373,976,3214.0642008781433,46.870750427246094,-48.26414489746094,87.47064208984375,0.52
220,MetaDrive-test-noise-reduction-td3,69,260.34864260314953,223918,979,3241.692563056946,50.19086456298828,,7.932190418243408,0.51
221,MetaDrive-test-noise-reduction-td3,69,262.8664695294509,224390,980,3248.954566001892,49.21345138549805,,5.345028877258301,0.52
222,MetaDrive-test-noise-reduction-td3,68,262.04193129015414,225391,981,3266.990288257599,47.835914611816406,-47.652381896972656,14.108278274536133,0.52
223,MetaDrive-test-noise-reduction-td3,68,267.4168105552345,226579,983,3288.607027053833,54.62215805053711,-55.156150817871094,97.91453552246094,0.53
224,MetaDrive-test-noise-reduction-td3,68,265.33922066626815,227248,985,3300.221580028534,49.00083923339844,,5.447188377380371,0.53
225,MetaDrive-test-noise-reduction-td3,68,269.22046360776386,228175,986,3317.390894174576,51.9693717956543,-52.23645782470703,6.279718399047852,0.54
226,MetaDrive-test-noise-reduction-td3,68,267.6768599836193,229161,988,3335.5555551052094,52.51382064819336,-53.231929779052734,9.874834060668945,0.55
227,MetaDrive-test-noise-reduction-td3,68,270.0354989702543,230571,990,3362.89582324028,47.61501693725586,-47.1884651184082,15.93742561340332,0.55
228,MetaDrive-test-noise-reduction-td3,68,270.6984207106801,231636,992,3382.102425098419,50.7717170715332,,4.449529647827148,0.54
229,MetaDrive-test-noise-reduction-td3,68,270.46699839254524,232038,993,3388.3028740882874,50.25222396850586,,18.230594635009766,0.55
230,MetaDrive-test-noise-reduction-td3,68,271.0651275326453,233323,996,3411.021619081497,54.099090576171875,-53.249298095703125,7.358270168304443,0.54
231,MetaDrive-test-noise-reduction-td3,68,268.19741651592386,234053,998,3422.621593236923,52.671966552734375,-52.59047317504883,3.270552635192871,0.54
232,MetaDrive-test-noise-reduction-td3,68,269.04206499214257,235189,1000,3447.1612780094147,49.0882568359375,-48.964111328125,5.389496803283691,0.54
233,MetaDrive-test-noise-reduction-td3,68,270.2712723416075,236702,1002,3475.7558081150055,53.12598419189453,,10.875598907470703,0.55
234,MetaDrive-test-noise-reduction-td3,68,269.92020471657173,237527,1004,3490.2138850688934,51.392616271972656,-51.382728576660156,37.349666595458984,0.54
235,MetaDrive-test-noise-reduction-td3,67,270.8279870848682,238313,1005,3506.0467898845673,53.10179901123047,-53.05374526977539,41.44581604003906,0.55
236,MetaDrive-test-noise-reduction-td3,67,267.948543073544,239674,1007,3530.1410958766937,49.33971405029297,,34.369895935058594,0.54
237,MetaDrive-test-noise-reduction-td3,67,270.0982522203885,240647,1008,3548.3364300727844,50.71643829345703,-51.20128631591797,35.94599914550781,0.55
238,MetaDrive-test-noise-reduction-td3,67,271.58958636513483,241182,1009,3558.0221450328827,49.97362518310547,,9.882631301879883,0.56
239,MetaDrive-test-noise-reduction-td3,67,268.30919660629183,242165,1011,3575.3318672180176,48.20283508300781,-49.04931640625,8.690607070922852,0.54
240,MetaDrive-test-noise-reduction-td3,67,269.46211894238036,243207,1013,3593.781357049942,54.35093307495117,-54.981117248535156,5.957609176635742,0.56
241,MetaDrive-test-noise-reduction-td3,67,269.30866495655766,244164,1015,3611.5027179718018,48.803462982177734,,8.647378921508789,0.55
242,MetaDrive-test-noise-reduction-td3,67,272.41477986370336,245394,1017,3634.867985010147,49.101036071777344,,15.918862342834473,0.56
243,MetaDrive-test-noise-reduction-td3,67,271.79263001392536,246054,1018,3645.897665977478,50.403385162353516,,147.1016845703125,0.56
244,MetaDrive-test-noise-reduction-td3,67,272.23011890072974,247232,1021,3666.9614531993866,54.18931579589844,,14.867927551269531,0.56
245,MetaDrive-test-noise-reduction-td3,67,275.71193878422173,248223,1022,3686.0403530597687,56.01823425292969,-56.93377685546875,11.046393394470215,0.56
246,MetaDrive-test-noise-reduction-td3,67,273.6711523303263,249087,1024,3700.1149711608887,51.416954040527344,-52.36685562133789,5.739414215087891,0.55
247,MetaDrive-test-noise-reduction-td3,67,275.8552605726156,250189,1026,3723.1756448745728,50.711238861083984,-50.66251754760742,10.705377578735352,0.54
248,MetaDrive-test-noise-reduction-td3,67,277.3028783934883,251520,1029,3747.0911700725555,54.27376174926758,,8.234100341796875,0.55
249,MetaDrive-test-noise-reduction-td3,67,277.75414251639035,252636,1031,3769.968735933304,51.07225799560547,,190.80697631835938,0.55
250,MetaDrive-test-noise-reduction-td3,66,276.4299040463758,253332,1033,3781.937483072281,53.34751892089844,,7.011772155761719,0.54
251,MetaDrive-test-noise-reduction-td3,66,275.152690027007,254108,1035,3796.8249731063843,55.676265716552734,,7.257956504821777,0.53
252,MetaDrive-test-noise-reduction-td3,66,270.15795361693233,255228,1038,3815.4850220680237,54.71308135986328,,5.1746931076049805,0.51
253,MetaDrive-test-noise-reduction-td3,66,270.76238159139814,256072,1040,3829.290760040283,55.106266021728516,,5.002103805541992,0.52
254,MetaDrive-test-noise-reduction-td3,66,269.50766579674325,257073,1041,3843.8527631759644,48.604434967041016,-49.342742919921875,13.855157852172852,0.52
255,MetaDrive-test-noise-reduction-td3,66,267.59647714592825,258074,1042,3861.7153689861298,52.64902877807617,,7.09031867980957,0.51
256,MetaDrive-test-noise-reduction-td3,66,268.5711531938196,259044,1043,3877.540575027466,52.49958801269531,,16.705236434936523,0.51
257,MetaDrive-test-noise-reduction-td3,66,266.47254957984757,260296,1045,3900.4229571819305,54.82704544067383,,22.652494430541992,0.49
258,MetaDrive-test-noise-reduction-td3,66,265.38197385305034,261306,1047,3919.7471721172333,49.28569030761719,,5.589004993438721,0.48
259,MetaDrive-test-noise-reduction-td3,66,265.72810189627694,262546,1050,3942.2375769615173,49.45750427246094,,9.005088806152344,0.49
260,MetaDrive-test-noise-reduction-td3,66,263.69056364814844,263640,1052,3962.8235688209534,51.27771759033203,,5.411713600158691,0.48
261,MetaDrive-test-noise-reduction-td3,66,261.8159053129186,264020,1053,3969.592514038086,54.325828552246094,,8.126779556274414,0.47
262,MetaDrive-test-noise-reduction-td3,66,263.8213498630545,265356,1055,3993.7329001426697,47.69928741455078,,6.076425075531006,0.48
263,MetaDrive-test-noise-reduction-td3,66,262.459263345389,266079,1057,4005.1832439899445,56.41181564331055,-57.272483825683594,3.4355828762054443,0.47
264,MetaDrive-test-noise-reduction-td3,66,262.67710702525585,267822,1060,4037.471428155899,54.39354705810547,,7.211359024047852,0.47
265,MetaDrive-test-noise-reduction-td3,66,258.617511465889,268338,1062,4047.496060848236,53.658958435058594,,7.1028242111206055,0.45
266,MetaDrive-test-noise-reduction-td3,66,261.87978765135927,269284,1064,4065.7715780735016,52.72772979736328,,9.017389297485352,0.46
267,MetaDrive-test-noise-reduction-td3,66,265.9488445992486,270440,1066,4088.3944211006165,52.71650314331055,,13.131030082702637,0.48
268,MetaDrive-test-noise-reduction-td3,66,267.6574562114093,271356,1068,4103.769458055496,53.27029800415039,,11.861272811889648,0.49
269,MetaDrive-test-noise-reduction-td3,66,271.46822826738116,272120,1069,4117.13258600235,53.625450134277344,,12.366567611694336,0.5
270,MetaDrive-test-noise-reduction-td3,65,272.64350600462853,273537,1071,4144.849148035049,55.26492691040039,-55.552284240722656,9.06239128112793,0.49
271,MetaDrive-test-noise-reduction-td3,65,273.10668005085574,274538,1072,4163.207474946976,51.54410934448242,,16.641996383666992,0.49
272,MetaDrive-test-noise-reduction-td3,65,273.7245993117518,275016,1073,4171.706665992737,52.90943908691406,,6.076991081237793,0.49
273,MetaDrive-test-noise-reduction-td3,65,271.75544078503617,276085,1075,4189.745241165161,54.3740119934082,-54.76852798461914,160.0421142578125,0.48
274,MetaDrive-test-noise-reduction-td3,65,274.7661370823298,277317,1077,4212.332033157349,55.58018493652344,-56.802001953125,202.746826171875,0.5
275,MetaDrive-test-noise-reduction-td3,65,275.4191813220696,278125,1079,4226.684433937073,54.26255798339844,-53.798152923583984,15.559647560119629,0.51
276,MetaDrive-test-noise-reduction-td3,65,273.5379327219877,279191,1082,4244.970370054245,55.445892333984375,-55.82212829589844,7.176094055175781,0.5
277,MetaDrive-test-noise-reduction-td3,65,275.97973626322505,280225,1084,4263.720523118973,55.07118225097656,-54.22783279418945,13.440399169921875,0.52
278,MetaDrive-test-noise-reduction-td3,65,274.99835741491984,281322,1086,4283.507616996765,53.82387924194336,,8.400568008422852,0.52
279,MetaDrive-test-noise-reduction-td3,65,274.07379035669555,282218,1088,4299.5212779045105,55.390464782714844,,13.856096267700195,0.53
280,MetaDrive-test-noise-reduction-td3,65,274.21293628276885,283316,1090,4321.405867099762,55.70497131347656,,10.446562767028809,0.53
281,MetaDrive-test-noise-reduction-td3,65,276.8767846973213,284090,1091,4335.371491193771,50.34280776977539,,6.105266571044922,0.54
282,MetaDrive-test-noise-reduction-td3,65,277.1441009192348,285286,1093,4357.215792179108,54.92265319824219,,13.940601348876953,0.55
283,MetaDrive-test-noise-reduction-td3,65,279.75729596343126,286337,1095,4378.259639978409,55.979976654052734,-56.3658447265625,7.486519813537598,0.57
284,MetaDrive-test-noise-reduction-td3,65,282.0440984817009,287090,1096,4393.603224039078,52.417442321777344,,18.507617950439453,0.58
285,MetaDrive-test-noise-reduction-td3,65,285.78779334294757,288725,1099,4424.737765073776,49.08411407470703,-49.17278289794922,167.156494140625,0.58
286,MetaDrive-test-noise-reduction-td3,65,281.8917069863108,289726,1100,4442.366585016251,57.36613845825195,,4.731090068817139,0.57
287,MetaDrive-test-noise-reduction-td3,65,282.2703001541723,290283,1101,4452.093045949936,51.486976623535156,-52.024017333984375,4.482854843139648,0.57
288,MetaDrive-test-noise-reduction-td3,65,284.1295931455499,291665,1103,4480.158559083939,54.603111267089844,-54.176212310791016,8.983915328979492,0.56
289,MetaDrive-test-noise-reduction-td3,65,280.5038725007421,292355,1105,4492.199011087418,52.88612747192383,-53.47480392456055,12.214158058166504,0.55
290,MetaDrive-test-noise-reduction-td3,65,282.3638631722146,293266,1107,4506.6166479587555,51.400840759277344,,10.118913650512695,0.56
291,MetaDrive-test-noise-reduction-td3,65,280.80625269871655,294255,1109,4523.923046827316,49.57347869873047,-49.820011138916016,22.82729721069336,0.55
292,MetaDrive-test-noise-reduction-td3,65,282.6758258183872,295292,1111,4541.13201212883,53.685401916503906,,7.649480819702148,0.57
293,MetaDrive-test-noise-reduction-td3,64,284.6641961907784,296238,1112,4559.856668949127,50.99658966064453,,8.716453552246094,0.57
294,MetaDrive-test-noise-reduction-td3,64,287.0537433148734,297392,1114,4578.831604957581,56.15030288696289,,4.669103622436523,0.58
295,MetaDrive-test-noise-reduction-td3,64,284.52109093779933,298136,1116,4592.508875131607,49.40574645996094,,36.14912414550781,0.57
296,MetaDrive-test-noise-reduction-td3,64,282.5880838687881,299495,1118,4618.641234874725,54.04975891113281,-54.33118438720703,172.692138671875,0.56
297,MetaDrive-test-noise-reduction-td3,64,281.65109319518564,300086,1120,4628.339658975601,55.608524322509766,,9.909340858459473,0.56
298,MetaDrive-test-noise-reduction-td3,64,282.77483082142504,301532,1122,4654.147058010101,49.79123306274414,,11.556222915649414,0.57
299,MetaDrive-test-noise-reduction-td3,64,281.82638503735046,302337,1124,4668.434484958649,51.8365478515625,-50.76824188232422,18.549034118652344,0.57
300,MetaDrive-test-noise-reduction-td3,64,284.9199152808904,303567,1126,4690.0518450737,51.048309326171875,-52.171661376953125,85.91020202636719,0.59
301,MetaDrive-test-noise-reduction-td3,64,287.4435149580934,304105,1127,4699.254235267639,58.98965072631836,-58.88085174560547,21.57761573791504,0.6
302,MetaDrive-test-noise-reduction-td3,64,281.6911570516933,305467,1131,4723.207956075668,51.14900207519531,-51.24658203125,9.98019790649414,0.59
303,MetaDrive-test-noise-reduction-td3,64,281.27405777975207,306936,1134,4753.458230018616,52.63836669921875,,5.1377973556518555,0.59
304,MetaDrive-test-noise-reduction-td3,64,283.2675366924529,307451,1135,4762.274672269821,55.54735565185547,-55.24950408935547,15.659930229187012,0.6
305,MetaDrive-test-noise-reduction-td3,64,284.23334173046015,308416,1136,4778.001904964447,53.55875015258789,,6.1421308517456055,0.6
306,MetaDrive-test-noise-reduction-td3,64,287.0868338340837,309372,1138,4795.268314123154,50.9640998840332,,6.9609832763671875,0.62
307,MetaDrive-test-noise-reduction-td3,64,287.00615546798974,310231,1140,4810.932040929794,57.382720947265625,-57.64630126953125,8.475984573364258,0.6
308,MetaDrive-test-noise-reduction-td3,64,290.4745370161792,311064,1142,4824.653126001358,54.89337921142578,,38.335716247558594,0.62
309,MetaDrive-test-noise-reduction-td3,64,289.80025153832435,312065,1143,4846.451856851578,55.265113830566406,-55.35929489135742,8.038018226623535,0.61
310,MetaDrive-test-noise-reduction-td3,64,292.4895180325527,313305,1145,4869.391197919846,50.35526657104492,-51.559425354003906,149.29153442382812,0.63
311,MetaDrive-test-noise-reduction-td3,64,294.1085608112979,314631,1147,4894.5368230342865,54.469200134277344,-54.362606048583984,11.352076530456543,0.64
312,MetaDrive-test-noise-reduction-td3,64,295.3111275332612,315632,1148,4914.189098119736,53.43989944458008,,80.66461181640625,0.64
313,MetaDrive-test-noise-reduction-td3,64,295.00880524740006,316233,1150,4924.04169011116,54.32487106323242,-53.27706527709961,11.354068756103516,0.64
314,MetaDrive-test-noise-reduction-td3,64,296.8440899883796,317086,1151,4943.099589109421,55.0023193359375,,23.715002059936523,0.64
315,MetaDrive-test-noise-reduction-td3,64,295.74945348166233,318388,1156,4966.856176137924,51.308292388916016,,21.409290313720703,0.64
316,MetaDrive-test-noise-reduction-td3,64,295.1770183760299,319685,1158,4989.509636163712,57.370513916015625,-57.28313446044922,9.046890258789062,0.64
317,MetaDrive-test-noise-reduction-td3,64,295.92111025619505,320138,1159,4997.134459257126,52.84283447265625,,191.16616821289062,0.65
318,MetaDrive-test-noise-reduction-td3,64,296.88602121188813,321610,1162,5023.608558177948,58.518165588378906,,12.986576080322266,0.66
319,MetaDrive-test-noise-reduction-td3,63,296.7632255829439,322258,1163,5035.788016080856,57.404029846191406,,6.587887763977051,0.66
320,MetaDrive-test-noise-reduction-td3,63,295.0643409361886,323004,1165,5048.730573177338,52.1398811340332,,17.532800674438477,0.66
321,MetaDrive-test-noise-reduction-td3,63,295.7528798072348,324173,1167,5070.799336910248,58.31468963623047,-58.54845428466797,6.737652778625488,0.66
322,MetaDrive-test-noise-reduction-td3,63,295.7420450029511,325592,1169,5098.232815027237,52.95876693725586,,113.81303405761719,0.65
323,MetaDrive-test-noise-reduction-td3,63,293.44786041462686,326240,1171,5109.0449340343475,52.033782958984375,,7.247680187225342,0.64
324,MetaDrive-test-noise-reduction-td3,63,294.2174408008313,327579,1173,5133.236190080643,51.96525192260742,-51.98614501953125,5.2815961837768555,0.65
325,MetaDrive-test-noise-reduction-td3,63,286.0775553551766,328170,1176,5143.185767889023,60.57988739013672,,11.902496337890625,0.63
326,MetaDrive-test-noise-reduction-td3,63,288.1742561603403,329853,1179,5176.591305017471,50.25513458251953,-50.25442123413086,8.346436500549316,0.63
327,MetaDrive-test-noise-reduction-td3,63,289.1997476359269,330617,1181,5191.049942016602,54.04806137084961,-53.45621109008789,5.210026741027832,0.63
328,MetaDrive-test-noise-reduction-td3,63,288.63100739056216,331043,1182,5197.402382135391,54.666873931884766,-55.236881256103516,5.102887153625488,0.63
329,MetaDrive-test-noise-reduction-td3,63,284.7618550954335,332344,1185,5220.494163036346,56.706329345703125,,9.104915618896484,0.61
330,MetaDrive-test-noise-reduction-td3,63,283.6375617365104,333348,1188,5236.3035361766815,56.685943603515625,,15.700867652893066,0.6
331,MetaDrive-test-noise-reduction-td3,63,285.62695416790325,334270,1189,5255.8026649951935,53.20326232910156,,47.7353515625,0.61
332,MetaDrive-test-noise-reduction-td3,63,284.4072113986492,335717,1191,5281.409301996231,53.06258773803711,-53.584373474121094,6.6495537757873535,0.61
333,MetaDrive-test-noise-reduction-td3,63,283.87333353741445,336230,1192,5290.0766451358795,54.48781204223633,,9.540139198303223,0.61
334,MetaDrive-test-noise-reduction-td3,63,285.0343308127139,337749,1194,5321.1784682273865,55.75700378417969,-56.34465408325195,9.971328735351562,0.6
335,MetaDrive-test-noise-reduction-td3,63,281.99382888702144,338413,1196,5333.62321805954,54.52774429321289,-55.185569763183594,9.66105842590332,0.59
336,MetaDrive-test-noise-reduction-td3,63,283.7777938122587,339501,1198,5351.131685256958,56.018733978271484,-55.8427734375,5.933406829833984,0.6
337,MetaDrive-test-noise-reduction-td3,63,283.27273446703094,340207,1200,5364.476164102554,50.603458404541016,-50.00892639160156,10.601268768310547,0.6
338,MetaDrive-test-noise-reduction-td3,63,284.56505732366315,341510,1202,5387.234626054764,58.6949462890625,,10.405102729797363,0.61
339,MetaDrive-test-noise-reduction-td3,63,280.6339374791793,342511,1203,5403.071462869644,57.38938903808594,-58.10072708129883,7.57611608505249,0.61
340,MetaDrive-test-noise-reduction-td3,63,279.8124335196706,343203,1205,5414.118275165558,56.676788330078125,-56.914581298828125,9.824548721313477,0.61
341,MetaDrive-test-noise-reduction-td3,63,279.68732061251086,344470,1208,5435.793956041336,55.13621139526367,,17.264911651611328,0.62
342,MetaDrive-test-noise-reduction-td3,63,279.5662154513251,345149,1209,5447.527723073959,52.24700927734375,-52.439544677734375,18.986066818237305,0.62
343,MetaDrive-test-noise-reduction-td3,63,279.87282613416176,346389,1211,5469.434491157532,52.20634460449219,-51.98226547241211,11.313928604125977,0.62
344,MetaDrive-test-noise-reduction-td3,63,275.3450231221218,347881,1214,5496.6107342243195,57.47931671142578,-58.381141662597656,8.620779991149902,0.59
345,MetaDrive-test-noise-reduction-td3,63,278.5709484026437,348668,1215,5512.7488350868225,59.63313293457031,,5.783062934875488,0.6
346,MetaDrive-test-noise-reduction-td3,63,279.66168082448877,349491,1216,5528.788635969162,47.346275329589844,-46.74811553955078,13.67911148071289,0.6
347,MetaDrive-test-noise-reduction-td3,63,277.64030139403843,350779,1219,5552.616780042648,54.49757385253906,-55.80635070800781,20.064807891845703,0.59
348,MetaDrive-test-noise-reduction-td3,63,278.8029576416228,351450,1220,5564.4752361774445,58.77569580078125,,13.179622650146484,0.59
349,MetaDrive-test-noise-reduction-td3,63,277.81644803957437,352451,1221,5587.646950244904,56.45648193359375,-56.04933166503906,7.990650177001953,0.58
350,MetaDrive-test-noise-reduction-td3,63,279.2649608211068,353444,1223,5603.4724061489105,53.93122100830078,,19.266132354736328,0.59
351,MetaDrive-test-noise-reduction-td3,63,280.82568966010456,354445,1224,5625.295653104782,56.57221984863281,-56.488529205322266,10.702896118164062,0.58
352,MetaDrive-test-noise-reduction-td3,63,276.1622738492304,355082,1226,5635.413820028305,55.91325378417969,,8.031240463256836,0.57
353,MetaDrive-test-noise-reduction-td3,62,274.507678235315,356257,1230,5655.973432064056,55.795658111572266,-55.75418472290039,10.77933120727539,0.55
354,MetaDrive-test-noise-reduction-td3,62,274.91600729190657,357564,1232,5679.35923409462,55.78790283203125,,13.28136920928955,0.55
355,MetaDrive-test-noise-reduction-td3,62,278.1068797584027,358239,1233,5691.379213094711,53.546016693115234,-53.28685760498047,13.514374732971191,0.56
356,MetaDrive-test-noise-reduction-td3,62,278.98169625924544,359929,1235,5725.625532865524,63.001346588134766,-63.28704071044922,4.9265265464782715,0.56
357,MetaDrive-test-noise-reduction-td3,62,278.2134179773442,360404,1236,5732.893599033356,56.450599670410156,,31.02140998840332,0.56
358,MetaDrive-test-noise-reduction-td3,62,276.83669828049574,361186,1237,5747.156891822815,52.59610366821289,,8.044651985168457,0.55
359,MetaDrive-test-noise-reduction-td3,62,275.95175369987885,362219,1239,5764.997917890549,58.30387878417969,-57.745811462402344,6.716662406921387,0.55
360,MetaDrive-test-noise-reduction-td3,62,278.65431462488755,363740,1241,5795.4600150585175,55.489192962646484,,10.545658111572266,0.56
361,MetaDrive-test-noise-reduction-td3,62,280.27905672724324,364522,1242,5811.3068289756775,55.70310592651367,,125.35533142089844,0.56
362,MetaDrive-test-noise-reduction-td3,62,280.1473821013315,365037,1243,5819.465530157089,54.88738250732422,-55.540531158447266,10.242435455322266,0.57
363,MetaDrive-test-noise-reduction-td3,62,278.335708611796,366488,1246,5843.900897979736,51.055992126464844,,13.565705299377441,0.56
364,MetaDrive-test-noise-reduction-td3,62,276.45158088605586,367489,1247,5861.500111103058,52.464866638183594,-51.94369888305664,12.435760498046875,0.55
365,MetaDrive-test-noise-reduction-td3,62,276.772511228579,368253,1248,5876.624389886856,52.88892364501953,-52.367374420166016,10.918309211730957,0.56
366,MetaDrive-test-noise-reduction-td3,62,280.63688302390625,369467,1250,5898.159075021744,54.84312057495117,-55.742435455322266,10.71934700012207,0.57
367,MetaDrive-test-noise-reduction-td3,62,281.6826494641354,370123,1252,5909.7138822078705,57.371185302734375,-57.29824447631836,11.312785148620605,0.57
368,MetaDrive-test-noise-reduction-td3,62,287.0789030183591,371466,1254,5934.799341201782,57.93650436401367,,9.823165893554688,0.59
369,MetaDrive-test-noise-reduction-td3,62,286.11754395623956,372278,1256,5949.258767127991,51.42045593261719,,15.466195106506348,0.59
370,MetaDrive-test-noise-reduction-td3,62,288.2782490664102,373165,1257,5969.067194223404,57.43564224243164,-57.225074768066406,29.18317222595215,0.59
371,MetaDrive-test-noise-reduction-td3,62,287.2542932289349,374141,1259,5987.575700044632,58.16413879394531,-58.51279067993164,5.047764301300049,0.58
372,MetaDrive-test-noise-reduction-td3,62,285.8229345304297,375142,1260,6008.616203069687,54.17405700683594,,8.609355926513672,0.57
373,MetaDrive-test-noise-reduction-td3,62,287.7487837624141,376329,1262,6028.872858047485,55.348541259765625,-55.61476135253906,19.14939308166504,0.58
374,MetaDrive-test-noise-reduction-td3,62,283.57443773894926,377069,1265,6041.4253261089325,54.55376052856445,-55.01652526855469,3.1003940105438232,0.57
375,MetaDrive-test-noise-reduction-td3,62,283.61051007312267,378381,1267,6065.002790927887,55.02784729003906,-55.629722595214844,8.572383880615234,0.57
376,MetaDrive-test-noise-reduction-td3,62,281.7908456576191,379201,1269,6079.006735086441,56.948028564453125,-56.8676643371582,9.093717575073242,0.57
377,MetaDrive-test-noise-reduction-td3,62,283.1286927926905,380143,1271,6094.534384965897,53.197723388671875,-53.36063003540039,6.454972267150879,0.58
378,MetaDrive-test-noise-reduction-td3,62,281.1406932512932,381070,1273,6109.864327907562,56.44838333129883,,13.109745979309082,0.57
379,MetaDrive-test-noise-reduction-td3,62,283.583867167081,382064,1274,6129.908374071121,51.287071228027344,,10.212947845458984,0.57
380,MetaDrive-test-noise-reduction-td3,62,286.96703256277476,383047,1277,6147.928462028503,53.5572395324707,-54.16313552856445,7.962132930755615,0.58
381,MetaDrive-test-noise-reduction-td3,62,282.9395520803722,384410,1281,6170.373840808868,57.86677551269531,,10.24356460571289,0.58
382,MetaDrive-test-noise-reduction-td3,62,282.9547074461562,385099,1282,6185.399383068085,55.57101821899414,-55.25041198730469,13.575202941894531,0.57
383,MetaDrive-test-noise-reduction-td3,62,284.95236953614346,386699,1284,6215.107403993607,53.230010986328125,-54.102012634277344,11.193115234375,0.58
384,MetaDrive-test-noise-reduction-td3,62,283.27171834736635,387233,1285,6224.138354063034,53.5472297668457,-54.674949645996094,6.468601703643799,0.58
385,MetaDrive-test-noise-reduction-td3,62,283.9751592822163,388081,1287,6238.189723968506,54.233314514160156,-56.052677154541016,10.692087173461914,0.58
386,MetaDrive-test-noise-reduction-td3,62,280.7948051518414,389307,1289,6257.744153022766,55.00559997558594,-55.76457595825195,17.431259155273438,0.57
387,MetaDrive-test-noise-reduction-td3,62,278.25489777966294,390189,1291,6274.534992218018,53.90908432006836,-54.22357940673828,15.027433395385742,0.55
388,MetaDrive-test-noise-reduction-td3,62,280.4072397184502,391716,1293,6305.785001039505,54.09540557861328,,7.778590679168701,0.54
389,MetaDrive-test-noise-reduction-td3,62,278.49069655738805,392333,1294,6317.517773151398,56.08043670654297,-56.14947509765625,10.347163200378418,0.54
390,MetaDrive-test-noise-reduction-td3,62,281.9706037723196,393310,1295,6337.456705093384,57.74739074707031,,25.13432502746582,0.55
391,MetaDrive-test-noise-reduction-td3,62,282.09526242948965,394083,1296,6350.401572227478,52.20182418823242,-54.18928146362305,170.85516357421875,0.55
392,MetaDrive-test-noise-reduction-td3,62,279.58484778031516,395256,1298,6371.206532239914,56.85961151123047,,6.213191986083984,0.54
393,MetaDrive-test-noise-reduction-td3,62,282.5638451271212,396070,1299,6386.641678094864,49.43272399902344,,6.317643165588379,0.55
394,MetaDrive-test-noise-reduction-td3,62,281.8759076489542,397638,1301,6411.710864067078,58.699554443359375,,4.28483772277832,0.54
395,MetaDrive-test-noise-reduction-td3,62,281.54439048976707,398608,1303,6426.09670996666,51.1782341003418,,12.88463020324707,0.54
396,MetaDrive-test-noise-reduction-td3,62,281.24134633630126,399492,1305,6441.402296066284,53.516178131103516,,10.234256744384766,0.54
397,MetaDrive-test-noise-reduction-td3,61,281.18569947319065,400029,1306,6452.808422088623,53.36713409423828,-53.27815246582031,10.063936233520508,0.54
398,MetaDrive-test-noise-reduction-td3,61,282.10428277510175,401289,1308,6475.923545122147,51.17366027832031,-51.5053596496582,20.308486938476562,0.54
399,MetaDrive-test-noise-reduction-td3,61,280.7438460260615,402556,1310,6497.355967998505,53.75799560546875,,12.776420593261719,0.53
400,MetaDrive-test-noise-reduction-td3,61,279.5526844964765,403245,1311,6507.539829969406,54.619712829589844,-55.649253845214844,8.065927505493164,0.53
401,MetaDrive-test-noise-reduction-td3,61,281.3614872790912,404236,1313,6527.5087151527405,57.23991012573242,,11.157951354980469,0.53
402,MetaDrive-test-noise-reduction-td3,61,276.8025755471973,405004,1315,6541.163109064102,56.3561897277832,,8.767498016357422,0.52
403,MetaDrive-test-noise-reduction-td3,61,275.5978896020756,406005,1316,6561.56565618515,59.50035858154297,-59.41277313232422,16.014537811279297,0.51
404,MetaDrive-test-noise-reduction-td3,61,277.3289563522334,407444,1319,6584.899295091629,53.60006332397461,,36.40984344482422,0.52
405,MetaDrive-test-noise-reduction-td3,61,273.56238160635974,408547,1321,6604.322905063629,53.633182525634766,-52.920204162597656,28.924528121948242,0.51
406,MetaDrive-test-noise-reduction-td3,61,273.15948861658467,409236,1322,6618.777825117111,57.97883987426758,,9.500444412231445,0.5
407,MetaDrive-test-noise-reduction-td3,61,272.2236588063253,410117,1323,6632.346844911575,58.12962341308594,-58.66185760498047,8.39089584350586,0.5
408,MetaDrive-test-noise-reduction-td3,61,271.65069846696974,411692,1326,6666.778589963913,55.513450622558594,,107.65840148925781,0.49
409,MetaDrive-test-noise-reduction-td3,61,271.544999007687,412361,1327,6677.74356508255,58.87806701660156,-59.837623596191406,18.07164192199707,0.5
410,MetaDrive-test-noise-reduction-td3,61,274.08933783508087,413113,1329,6692.854772090912,57.054107666015625,-57.09051513671875,11.749916076660156,0.51
411,MetaDrive-test-noise-reduction-td3,61,274.8447037778217,414001,1330,6707.544873952866,55.93693542480469,-56.432029724121094,18.5673770904541,0.52
412,MetaDrive-test-noise-reduction-td3,61,269.20645663151043,415526,1333,6738.633866071701,54.54204559326172,,193.77325439453125,0.49
413,MetaDrive-test-noise-reduction-td3,61,264.4430786772422,416106,1335,6748.417535066605,55.0663948059082,,14.261831283569336,0.49
414,MetaDrive-test-noise-reduction-td3,61,265.0551545259999,417080,1337,6766.101809978485,56.99836730957031,,6.365682601928711,0.48
415,MetaDrive-test-noise-reduction-td3,61,260.03557042720945,418278,1340,6789.23757314682,57.748722076416016,,20.80691146850586,0.46
416,MetaDrive-test-noise-reduction-td3,61,259.3344787371251,419279,1341,6808.848719120026,49.66164016723633,-50.983028411865234,15.609429359436035,0.45
417,MetaDrive-test-noise-reduction-td3,61,257.08299323350275,420505,1343,6834.15286397934,52.527435302734375,-52.097801208496094,5.010318756103516,0.43
418,MetaDrive-test-noise-reduction-td3,61,254.74971192862918,421763,1346,6856.767814874649,57.13377380371094,-56.65831756591797,8.424236297607422,0.41
419,MetaDrive-test-noise-reduction-td3,61,253.67525329592766,422764,1347,6876.473505020142,50.99186706542969,,7.371302604675293,0.41
420,MetaDrive-test-noise-reduction-td3,61,251.91607689005542,423236,1348,6885.324176073074,58.12395477294922,,6.679198265075684,0.4
421,MetaDrive-test-noise-reduction-td3,61,253.6946784218345,424237,1349,6907.020807027817,55.84822463989258,-55.41778564453125,13.37191390991211,0.39
422,MetaDrive-test-noise-reduction-td3,61,253.48147813424328,425238,1350,6925.57858300209,55.121368408203125,,8.778069496154785,0.38
423,MetaDrive-test-noise-reduction-td3,61,254.60736064785283,426657,1352,6948.537314176559,53.019073486328125,-52.41521072387695,10.756322860717773,0.38
424,MetaDrive-test-noise-reduction-td3,61,251.90740374002777,427646,1354,6965.370708942413,53.29066467285156,,112.56980895996094,0.37
425,MetaDrive-test-noise-reduction-td3,61,253.42300930587598,428184,1355,6978.052999973297,53.99523162841797,,12.705625534057617,0.37
426,MetaDrive-test-noise-reduction-td3,61,245.17680122012655,429540,1359,7006.95663690567,53.507080078125,,8.584994316101074,0.35
427,MetaDrive-test-noise-reduction-td3,61,246.2132548104741,430164,1360,7019.933327198029,54.780914306640625,,10.540125846862793,0.36
428,MetaDrive-test-noise-reduction-td3,61,245.59579470914252,431607,1363,7048.148874998093,52.647003173828125,-52.67763900756836,14.179967880249023,0.34
429,MetaDrive-test-noise-reduction-td3,61,248.89044954419325,432357,1364,7059.813211917877,53.14360809326172,-53.77587127685547,8.808353424072266,0.35
430,MetaDrive-test-noise-reduction-td3,61,246.81844378441346,433444,1366,7077.1099462509155,59.61590576171875,,9.570351600646973,0.33
431,MetaDrive-test-noise-reduction-td3,61,248.62746365376174,434445,1367,7092.086014032364,54.96112060546875,-55.06601333618164,7.337868690490723,0.32
432,MetaDrive-test-noise-reduction-td3,61,244.86837024461397,435981,1371,7114.6114139556885,54.658172607421875,-55.26296615600586,8.48768424987793,0.3
433,MetaDrive-test-noise-reduction-td3,61,246.1871650743121,436982,1372,7129.881466150284,57.75895690917969,,7.6294050216674805,0.3
434,MetaDrive-test-noise-reduction-td3,61,247.47181577791096,437983,1373,7148.781272172928,57.14301681518555,-56.63359832763672,9.84193229675293,0.29
435,MetaDrive-test-noise-reduction-td3,61,247.06151176356516,438848,1374,7161.79536318779,53.123939514160156,,15.258047103881836,0.3
436,MetaDrive-test-noise-reduction-td3,61,248.4274424535672,439849,1375,7178.135412931442,52.534786224365234,-53.17925262451172,6.764646530151367,0.29
437,MetaDrive-test-noise-reduction-td3,61,250.24005474062582,440850,1376,7195.878275156021,53.54611587524414,,8.810354232788086,0.29
438,MetaDrive-test-noise-reduction-td3,61,252.1880903431545,441654,1377,7207.040655136108,48.984954833984375,,10.21839714050293,0.3
439,MetaDrive-test-noise-reduction-td3,61,253.4000363452107,442032,1378,7213.43451499939,49.209903717041016,,25.194576263427734,0.3
440,MetaDrive-test-noise-reduction-td3,61,255.85831013973936,443033,1379,7231.215255975723,49.07256317138672,-49.85480499267578,109.90967559814453,0.3
441,MetaDrive-test-noise-reduction-td3,61,254.15837836905476,444077,1381,7250.699570894241,49.574249267578125,-50.78496170043945,14.990800857543945,0.28
442,MetaDrive-test-noise-reduction-td3,61,252.91655721203395,445214,1383,7267.2149310112,56.05933380126953,,9.56008243560791,0.28
443,MetaDrive-test-noise-reduction-td3,61,254.08491437672998,446543,1386,7287.597616910934,55.71171569824219,-56.35371398925781,13.459176063537598,0.28
444,MetaDrive-test-noise-reduction-td3,61,254.90185109174433,447688,1388,7304.571636915207,54.89666748046875,,12.092275619506836,0.29
445,MetaDrive-test-noise-reduction-td3,61,255.2049544231872,448689,1389,7321.170305967331,54.45188903808594,-54.896244049072266,6.701830863952637,0.28
446,MetaDrive-test-noise-reduction-td3,61,256.7209817771033,449165,1390,7328.689352989197,48.73252868652344,-49.417144775390625,12.07867431640625,0.29
447,MetaDrive-test-noise-reduction-td3,61,250.43320532666087,450318,1393,7345.930665969849,60.39398956298828,,5.147629261016846,0.28
448,MetaDrive-test-noise-reduction-td3,61,252.12826066372057,451319,1394,7364.096786022186,49.30585861206055,-49.129695892333984,9.222543716430664,0.28
449,MetaDrive-test-noise-reduction-td3,61,247.7582146414193,452733,1397,7387.153295040131,49.916080474853516,-51.239925384521484,112.28852081298828,0.27
450,MetaDrive-test-noise-reduction-td3,61,249.1002381205465,453733,1398,7401.6502249240875,53.169429779052734,-54.25991439819336,29.670345306396484,0.28
451,MetaDrive-test-noise-reduction-td3,61,240.8969734395485,454422,1402,7413.564477920532,46.407737731933594,,21.861440658569336,0.26
452,MetaDrive-test-noise-reduction-td3,61,237.78682361903947,455850,1406,7435.805047035217,48.847896575927734,,29.505630493164062,0.24
453,MetaDrive-test-noise-reduction-td3,61,237.62085464446852,456552,1407,7446.774788141251,53.69960021972656,,5.320814609527588,0.24
454,MetaDrive-test-noise-reduction-td3,61,236.91846056041516,457088,1408,7454.897924184799,52.72642135620117,,5.849442481994629,0.24
455,MetaDrive-test-noise-reduction-td3,61,237.51084078104975,458930,1410,7489.821098089218,53.59605026245117,,10.312332153320312,0.24
456,MetaDrive-test-noise-reduction-td3,61,235.4988625822072,459137,1411,7492.880549192429,51.42381286621094,-51.808555603027344,13.397342681884766,0.23
457,MetaDrive-test-noise-reduction-td3,61,234.5393413825672,460080,1414,7510.1704161167145,51.88301086425781,,21.627613067626953,0.23
458,MetaDrive-test-noise-reduction-td3,61,233.06436609912132,461558,1417,7535.247345924377,53.89888381958008,,15.159154891967773,0.24
459,MetaDrive-test-noise-reduction-td3,61,235.83973301843614,462291,1418,7546.496479988098,55.93498992919922,-57.06907653808594,14.859386444091797,0.24
460,MetaDrive-test-noise-reduction-td3,61,236.93404286861906,463292,1419,7564.369807243347,54.5348014831543,,180.434814453125,0.24
461,MetaDrive-test-noise-reduction-td3,61,232.93259446979516,464409,1423,7583.3257558345795,47.1806755065918,-47.385986328125,7.179969787597656,0.23
462,MetaDrive-test-noise-reduction-td3,61,233.31190875700614,465590,1425,7599.915950059891,50.29427719116211,,5.699376583099365,0.23
463,MetaDrive-test-noise-reduction-td3,61,232.90023093762971,466304,1426,7611.755535125732,54.735252380371094,,11.16404914855957,0.24
464,MetaDrive-test-noise-reduction-td3,61,229.7161320331132,467134,1428,7626.561334133148,56.3187370300293,,19.06951904296875,0.22
465,MetaDrive-test-noise-reduction-td3,61,232.61995419822586,468135,1429,7642.268913984299,55.256893157958984,-56.438629150390625,170.79257202148438,0.22
466,MetaDrive-test-noise-reduction-td3,61,235.68707453082888,469522,1431,7664.465860128403,49.87636184692383,,13.772220611572266,0.21
467,MetaDrive-test-noise-reduction-td3,61,236.46097698139545,470652,1433,7682.241040945053,50.56153869628906,,8.701156616210938,0.21
468,MetaDrive-test-noise-reduction-td3,61,238.81359919226807,471496,1434,7696.862416982651,53.98676300048828,,4.633615016937256,0.21
469,MetaDrive-test-noise-reduction-td3,61,241.84453834537248,472757,1436,7716.516516208649,51.50529098510742,-52.033023834228516,11.543057441711426,0.22
470,MetaDrive-test-noise-reduction-td3,61,241.95913662863822,473368,1437,7726.234893083572,47.950157165527344,,11.209426879882812,0.23
471,MetaDrive-test-noise-reduction-td3,61,244.2318640303685,474254,1438,7739.209542989731,48.44791793823242,,6.36146879196167,0.24
472,MetaDrive-test-noise-reduction-td3,61,244.55050412285982,475008,1440,7751.039510011673,49.205318450927734,,16.797012329101562,0.25
473,MetaDrive-test-noise-reduction-td3,61,244.9040401613903,476347,1442,7773.7439522743225,51.8174934387207,-51.44333267211914,18.662155151367188,0.26
474,MetaDrive-test-noise-reduction-td3,61,244.28977839336218,477346,1443,7789.5726799964905,54.16107177734375,,5.964744567871094,0.27
475,MetaDrive-test-noise-reduction-td3,61,246.0233832420114,478078,1445,7801.918352842331,49.00111389160156,,6.803826332092285,0.28
476,MetaDrive-test-noise-reduction-td3,61,248.0221913814065,479731,1447,7828.721477031708,45.21332550048828,-45.70583724975586,53.20987319946289,0.3
477,MetaDrive-test-noise-reduction-td3,61,247.08383218998677,480732,1448,7847.079488039017,50.45335006713867,,7.753473281860352,0.3
478,MetaDrive-test-noise-reduction-td3,61,242.85222277105976,481700,1450,7863.583708047867,47.15872573852539,,7.18800687789917,0.31
479,MetaDrive-test-noise-reduction-td3,61,242.950233664129,482691,1452,7879.4751789569855,54.50917053222656,-54.28689193725586,7.249717712402344,0.32
480,MetaDrive-test-noise-reduction-td3,61,243.1677723728843,483901,1454,7899.80946803093,52.730377197265625,-52.70051956176758,8.370421409606934,0.31
481,MetaDrive-test-noise-reduction-td3,61,244.55897749850467,484712,1455,7915.1389372348785,52.04763412475586,,16.29332733154297,0.32
482,MetaDrive-test-noise-reduction-td3,61,243.71532258405895,485005,1456,7919.784440040588,53.61199951171875,-53.4058952331543,15.432071685791016,0.32
483,MetaDrive-test-noise-reduction-td3,61,250.6301328652218,486255,1458,7942.748084068298,52.732547760009766,-52.62028121948242,11.532224655151367,0.32
484,MetaDrive-test-noise-reduction-td3,61,246.8158567665144,487542,1462,7964.501949071884,49.04128646850586,,7.164826393127441,0.31
485,MetaDrive-test-noise-reduction-td3,61,245.65366905704906,488249,1463,7976.232182979584,54.92437744140625,-54.8601188659668,14.992046356201172,0.32
486,MetaDrive-test-noise-reduction-td3,61,245.90613296145958,489417,1465,7994.945302963257,51.82620620727539,-51.93330001831055,9.732954978942871,0.32
487,MetaDrive-test-noise-reduction-td3,61,246.31067216006267,490086,1466,8005.014799118042,50.65163803100586,,9.24687671661377,0.33
488,MetaDrive-test-noise-reduction-td3,61,246.69004221121034,491087,1467,8023.054558992386,53.81340408325195,-54.3556022644043,7.952600479125977,0.33
489,MetaDrive-test-noise-reduction-td3,61,250.6382591353617,492088,1468,8040.75634098053,53.41812515258789,,8.091468811035156,0.33
490,MetaDrive-test-noise-reduction-td3,61,253.64424291384,493089,1469,8059.112565040588,51.05589294433594,-51.312042236328125,7.398077011108398,0.33
491,MetaDrive-test-noise-reduction-td3,61,253.406520248949,494523,1472,8081.124805212021,53.17365646362305,-53.837730407714844,14.769161224365234,0.35
492,MetaDrive-test-noise-reduction-td3,61,250.31916430217203,495312,1474,8094.51985502243,52.367706298828125,,8.048632621765137,0.35
493,MetaDrive-test-noise-reduction-td3,61,245.7298651087157,496511,1477,8116.984988927841,49.50323486328125,-50.15756607055664,6.672124862670898,0.35
494,MetaDrive-test-noise-reduction-td3,61,246.22804525188812,497668,1479,8134.551856994629,51.82857131958008,,10.455328941345215,0.37
495,MetaDrive-test-noise-reduction-td3,61,247.37809387030666,498604,1481,8150.663236141205,51.66146469116211,,8.122608184814453,0.38
496,MetaDrive-test-noise-reduction-td3,61,245.93512007859903,499087,1483,8157.503074169159,51.147605895996094,-51.65077209472656,8.719120025634766,0.37
