TanmayH/CS269-RL-project-code/MetaDrive-test-conv-colab-critic/td3/progress.csv
,log_dir,frame_per_second,episode_reward,total_steps,total_episodes,total_time,target_q,actor_loss,critic_loss,success_rate
0,MetaDrive-test-conv-colab-critic,278,9.330541491383833,1954,2,7.024182081222534,,,,0.0
1,MetaDrive-test-conv-colab-critic,258,9.955783298724524,2955,3,11.428704500198364,,,,0.0
2,MetaDrive-test-conv-colab-critic,220,9.94236064866842,3956,4,17.97452712059021,,,,0.0
3,MetaDrive-test-conv-colab-critic,223,9.021518222287366,4829,5,21.580113410949707,,,,0.0
4,MetaDrive-test-conv-colab-critic,221,8.587326559669807,5741,6,25.890832662582397,,,,0.0
5,MetaDrive-test-conv-colab-critic,224,9.024870465922634,6742,7,29.971412181854248,,,,0.0
6,MetaDrive-test-conv-colab-critic,213,9.261386234836941,7743,8,36.312406063079834,,,,0.0
7,MetaDrive-test-conv-colab-critic,223,9.281721047672377,8744,9,39.13740801811218,,,,0.0
8,MetaDrive-test-conv-colab-critic,228,9.45737065300523,9745,10,42.57354474067688,,,,0.0
9,MetaDrive-test-conv-colab-critic,214,9.036917512320615,10077,11,46.87770891189575,0.00178279890678823,-0.0028316376265138388,0.00047598243691027164,0.0
10,MetaDrive-test-conv-colab-critic,159,1.3240970747380685,11015,45,69.09186339378357,-0.047897595912218094,-0.01650330424308777,0.7922338247299194,0.0
11,MetaDrive-test-conv-colab-critic,130,-0.8830571835440082,12019,84,91.78006505966187,0.032263193279504776,0.01792933978140354,0.01759505644440651,0.0
12,MetaDrive-test-conv-colab-critic,118,-1.0304816484355062,13283,92,112.55299067497253,0.048474520444869995,-0.046434707939624786,0.021706612780690193,0.0
13,MetaDrive-test-conv-colab-critic,110,-0.991221338843533,14284,93,128.77507138252258,0.003166747745126486,,0.012744976207613945,0.0
14,MetaDrive-test-conv-colab-critic,103,-0.9941952371107357,15697,95,151.67537212371826,-0.26613301038742065,0.3039745092391968,0.029500411823391914,0.0
15,MetaDrive-test-conv-colab-critic,100,-0.9471826999661267,16698,96,166.78418707847595,-0.2392040640115738,,0.018725799396634102,0.0
16,MetaDrive-test-conv-colab-critic,97,-0.9990978625214121,17783,98,183.1510510444641,-0.2095784842967987,0.19543257355690002,0.010451870039105415,0.0
17,MetaDrive-test-conv-colab-critic,95,-0.9532448596570127,18784,99,197.2832260131836,-0.409053236246109,,1.010157585144043,0.0
18,MetaDrive-test-conv-colab-critic,93,-0.9106240576942684,19785,100,212.01957249641418,-0.4224134385585785,0.42625561356544495,0.020144212990999222,0.0
19,MetaDrive-test-conv-colab-critic,90,-1.1470809102639237,20866,102,230.19319677352905,-0.613724410533905,,0.4812217950820923,0.0
20,MetaDrive-test-conv-colab-critic,89,-1.3176075001316263,21236,103,235.9624946117401,-0.20197312533855438,,0.003886275691911578,0.0
21,MetaDrive-test-conv-colab-critic,88,-1.4825487987528414,22328,105,252.2522394657135,-0.41715872287750244,,0.0138362105935812,0.0
22,MetaDrive-test-conv-colab-critic,87,-1.5099854375715038,23329,106,267.7736656665802,-0.42766624689102173,0.40290772914886475,0.018240418285131454,0.0
23,MetaDrive-test-conv-colab-critic,85,-1.5906122404677339,24330,107,284.51109647750854,-0.3173069953918457,,0.1295585036277771,0.0
24,MetaDrive-test-conv-colab-critic,84,-1.8911299309749583,25211,109,298.416864156723,-0.42565444111824036,0.4019772708415985,0.014551019296050072,0.0
25,MetaDrive-test-conv-colab-critic,83,-1.964736181054246,26212,110,314.3416357040405,-0.4321599006652832,,0.17075729370117188,0.0
26,MetaDrive-test-conv-colab-critic,82,-2.1023530883567894,27375,112,332.2705388069153,-0.5625406503677368,0.5525798797607422,0.027624662965536118,0.0
27,MetaDrive-test-conv-colab-critic,81,-2.043810405597185,28376,113,348.3007183074951,-0.5958893895149231,,0.011637008748948574,0.0
28,MetaDrive-test-conv-colab-critic,80,-2.1771095683599295,29458,115,364.8485817909241,-0.6516534090042114,,0.007352433167397976,0.0
29,MetaDrive-test-conv-colab-critic,79,-2.2478999065604146,30759,118,385.4917483329773,-0.45603933930397034,0.48560163378715515,0.010014098137617111,0.0
30,MetaDrive-test-conv-colab-critic,79,-2.318357596999167,31243,119,392.1060833930969,-0.6410199403762817,0.6430635452270508,0.03070840984582901,0.0
31,MetaDrive-test-conv-colab-critic,79,-2.385869390849444,32244,120,406.7524995803833,-0.4584128260612488,,0.009391572326421738,0.0
32,MetaDrive-test-conv-colab-critic,78,-2.5316390740471335,33322,122,423.01665902137756,-0.6705186367034912,,0.014424921944737434,0.0
33,MetaDrive-test-conv-colab-critic,78,-2.557123824684617,34410,124,440.8276615142822,-0.4598432779312134,,0.01287057250738144,0.0
34,MetaDrive-test-conv-colab-critic,77,-2.5324675991834944,35526,126,458.42622590065,-0.548913300037384,,0.021732661873102188,0.0
35,MetaDrive-test-conv-colab-critic,76,-2.487415472083791,36963,129,480.2890305519104,-0.5549787282943726,0.6098620891571045,0.016799509525299072,0.0
36,MetaDrive-test-conv-colab-critic,76,-2.4862446972859424,37964,130,495.79186487197876,-0.74216628074646,,0.014996398240327835,0.0
37,MetaDrive-test-conv-colab-critic,76,-2.4815635385149593,38965,131,511.54466795921326,-0.6131995916366577,0.6290209293365479,0.0048326607793569565,0.0
38,MetaDrive-test-conv-colab-critic,75,-2.4265757810602504,39966,132,527.3721029758453,-0.6902255415916443,,0.0048461188562214375,0.0
39,MetaDrive-test-conv-colab-critic,75,-2.449954156375237,40061,133,529.2097020149231,-0.6252292394638062,0.588611364364624,0.015329431742429733,0.0
40,MetaDrive-test-conv-colab-critic,75,-2.4409626687883055,41062,134,544.0106732845306,-0.7086707353591919,,0.010017305612564087,0.0
41,MetaDrive-test-conv-colab-critic,74,-2.451615486570236,42861,137,573.3805592060089,-0.6908837556838989,0.6701037287712097,0.013428638689219952,0.0
42,MetaDrive-test-conv-colab-critic,74,-2.49915776647397,43161,139,578.1641244888306,-0.7587247490882874,0.7311890721321106,0.014738732948899269,0.0
43,MetaDrive-test-conv-colab-critic,74,-2.5661854557509924,44050,141,591.4141471385956,-0.74387127161026,,0.004874662030488253,0.0
44,MetaDrive-test-conv-colab-critic,74,-2.5181824456500164,45051,142,606.6581597328186,-0.6322331428527832,0.619803786277771,0.005523595027625561,0.0
45,MetaDrive-test-conv-colab-critic,74,-2.4431724243061863,46175,144,623.5893042087555,-0.7423425912857056,0.7222464084625244,0.0076779527589678764,0.0
46,MetaDrive-test-conv-colab-critic,73,-2.4602335218264773,47293,146,640.1462454795837,-0.6170674562454224,0.628247857093811,0.008115706034004688,0.0
47,MetaDrive-test-conv-colab-critic,73,-2.4061709378183864,48294,147,655.0654451847076,-0.8450886607170105,,0.006484176032245159,0.0
48,MetaDrive-test-conv-colab-critic,73,-2.42181890131039,49072,148,666.631445646286,-0.7869119644165039,,0.047714270651340485,0.0
49,MetaDrive-test-conv-colab-critic,73,-2.3498033844292285,50073,149,680.7209086418152,-0.8580716848373413,0.8616185784339905,0.011451195925474167,0.0
50,MetaDrive-test-conv-colab-critic,73,-2.3369587474349145,51074,150,696.0790193080902,-0.7523998022079468,,0.011550530791282654,0.0
51,MetaDrive-test-conv-colab-critic,73,-2.281313000076184,52236,152,714.6777286529541,-0.7761111259460449,,0.004473821260035038,0.0
52,MetaDrive-test-conv-colab-critic,73,-2.217054046466914,53471,155,732.4582417011261,-0.7813509702682495,0.7878894805908203,0.003921356983482838,0.0
53,MetaDrive-test-conv-colab-critic,72,-2.1549342883735876,54472,156,748.4332559108734,-0.9271236062049866,,0.025075875222682953,0.0
54,MetaDrive-test-conv-colab-critic,72,-2.0944660574164238,55884,158,770.0368328094482,-0.8831181526184082,,0.016060756519436836,0.0
55,MetaDrive-test-conv-colab-critic,72,-2.038038071867301,56885,159,784.7613422870636,-0.8726793527603149,0.8675275444984436,0.009190501645207405,0.0
56,MetaDrive-test-conv-colab-critic,72,-2.071922390473566,57016,160,786.7099311351776,-0.7515021562576294,,0.015624907799065113,0.0
57,MetaDrive-test-conv-colab-critic,72,-2.0937915805025495,58535,163,809.8448483943939,-0.884949803352356,0.8504155278205872,0.06169859319925308,0.0
58,MetaDrive-test-conv-colab-critic,72,-1.9891369204634706,59805,166,828.5739741325378,-0.8464566469192505,0.8515443801879883,0.006432613357901573,0.0
59,MetaDrive-test-conv-colab-critic,72,-1.9400052329272426,60906,168,844.9552023410797,-0.8028938174247742,,0.004454669076949358,0.0
60,MetaDrive-test-conv-colab-critic,72,-1.9516638032473284,61088,169,848.0703828334808,-0.8530670404434204,,0.005127417854964733,0.0
61,MetaDrive-test-conv-colab-critic,71,-1.9060534166616498,62089,170,862.9285049438477,-0.7774642705917358,0.7378178238868713,0.005567510146647692,0.0
62,MetaDrive-test-conv-colab-critic,71,-1.8663169405355413,63090,171,878.6911585330963,-0.9944131374359131,,0.010201385244727135,0.0
63,MetaDrive-test-conv-colab-critic,71,-1.8405874569453176,64314,174,899.1282324790955,-0.8518661260604858,,0.004266635049134493,0.0
64,MetaDrive-test-conv-colab-critic,71,-1.9130320076420773,65803,176,920.7330422401428,-0.9204448461532593,0.9301291108131409,0.007126842625439167,0.0
65,MetaDrive-test-conv-colab-critic,71,-1.9270536599849017,66093,177,925.803688287735,-1.0210891962051392,1.0058199167251587,0.024839196354150772,0.0
66,MetaDrive-test-conv-colab-critic,71,-1.8620814032952984,67094,178,941.3433635234833,-1.1014189720153809,,0.519690752029419,0.0
67,MetaDrive-test-conv-colab-critic,71,-1.7837567662256375,68095,179,956.7062592506409,-0.7964410781860352,0.7972382307052612,0.0059889452531933784,0.0
68,MetaDrive-test-conv-colab-critic,71,-1.7191582456285466,69096,180,972.0802376270294,-0.8820542693138123,,0.00393141433596611,0.0
69,MetaDrive-test-conv-colab-critic,71,-1.7165453581352503,70097,181,986.5480868816376,-0.8611294031143188,0.8665169477462769,0.028951197862625122,0.0
70,MetaDrive-test-conv-colab-critic,71,-1.6648106034497396,71098,182,1000.712188243866,-1.0581603050231934,,0.007147096563130617,0.0
71,MetaDrive-test-conv-colab-critic,70,-1.5285558015596796,72099,183,1016.3591539859772,-0.9166207313537598,0.911777138710022,0.006384200882166624,0.0
72,MetaDrive-test-conv-colab-critic,70,-1.5084956450091451,73246,185,1032.570121049881,-0.9614009857177734,,0.003299695672467351,0.0
73,MetaDrive-test-conv-colab-critic,70,-1.4463252161921443,74247,186,1047.0721242427826,-1.0943927764892578,1.0760436058044434,0.011520501226186752,0.0
74,MetaDrive-test-conv-colab-critic,70,-1.4359421369253638,75440,188,1066.0795423984528,-0.9347711205482483,,0.01003713347017765,0.0
75,MetaDrive-test-conv-colab-critic,70,-1.414371979115098,76441,189,1081.2569081783295,-0.9968489408493042,0.9959890842437744,0.012374692596495152,0.0
76,MetaDrive-test-conv-colab-critic,70,-1.4244342578168914,77442,190,1096.9140086174011,-1.0214444398880005,,0.4876295030117035,0.0
77,MetaDrive-test-conv-colab-critic,70,-1.419087860486741,78443,191,1112.4369521141052,-0.9857328534126282,0.9864882230758667,0.006897776387631893,0.0
78,MetaDrive-test-conv-colab-critic,70,-1.4274996875936043,79444,192,1128.1986351013184,-0.9545232057571411,,0.004011962562799454,0.0
79,MetaDrive-test-conv-colab-critic,70,-1.4759729948115679,80445,193,1142.8841516971588,-0.9554023742675781,0.9366123676300049,0.015461008995771408,0.0
80,MetaDrive-test-conv-colab-critic,70,-1.4825439140451795,81067,194,1151.5002012252808,-1.0888793468475342,1.08445143699646,0.00788134802132845,0.0
81,MetaDrive-test-conv-colab-critic,70,-1.6766025969985268,82057,196,1165.6356408596039,-1.1181493997573853,1.1081204414367676,0.0174274742603302,0.0
82,MetaDrive-test-conv-colab-critic,70,-1.6267650502203213,83058,197,1181.6037831306458,-1.059420108795166,,0.013489995151758194,0.0
83,MetaDrive-test-conv-colab-critic,70,-1.7207217314596905,84812,199,1207.7073135375977,-1.0097393989562988,,0.018769364804029465,0.0
84,MetaDrive-test-conv-colab-critic,70,-1.8118106167597037,85178,200,1213.2505145072937,-1.0445420742034912,,0.009045973420143127,0.0
85,MetaDrive-test-conv-colab-critic,70,-1.7595524428412204,86179,201,1227.4368994235992,-1.1143951416015625,1.1140093803405762,0.012299120426177979,0.0
86,MetaDrive-test-conv-colab-critic,70,-1.7748601557664991,87180,202,1241.4848144054413,-1.076793909072876,,0.007923375815153122,0.0
87,MetaDrive-test-conv-colab-critic,70,-1.7797533733933557,88095,204,1255.3619239330292,-1.2543745040893555,1.2735579013824463,0.012545878067612648,0.0
88,MetaDrive-test-conv-colab-critic,70,-1.914805900511251,89474,206,1275.676869392395,-1.138901710510254,,0.005156500265002251,0.0
89,MetaDrive-test-conv-colab-critic,70,-1.029392657933256,90012,213,1284.8370249271393,-1.1745924949645996,,0.10397558659315109,0.0
90,MetaDrive-test-conv-colab-critic,69,1.5412163558239285,91006,237,1304.039680480957,-0.9612999558448792,,0.011404920369386673,0.0
91,MetaDrive-test-conv-colab-critic,69,4.338886058847845,92023,260,1323.897983789444,-1.0159034729003906,0.9032869338989258,0.023910041898489,0.0
92,MetaDrive-test-conv-colab-critic,69,6.863925851061348,93050,285,1343.5225958824158,-1.0230343341827393,,0.10252340137958527,0.0
93,MetaDrive-test-conv-colab-critic,69,7.508084997161903,94016,314,1362.3584923744202,-0.9478188753128052,,0.006310918368399143,0.0
94,MetaDrive-test-conv-colab-critic,68,6.259139802543388,95037,343,1382.7392756938934,-0.6730806827545166,0.5760102272033691,0.007720050867646933,0.0
95,MetaDrive-test-conv-colab-critic,68,5.5578163654693995,96017,368,1401.4950642585754,-0.6022341251373291,0.49626362323760986,0.04472081735730171,0.0
96,MetaDrive-test-conv-colab-critic,68,6.25926879490337,97021,393,1421.5271110534668,-0.817642867565155,0.7056182026863098,0.023572001606225967,0.0
97,MetaDrive-test-conv-colab-critic,68,7.720074490706258,98033,418,1439.722103357315,-0.4254545569419861,0.34275197982788086,0.07156762480735779,0.0
98,MetaDrive-test-conv-colab-critic,67,8.722228440001748,99052,443,1458.6193492412567,-0.32649391889572144,,0.22463005781173706,0.0
99,MetaDrive-test-conv-colab-critic,67,10.397689035144692,100325,463,1481.1792883872986,-0.19003194570541382,0.07319791615009308,0.390510618686676,0.0
100,MetaDrive-test-conv-colab-critic,67,10.230957541881255,101015,479,1494.5012595653534,-0.1064264178276062,-0.10156798362731934,0.330438494682312,0.0
101,MetaDrive-test-conv-colab-critic,67,10.214697548095623,102046,506,1513.472676038742,0.48245254158973694,,0.03665478527545929,0.0
102,MetaDrive-test-conv-colab-critic,67,10.142243177813462,103018,530,1530.807650566101,0.8735485076904297,,0.08759152889251709,0.0
103,MetaDrive-test-conv-colab-critic,67,9.938778052856982,104030,555,1549.3620100021362,0.8614116907119751,,0.06566902995109558,0.0
104,MetaDrive-test-conv-colab-critic,66,9.01844655830759,105027,579,1567.7097322940826,0.9878933429718018,-1.0622845888137817,0.17488202452659607,0.0
105,MetaDrive-test-conv-colab-critic,66,10.797527392792777,106001,600,1585.7395694255829,0.8124886751174927,-0.913866400718689,0.33164292573928833,0.0
106,MetaDrive-test-conv-colab-critic,66,10.491260771930154,107022,625,1604.7514281272888,1.255316972732544,,0.03862325847148895,0.0
107,MetaDrive-test-conv-colab-critic,66,13.182427477252556,108033,645,1623.1599488258362,1.9303168058395386,-2.0048584938049316,0.15452492237091064,0.0
108,MetaDrive-test-conv-colab-critic,66,13.379354862059538,109055,669,1642.3591992855072,1.760638952255249,-1.7660746574401855,0.12736552953720093,0.0
109,MetaDrive-test-conv-colab-critic,66,14.50895749197941,110002,689,1659.9132177829742,2.153576374053955,,1.1602168083190918,0.0
110,MetaDrive-test-conv-colab-critic,66,13.805987516368313,111006,712,1678.423475265503,2.2766709327697754,,1.3345690965652466,0.0
111,MetaDrive-test-conv-colab-critic,66,15.77619809319539,112046,731,1697.2024235725403,2.6418867111206055,,0.14814762771129608,0.0
112,MetaDrive-test-conv-colab-critic,65,18.221039527640713,113041,748,1714.7946507930756,2.97141695022583,-3.088357925415039,0.0855211615562439,0.0
113,MetaDrive-test-conv-colab-critic,65,19.257924935997774,114046,769,1732.8255367279053,3.0938150882720947,,0.483379065990448,0.0
114,MetaDrive-test-conv-colab-critic,65,19.15567354325402,115055,791,1750.4655740261078,2.9885101318359375,-3.047650098800659,0.18909072875976562,0.0
115,MetaDrive-test-conv-colab-critic,65,20.669481767175466,116374,798,1771.7051026821136,3.262928009033203,,0.14709484577178955,0.0
116,MetaDrive-test-conv-colab-critic,65,23.2943952207663,117027,808,1784.2943909168243,3.481285810470581,-3.5282094478607178,0.16877612471580505,0.0
117,MetaDrive-test-conv-colab-critic,65,23.190241676901636,118006,827,1802.7156989574432,2.89047908782959,,0.3542059063911438,0.0
118,MetaDrive-test-conv-colab-critic,65,22.746533627325434,119041,846,1820.4895596504211,3.146505832672119,-3.265998363494873,0.2148112654685974,0.0
119,MetaDrive-test-conv-colab-critic,65,21.24511084868029,120033,867,1838.7896082401276,3.609398365020752,-3.722046375274658,1.4929425716400146,0.0
120,MetaDrive-test-conv-colab-critic,65,23.06924391149132,121561,878,1862.6816458702087,3.830270528793335,-3.8571908473968506,1.0190801620483398,0.0
121,MetaDrive-test-conv-colab-critic,65,24.21695937690622,122009,885,1870.5479242801666,3.4978461265563965,-3.6345677375793457,0.3970295786857605,0.0
122,MetaDrive-test-conv-colab-critic,65,23.23239556444104,123011,902,1889.0537598133087,3.463545799255371,-3.7304229736328125,1.4056897163391113,0.0
123,MetaDrive-test-conv-colab-critic,65,23.84181257465334,124030,922,1905.8790719509125,4.089626789093018,,0.5042620897293091,0.0
124,MetaDrive-test-conv-colab-critic,65,22.947332871128744,125005,941,1922.8654687404633,4.398494243621826,-4.509151458740234,0.40889984369277954,0.0
125,MetaDrive-test-conv-colab-critic,64,22.55462234764069,126028,962,1941.1286947727203,3.652811050415039,,3.2281365394592285,0.0
126,MetaDrive-test-conv-colab-critic,64,21.03696704675167,127028,982,1958.0806994438171,4.242006301879883,,0.41274189949035645,0.0
127,MetaDrive-test-conv-colab-critic,64,18.593754911441867,128044,1003,1975.9776284694672,4.365170478820801,,0.22896432876586914,0.0
128,MetaDrive-test-conv-colab-critic,64,18.701270980671005,129027,1022,1992.9725711345673,4.504039764404297,-4.779483795166016,0.6118392944335938,0.0
129,MetaDrive-test-conv-colab-critic,64,19.824519854743375,130072,1040,2011.0648856163025,3.7914321422576904,,0.47893136739730835,0.0
130,MetaDrive-test-conv-colab-critic,64,22.131819550267128,131014,1055,2027.5967869758606,3.8391032218933105,,0.6969475150108337,0.0
131,MetaDrive-test-conv-colab-critic,64,23.32130727034741,132018,1074,2047.0348601341248,4.4603376388549805,,0.36837366223335266,0.0
132,MetaDrive-test-conv-colab-critic,64,23.781024080153248,133029,1092,2064.177917957306,4.986337184906006,-5.088039398193359,0.24447348713874817,0.0
133,MetaDrive-test-conv-colab-critic,64,28.8004498018419,134087,1107,2083.0372772216797,4.223045349121094,-4.512705326080322,0.8528138399124146,0.0
134,MetaDrive-test-conv-colab-critic,64,27.894659695603114,135066,1126,2099.6947753429413,4.380035877227783,,0.21156176924705505,0.0
135,MetaDrive-test-conv-colab-critic,64,24.663566410366798,136063,1147,2117.112200498581,3.7241883277893066,-3.9035730361938477,0.6391245722770691,0.0
136,MetaDrive-test-conv-colab-critic,64,23.72727223737636,137058,1166,2133.752979516983,4.7155537605285645,,0.6844415068626404,0.0
137,MetaDrive-test-conv-colab-critic,64,22.6768144206772,138059,1185,2150.744775533676,4.367842674255371,-4.593183517456055,1.0955324172973633,0.0
138,MetaDrive-test-conv-colab-critic,64,19.82019757428717,139052,1205,2167.9149158000946,4.1934099197387695,,0.3967011570930481,0.0
139,MetaDrive-test-conv-colab-critic,64,20.14190002153674,140022,1222,2184.320545911789,4.652321815490723,,0.6041760444641113,0.0
140,MetaDrive-test-conv-colab-critic,64,22.33624505374418,141010,1238,2201.736958026886,3.6770341396331787,,1.4191279411315918,0.0
141,MetaDrive-test-conv-colab-critic,64,23.76522737841428,142001,1255,2218.499699115753,4.417641639709473,-4.5694780349731445,0.2626822590827942,0.0
142,MetaDrive-test-conv-colab-critic,63,23.049810600081027,143058,1276,2237.2906289100647,4.869096755981445,,0.884166955947876,0.0
143,MetaDrive-test-conv-colab-critic,63,24.982173601992784,144022,1292,2253.1624307632446,4.2931742668151855,,2.5042636394500732,0.0
144,MetaDrive-test-conv-colab-critic,63,26.349050896074424,145065,1311,2270.185403585434,5.182289123535156,-5.259620666503906,0.6542977094650269,0.0
145,MetaDrive-test-conv-colab-critic,63,26.481519401328896,146001,1326,2286.2080595493317,4.657090187072754,-4.818115234375,0.9328398704528809,0.0
146,MetaDrive-test-conv-colab-critic,63,27.27553145202379,147022,1343,2303.478925704956,4.971617221832275,,1.2808936834335327,0.0
147,MetaDrive-test-conv-colab-critic,63,27.111933935833314,148073,1363,2322.38800406456,5.020143032073975,-5.122344970703125,2.458005428314209,0.0
148,MetaDrive-test-conv-colab-critic,63,27.864468545987908,149030,1380,2338.605521917343,5.096866607666016,,3.891986131668091,0.0
149,MetaDrive-test-conv-colab-critic,63,25.974013906688107,150006,1398,2354.964915752411,4.669308185577393,,1.1172820329666138,0.0
150,MetaDrive-test-conv-colab-critic,63,25.347854867090078,151008,1416,2372.1295998096466,5.1698384284973145,,3.044170379638672,0.0
151,MetaDrive-test-conv-colab-critic,63,24.993309730014616,152006,1434,2389.1355741024017,4.09135627746582,,1.8451448678970337,0.0
152,MetaDrive-test-conv-colab-critic,63,25.444133970471984,153022,1450,2405.9266850948334,4.4123945236206055,,7.4679765701293945,0.0
153,MetaDrive-test-conv-colab-critic,63,27.049698956003404,154033,1466,2422.7795374393463,4.460575580596924,-4.595199108123779,0.7668130397796631,0.0
154,MetaDrive-test-conv-colab-critic,63,28.21031838031154,155004,1483,2439.8043644428253,3.6573705673217773,,3.2717771530151367,0.0
155,MetaDrive-test-conv-colab-critic,63,28.396777171859625,156045,1501,2457.68318939209,4.774576187133789,-4.707939147949219,1.3629175424575806,0.0
156,MetaDrive-test-conv-colab-critic,63,27.932398423053733,157058,1519,2475.135102748871,4.225451469421387,,2.9514522552490234,0.0
157,MetaDrive-test-conv-colab-critic,63,29.103118836472532,158073,1536,2492.8800258636475,4.402217864990234,-4.390753269195557,0.556784987449646,0.0
158,MetaDrive-test-conv-colab-critic,63,26.083444632307618,159006,1554,2509.346142053604,3.5858330726623535,,1.7104175090789795,0.0
159,MetaDrive-test-conv-colab-critic,63,25.986135110282216,160048,1570,2527.395498752594,4.071173667907715,,0.819913387298584,0.0
160,MetaDrive-test-conv-colab-critic,63,25.515251420126074,161020,1588,2544.6432049274445,4.456018447875977,,0.8814634084701538,0.0
161,MetaDrive-test-conv-colab-critic,63,28.264409910977477,162076,1604,2562.6476106643677,4.5593180656433105,,2.550454616546631,0.0
162,MetaDrive-test-conv-colab-critic,63,30.26559711943706,163042,1618,2579.300384759903,3.8515987396240234,,1.5977697372436523,0.0
163,MetaDrive-test-conv-colab-critic,63,31.308953821229462,164067,1620,2593.681291818619,4.229084014892578,-4.416655540466309,2.401512622833252,0.0
164,MetaDrive-test-conv-colab-critic,63,31.56189802888511,165038,1636,2610.713812828064,4.247210502624512,,0.7147738933563232,0.0
165,MetaDrive-test-conv-colab-critic,63,33.87169900142776,166044,1651,2628.865603208542,4.577139377593994,,1.0493544340133667,0.0
166,MetaDrive-test-conv-colab-critic,63,36.985556479083776,167018,1663,2645.7869544029236,5.006070613861084,,1.9188307523727417,0.0
167,MetaDrive-test-conv-colab-critic,63,39.97947210005784,168068,1676,2663.6562707424164,3.190347671508789,,8.259748458862305,0.0
168,MetaDrive-test-conv-colab-critic,63,44.210946328682304,169083,1688,2680.791936635971,3.79870343208313,-3.998178482055664,2.080674171447754,0.0
169,MetaDrive-test-conv-colab-critic,63,46.36944323761143,170035,1700,2697.1805291175842,4.8961310386657715,-5.014374732971191,1.7686744928359985,0.0
170,MetaDrive-test-conv-colab-critic,62,48.86682847188724,171059,1711,2715.326451778412,5.007047653198242,-5.42680549621582,4.592345237731934,0.0
171,MetaDrive-test-conv-colab-critic,62,50.2234578666891,172078,1724,2733.517504453659,4.02907657623291,,1.8134448528289795,0.0
172,MetaDrive-test-conv-colab-critic,62,52.96091644948768,173002,1735,2748.938015937805,4.9285383224487305,,1.7439813613891602,0.0
173,MetaDrive-test-conv-colab-critic,62,57.30030726089955,174039,1746,2766.7246882915497,3.648266315460205,-3.732703447341919,2.2298049926757812,0.0
174,MetaDrive-test-conv-colab-critic,62,58.565855512676805,175026,1757,2783.66761803627,4.441070079803467,,8.060571670532227,0.0
175,MetaDrive-test-conv-colab-critic,62,58.51570160421988,176054,1770,2802.1447381973267,4.769087791442871,,3.08306884765625,0.0
176,MetaDrive-test-conv-colab-critic,62,57.32143367996398,177042,1783,2818.885989189148,5.630634307861328,,5.193484306335449,0.0
177,MetaDrive-test-conv-colab-critic,62,54.52630228597743,178039,1798,2836.6759231090546,4.8805975914001465,-5.1330485343933105,2.802426815032959,0.0
178,MetaDrive-test-conv-colab-critic,62,54.620312808456944,179058,1809,2853.451074361801,5.579682350158691,,1.4411611557006836,0.0
179,MetaDrive-test-conv-colab-critic,62,55.264313660826346,180011,1820,2869.1839892864227,6.809011459350586,-7.148856163024902,3.8660783767700195,0.0
180,MetaDrive-test-conv-colab-critic,62,56.976124293734614,181108,1832,2888.4461011886597,5.01077938079834,,5.202402591705322,0.0
181,MetaDrive-test-conv-colab-critic,62,55.08558872972381,182017,1843,2904.799512386322,6.093771934509277,-6.4123077392578125,2.267144203186035,0.0
182,MetaDrive-test-conv-colab-critic,62,55.53295286549584,183026,1854,2922.0439813137054,6.766468048095703,,1.6085834503173828,0.0
183,MetaDrive-test-conv-colab-critic,62,55.07838241339447,184052,1866,2940.349796295166,5.849922180175781,,2.480945110321045,0.0
184,MetaDrive-test-conv-colab-critic,62,58.72679282818198,185066,1876,2958.215836286545,6.814796447753906,,2.3972673416137695,0.0
185,MetaDrive-test-conv-colab-critic,62,60.5994458524791,186021,1886,2975.005423307419,7.462743759155273,-7.727851867675781,2.328078269958496,0.0
186,MetaDrive-test-conv-colab-critic,62,63.845205583669916,187005,1897,2992.642726421356,7.634104251861572,-8.091927528381348,2.232966423034668,0.0
187,MetaDrive-test-conv-colab-critic,62,64.12553958608846,188007,1907,3010.4186832904816,8.314668655395508,-8.180012702941895,3.7252893447875977,0.0
188,MetaDrive-test-conv-colab-critic,62,66.08287293947512,189096,1918,3029.427558898926,7.868946552276611,,3.8291726112365723,0.0
189,MetaDrive-test-conv-colab-critic,62,65.93889858922233,190041,1928,3045.532589673996,8.114763259887695,-8.17337417602539,2.4471569061279297,0.0
190,MetaDrive-test-conv-colab-critic,62,66.96517957367517,191057,1939,3062.2765653133392,8.844440460205078,-8.981926918029785,5.233794212341309,0.0
191,MetaDrive-test-conv-colab-critic,62,67.61255271964774,192003,1949,3077.915526151657,8.309965133666992,-8.53206729888916,9.843307495117188,0.0
192,MetaDrive-test-conv-colab-critic,62,68.47932322485796,193003,1959,3095.591732263565,9.134149551391602,-9.557496070861816,2.9656434059143066,0.0
193,MetaDrive-test-conv-colab-critic,62,68.22479502205606,194024,1970,3112.0584948062897,7.950174331665039,,1.3596047163009644,0.0
194,MetaDrive-test-conv-colab-critic,62,68.50355062029932,195028,1981,3129.0457108020782,8.782048225402832,,6.035551071166992,0.0
195,MetaDrive-test-conv-colab-critic,62,68.331647406326,196036,1992,3147.059514284134,7.003767013549805,,4.543755531311035,0.0
196,MetaDrive-test-conv-colab-critic,62,67.68691341222706,197071,2003,3166.7548472881317,10.303110122680664,-10.496992111206055,2.119112253189087,0.0
197,MetaDrive-test-conv-colab-critic,62,68.86933645175736,198057,2013,3184.7852187156677,9.037300109863281,-9.507497787475586,12.922353744506836,0.0
198,MetaDrive-test-conv-colab-critic,62,68.72364870739416,199040,2022,3202.36722779274,9.596453666687012,,2.282886505126953,0.0
199,MetaDrive-test-conv-colab-critic,62,70.49844060431778,200082,2032,3219.9571647644043,8.558269500732422,,1.6378252506256104,0.0
200,MetaDrive-test-conv-colab-critic,62,71.87264139765378,201042,2041,3236.970670938492,8.151233673095703,,3.877657413482666,0.0
201,MetaDrive-test-conv-colab-critic,62,72.60118382577559,202038,2051,3254.2931921482086,8.46347713470459,,2.4204578399658203,0.0
202,MetaDrive-test-conv-colab-critic,62,71.90477650808936,203023,2061,3271.979428768158,11.39915657043457,-11.256583213806152,3.516511917114258,0.0
203,MetaDrive-test-conv-colab-critic,62,73.81078326831931,204035,2070,3290.278293609619,9.981643676757812,-10.074034690856934,3.0951781272888184,0.0
204,MetaDrive-test-conv-colab-critic,61,73.9334314752892,205045,2081,3308.1316227912903,11.006051063537598,-11.23294448852539,2.351987600326538,0.0
205,MetaDrive-test-conv-colab-critic,61,75.67309534313753,206077,2092,3325.558408975601,10.925260543823242,-11.586551666259766,12.705204010009766,0.0
206,MetaDrive-test-conv-colab-critic,61,76.18927793860114,207037,2102,3341.1059505939484,12.132039070129395,-12.195934295654297,1.678727149963379,0.0
207,MetaDrive-test-conv-colab-critic,61,75.09682168590044,208075,2113,3358.57719540596,12.749534606933594,-13.245211601257324,12.396565437316895,0.0
208,MetaDrive-test-conv-colab-critic,61,71.64530870727863,209040,2124,3376.3881096839905,14.581012725830078,,1.9918971061706543,0.0
209,MetaDrive-test-conv-colab-critic,61,71.42507336993046,210093,2134,3395.6807980537415,12.6739501953125,-12.919092178344727,1.7610247135162354,0.0
210,MetaDrive-test-conv-colab-critic,61,70.94542288074274,211038,2143,3412.1014862060547,12.846303939819336,,2.0604257583618164,0.0
211,MetaDrive-test-conv-colab-critic,61,72.73114891855836,212063,2152,3430.784457921982,10.860885620117188,-11.644582748413086,12.656362533569336,0.0
212,MetaDrive-test-conv-colab-critic,61,71.64889449636051,213101,2163,3448.4421648979187,12.493337631225586,-12.97335433959961,17.6676025390625,0.0
213,MetaDrive-test-conv-colab-critic,61,72.74740835576767,214149,2172,3467.2865767478943,13.372604370117188,-13.598052978515625,2.7640299797058105,0.0
214,MetaDrive-test-conv-colab-critic,61,72.03838916744438,215053,2182,3482.781266450882,12.667555809020996,-12.599523544311523,2.354830503463745,0.0
215,MetaDrive-test-conv-colab-critic,61,72.20379194933415,216032,2191,3499.4653170108795,12.884567260742188,,2.56921124458313,0.0
216,MetaDrive-test-conv-colab-critic,61,71.5607839290247,217026,2202,3516.3716180324554,12.559041976928711,,15.225631713867188,0.0
217,MetaDrive-test-conv-colab-critic,61,72.58507827719185,218020,2211,3535.4133718013763,10.584098815917969,,3.53773832321167,0.0
218,MetaDrive-test-conv-colab-critic,61,74.26354003832579,219016,2220,3553.179477453232,12.90410041809082,,6.745612621307373,0.0
219,MetaDrive-test-conv-colab-critic,61,74.62398539715562,220033,2230,3570.165822505951,17.178417205810547,-17.531719207763672,6.316572189331055,0.0
220,MetaDrive-test-conv-colab-critic,61,73.35905175392972,221019,2240,3587.069402694702,13.909486770629883,-14.250864028930664,2.6662654876708984,0.0
221,MetaDrive-test-conv-colab-critic,61,72.48882497908374,222061,2251,3605.150959968567,15.924179077148438,-16.512042999267578,3.692458152770996,0.0
222,MetaDrive-test-conv-colab-critic,61,73.54139254401662,223074,2260,3623.1853992938995,16.869319915771484,,17.316518783569336,0.0
223,MetaDrive-test-conv-colab-critic,61,73.33459715873053,224010,2269,3639.6015026569366,13.203431129455566,,3.308612108230591,0.0
224,MetaDrive-test-conv-colab-critic,61,72.87015134234358,225027,2279,3657.352735042572,16.40423583984375,-16.729320526123047,2.3093276023864746,0.0
225,MetaDrive-test-conv-colab-critic,61,73.04477759484598,226022,2289,3674.8451538085938,16.109237670898438,,3.835855007171631,0.0
226,MetaDrive-test-conv-colab-critic,61,75.01642219353303,227097,2297,3693.975196123123,17.96103286743164,-18.180015563964844,5.238486289978027,0.0
227,MetaDrive-test-conv-colab-critic,61,77.55753647296072,228098,2306,3711.830738067627,13.63062572479248,,3.8273651599884033,0.0
228,MetaDrive-test-conv-colab-critic,61,76.40088916101786,229097,2315,3729.867420434952,16.965959548950195,-17.510791778564453,3.3737356662750244,0.0
229,MetaDrive-test-conv-colab-critic,61,75.65504555609043,230033,2325,3745.609960079193,16.79128074645996,-17.29034423828125,2.5067083835601807,0.0
230,MetaDrive-test-conv-colab-critic,61,75.61078466890555,231095,2335,3763.9088790416718,15.91427993774414,-16.024024963378906,2.4261627197265625,0.0
231,MetaDrive-test-conv-colab-critic,61,76.95720647310695,232044,2344,3780.2590425014496,15.463432312011719,,1.3991334438323975,0.0
232,MetaDrive-test-conv-colab-critic,61,77.61422287802041,233119,2353,3799.858628511429,15.502184867858887,-15.962994575500488,3.6168127059936523,0.0
233,MetaDrive-test-conv-colab-critic,61,75.9722991840278,234028,2363,3815.292300224304,16.757568359375,,9.461404800415039,0.0
234,MetaDrive-test-conv-colab-critic,61,75.61698118300018,235038,2372,3832.619007587433,17.695716857910156,,5.086772441864014,0.0
235,MetaDrive-test-conv-colab-critic,61,77.08146574839591,236005,2380,3849.756387233734,15.708820343017578,-16.709585189819336,15.743515968322754,0.0
236,MetaDrive-test-conv-colab-critic,61,77.94330191419107,237019,2389,3866.8606717586517,14.340635299682617,-15.058652877807617,27.864864349365234,0.0
237,MetaDrive-test-conv-colab-critic,61,75.96653084481906,238133,2400,3885.712965965271,17.923686981201172,-18.235225677490234,5.797292232513428,0.0
238,MetaDrive-test-conv-colab-critic,61,73.60533256132724,239102,2410,3902.187733411789,16.543176651000977,,3.7449731826782227,0.0
239,MetaDrive-test-conv-colab-critic,61,74.86583309646575,240058,2419,3917.889970779419,17.899044036865234,,2.391051769256592,0.0
240,MetaDrive-test-conv-colab-critic,61,75.3528658235768,241014,2428,3934.31672334671,18.90105628967285,,4.204512596130371,0.0
241,MetaDrive-test-conv-colab-critic,61,76.29491370269682,242130,2438,3954.882465362549,17.33101463317871,,2.5395455360412598,0.0
242,MetaDrive-test-conv-colab-critic,61,73.16283127856431,243051,2449,3970.928424358368,18.52888298034668,-18.961843490600586,2.761784076690674,0.0
243,MetaDrive-test-conv-colab-critic,61,73.40895214687644,244064,2459,3988.0596516132355,17.307498931884766,,4.381868362426758,0.0
244,MetaDrive-test-conv-colab-critic,61,74.21716789752219,245036,2469,4005.4368760585785,17.135896682739258,,1.8897929191589355,0.0
245,MetaDrive-test-conv-colab-critic,61,75.93604828631271,246095,2476,4024.139104604721,16.170419692993164,-16.747928619384766,4.810847282409668,0.0
246,MetaDrive-test-conv-colab-critic,61,73.73406612273263,247023,2485,4039.7042722702026,16.30341339111328,-16.810943603515625,9.928525924682617,0.0
247,MetaDrive-test-conv-colab-critic,61,74.44150508918221,248047,2493,4058.744382381439,16.497344970703125,-17.213314056396484,8.442035675048828,0.0
248,MetaDrive-test-conv-colab-critic,61,74.30857776662822,249079,2503,4076.931223630905,17.62358283996582,-18.235761642456055,3.021890640258789,0.0
249,MetaDrive-test-conv-colab-critic,61,75.1743399296763,250016,2512,4093.550463438034,15.216081619262695,,3.2397096157073975,0.0
250,MetaDrive-test-conv-colab-critic,61,73.99398755378975,251072,2523,4110.805607795715,17.995555877685547,,3.5214192867279053,0.0
251,MetaDrive-test-conv-colab-critic,61,72.30578286796631,252068,2533,4128.306041240692,16.259801864624023,,9.599262237548828,0.0
252,MetaDrive-test-conv-colab-critic,61,75.11847666388704,253019,2541,4144.121677160263,17.31024169921875,-17.33916473388672,4.341979026794434,0.0
253,MetaDrive-test-conv-colab-critic,61,76.6907413722049,254075,2551,4161.387845993042,16.936656951904297,-17.121837615966797,2.4508204460144043,0.0
254,MetaDrive-test-conv-colab-critic,61,76.66715941083507,255084,2561,4178.661725997925,18.007251739501953,,2.9967122077941895,0.0
255,MetaDrive-test-conv-colab-critic,61,80.26923314826968,256120,2569,4197.048264741898,18.128206253051758,,3.0216917991638184,0.0
256,MetaDrive-test-conv-colab-critic,61,78.57206892643569,257113,2578,4214.488340854645,19.238018035888672,-19.58932113647461,2.2464752197265625,0.0
257,MetaDrive-test-conv-colab-critic,61,80.4504440578744,258149,2587,4231.697400093079,18.94227409362793,-19.39368438720703,4.477568626403809,0.0
258,MetaDrive-test-conv-colab-critic,60,79.21643297470605,259098,2596,4248.211697816849,18.880863189697266,,3.2536721229553223,0.0
259,MetaDrive-test-conv-colab-critic,60,81.16852444989749,260022,2604,4264.545073509216,16.623077392578125,,10.568822860717773,0.0
260,MetaDrive-test-conv-colab-critic,60,82.23210356487985,261055,2614,4282.535615444183,18.794687271118164,-19.00516128540039,1.8493683338165283,0.0
261,MetaDrive-test-conv-colab-critic,60,83.80080777797576,262052,2623,4300.5991632938385,18.820613861083984,,2.062260866165161,0.0
262,MetaDrive-test-conv-colab-critic,60,85.84202666137736,263008,2631,4317.682179450989,18.541229248046875,,2.089083671569824,0.0
263,MetaDrive-test-conv-colab-critic,60,86.54606101960698,264118,2639,4337.695525169373,17.58609390258789,,4.604781150817871,0.0
264,MetaDrive-test-conv-colab-critic,60,86.48305318904762,265017,2647,4353.877831697464,19.521345138549805,-20.1473388671875,30.11130142211914,0.0
265,MetaDrive-test-conv-colab-critic,60,88.96438823637594,266028,2656,4372.499364376068,18.713998794555664,,3.7788431644439697,0.0
266,MetaDrive-test-conv-colab-critic,60,86.41296738183773,267075,2667,4390.907664775848,18.23617172241211,-19.3039608001709,6.923274040222168,0.0
267,MetaDrive-test-conv-colab-critic,60,85.160850929462,268079,2677,4409.208663702011,19.679725646972656,-20.118671417236328,6.10140323638916,0.0
268,MetaDrive-test-conv-colab-critic,60,86.41859877171993,269007,2685,4425.349086046219,19.14959716796875,-19.701847076416016,3.0288538932800293,0.0
269,MetaDrive-test-conv-colab-critic,60,86.29827445138562,270131,2694,4445.100912094116,17.986835479736328,-18.26110076904297,4.52215576171875,0.0
270,MetaDrive-test-conv-colab-critic,60,85.74472370683122,271001,2701,4461.627326250076,19.09040069580078,-19.49578857421875,3.9152259826660156,0.0
271,MetaDrive-test-conv-colab-critic,60,88.39495729182616,272020,2710,4479.87712931633,18.61205291748047,,3.835923194885254,0.0
272,MetaDrive-test-conv-colab-critic,60,87.76437905012497,273030,2719,4497.328214883804,18.287752151489258,,2.79864239692688,0.0
273,MetaDrive-test-conv-colab-critic,60,85.6877518812888,274015,2729,4514.924483060837,19.425621032714844,-19.916475296020508,2.6039552688598633,0.0
274,MetaDrive-test-conv-colab-critic,60,82.96278385492748,275033,2739,4532.080007314682,18.839950561523438,-19.220935821533203,4.387401580810547,0.0
275,MetaDrive-test-conv-colab-critic,60,81.95895118124052,276059,2749,4550.228803634644,19.38928985595703,-19.760265350341797,2.9372644424438477,0.0
276,MetaDrive-test-conv-colab-critic,60,80.88908280032308,277068,2758,4568.503983974457,19.01035499572754,,4.108491897583008,0.0
277,MetaDrive-test-conv-colab-critic,60,82.6672244037374,278043,2766,4585.909199953079,17.722578048706055,-18.12696075439453,2.3452694416046143,0.0
278,MetaDrive-test-conv-colab-critic,60,85.00782589052163,279091,2775,4604.221900939941,19.639053344726562,-19.98820686340332,4.0730814933776855,0.0
279,MetaDrive-test-conv-colab-critic,60,86.95659274113719,280110,2784,4622.105256795883,18.16449546813965,,3.758859634399414,0.0
280,MetaDrive-test-conv-colab-critic,60,86.8785209864243,281012,2792,4638.285209178925,20.50990867614746,,10.2484130859375,0.0
281,MetaDrive-test-conv-colab-critic,60,86.12229799857451,282010,2801,4656.364858388901,18.60169219970703,,20.748531341552734,0.0
282,MetaDrive-test-conv-colab-critic,60,86.28229465222985,283002,2810,4673.388188123703,20.112476348876953,,11.524767875671387,0.0
283,MetaDrive-test-conv-colab-critic,60,86.34554872771554,284016,2819,4691.002493143082,20.38613510131836,,4.956536293029785,0.0
284,MetaDrive-test-conv-colab-critic,60,88.24676029364413,285146,2829,4712.307337760925,19.12061309814453,,2.9743547439575195,0.0
285,MetaDrive-test-conv-colab-critic,60,89.20812867232003,286059,2837,4728.683249950409,18.77737808227539,-19.044872283935547,28.644580841064453,0.0
286,MetaDrive-test-conv-colab-critic,60,91.67085126248605,287103,2846,4746.689984083176,18.84320831298828,-19.282451629638672,3.459801435470581,0.0
287,MetaDrive-test-conv-colab-critic,60,91.31536411868623,288106,2856,4764.641113996506,17.03435516357422,,4.372890949249268,0.0
288,MetaDrive-test-conv-colab-critic,60,89.04023344318928,289010,2865,4780.3569939136505,21.393718719482422,,2.2367043495178223,0.0
289,MetaDrive-test-conv-colab-critic,60,89.4088053563965,290110,2874,4798.8649344444275,21.129165649414062,,23.90203285217285,0.0
290,MetaDrive-test-conv-colab-critic,60,89.1055623919014,291075,2882,4816.335616827011,19.64206314086914,-19.99530601501465,3.700654983520508,0.0
291,MetaDrive-test-conv-colab-critic,60,90.00406113949423,292161,2891,4836.2269814014435,20.297496795654297,-21.180696487426758,17.134700775146484,0.0
292,MetaDrive-test-conv-colab-critic,60,88.8268319744063,293035,2899,4851.716037750244,21.00518035888672,-21.432889938354492,1.5079667568206787,0.0
293,MetaDrive-test-conv-colab-critic,60,87.07582389625952,294016,2909,4869.038264513016,20.124168395996094,,15.463804244995117,0.0
294,MetaDrive-test-conv-colab-critic,60,85.98275095443866,295054,2919,4887.440211057663,19.833171844482422,,3.621889591217041,0.0
295,MetaDrive-test-conv-colab-critic,60,83.87816784047932,296013,2929,4905.546990871429,21.664417266845703,-21.804542541503906,9.20486831665039,0.0
296,MetaDrive-test-conv-colab-critic,60,84.17109466652579,297051,2938,4923.395771026611,19.37761688232422,-19.81730842590332,1.9498300552368164,0.0
297,MetaDrive-test-conv-colab-critic,60,83.12555049095916,298066,2947,4940.598074436188,20.03207778930664,,3.6107354164123535,0.0
298,MetaDrive-test-conv-colab-critic,60,84.11514912347478,299046,2956,4957.589955806732,18.27604103088379,,1.8790276050567627,0.0
299,MetaDrive-test-conv-colab-critic,60,86.35334498545686,300034,2965,4974.379553079605,20.95673179626465,,3.1586754322052,0.0
300,MetaDrive-test-conv-colab-critic,60,82.88625815461177,301056,2975,4992.237827301025,18.946727752685547,,9.487662315368652,0.0
301,MetaDrive-test-conv-colab-critic,60,81.79717433178774,302032,2984,5008.993999242783,19.125003814697266,,7.2899580001831055,0.0
302,MetaDrive-test-conv-colab-critic,60,78.61770732954929,303024,2994,5024.829967498779,19.37631607055664,,2.318934917449951,0.0
303,MetaDrive-test-conv-colab-critic,60,81.53413708739821,304106,3003,5045.235646486282,19.95831871032715,,2.19883394241333,0.0
304,MetaDrive-test-conv-colab-critic,60,82.8785969901888,305078,3012,5061.900089740753,20.05377960205078,,2.367469072341919,0.0
305,MetaDrive-test-conv-colab-critic,60,83.707055951145,306005,3021,5077.668781995773,20.35257339477539,-21.03868293762207,4.826316833496094,0.0
306,MetaDrive-test-conv-colab-critic,60,84.31278250507475,307003,3031,5095.663243770599,21.711618423461914,-22.195293426513672,7.271512031555176,0.0
307,MetaDrive-test-conv-colab-critic,60,81.09630152370312,308091,3042,5114.657023429871,20.174755096435547,-20.260408401489258,2.0083014965057373,0.0
308,MetaDrive-test-conv-colab-critic,60,83.3712460088799,309120,3051,5132.930015087128,20.75635528564453,,12.979913711547852,0.0
309,MetaDrive-test-conv-colab-critic,60,84.16095925999039,310053,3059,5149.159146785736,22.38694953918457,-22.62961196899414,4.797375679016113,0.0
310,MetaDrive-test-conv-colab-critic,60,83.68932279063937,311059,3069,5166.860456466675,19.44873046875,-19.54220199584961,7.413044452667236,0.0
311,MetaDrive-test-conv-colab-critic,60,82.44521119413334,312047,3080,5184.021886110306,20.16858673095703,-20.41541862487793,2.6177167892456055,0.0
312,MetaDrive-test-conv-colab-critic,60,83.15287847837564,313036,3089,5200.914066076279,19.618505477905273,,8.389191627502441,0.0
313,MetaDrive-test-conv-colab-critic,60,82.90992354076688,314087,3099,5218.552313566208,19.718229293823242,-20.04560089111328,8.642351150512695,0.0
314,MetaDrive-test-conv-colab-critic,60,81.96032337961877,315020,3108,5235.278665304184,23.593833923339844,,6.799874305725098,0.0
315,MetaDrive-test-conv-colab-critic,60,83.48449717113482,316030,3117,5251.88799905777,19.730871200561523,,2.995850086212158,0.0
316,MetaDrive-test-conv-colab-critic,60,83.7067715936729,317078,3127,5270.071978092194,19.55416488647461,,2.5328736305236816,0.0
317,MetaDrive-test-conv-colab-critic,60,84.17799433403776,318091,3137,5287.6579740047455,21.564119338989258,-21.649620056152344,4.3591766357421875,0.0
318,MetaDrive-test-conv-colab-critic,60,83.48163660388074,319107,3146,5306.231590509415,21.761001586914062,-21.864309310913086,3.225297212600708,0.0
319,MetaDrive-test-conv-colab-critic,60,82.60890353349076,320025,3155,5321.852988481522,21.79770278930664,-21.78622817993164,3.135427951812744,0.0
320,MetaDrive-test-conv-colab-critic,60,81.31980929047307,321063,3165,5339.823997974396,21.38193702697754,-21.812820434570312,3.9032392501831055,0.0
321,MetaDrive-test-conv-colab-critic,60,81.45157915656961,322007,3175,5355.742713212967,21.78577423095703,-22.19057846069336,3.7341666221618652,0.0
322,MetaDrive-test-conv-colab-critic,60,82.14179156607923,323029,3184,5374.430497407913,20.607498168945312,-20.60433578491211,11.812259674072266,0.0
323,MetaDrive-test-conv-colab-critic,60,83.64683099396632,324073,3193,5392.370733261108,20.736236572265625,-21.570343017578125,21.505910873413086,0.0
324,MetaDrive-test-conv-colab-critic,60,83.20930101580038,325088,3202,5409.224060058594,19.78364372253418,,3.5012075901031494,0.0
325,MetaDrive-test-conv-colab-critic,60,84.44425138290673,326049,3211,5426.534622430801,22.013744354248047,-22.505239486694336,4.390140533447266,0.0
326,MetaDrive-test-conv-colab-critic,60,84.73865976259138,327044,3219,5444.042065143585,19.38037872314453,,3.570460319519043,0.0
327,MetaDrive-test-conv-colab-critic,60,85.8254755030632,328013,3228,5461.166744470596,22.85342025756836,-23.239416122436523,2.8334169387817383,0.0
328,MetaDrive-test-conv-colab-critic,60,87.83908132354985,329019,3236,5479.558409690857,21.20944595336914,-21.588714599609375,5.349003791809082,0.0
329,MetaDrive-test-conv-colab-critic,60,87.01870851898043,330050,3246,5498.568441390991,20.81978988647461,,6.393494129180908,0.0
330,MetaDrive-test-conv-colab-critic,60,87.2996585047963,331008,3255,5515.047021389008,22.25176239013672,,11.783758163452148,0.0
331,MetaDrive-test-conv-colab-critic,60,87.48259068210987,332021,3265,5533.07833647728,21.70598602294922,-22.220579147338867,2.5695414543151855,0.0
332,MetaDrive-test-conv-colab-critic,60,89.38514386918327,333006,3274,5550.001433134079,19.035898208618164,,2.4779253005981445,0.0
333,MetaDrive-test-conv-colab-critic,59,91.17791792079282,334039,3283,5568.806395769119,21.85775375366211,-22.07010841369629,6.162731647491455,0.01
334,MetaDrive-test-conv-colab-critic,59,89.97114794362967,335102,3293,5588.268734455109,22.52887725830078,,4.1910600662231445,0.01
335,MetaDrive-test-conv-colab-critic,59,90.72485313535239,336071,3301,5606.275981664658,24.942272186279297,-25.54142951965332,3.192004919052124,0.01
336,MetaDrive-test-conv-colab-critic,59,89.88025405335246,337067,3311,5623.144795894623,18.914409637451172,-19.218786239624023,9.684089660644531,0.01
337,MetaDrive-test-conv-colab-critic,59,87.30820520650715,338042,3321,5640.083820104599,21.609718322753906,,5.630570888519287,0.01
338,MetaDrive-test-conv-colab-critic,59,84.73299041894187,339007,3331,5656.897278785706,22.317094802856445,-23.10606575012207,2.5807862281799316,0.01
339,MetaDrive-test-conv-colab-critic,59,83.90686394785969,340045,3341,5674.816697359085,22.229175567626953,-22.691341400146484,20.675045013427734,0.01
340,MetaDrive-test-conv-colab-critic,59,84.43457406798879,341027,3350,5691.760837316513,21.242412567138672,-21.768165588378906,2.723465919494629,0.01
341,MetaDrive-test-conv-colab-critic,59,84.61099620633742,342044,3360,5710.1252784729,21.58895492553711,,6.092140197753906,0.01
342,MetaDrive-test-conv-colab-critic,59,85.46747631172764,343033,3369,5728.5557589530945,18.427932739257812,-18.94420623779297,1.8758649826049805,0.01
343,MetaDrive-test-conv-colab-critic,59,81.74177776450618,344083,3379,5746.848687648773,23.57184600830078,-23.869152069091797,2.348942279815674,0.0
344,MetaDrive-test-conv-colab-critic,59,80.97501179242302,345112,3389,5764.649849891663,22.522865295410156,,3.065678358078003,0.0
345,MetaDrive-test-conv-colab-critic,59,82.35543199215824,346006,3396,5780.536098003387,22.954238891601562,,2.3039653301239014,0.01
346,MetaDrive-test-conv-colab-critic,59,82.89983786746478,347098,3406,5799.134011268616,22.40106201171875,,3.0328125953674316,0.02
347,MetaDrive-test-conv-colab-critic,59,86.30933441827047,348140,3414,5817.246361255646,22.554443359375,,2.767961025238037,0.02
348,MetaDrive-test-conv-colab-critic,59,87.6573991833469,349096,3423,5833.889316320419,22.285606384277344,,2.426492214202881,0.02
349,MetaDrive-test-conv-colab-critic,59,89.40191568405382,350030,3431,5851.096416473389,18.595895767211914,,6.525144577026367,0.02
350,MetaDrive-test-conv-colab-critic,59,89.2154604217447,351058,3440,5870.106447219849,22.754150390625,,12.080183029174805,0.02
351,MetaDrive-test-conv-colab-critic,59,90.54285816732623,352015,3448,5886.660066604614,21.32805061340332,-21.534255981445312,3.1073670387268066,0.02
352,MetaDrive-test-conv-colab-critic,59,92.02138275824981,353003,3457,5903.513088941574,21.400131225585938,-21.687822341918945,3.6186094284057617,0.02
353,MetaDrive-test-conv-colab-critic,59,93.07873713656612,354029,3466,5922.096543550491,22.06078338623047,-22.448871612548828,1.5059428215026855,0.02
354,MetaDrive-test-conv-colab-critic,59,94.98953815072613,355006,3474,5940.31821513176,22.88495635986328,,10.033257484436035,0.02
355,MetaDrive-test-conv-colab-critic,59,95.92089508323733,356027,3483,5958.2758157253265,22.472543716430664,-22.2215518951416,2.7520415782928467,0.02
356,MetaDrive-test-conv-colab-critic,59,93.04258042328816,357110,3494,5977.724778413773,20.84482765197754,,5.57420539855957,0.01
357,MetaDrive-test-conv-colab-critic,59,92.44775647608982,358065,3503,5994.191031694412,24.18054962158203,-24.428693771362305,6.62708854675293,0.0
358,MetaDrive-test-conv-colab-critic,59,91.78641063562267,359030,3511,6010.966901540756,23.864547729492188,,2.343533515930176,0.0
359,MetaDrive-test-conv-colab-critic,59,92.0858643753595,360018,3519,6028.797031164169,25.52819061279297,,2.444612741470337,0.0
360,MetaDrive-test-conv-colab-critic,59,90.9022244917528,361002,3528,6045.216646194458,20.177474975585938,,12.64638900756836,0.0
361,MetaDrive-test-conv-colab-critic,59,93.99641422651071,362108,3537,6065.046996831894,22.575305938720703,,5.179808616638184,0.0
362,MetaDrive-test-conv-colab-critic,59,94.35606213817448,363082,3545,6082.161777019501,22.234615325927734,,3.0504345893859863,0.0
363,MetaDrive-test-conv-colab-critic,59,95.29093758636431,364035,3552,6099.805104017258,23.95561981201172,-24.703399658203125,12.798626899719238,0.0
364,MetaDrive-test-conv-colab-critic,59,94.85277329543453,365026,3561,6116.8044991493225,21.253963470458984,,4.578729629516602,0.0
365,MetaDrive-test-conv-colab-critic,59,93.16063688224665,366030,3571,6134.102908372879,22.084163665771484,,3.19612717628479,0.0
366,MetaDrive-test-conv-colab-critic,59,93.35113981440072,367051,3580,6152.39942741394,23.987228393554688,-24.111873626708984,2.229454278945923,0.0
367,MetaDrive-test-conv-colab-critic,59,95.2512328124582,368095,3589,6170.25670838356,24.591466903686523,-25.026308059692383,4.549217700958252,0.0
368,MetaDrive-test-conv-colab-critic,59,92.89837253963218,369029,3599,6186.073934316635,24.163965225219727,-24.653709411621094,2.8372573852539062,0.0
369,MetaDrive-test-conv-colab-critic,59,95.50248805347043,370103,3608,6204.519928216934,22.155132293701172,-22.231212615966797,4.146810054779053,0.0
370,MetaDrive-test-conv-colab-critic,59,95.95509556701049,371121,3617,6221.408446073532,26.058515548706055,-26.245634078979492,3.3958334922790527,0.0
371,MetaDrive-test-conv-colab-critic,59,96.85568803049144,372111,3625,6238.004698753357,23.256683349609375,-24.004959106445312,3.3274247646331787,0.0
372,MetaDrive-test-conv-colab-critic,59,94.12500980132334,373005,3634,6252.582111597061,21.739635467529297,-22.527496337890625,3.9841387271881104,0.0
373,MetaDrive-test-conv-colab-critic,59,92.93134698848476,374088,3643,6271.639348983765,19.75419807434082,,3.854124069213867,0.0
374,MetaDrive-test-conv-colab-critic,59,91.69256078940296,375073,3651,6288.744664430618,23.633533477783203,-23.86853790283203,3.1893672943115234,0.0
375,MetaDrive-test-conv-colab-critic,59,91.47649641032045,376115,3660,6306.93546128273,21.643165588378906,-21.73674201965332,3.8327343463897705,0.0
376,MetaDrive-test-conv-colab-critic,59,93.6348912618073,377012,3668,6322.938956737518,19.88677978515625,,8.86789321899414,0.0
377,MetaDrive-test-conv-colab-critic,59,92.28316287729008,378040,3678,6341.803931236267,20.54621124267578,,1.933674931526184,0.0
378,MetaDrive-test-conv-colab-critic,59,92.2455643364056,379041,3687,6357.947824954987,20.18393325805664,-20.904104232788086,6.6272172927856445,0.0
379,MetaDrive-test-conv-colab-critic,59,93.01682063376919,380055,3696,6376.108248233795,23.544219970703125,-24.19605827331543,2.4014718532562256,0.0
380,MetaDrive-test-conv-colab-critic,59,92.2759425440087,381059,3704,6393.355695962906,21.492433547973633,-21.994373321533203,1.8266022205352783,0.0
381,MetaDrive-test-conv-colab-critic,59,94.22273276942116,382039,3712,6410.11143040657,21.567630767822266,-22.27251625061035,5.245760917663574,0.01
382,MetaDrive-test-conv-colab-critic,59,94.3802509093775,383049,3720,6428.197137832642,20.812288284301758,-21.449596405029297,4.1812968254089355,0.01
383,MetaDrive-test-conv-colab-critic,59,95.54273563682696,384056,3728,6446.147916316986,21.937484741210938,,2.7826740741729736,0.01
384,MetaDrive-test-conv-colab-critic,59,95.94107282672493,385026,3737,6462.615513324738,21.27133560180664,,3.963470935821533,0.01
385,MetaDrive-test-conv-colab-critic,59,95.81058709567428,386114,3746,6480.957634210587,22.740985870361328,,2.6160576343536377,0.01
386,MetaDrive-test-conv-colab-critic,59,95.11052625118754,387026,3754,6498.296191215515,24.17963409423828,,3.4902310371398926,0.01
387,MetaDrive-test-conv-colab-critic,59,96.48031793621605,388016,3762,6516.289900302887,22.059494018554688,,5.620587348937988,0.01
388,MetaDrive-test-conv-colab-critic,59,96.14755541568653,389005,3771,6533.357353448868,24.988189697265625,-25.355655670166016,4.758600234985352,0.01
389,MetaDrive-test-conv-colab-critic,59,97.33415111842089,390108,3781,6553.00958442688,21.264060974121094,,12.069286346435547,0.01
390,MetaDrive-test-conv-colab-critic,59,98.80635760618453,391063,3789,6569.5163588523865,22.28896713256836,-22.847715377807617,6.334186553955078,0.01
391,MetaDrive-test-conv-colab-critic,59,97.3943893327003,392019,3797,6585.45493721962,25.261554718017578,-25.04860496520996,9.077805519104004,0.01
392,MetaDrive-test-conv-colab-critic,59,95.08596110344419,393066,3806,6603.008245229721,21.6912841796875,,2.2092065811157227,0.0
393,MetaDrive-test-conv-colab-critic,59,93.68628027092825,394038,3815,6619.3811712265015,24.277050018310547,,3.8570172786712646,0.0
394,MetaDrive-test-conv-colab-critic,59,95.28894787984929,395095,3823,6638.004432678223,19.816444396972656,-20.187698364257812,2.949056625366211,0.0
395,MetaDrive-test-conv-colab-critic,59,96.46937099733513,396080,3830,6656.520239830017,22.86065673828125,,3.6030821800231934,0.0
396,MetaDrive-test-conv-colab-critic,59,97.37977775420785,397050,3839,6673.776382684708,24.31429100036621,,2.559345245361328,0.0
397,MetaDrive-test-conv-colab-critic,59,97.17544861359038,398047,3848,6691.132802248001,23.06337547302246,-23.287700653076172,2.7174124717712402,0.0
398,MetaDrive-test-conv-colab-critic,59,93.76445749940905,399117,3859,6708.638277292252,21.76800537109375,-22.46780776977539,4.920161724090576,0.0
399,MetaDrive-test-conv-colab-critic,59,93.05015155250724,400020,3867,6723.64754652977,20.568925857543945,,5.666292190551758,0.0
400,MetaDrive-test-conv-colab-critic,59,93.96544061953988,401083,3877,6742.529583454132,22.334623336791992,-22.876964569091797,5.431563377380371,0.0
401,MetaDrive-test-conv-colab-critic,59,90.73717667109928,402071,3887,6758.87945151329,22.81193733215332,-22.910572052001953,4.158400535583496,0.0
402,MetaDrive-test-conv-colab-critic,59,92.02281798858115,403066,3896,6776.263887166977,23.117517471313477,,3.2565317153930664,0.0
403,MetaDrive-test-conv-colab-critic,59,91.02082036798221,404081,3905,6794.848902463913,22.990978240966797,-23.318065643310547,2.057676076889038,0.0
404,MetaDrive-test-conv-colab-critic,59,91.82356881055549,405007,3913,6811.063359737396,23.30335235595703,-23.552898406982422,4.497915744781494,0.0
405,MetaDrive-test-conv-colab-critic,59,91.33227805631832,406112,3922,6830.767946243286,19.327255249023438,,2.129345417022705,0.0
406,MetaDrive-test-conv-colab-critic,59,87.74639909817344,407043,3931,6846.344442844391,23.910320281982422,-23.37555694580078,7.002113342285156,0.0
407,MetaDrive-test-conv-colab-critic,59,90.86273459340083,408005,3938,6863.144587278366,23.654743194580078,-24.329227447509766,2.987741708755493,0.0
408,MetaDrive-test-conv-colab-critic,59,90.70919335328276,409033,3947,6881.0089700222015,23.257095336914062,-23.607988357543945,2.474675178527832,0.0
409,MetaDrive-test-conv-colab-critic,59,94.8134993855869,410058,3955,6899.167912483215,24.184589385986328,,2.671637535095215,0.0
410,MetaDrive-test-conv-colab-critic,59,97.17931510717057,411109,3963,6917.702259778976,24.51571273803711,-24.626686096191406,3.748887062072754,0.0
411,MetaDrive-test-conv-colab-critic,59,95.60675330099437,412066,3972,6935.07142329216,23.358814239501953,,4.902761459350586,0.0
412,MetaDrive-test-conv-colab-critic,59,98.3666254844344,413004,3980,6952.750292062759,24.370765686035156,,6.401378154754639,0.0
413,MetaDrive-test-conv-colab-critic,59,100.01381424034533,414070,3989,6972.137085199356,24.81332778930664,,9.085251808166504,0.0
414,MetaDrive-test-conv-colab-critic,59,100.06564708789284,415069,3998,6988.973053455353,23.41744041442871,-23.39191436767578,2.388084650039673,0.0
415,MetaDrive-test-conv-colab-critic,59,98.23166158512745,416082,4008,7006.489249706268,25.179960250854492,,2.6197385787963867,0.0
416,MetaDrive-test-conv-colab-critic,59,97.83972001277947,417038,4017,7022.256856203079,27.745502471923828,,4.449353218078613,0.0
417,MetaDrive-test-conv-colab-critic,59,96.09304429501199,418100,4027,7040.136763811111,22.297016143798828,,10.602982521057129,0.0
418,MetaDrive-test-conv-colab-critic,59,96.10812567235453,419132,4036,7057.57740855217,22.93767547607422,,24.225723266601562,0.0
419,MetaDrive-test-conv-colab-critic,59,93.7901594413806,420134,4045,7074.3332443237305,24.796680450439453,,2.833137035369873,0.0
420,MetaDrive-test-conv-colab-critic,59,90.74125450392955,421018,4054,7090.012380123138,24.434833526611328,,18.792800903320312,0.0
421,MetaDrive-test-conv-colab-critic,59,88.9413080914122,422089,4063,7109.3940970897675,26.98240089416504,-27.551546096801758,5.506862163543701,0.0
422,MetaDrive-test-conv-colab-critic,59,89.03680035467329,423041,4072,7125.23876953125,24.57470703125,-24.77674674987793,2.2524499893188477,0.0
423,MetaDrive-test-conv-colab-critic,59,90.5317882640237,424058,4080,7143.172073125839,27.195398330688477,,3.1575427055358887,0.0
424,MetaDrive-test-conv-colab-critic,59,89.24694003029752,425066,4089,7160.210619688034,25.171125411987305,,4.457146644592285,0.0
425,MetaDrive-test-conv-colab-critic,59,89.40883395931219,426036,4097,7178.214560985565,20.396514892578125,,6.375827789306641,0.0
426,MetaDrive-test-conv-colab-critic,59,89.52855847445606,427016,4106,7194.9653396606445,22.012269973754883,,26.061969757080078,0.0
427,MetaDrive-test-conv-colab-critic,59,90.18935430224877,428115,4116,7214.782631158829,22.17493438720703,-22.724227905273438,8.883540153503418,0.0
428,MetaDrive-test-conv-colab-critic,59,91.46644905508816,429042,4124,7230.588459014893,22.83145523071289,,4.491335868835449,0.0
429,MetaDrive-test-conv-colab-critic,59,94.88976781981711,430067,4131,7249.228171348572,24.36618995666504,-24.956768035888672,3.414769172668457,0.01
430,MetaDrive-test-conv-colab-critic,59,94.4471250663297,431011,4139,7265.830114603043,23.803306579589844,-24.57085609436035,9.459470748901367,0.01
431,MetaDrive-test-conv-colab-critic,59,97.24243863938916,432148,4148,7285.883096933365,23.11260986328125,,2.4945180416107178,0.01
432,MetaDrive-test-conv-colab-critic,59,100.02053063017217,433066,4155,7301.147365093231,26.012271881103516,,2.850034713745117,0.01
433,MetaDrive-test-conv-colab-critic,59,102.01907847920216,434068,4162,7318.215496778488,19.209442138671875,,3.39320707321167,0.01
434,MetaDrive-test-conv-colab-critic,59,101.15550141532361,435062,4172,7335.511067152023,25.149682998657227,,3.502258062362671,0.01
435,MetaDrive-test-conv-colab-critic,59,100.18704996592498,436004,4180,7352.88383936882,22.25410270690918,,2.5902669429779053,0.01
436,MetaDrive-test-conv-colab-critic,59,101.14564116616106,437058,4189,7370.046393156052,28.027549743652344,,2.208932638168335,0.01
437,MetaDrive-test-conv-colab-critic,59,103.80212270245822,438097,4197,7389.864098072052,23.704647064208984,-24.017375946044922,2.414578676223755,0.02
438,MetaDrive-test-conv-colab-critic,59,105.72305109956064,439093,4205,7408.42045211792,25.453500747680664,-25.65656280517578,4.552774906158447,0.02
439,MetaDrive-test-conv-colab-critic,59,106.88351288939488,440062,4213,7425.552186489105,22.773731231689453,,5.749263763427734,0.02
440,MetaDrive-test-conv-colab-critic,59,106.97562869911582,441053,4222,7443.147120714188,22.272424697875977,-22.668907165527344,5.073742866516113,0.02
441,MetaDrive-test-conv-colab-critic,59,102.99997479635576,442116,4231,7462.743508577347,22.935081481933594,,13.2373046875,0.01
442,MetaDrive-test-conv-colab-critic,59,104.8276593376947,443070,4238,7480.030514955521,24.95233154296875,,2.5654075145721436,0.01
443,MetaDrive-test-conv-colab-critic,59,104.36959857867501,444128,4247,7499.848591566086,21.466907501220703,,8.19076156616211,0.01
444,MetaDrive-test-conv-colab-critic,59,102.31972582037774,445056,4255,7515.988322496414,23.491268157958984,,15.840141296386719,0.01
445,MetaDrive-test-conv-colab-critic,59,100.85531138855613,446026,4263,7532.8339965343475,22.87037467956543,,3.7338027954101562,0.01
446,MetaDrive-test-conv-colab-critic,59,103.77158952747362,447111,4272,7550.662036180496,24.221500396728516,-24.416683197021484,3.769397258758545,0.01
447,MetaDrive-test-conv-colab-critic,59,102.1531238098724,448012,4280,7567.768337488174,24.37636947631836,,2.207580089569092,0.01
448,MetaDrive-test-conv-colab-critic,59,100.81121868858601,449009,4289,7585.095246553421,23.25273323059082,-23.919681549072266,5.871356010437012,0.01
449,MetaDrive-test-conv-colab-critic,59,97.57108567721438,450020,4298,7602.347831249237,23.46200180053711,,6.9571428298950195,0.0
450,MetaDrive-test-conv-colab-critic,59,94.76986069034781,451001,4307,7618.77467918396,22.819595336914062,-23.38134765625,4.420217037200928,0.0
451,MetaDrive-test-conv-colab-critic,59,93.71171862602147,452090,4317,7637.961678028107,23.972604751586914,,3.2786450386047363,0.0
452,MetaDrive-test-conv-colab-critic,59,94.13034985181199,453058,4325,7655.481156349182,25.013378143310547,,5.513454437255859,0.0
453,MetaDrive-test-conv-colab-critic,59,96.38780812148087,454107,4333,7674.046919822693,25.090778350830078,-25.38469696044922,2.535276174545288,0.0
454,MetaDrive-test-conv-colab-critic,59,94.79745784226536,455020,4341,7690.606993436813,23.51970100402832,,6.42811393737793,0.0
455,MetaDrive-test-conv-colab-critic,59,93.68032231286139,456009,4350,7707.239199399948,24.82355499267578,-25.13540267944336,12.480173110961914,0.0
456,MetaDrive-test-conv-colab-critic,59,96.65069944241253,457049,4357,7727.052004575729,23.801555633544922,-24.346736907958984,12.38194465637207,0.0
457,MetaDrive-test-conv-colab-critic,59,96.70609649263471,458022,4365,7743.18607878685,24.612483978271484,,2.9844632148742676,0.01
458,MetaDrive-test-conv-colab-critic,59,96.8940565604454,459095,4374,7762.086964845657,22.88047981262207,-23.025707244873047,4.278531074523926,0.01
459,MetaDrive-test-conv-colab-critic,59,98.66579495869826,460002,4381,7777.933508634567,24.183847427368164,,3.9172182083129883,0.01
460,MetaDrive-test-conv-colab-critic,59,101.2251438984471,461047,4389,7796.216325998306,25.740751266479492,-25.559036254882812,3.4132375717163086,0.01
461,MetaDrive-test-conv-colab-critic,59,100.65899807104101,462004,4398,7812.50847029686,26.76031494140625,,3.6096251010894775,0.01
462,MetaDrive-test-conv-colab-critic,59,103.34590571507961,463059,4406,7832.083528757095,25.620513916015625,-25.970378875732422,3.2115702629089355,0.01
463,MetaDrive-test-conv-colab-critic,59,105.5026605311858,464007,4413,7849.969607830048,25.173954010009766,-25.58843994140625,6.752642631530762,0.01
464,MetaDrive-test-conv-colab-critic,59,106.9098939680285,465039,4421,7866.920101642609,25.10700035095215,-24.998083114624023,3.2569193840026855,0.02
465,MetaDrive-test-conv-colab-critic,59,109.46082122820718,466027,4428,7885.148550748825,25.301441192626953,-26.02069091796875,17.64425277709961,0.02
466,MetaDrive-test-conv-colab-critic,59,108.91786582394589,467082,4436,7903.768482923508,24.78658676147461,,3.7076611518859863,0.02
467,MetaDrive-test-conv-colab-critic,59,108.17818624382302,468118,4445,7922.362858057022,24.78145408630371,,3.0752077102661133,0.02
468,MetaDrive-test-conv-colab-critic,59,106.66143870426333,469121,4454,7939.214825630188,22.636661529541016,-22.998294830322266,3.857719898223877,0.02
469,MetaDrive-test-conv-colab-critic,59,103.49488879125539,470050,4462,7955.653687000275,20.163288116455078,,20.810237884521484,0.01
470,MetaDrive-test-conv-colab-critic,59,103.98847463494836,471091,4471,7974.328039646149,24.447572708129883,-24.88983154296875,12.853650093078613,0.01
471,MetaDrive-test-conv-colab-critic,59,103.3246844607175,472019,4478,7991.192923545837,27.22435760498047,-27.46738624572754,3.969329357147217,0.01
472,MetaDrive-test-conv-colab-critic,59,104.53511820988615,473036,4484,8009.798224687576,22.926246643066406,,2.4046456813812256,0.01
473,MetaDrive-test-conv-colab-critic,59,104.90604793385512,474063,4493,8026.805346250534,26.332969665527344,-26.910663604736328,7.594341278076172,0.01
474,MetaDrive-test-conv-colab-critic,59,104.93716652022066,475184,4502,8046.099071025848,21.7913818359375,,4.773797988891602,0.02
475,MetaDrive-test-conv-colab-critic,59,103.10234837194137,476063,4509,8062.5810804367065,27.008832931518555,-27.278602600097656,2.684450626373291,0.02
476,MetaDrive-test-conv-colab-critic,59,104.06544540034272,477107,4517,8081.273145914078,23.903308868408203,-24.680057525634766,5.2414445877075195,0.02
477,MetaDrive-test-conv-colab-critic,59,101.76920965545531,478032,4525,8096.753141403198,25.71697425842285,,1.95953369140625,0.01
478,MetaDrive-test-conv-colab-critic,59,101.5812819405914,479037,4532,8114.079244375229,25.81707763671875,-26.01137351989746,4.523139953613281,0.02
479,MetaDrive-test-conv-colab-critic,59,103.50910364849545,480141,4541,8132.387575626373,23.03683853149414,-23.816558837890625,7.133941650390625,0.03
480,MetaDrive-test-conv-colab-critic,59,103.97881254468756,481046,4549,8149.0025334358215,22.908205032348633,,2.7336769104003906,0.03
481,MetaDrive-test-conv-colab-critic,59,104.85570551343116,482080,4557,8167.754057884216,23.604103088378906,,11.038822174072266,0.03
482,MetaDrive-test-conv-colab-critic,59,103.74331281027317,483084,4566,8184.889238357544,25.342222213745117,,2.8885414600372314,0.03
483,MetaDrive-test-conv-colab-critic,59,103.55164564781724,484015,4574,8201.56461930275,26.64313316345215,-26.892810821533203,3.5099382400512695,0.03
484,MetaDrive-test-conv-colab-critic,59,101.6739364987966,485078,4583,8221.112054347992,26.28934097290039,,1.6744909286499023,0.03
485,MetaDrive-test-conv-colab-critic,58,103.63439132239677,486079,4591,8239.599597215652,23.77037811279297,-24.333599090576172,15.728656768798828,0.03
486,MetaDrive-test-conv-colab-critic,58,103.32699210264356,487072,4600,8256.774176836014,24.123340606689453,,4.404865264892578,0.03
487,MetaDrive-test-conv-colab-critic,58,104.03250006965156,488048,4607,8274.667375326157,24.65335464477539,,4.060805320739746,0.02
488,MetaDrive-test-conv-colab-critic,58,104.0342918310713,489107,4615,8293.392070770264,22.70659828186035,-23.36848258972168,3.840555191040039,0.02
489,MetaDrive-test-conv-colab-critic,58,104.16547553115066,490222,4624,8314.713567972183,22.28365135192871,,4.677300453186035,0.02
490,MetaDrive-test-conv-colab-critic,58,104.09168673081163,491073,4631,8330.327598571777,23.898305892944336,-24.514118194580078,4.149134635925293,0.02
491,MetaDrive-test-conv-colab-critic,58,99.89364031045541,492005,4640,8345.774354219437,22.19502830505371,-23.102794647216797,5.613544940948486,0.0
492,MetaDrive-test-conv-colab-critic,58,98.63365942649445,493004,4649,8364.335491418839,24.00620460510254,,7.922604560852051,0.0
493,MetaDrive-test-conv-colab-critic,58,100.22623947856614,494052,4657,8383.680906295776,24.01153564453125,,5.960679054260254,0.01
494,MetaDrive-test-conv-colab-critic,58,102.86839552180071,495015,4664,8400.022733449936,22.997962951660156,-23.29138946533203,4.169486999511719,0.01
495,MetaDrive-test-conv-colab-critic,58,104.82355960812355,496036,4672,8418.27251291275,28.753286361694336,,3.488259792327881,0.01
496,MetaDrive-test-conv-colab-critic,58,103.58889499550425,497020,4681,8435.283783197403,26.203454971313477,,5.974608421325684,0.01
497,MetaDrive-test-conv-colab-critic,58,102.81543693376268,498037,4689,8453.74886727333,27.164154052734375,-27.353654861450195,9.75870132446289,0.01
498,MetaDrive-test-conv-colab-critic,58,106.03097648314466,499024,4696,8471.437834501266,24.583091735839844,,3.8248116970062256,0.01
