TanmayH/CS269-RL-project-code/MetaDrive-td3combine-expt_with_safe-alt-env/MetaDrive-Alt-Next-v0/td3/progress.csv
,log_dir,frame_per_second,episode_reward,total_steps,total_episodes,total_time,actor_loss,critic_loss,target_q,success_rate
0,MetaDrive-td3combine-expt_with_safe-alt-env,549,19.51057406766878,1126,1,2.0485422611236572,,0.0047517204657197,-0.1026938259601593,0.0
1,MetaDrive-td3combine-expt_with_safe-alt-env,109,-1.9239172024192583,3601,30,32.9142382144928,0.1762051284313202,0.6615781188011169,-0.16537345945835114,0.0
2,MetaDrive-td3combine-expt_with_safe-alt-env,104,-1.961908679619238,4365,31,41.7037513256073,0.09794759750366211,0.5219231843948364,-0.179619699716568,0.0
3,MetaDrive-td3combine-expt_with_safe-alt-env,97,-2.438067190369683,5807,50,59.37091422080994,0.01304413378238678,0.025853421539068222,-0.09990594536066055,0.0
4,MetaDrive-td3combine-expt_with_safe-alt-env,96,-2.5271870781025583,6017,55,62.33953833580017,0.2609773874282837,0.01814647763967514,-0.2118440717458725,0.0
5,MetaDrive-td3combine-expt_with_safe-alt-env,95,-2.562772371933608,7272,57,75.81186509132385,,0.00930061750113964,-0.13166871666908264,0.0
6,MetaDrive-td3combine-expt_with_safe-alt-env,95,-2.6352904420161556,8247,64,86.73626613616943,0.18417713046073914,0.5575543642044067,-0.23141907155513763,0.0
7,MetaDrive-td3combine-expt_with_safe-alt-env,94,-2.6374722737940357,9094,65,95.84764909744263,,0.01913084276020527,-0.2467459738254547,0.0
8,MetaDrive-td3combine-expt_with_safe-alt-env,94,-2.5490012576523604,10160,69,107.47077322006226,,0.5407858490943909,-0.21466727554798126,0.0
9,MetaDrive-td3combine-expt_with_safe-alt-env,94,-2.439641021956872,11014,73,116.85429310798645,,0.020191434770822525,-0.13605274260044098,0.0
10,MetaDrive-td3combine-expt_with_safe-alt-env,93,-2.2264432521837274,12144,84,129.99426317214966,,0.1587127149105072,-0.2722715735435486,0.0
11,MetaDrive-td3combine-expt_with_safe-alt-env,93,-2.094491638213996,13017,88,139.759131193161,0.08354877680540085,0.0072730607353150845,-0.11039119958877563,0.0
12,MetaDrive-td3combine-expt_with_safe-alt-env,92,-1.3967929096392564,14059,92,151.23239707946777,-0.009624999016523361,0.7115848064422607,-0.10926426947116852,0.0
13,MetaDrive-td3combine-expt_with_safe-alt-env,92,-1.3844645930914012,15089,96,162.53626823425293,0.07804159820079803,0.5898478031158447,-0.10631762444972992,0.0
14,MetaDrive-td3combine-expt_with_safe-alt-env,92,-0.9128895854034056,16190,101,174.60724425315857,,0.014654109254479408,0.035748835653066635,0.0
15,MetaDrive-td3combine-expt_with_safe-alt-env,92,-0.30062728617369266,17018,112,184.61779022216797,,0.5804871320724487,-0.151170015335083,0.0
16,MetaDrive-td3combine-expt_with_safe-alt-env,91,0.37538497546910493,18055,126,197.3078362941742,-0.1300358772277832,1.3185969591140747,0.020507391542196274,0.0
17,MetaDrive-td3combine-expt_with_safe-alt-env,91,1.6811311748331172,19029,136,208.69081926345825,-0.191920205950737,0.7185127139091492,0.12487245351076126,0.0
18,MetaDrive-td3combine-expt_with_safe-alt-env,90,2.534876993924201,20025,147,220.49486637115479,-0.28420746326446533,0.04629432410001755,0.3838832974433899,0.0
19,MetaDrive-td3combine-expt_with_safe-alt-env,90,3.837007804004118,21031,156,231.97726106643677,-0.5254703164100647,0.8743394613265991,0.3194570243358612,0.0
20,MetaDrive-td3combine-expt_with_safe-alt-env,90,5.68859747913878,22219,164,245.50108432769775,-0.5044532418251038,0.5951664447784424,0.4668320417404175,0.0
21,MetaDrive-td3combine-expt_with_safe-alt-env,90,6.981994006003395,23076,174,255.42083930969238,,0.015772374346852303,0.773058295249939,0.0
22,MetaDrive-td3combine-expt_with_safe-alt-env,90,9.776170878147836,24630,180,272.8055303096771,,0.01954851672053337,0.9900848865509033,0.0
23,MetaDrive-td3combine-expt_with_safe-alt-env,90,10.690385976140888,25094,183,278.0342893600464,,1.1551930904388428,0.963182806968689,0.0
24,MetaDrive-td3combine-expt_with_safe-alt-env,90,12.739427207995393,26333,186,291.5918483734131,-1.4872655868530273,1.1146514415740967,1.333632469177246,0.0
25,MetaDrive-td3combine-expt_with_safe-alt-env,90,15.33736700731493,27668,191,306.3989362716675,,0.05313268303871155,1.6514174938201904,0.01
26,MetaDrive-td3combine-expt_with_safe-alt-env,90,18.19806671820364,28970,196,321.7790081501007,,2.4800233840942383,1.834457278251648,0.01
27,MetaDrive-td3combine-expt_with_safe-alt-env,89,17.85231662196639,29003,197,322.2759771347046,-2.258068084716797,0.05483972281217575,2.1473913192749023,0.01
28,MetaDrive-td3combine-expt_with_safe-alt-env,89,19.930170976452633,30415,205,339.19176030158997,-2.6156511306762695,0.10132401436567307,2.614104986190796,0.01
29,MetaDrive-td3combine-expt_with_safe-alt-env,89,22.213851381907926,31044,208,346.32548213005066,,0.050995104014873505,2.764395236968994,0.01
30,MetaDrive-td3combine-expt_with_safe-alt-env,89,26.164438509615657,32198,211,359.60134625434875,,0.028474977239966393,3.199413537979126,0.01
31,MetaDrive-td3combine-expt_with_safe-alt-env,89,31.260397059817606,33386,214,372.7717082500458,,3.244767189025879,3.36661434173584,0.03
32,MetaDrive-td3combine-expt_with_safe-alt-env,89,34.49586180175666,34245,217,382.6040391921997,-4.276252269744873,0.07016490399837494,4.125695705413818,0.04
33,MetaDrive-td3combine-expt_with_safe-alt-env,89,38.4955198568199,35027,220,391.8681502342224,-4.669952392578125,0.1034596860408783,4.4840168952941895,0.05
34,MetaDrive-td3combine-expt_with_safe-alt-env,89,41.55403687184902,36219,230,405.92424035072327,-5.1176958084106445,0.17602777481079102,4.970457553863525,0.05
35,MetaDrive-td3combine-expt_with_safe-alt-env,89,42.59108886580884,37019,233,415.52073431015015,-5.224958419799805,0.22520416975021362,5.246756076812744,0.06
36,MetaDrive-td3combine-expt_with_safe-alt-env,89,47.446278206166646,38009,237,426.7961630821228,-5.754293918609619,0.18076026439666748,5.517449378967285,0.07
37,MetaDrive-td3combine-expt_with_safe-alt-env,88,51.90170632127122,39572,246,445.15738224983215,,0.32932841777801514,6.5127105712890625,0.09
38,MetaDrive-td3combine-expt_with_safe-alt-env,88,53.54135596349461,40014,249,450.0671932697296,,0.5165066719055176,6.7373857498168945,0.09
39,MetaDrive-td3combine-expt_with_safe-alt-env,88,56.34197088210476,41062,260,463.0084581375122,,0.4879019260406494,7.696016311645508,0.1
40,MetaDrive-td3combine-expt_with_safe-alt-env,88,58.36224673822986,42255,264,477.0810272693634,-8.627768516540527,0.6155352592468262,8.86799430847168,0.12
41,MetaDrive-td3combine-expt_with_safe-alt-env,88,62.37204696421986,43010,267,485.99236726760864,,6.634492874145508,8.741450309753418,0.13
42,MetaDrive-td3combine-expt_with_safe-alt-env,88,65.68623147191082,45485,270,513.3190941810608,-9.099005699157715,9.235103607177734,8.370522499084473,0.14
43,MetaDrive-td3combine-expt_with_safe-alt-env,88,70.12869128516863,46533,273,525.5719060897827,-10.686310768127441,7.109712600708008,10.135522842407227,0.16
44,MetaDrive-td3combine-expt_with_safe-alt-env,88,72.86736326566023,48427,275,547.7616100311279,-10.954251289367676,1.887567400932312,10.88312816619873,0.16
45,MetaDrive-td3combine-expt_with_safe-alt-env,88,76.88730587473087,49084,277,556.198016166687,,0.6766312718391418,11.316737174987793,0.16
46,MetaDrive-td3combine-expt_with_safe-alt-env,88,77.09351090788462,51085,278,577.9233741760254,-11.388592720031738,13.203198432922363,11.230449676513672,0.16
47,MetaDrive-td3combine-expt_with_safe-alt-env,88,78.80887012115004,53541,281,604.8738660812378,-12.768250465393066,11.977569580078125,12.65011978149414,0.17
48,MetaDrive-td3combine-expt_with_safe-alt-env,88,80.91359033395628,54068,284,610.6894221305847,,36.785789489746094,12.917801856994629,0.18
49,MetaDrive-td3combine-expt_with_safe-alt-env,88,83.9622138012296,56069,285,632.5811841487885,-15.31036376953125,0.7097059488296509,14.97205924987793,0.18
50,MetaDrive-td3combine-expt_with_safe-alt-env,88,80.55280407733487,58070,286,656.5233054161072,,1.9282679557800293,14.52769660949707,0.18
51,MetaDrive-td3combine-expt_with_safe-alt-env,88,81.70696556642778,60183,288,680.3565561771393,-14.677887916564941,1.466232180595398,14.281325340270996,0.18
52,MetaDrive-td3combine-expt_with_safe-alt-env,88,84.89796373019107,62724,293,708.6144232749939,,1.1649774312973022,15.16331672668457,0.18
53,MetaDrive-td3combine-expt_with_safe-alt-env,88,85.77230383401918,63016,294,711.8485372066498,,7.000736236572266,15.786417007446289,0.18
54,MetaDrive-td3combine-expt_with_safe-alt-env,88,86.39974274704848,64130,298,724.3372142314911,,0.7988457083702087,17.178524017333984,0.18
55,MetaDrive-td3combine-expt_with_safe-alt-env,88,89.51813533035843,65620,300,740.840047121048,,1.5468262434005737,14.172218322753906,0.19
56,MetaDrive-td3combine-expt_with_safe-alt-env,88,88.8746160485488,66620,301,751.7788531780243,,1.3798978328704834,14.556355476379395,0.19
57,MetaDrive-td3combine-expt_with_safe-alt-env,88,89.8494967501153,67998,302,767.3407380580902,,4.2120842933654785,16.867206573486328,0.19
58,MetaDrive-td3combine-expt_with_safe-alt-env,88,90.3557338009994,68162,303,769.2567512989044,,1.9495277404785156,15.775455474853516,0.19
59,MetaDrive-td3combine-expt_with_safe-alt-env,88,90.69179741923853,70768,309,798.7361612319946,,1.2470202445983887,15.424478530883789,0.19
60,MetaDrive-td3combine-expt_with_safe-alt-env,88,88.7729192829422,71153,310,803.2924122810364,-15.33957290649414,1.9660307168960571,14.927876472473145,0.19
61,MetaDrive-td3combine-expt_with_safe-alt-env,88,85.12800136978707,72695,316,821.0084631443024,-15.129688262939453,21.897314071655273,14.728554725646973,0.17
62,MetaDrive-td3combine-expt_with_safe-alt-env,88,84.75002771072222,73089,319,825.8281621932983,-19.441265106201172,21.844188690185547,19.012975692749023,0.16
63,MetaDrive-td3combine-expt_with_safe-alt-env,88,85.03386702154614,74133,324,837.8437523841858,-15.763236045837402,25.3427734375,15.540189743041992,0.16
64,MetaDrive-td3combine-expt_with_safe-alt-env,88,85.08488432010328,75935,325,857.491818189621,-13.62138557434082,3.59822416305542,12.98032283782959,0.16
65,MetaDrive-td3combine-expt_with_safe-alt-env,88,85.1151713114093,76098,326,859.3997392654419,,16.01415252685547,15.361059188842773,0.16
66,MetaDrive-td3combine-expt_with_safe-alt-env,88,85.93492989593082,77034,331,870.0708322525024,,1.8778879642486572,15.082015037536621,0.16
67,MetaDrive-td3combine-expt_with_safe-alt-env,88,84.08188896553776,79831,338,901.9548082351685,-16.471759796142578,2.436734199523926,16.16175651550293,0.13
68,MetaDrive-td3combine-expt_with_safe-alt-env,88,84.08186296919519,80019,340,904.2839024066925,-20.016082763671875,1.9034287929534912,19.547285079956055,0.13
69,MetaDrive-td3combine-expt_with_safe-alt-env,88,87.0315124642148,82862,348,936.7191731929779,,1.424013614654541,18.96072769165039,0.12
70,MetaDrive-td3combine-expt_with_safe-alt-env,88,87.21069189412282,83067,350,939.0460112094879,-21.414304733276367,44.31475830078125,20.609207153320312,0.12
71,MetaDrive-td3combine-expt_with_safe-alt-env,88,89.80228694606447,84113,357,950.5834631919861,-18.27857780456543,2.364717960357666,18.47378158569336,0.12
72,MetaDrive-td3combine-expt_with_safe-alt-env,88,85.00270730324921,85025,365,961.498523235321,-18.5299129486084,7.849488258361816,17.90281105041504,0.08
73,MetaDrive-td3combine-expt_with_safe-alt-env,88,83.39967082198858,86008,372,972.3867392539978,,2.788166046142578,15.256087303161621,0.06
74,MetaDrive-td3combine-expt_with_safe-alt-env,88,75.20406860595013,87100,380,984.7713379859924,,3.0225298404693604,20.593351364135742,0.04
75,MetaDrive-td3combine-expt_with_safe-alt-env,88,73.76139917029636,88059,383,995.4059431552887,-21.082509994506836,3.1815876960754395,21.11455535888672,0.03
76,MetaDrive-td3combine-expt_with_safe-alt-env,88,70.82626107900545,89447,385,1010.7466382980347,-20.31745719909668,2.530134677886963,20.695438385009766,0.03
77,MetaDrive-td3combine-expt_with_safe-alt-env,88,70.97156687614837,90093,391,1017.9543442726135,-21.089130401611328,25.268749237060547,20.251571655273438,0.03
78,MetaDrive-td3combine-expt_with_safe-alt-env,88,68.81445211750416,91472,395,1032.8563132286072,,1.3066022396087646,17.765064239501953,0.02
79,MetaDrive-td3combine-expt_with_safe-alt-env,88,66.94930919547768,92104,399,1040.0754973888397,,6.577742099761963,16.79230308532715,0.01
80,MetaDrive-td3combine-expt_with_safe-alt-env,88,67.9950713503046,93078,406,1051.002678155899,,7.623364448547363,17.930665969848633,0.02
81,MetaDrive-td3combine-expt_with_safe-alt-env,88,67.64442868952186,94077,414,1062.1726033687592,-23.470136642456055,3.406445026397705,22.308307647705078,0.02
82,MetaDrive-td3combine-expt_with_safe-alt-env,88,68.79665021043054,95053,420,1072.9733712673187,-16.94625473022461,4.516855239868164,17.130455017089844,0.02
83,MetaDrive-td3combine-expt_with_safe-alt-env,88,69.84499785612314,96043,425,1084.2540242671967,-19.009963989257812,14.259864807128906,18.800373077392578,0.01
84,MetaDrive-td3combine-expt_with_safe-alt-env,88,70.83790896664682,97010,432,1094.7639093399048,,2.504368782043457,16.979915618896484,0.02
85,MetaDrive-td3combine-expt_with_safe-alt-env,88,69.7280338440975,99543,440,1121.9872462749481,-18.089786529541016,3.5126607418060303,17.63124656677246,0.02
86,MetaDrive-td3combine-expt_with_safe-alt-env,88,72.27213872292764,101544,441,1145.0285351276398,,6.741501808166504,20.93349838256836,0.02
87,MetaDrive-td3combine-expt_with_safe-alt-env,88,74.07000302174342,102007,444,1150.3783502578735,-15.836557388305664,5.17863655090332,16.057205200195312,0.02
88,MetaDrive-td3combine-expt_with_safe-alt-env,88,75.4676143282135,103117,451,1163.2215931415558,-18.85831642150879,1.8414422273635864,18.642717361450195,0.03
89,MetaDrive-td3combine-expt_with_safe-alt-env,88,79.26119427039833,104302,455,1176.2822091579437,,3.065990924835205,17.968578338623047,0.04
90,MetaDrive-td3combine-expt_with_safe-alt-env,88,80.78482379779274,105064,460,1184.7608542442322,,2.565504550933838,14.88409423828125,0.05
91,MetaDrive-td3combine-expt_with_safe-alt-env,88,86.1035570635523,106048,463,1196.29732131958,,4.339253902435303,16.65019416809082,0.06
92,MetaDrive-td3combine-expt_with_safe-alt-env,88,87.84490813654769,108179,465,1219.161904335022,-17.38860511779785,2.909254550933838,16.741378784179688,0.06
93,MetaDrive-td3combine-expt_with_safe-alt-env,88,90.63366120143888,109151,469,1229.8930921554565,-16.097732543945312,7.540423393249512,15.537851333618164,0.07
94,MetaDrive-td3combine-expt_with_safe-alt-env,88,94.5259486213886,110019,471,1239.561772108078,-16.43386459350586,40.72895050048828,15.704963684082031,0.09
95,MetaDrive-td3combine-expt_with_safe-alt-env,88,94.21180239809486,112058,473,1262.2953572273254,,19.317659378051758,16.998552322387695,0.09
96,MetaDrive-td3combine-expt_with_safe-alt-env,88,93.70917404347449,114250,475,1286.5410482883453,,3.2751100063323975,14.733366012573242,0.09
97,MetaDrive-td3combine-expt_with_safe-alt-env,88,95.52413439281845,116938,480,1316.1839861869812,,3.7268710136413574,18.38496208190918,0.09
98,MetaDrive-td3combine-expt_with_safe-alt-env,88,95.64301383343322,117779,481,1325.925529241562,-17.36298942565918,2.7946815490722656,16.84800148010254,0.09
99,MetaDrive-td3combine-expt_with_safe-alt-env,88,97.65618356198944,118120,482,1329.6399822235107,,48.692588806152344,14.623091697692871,0.1
100,MetaDrive-td3combine-expt_with_safe-alt-env,88,100.87536424029462,119748,485,1347.415491104126,,2.959074020385742,18.205554962158203,0.12
101,MetaDrive-td3combine-expt_with_safe-alt-env,88,101.4966103742359,121679,486,1368.004536151886,-20.079240798950195,6.009676933288574,19.776098251342773,0.12
102,MetaDrive-td3combine-expt_with_safe-alt-env,88,103.37312192299615,122049,487,1371.8948621749878,-16.885696411132812,10.756534576416016,16.49708366394043,0.13
103,MetaDrive-td3combine-expt_with_safe-alt-env,89,103.51194946042637,124344,489,1396.9242451190948,,6.14854621887207,16.389972686767578,0.13
104,MetaDrive-td3combine-expt_with_safe-alt-env,88,107.44995176075481,125417,492,1409.3119852542877,-14.684403419494629,5.066651344299316,14.550636291503906,0.15
105,MetaDrive-td3combine-expt_with_safe-alt-env,89,111.18020654875433,127870,496,1435.392904996872,,6.272256374359131,15.561392784118652,0.16
106,MetaDrive-td3combine-expt_with_safe-alt-env,89,111.85769151371285,128068,497,1437.5137491226196,,18.379915237426758,12.135810852050781,0.16
107,MetaDrive-td3combine-expt_with_safe-alt-env,89,110.2514029887158,130069,498,1459.4754650592804,-19.94190216064453,5.491131782531738,19.235414505004883,0.16
108,MetaDrive-td3combine-expt_with_safe-alt-env,89,110.4609487035593,132070,499,1481.9266130924225,,13.005902290344238,11.179805755615234,0.16
109,MetaDrive-td3combine-expt_with_safe-alt-env,89,110.38132897914655,133702,501,1499.2374813556671,,4.9968461990356445,16.341739654541016,0.16
110,MetaDrive-td3combine-expt_with_safe-alt-env,89,110.40426609800113,135779,503,1520.7920382022858,-13.306883811950684,79.18231964111328,13.248650550842285,0.16
111,MetaDrive-td3combine-expt_with_safe-alt-env,89,111.32894556466124,136121,504,1524.4409501552582,-20.543846130371094,4.165791988372803,20.029953002929688,0.16
112,MetaDrive-td3combine-expt_with_safe-alt-env,89,109.38080117844852,138266,506,1549.3112120628357,,14.075599670410156,18.184494018554688,0.15
113,MetaDrive-td3combine-expt_with_safe-alt-env,89,113.82303804480873,139051,508,1558.2447323799133,-17.516780853271484,3.388032913208008,16.24988555908203,0.17
114,MetaDrive-td3combine-expt_with_safe-alt-env,89,115.38349245552537,141052,509,1580.8480100631714,,4.633606433868408,13.71733570098877,0.17
115,MetaDrive-td3combine-expt_with_safe-alt-env,89,116.0862760314733,143191,511,1604.457982301712,-17.909582138061523,3.8263115882873535,17.38132667541504,0.17
116,MetaDrive-td3combine-expt_with_safe-alt-env,89,116.72564474256268,145192,512,1627.4336173534393,,16.217954635620117,7.9833269119262695,0.17
117,MetaDrive-td3combine-expt_with_safe-alt-env,89,118.31223681109564,146149,516,1637.9273121356964,-13.22719955444336,3.7790677547454834,13.03882122039795,0.19
118,MetaDrive-td3combine-expt_with_safe-alt-env,89,119.13567787666176,148150,517,1659.5429441928864,,4.988840579986572,14.348783493041992,0.19
119,MetaDrive-td3combine-expt_with_safe-alt-env,89,120.66729574912031,150630,520,1687.6910133361816,,4.055261611938477,7.3603386878967285,0.2
120,MetaDrive-td3combine-expt_with_safe-alt-env,89,124.73901004636964,152978,522,1713.594544172287,,6.444701671600342,11.759799003601074,0.21
121,MetaDrive-td3combine-expt_with_safe-alt-env,89,126.41885581027066,153235,523,1716.655002117157,-10.046855926513672,24.450618743896484,9.442861557006836,0.21
122,MetaDrive-td3combine-expt_with_safe-alt-env,89,125.07044222691675,155375,525,1739.7195332050323,-12.536397933959961,4.435704231262207,12.164308547973633,0.21
123,MetaDrive-td3combine-expt_with_safe-alt-env,89,124.60506155044993,157376,526,1760.909913301468,,6.646187782287598,14.940227508544922,0.21
124,MetaDrive-td3combine-expt_with_safe-alt-env,89,128.7594481793592,158166,528,1769.7715783119202,,46.28694534301758,12.059732437133789,0.23
125,MetaDrive-td3combine-expt_with_safe-alt-env,89,128.99424235198796,159561,529,1784.6967842578888,-16.311111450195312,61.02323913574219,16.570425033569336,0.23
126,MetaDrive-td3combine-expt_with_safe-alt-env,89,130.95069364599328,161562,530,1806.4537720680237,,3.16780948638916,12.481545448303223,0.23
127,MetaDrive-td3combine-expt_with_safe-alt-env,89,131.08935660999197,163563,531,1829.5418591499329,-12.454328536987305,5.539324760437012,11.76025104522705,0.23
128,MetaDrive-td3combine-expt_with_safe-alt-env,89,131.6721342322864,165898,533,1856.7376692295074,,3.4065680503845215,9.725970268249512,0.23
129,MetaDrive-td3combine-expt_with_safe-alt-env,89,130.98784981637115,167899,534,1878.2320802211761,-11.59277629852295,7.654531478881836,11.02501392364502,0.23
130,MetaDrive-td3combine-expt_with_safe-alt-env,89,131.6272006246806,168080,535,1880.272649049759,,2.713578224182129,9.72538948059082,0.23
131,MetaDrive-td3combine-expt_with_safe-alt-env,89,132.00209477062685,170081,536,1902.5390131473541,-11.079986572265625,6.117232322692871,11.969919204711914,0.23
132,MetaDrive-td3combine-expt_with_safe-alt-env,89,133.53283600155982,172422,539,1927.96524643898,,3.5813589096069336,11.700833320617676,0.23
133,MetaDrive-td3combine-expt_with_safe-alt-env,89,135.46960585936395,174423,540,1950.2912592887878,-12.024734497070312,4.700991153717041,11.035856246948242,0.23
134,MetaDrive-td3combine-expt_with_safe-alt-env,89,136.55756655237076,175124,542,1958.1417353153229,,2.997549533843994,6.566007614135742,0.25
135,MetaDrive-td3combine-expt_with_safe-alt-env,89,137.8768867370921,177895,545,1988.463855266571,-13.670602798461914,9.299039840698242,13.826654434204102,0.27
136,MetaDrive-td3combine-expt_with_safe-alt-env,89,138.241776866483,178078,546,1990.4299352169037,,5.326491832733154,16.750106811523438,0.27
137,MetaDrive-td3combine-expt_with_safe-alt-env,89,137.55600058843606,180053,548,2011.4990122318268,-12.886358261108398,7.231989860534668,13.622310638427734,0.27
138,MetaDrive-td3combine-expt_with_safe-alt-env,89,137.33658091267137,182054,549,2032.844408273697,,14.247397422790527,2.9764564037323,0.27
139,MetaDrive-td3combine-expt_with_safe-alt-env,89,136.13588028203128,184392,551,2058.2114901542664,,1.9794626235961914,13.419672012329102,0.27
140,MetaDrive-td3combine-expt_with_safe-alt-env,89,135.43694784389194,186770,553,2083.213594198227,,8.03030776977539,11.679262161254883,0.27
141,MetaDrive-td3combine-expt_with_safe-alt-env,89,134.43211281946043,187096,554,2086.7531583309174,,7.193922996520996,5.540424346923828,0.27
142,MetaDrive-td3combine-expt_with_safe-alt-env,89,142.92513905730036,189856,557,2117.6570551395416,,51.52912902832031,12.9745454788208,0.28
143,MetaDrive-td3combine-expt_with_safe-alt-env,89,140.95944541577376,190024,558,2119.606855392456,,123.07820892333984,10.920808792114258,0.27
144,MetaDrive-td3combine-expt_with_safe-alt-env,89,140.00270676283537,191279,563,2134.434217453003,-11.440755844116211,7.695687294006348,11.17526912689209,0.27
145,MetaDrive-td3combine-expt_with_safe-alt-env,89,140.4148448533786,192829,565,2151.5708651542664,-6.920589447021484,5.342106342315674,6.875558853149414,0.27
146,MetaDrive-td3combine-expt_with_safe-alt-env,89,140.6802091939487,194830,566,2173.6981263160706,,4.692631721496582,17.20378875732422,0.27
147,MetaDrive-td3combine-expt_with_safe-alt-env,89,138.9708089263922,196831,567,2195.1879303455353,-11.283889770507812,5.481960296630859,11.199542045593262,0.26
148,MetaDrive-td3combine-expt_with_safe-alt-env,89,139.0745847007719,198832,568,2217.826349258423,,5.480138778686523,10.93007755279541,0.26
149,MetaDrive-td3combine-expt_with_safe-alt-env,89,138.28909215836023,199351,569,2223.291899204254,-11.29433822631836,3.0358757972717285,10.968974113464355,0.26
150,MetaDrive-td3combine-expt_with_safe-alt-env,89,134.10189482831603,201211,571,2244.101091146469,-12.190099716186523,5.206442832946777,11.47525405883789,0.24
151,MetaDrive-td3combine-expt_with_safe-alt-env,89,136.82672706072884,203212,572,2266.981921195984,,8.753867149353027,9.250191688537598,0.24
152,MetaDrive-td3combine-expt_with_safe-alt-env,89,139.6021766871392,204029,574,2277.085270166397,0.8781631588935852,38.39137268066406,-0.7782551050186157,0.25
153,MetaDrive-td3combine-expt_with_safe-alt-env,89,140.46814459279756,206030,575,2299.0237991809845,,25.82400131225586,18.12665557861328,0.25
154,MetaDrive-td3combine-expt_with_safe-alt-env,89,141.3973586311645,208183,577,2324.5173242092133,-14.06573486328125,7.026560306549072,13.248762130737305,0.25
155,MetaDrive-td3combine-expt_with_safe-alt-env,89,139.78352744635032,210005,581,2344.4566531181335,-3.7984042167663574,4.308249473571777,3.64674711227417,0.25
156,MetaDrive-td3combine-expt_with_safe-alt-env,89,138.68225133438997,212006,582,2367.5582411289215,,3.4555749893188477,5.189192771911621,0.24
157,MetaDrive-td3combine-expt_with_safe-alt-env,89,137.7211666093132,214454,585,2394.8571829795837,,31.882234573364258,10.549389839172363,0.23
158,MetaDrive-td3combine-expt_with_safe-alt-env,89,138.21188367004396,215084,588,2402.5191140174866,,6.661387920379639,12.056940078735352,0.23
159,MetaDrive-td3combine-expt_with_safe-alt-env,89,138.68035129937277,216819,589,2421.548567056656,-7.788320541381836,6.656778335571289,7.578734874725342,0.23
160,MetaDrive-td3combine-expt_with_safe-alt-env,89,138.84769594732265,217007,590,2423.713172197342,-5.237649917602539,5.458282470703125,4.858471870422363,0.23
161,MetaDrive-td3combine-expt_with_safe-alt-env,89,135.75909983555442,219510,593,2451.7195494174957,,6.050608158111572,11.677654266357422,0.21
162,MetaDrive-td3combine-expt_with_safe-alt-env,89,135.7683366669592,220943,594,2467.1226732730865,-5.975579261779785,6.82020378112793,6.567257404327393,0.21
163,MetaDrive-td3combine-expt_with_safe-alt-env,89,138.80998008521104,222944,595,2489.9968781471252,,5.922290802001953,13.28282642364502,0.21
164,MetaDrive-td3combine-expt_with_safe-alt-env,89,138.56651230945536,223321,596,2494.2937049865723,-10.404768943786621,3.417248249053955,10.598897933959961,0.22
165,MetaDrive-td3combine-expt_with_safe-alt-env,89,140.79596936022807,225322,597,2518.278022289276,,10.167434692382812,13.956510543823242,0.22
166,MetaDrive-td3combine-expt_with_safe-alt-env,89,143.11598110843437,227902,600,2548.907371044159,,7.892884731292725,13.563142776489258,0.22
167,MetaDrive-td3combine-expt_with_safe-alt-env,89,146.33107876927178,228219,601,2552.6389541625977,-10.605274200439453,6.4283013343811035,9.58092975616455,0.23
168,MetaDrive-td3combine-expt_with_safe-alt-env,89,147.86744487839383,229516,602,2567.4575023651123,,37.62437057495117,12.365961074829102,0.24
169,MetaDrive-td3combine-expt_with_safe-alt-env,89,150.0850688344455,231517,603,2590.5928452014923,-12.365901947021484,6.1769490242004395,11.550935745239258,0.24
170,MetaDrive-td3combine-expt_with_safe-alt-env,89,151.11152786599445,232293,606,2600.003570318222,-9.193953514099121,6.1095123291015625,8.469762802124023,0.25
171,MetaDrive-td3combine-expt_with_safe-alt-env,89,151.84643394904737,233210,608,2611.4636051654816,,8.06242561340332,15.427322387695312,0.24
172,MetaDrive-td3combine-expt_with_safe-alt-env,89,152.97552658313535,234375,610,2624.90810918808,-15.873064041137695,3.734036922454834,14.797021865844727,0.25
173,MetaDrive-td3combine-expt_with_safe-alt-env,89,157.10919200276473,235008,611,2633.0451242923737,,6.004291534423828,10.97785472869873,0.26
174,MetaDrive-td3combine-expt_with_safe-alt-env,89,155.79822143484088,237117,613,2657.67937207222,-7.389047145843506,6.303282260894775,6.710241317749023,0.25
175,MetaDrive-td3combine-expt_with_safe-alt-env,89,162.56072488284846,238696,616,2677.5078201293945,,4.655555725097656,8.884480476379395,0.26
176,MetaDrive-td3combine-expt_with_safe-alt-env,89,162.11632055051234,239122,617,2682.676413297653,,6.618533134460449,11.848333358764648,0.27
177,MetaDrive-td3combine-expt_with_safe-alt-env,89,161.46281431021146,240336,619,2697.505679130554,,5.305156230926514,11.794768333435059,0.27
178,MetaDrive-td3combine-expt_with_safe-alt-env,89,162.4850706287759,242337,620,2721.2928791046143,-15.027755737304688,6.149039268493652,15.759523391723633,0.27
179,MetaDrive-td3combine-expt_with_safe-alt-env,89,161.90498832663587,243022,622,2729.4110321998596,,3.2021484375,16.25623321533203,0.27
180,MetaDrive-td3combine-expt_with_safe-alt-env,88,160.5997744847324,245023,623,2753.3608310222626,-9.536526679992676,1.8141734600067139,9.088640213012695,0.27
181,MetaDrive-td3combine-expt_with_safe-alt-env,88,160.88745437588145,247024,624,2776.7077560424805,,5.663018703460693,8.1970796585083,0.27
182,MetaDrive-td3combine-expt_with_safe-alt-env,88,158.98613739112392,249250,627,2802.3928010463715,,9.35628890991211,9.865989685058594,0.26
183,MetaDrive-td3combine-expt_with_safe-alt-env,88,155.54312725689178,251890,630,2832.7160181999207,,5.9761457443237305,6.398138046264648,0.25
184,MetaDrive-td3combine-expt_with_safe-alt-env,88,155.52129547945057,252042,631,2834.638064146042,,4.932989597320557,7.421232223510742,0.25
185,MetaDrive-td3combine-expt_with_safe-alt-env,88,160.27945735992492,253187,633,2848.7939352989197,-9.582517623901367,7.734037399291992,8.477399826049805,0.27
186,MetaDrive-td3combine-expt_with_safe-alt-env,88,161.79868214360044,255354,635,2874.100974082947,,5.991560459136963,6.203216552734375,0.28
187,MetaDrive-td3combine-expt_with_safe-alt-env,88,162.20323355441516,257355,636,2896.566266298294,-10.560920715332031,9.361831665039062,10.556294441223145,0.28
188,MetaDrive-td3combine-expt_with_safe-alt-env,88,165.8242334816076,258896,638,2915.0138082504272,,3.6147451400756836,3.4751791954040527,0.29
189,MetaDrive-td3combine-expt_with_safe-alt-env,88,165.43305447735705,259266,639,2919.2100422382355,,7.451999664306641,10.67223834991455,0.3
190,MetaDrive-td3combine-expt_with_safe-alt-env,88,163.28826741790851,261673,641,2947.674515247345,-7.604406833648682,8.134538650512695,7.445237159729004,0.3
191,MetaDrive-td3combine-expt_with_safe-alt-env,88,161.97733799035723,263674,642,2970.701400279999,,9.896556854248047,10.877030372619629,0.29
192,MetaDrive-td3combine-expt_with_safe-alt-env,88,162.61114337863268,264437,644,2980.2411704063416,-11.606759071350098,7.0482330322265625,11.504738807678223,0.28
193,MetaDrive-td3combine-expt_with_safe-alt-env,88,164.8397685099848,266416,645,3003.8990802764893,,4.2971296310424805,7.574933052062988,0.29
194,MetaDrive-td3combine-expt_with_safe-alt-env,88,164.9703322999184,267265,646,3013.816989183426,-17.493886947631836,9.103487014770508,17.343374252319336,0.29
195,MetaDrive-td3combine-expt_with_safe-alt-env,88,168.67157724495104,268068,649,3023.588470220566,,3.308354377746582,10.478141784667969,0.31
196,MetaDrive-td3combine-expt_with_safe-alt-env,88,173.5567127382443,269397,652,3040.8433060646057,-11.97475528717041,5.499284744262695,11.05438232421875,0.31
197,MetaDrive-td3combine-expt_with_safe-alt-env,88,172.22872533337306,271398,653,3064.22048330307,,4.01254415512085,6.044201850891113,0.31
198,MetaDrive-td3combine-expt_with_safe-alt-env,88,172.428218412126,273399,654,3088.8094642162323,-9.872257232666016,44.81827163696289,9.586673736572266,0.31
199,MetaDrive-td3combine-expt_with_safe-alt-env,88,164.572351447666,274539,657,3103.1349000930786,-12.650901794433594,7.1012163162231445,13.039216041564941,0.3
200,MetaDrive-td3combine-expt_with_safe-alt-env,88,168.61465321120988,275220,660,3111.7817821502686,,6.188223838806152,11.427946090698242,0.31
201,MetaDrive-td3combine-expt_with_safe-alt-env,88,166.00122654964525,277092,661,3134.6260170936584,,7.209846496582031,6.423182010650635,0.31
202,MetaDrive-td3combine-expt_with_safe-alt-env,88,166.66586068524092,279093,662,3159.484675168991,-11.17691421508789,4.310714244842529,10.439927101135254,0.31
203,MetaDrive-td3combine-expt_with_safe-alt-env,88,167.31501514582112,280382,664,3175.627027988434,,57.713768005371094,8.753179550170898,0.32
204,MetaDrive-td3combine-expt_with_safe-alt-env,88,168.72599554210746,282687,666,3206.2767350673676,-9.437376976013184,10.194265365600586,9.387269973754883,0.32
205,MetaDrive-td3combine-expt_with_safe-alt-env,88,169.49815959699055,283265,667,3213.44118309021,-12.296521186828613,5.610898971557617,12.359831809997559,0.33
206,MetaDrive-td3combine-expt_with_safe-alt-env,88,173.77031724070056,284692,669,3232.421758413315,,18.98065757751465,3.8726918697357178,0.35
207,MetaDrive-td3combine-expt_with_safe-alt-env,88,176.06705918871094,285061,670,3236.9697082042694,-7.580633640289307,69.07089233398438,7.912863254547119,0.36
208,MetaDrive-td3combine-expt_with_safe-alt-env,88,176.64187688787734,286248,672,3251.928198337555,,26.962902069091797,11.213505744934082,0.37
209,MetaDrive-td3combine-expt_with_safe-alt-env,87,174.3010170543869,287467,675,3267.532775402069,-11.332588195800781,5.5545454025268555,10.899456977844238,0.37
210,MetaDrive-td3combine-expt_with_safe-alt-env,87,176.13351497440124,288083,677,3275.762364387512,-11.89067268371582,3.476914405822754,12.210289001464844,0.37
211,MetaDrive-td3combine-expt_with_safe-alt-env,87,177.29810900001542,290084,678,3301.1855323314667,,4.014270782470703,11.456916809082031,0.37
212,MetaDrive-td3combine-expt_with_safe-alt-env,87,180.27442967325314,292884,682,3336.4228842258453,,44.324188232421875,7.926468372344971,0.38
213,MetaDrive-td3combine-expt_with_safe-alt-env,87,182.83008652140316,294885,683,3361.5560431480408,-13.630911827087402,4.790219306945801,13.026111602783203,0.38
214,MetaDrive-td3combine-expt_with_safe-alt-env,87,180.33292886982454,295436,684,3368.8187172412872,,5.310340881347656,8.348599433898926,0.37
215,MetaDrive-td3combine-expt_with_safe-alt-env,87,181.62369794991343,296025,685,3376.4019691944122,-10.381534576416016,10.166276931762695,10.28957748413086,0.38
216,MetaDrive-td3combine-expt_with_safe-alt-env,87,184.52105882790747,297737,688,3398.413599014282,-13.097660064697266,8.13359260559082,13.298836708068848,0.39
217,MetaDrive-td3combine-expt_with_safe-alt-env,87,185.5602449307687,298269,689,3406.0087201595306,-13.351685523986816,8.193414688110352,13.062313079833984,0.39
218,MetaDrive-td3combine-expt_with_safe-alt-env,87,186.55908881427192,299154,690,3417.1520342826843,,6.135875701904297,7.863134860992432,0.39
219,MetaDrive-td3combine-expt_with_safe-alt-env,87,185.36184221774474,300314,692,3431.3600811958313,,5.118984222412109,10.200202941894531,0.39
220,MetaDrive-td3combine-expt_with_safe-alt-env,87,187.94087255713458,301248,694,3443.840141057968,,8.057787895202637,11.471335411071777,0.4
221,MetaDrive-td3combine-expt_with_safe-alt-env,87,185.7008360276173,303249,695,3468.54735827446,-12.556756019592285,45.48408508300781,12.555729866027832,0.4
222,MetaDrive-td3combine-expt_with_safe-alt-env,87,184.4428679649849,305044,698,3491.6471123695374,,16.86318588256836,17.602989196777344,0.41
223,MetaDrive-td3combine-expt_with_safe-alt-env,87,185.7617614286255,306350,699,3508.3686652183533,,4.512170791625977,13.861225128173828,0.42
224,MetaDrive-td3combine-expt_with_safe-alt-env,87,183.30090748591533,308592,701,3537.08593416214,,9.823098182678223,14.829864501953125,0.41
225,MetaDrive-td3combine-expt_with_safe-alt-env,87,181.2297316842735,310930,703,3567.1270382404327,,6.207258701324463,8.49793815612793,0.4
226,MetaDrive-td3combine-expt_with_safe-alt-env,87,182.99097771877,311254,704,3571.2191321849823,,7.412510395050049,11.377931594848633,0.41
227,MetaDrive-td3combine-expt_with_safe-alt-env,87,179.63953273195256,313360,706,3597.894723176956,,3.25270414352417,9.671616554260254,0.4
228,MetaDrive-td3combine-expt_with_safe-alt-env,87,178.20999238812743,315361,707,3623.211467027664,-11.429330825805664,5.871063232421875,11.696516036987305,0.4
229,MetaDrive-td3combine-expt_with_safe-alt-env,86,175.87253847180804,317362,708,3648.914346218109,,5.118195056915283,11.977651596069336,0.39
230,MetaDrive-td3combine-expt_with_safe-alt-env,86,176.6743804857975,319898,710,3681.740434408188,,16.605304718017578,5.822839736938477,0.39
231,MetaDrive-td3combine-expt_with_safe-alt-env,86,175.51542194944835,320263,711,3686.613472223282,-11.744569778442383,72.52923583984375,11.486680030822754,0.39
232,MetaDrive-td3combine-expt_with_safe-alt-env,86,175.9883548450029,322264,712,3712.5570333004,,3.933175802230835,7.944822311401367,0.39
233,MetaDrive-td3combine-expt_with_safe-alt-env,86,178.34619190045635,324265,713,3737.5052223205566,-10.515877723693848,11.212383270263672,10.790689468383789,0.39
234,MetaDrive-td3combine-expt_with_safe-alt-env,86,175.2108249225842,325508,714,3753.8394570350647,,11.693567276000977,13.842127799987793,0.38
235,MetaDrive-td3combine-expt_with_safe-alt-env,86,175.2817427012443,327509,715,3779.9587812423706,-8.884607315063477,6.555397987365723,8.700370788574219,0.38
236,MetaDrive-td3combine-expt_with_safe-alt-env,86,171.34255125131284,329764,717,3809.2494122982025,,6.407463073730469,13.31458854675293,0.36
237,MetaDrive-td3combine-expt_with_safe-alt-env,86,170.15072619856875,330481,719,3818.7230973243713,-5.700156211853027,9.398743629455566,5.335986137390137,0.36
238,MetaDrive-td3combine-expt_with_safe-alt-env,86,169.41640783872518,332482,720,3844.7274482250214,,7.1345133781433105,9.984947204589844,0.36
239,MetaDrive-td3combine-expt_with_safe-alt-env,86,167.43345394656845,334483,721,3871.1092302799225,-14.676567077636719,44.86976623535156,13.131834030151367,0.35
240,MetaDrive-td3combine-expt_with_safe-alt-env,86,168.98233815343374,335289,723,3882.1681253910065,-15.759267807006836,131.80526733398438,14.177711486816406,0.37
241,MetaDrive-td3combine-expt_with_safe-alt-env,86,170.68355896286852,336152,724,3893.7927350997925,,8.995414733886719,2.951049566268921,0.38
242,MetaDrive-td3combine-expt_with_safe-alt-env,86,174.6569345549131,338670,728,3926.174524307251,,50.86182403564453,11.494338989257812,0.39
243,MetaDrive-td3combine-expt_with_safe-alt-env,86,172.72555019046754,340671,729,3952.343576192856,-7.020530700683594,7.023167610168457,6.389822959899902,0.38
244,MetaDrive-td3combine-expt_with_safe-alt-env,86,174.65723402126486,341126,730,3958.662746191025,,7.7634477615356445,17.937271118164062,0.39
245,MetaDrive-td3combine-expt_with_safe-alt-env,86,177.16380848840757,343690,732,3993.435375213623,,6.101937294006348,18.579484939575195,0.39
246,MetaDrive-td3combine-expt_with_safe-alt-env,86,175.2851391514391,344079,733,3998.587813138962,-5.324447154998779,20.146808624267578,4.312385082244873,0.39
247,MetaDrive-td3combine-expt_with_safe-alt-env,85,173.61117125059053,345852,734,4022.4520173072815,,11.373687744140625,12.651881217956543,0.38
248,MetaDrive-td3combine-expt_with_safe-alt-env,85,175.32485655131168,347314,735,4042.0084953308105,,5.218747615814209,13.877492904663086,0.39
249,MetaDrive-td3combine-expt_with_safe-alt-env,85,174.1980298172469,349262,737,4068.4499583244324,,7.021679878234863,6.8835859298706055,0.39
250,MetaDrive-td3combine-expt_with_safe-alt-env,85,174.9031196978072,350167,738,4080.177250146866,-5.753307342529297,14.000932693481445,5.889299392700195,0.39
251,MetaDrive-td3combine-expt_with_safe-alt-env,85,173.68911759756847,352298,740,4108.538401126862,,67.61479187011719,9.831615447998047,0.37
252,MetaDrive-td3combine-expt_with_safe-alt-env,85,173.9935058869658,353118,741,4119.711512088776,,5.494259834289551,20.89093017578125,0.37
253,MetaDrive-td3combine-expt_with_safe-alt-env,85,173.10397581992672,354117,744,4132.757546186447,-11.332422256469727,7.986867427825928,10.909873008728027,0.38
254,MetaDrive-td3combine-expt_with_safe-alt-env,85,176.02518455971855,355487,746,4151.157702207565,-9.64808464050293,9.381807327270508,9.418111801147461,0.39
255,MetaDrive-td3combine-expt_with_safe-alt-env,85,175.6901649605799,356683,747,4167.124579191208,-15.09575080871582,6.497638702392578,14.423311233520508,0.39
256,MetaDrive-td3combine-expt_with_safe-alt-env,85,176.9545363200884,357292,748,4175.278780221939,,5.969032287597656,8.225167274475098,0.39
257,MetaDrive-td3combine-expt_with_safe-alt-env,85,178.03808026988096,359293,749,4200.616059303284,-8.92988109588623,26.727397918701172,8.794764518737793,0.39
258,MetaDrive-td3combine-expt_with_safe-alt-env,85,175.60048499637628,360178,751,4212.532064199448,,5.312481880187988,11.665324211120605,0.38
259,MetaDrive-td3combine-expt_with_safe-alt-env,85,176.50113986101917,362736,754,4246.464730262756,,2.641099452972412,13.583959579467773,0.39
260,MetaDrive-td3combine-expt_with_safe-alt-env,85,177.11419676265515,364072,755,4262.665556192398,,12.170173645019531,10.38833236694336,0.39
261,MetaDrive-td3combine-expt_with_safe-alt-env,85,177.23771343330233,366464,759,4290.590739250183,,8.374683380126953,8.05062198638916,0.39
262,MetaDrive-td3combine-expt_with_safe-alt-env,85,175.63255148548103,368465,760,4315.10506606102,-6.235963821411133,3.7219576835632324,6.266064167022705,0.38
263,MetaDrive-td3combine-expt_with_safe-alt-env,85,175.55377951927667,369094,761,4322.780971050262,,5.3911638259887695,11.760830879211426,0.38
264,MetaDrive-td3combine-expt_with_safe-alt-env,85,177.17785969986843,370063,763,4334.852543115616,-6.495953559875488,14.329360008239746,5.996628761291504,0.39
265,MetaDrive-td3combine-expt_with_safe-alt-env,85,174.9426411725275,371390,765,4350.961221218109,,3.7833633422851562,12.243890762329102,0.39
266,MetaDrive-td3combine-expt_with_safe-alt-env,85,176.17864798492377,373391,766,4374.218601226807,-11.155839920043945,4.225809097290039,11.311373710632324,0.39
267,MetaDrive-td3combine-expt_with_safe-alt-env,85,180.006171859843,374520,767,4387.5580270290375,,6.157686710357666,4.092362403869629,0.39
268,MetaDrive-td3combine-expt_with_safe-alt-env,85,180.99605129056198,376955,769,4416.959844112396,-12.814386367797852,5.952046871185303,12.64752197265625,0.38
269,MetaDrive-td3combine-expt_with_safe-alt-env,85,178.3875637796749,378611,770,4435.9677612781525,-18.15775489807129,17.746259689331055,17.18939781188965,0.37
270,MetaDrive-td3combine-expt_with_safe-alt-env,85,177.83370366196309,380612,771,4460.352881193161,,20.715538024902344,6.519853591918945,0.37
271,MetaDrive-td3combine-expt_with_safe-alt-env,85,178.35489526238317,381050,772,4465.852425098419,,5.008599281311035,12.275087356567383,0.37
272,MetaDrive-td3combine-expt_with_safe-alt-env,85,180.75703858828604,383360,774,4494.607500076294,,6.147917747497559,14.190317153930664,0.38
273,MetaDrive-td3combine-expt_with_safe-alt-env,85,181.87093497962138,385873,776,4524.808303117752,-13.597647666931152,6.386361122131348,13.26852798461914,0.37
274,MetaDrive-td3combine-expt_with_safe-alt-env,85,179.75967483164524,387874,777,4548.629356145859,,6.198757171630859,4.986917972564697,0.37
275,MetaDrive-td3combine-expt_with_safe-alt-env,85,180.6319669154735,388775,778,4560.146391153336,-15.995745658874512,4.945650100708008,15.787189483642578,0.38
276,MetaDrive-td3combine-expt_with_safe-alt-env,85,183.1244277617566,389329,779,4567.17772436142,-8.717782020568848,4.212756156921387,8.326648712158203,0.39
277,MetaDrive-td3combine-expt_with_safe-alt-env,85,182.93354746085583,391697,781,4596.209386110306,-7.19631814956665,9.965847969055176,6.851370334625244,0.39
278,MetaDrive-td3combine-expt_with_safe-alt-env,85,182.77974415389798,393698,782,4620.120916128159,,10.044445991516113,4.634544849395752,0.39
279,MetaDrive-td3combine-expt_with_safe-alt-env,85,179.474357983095,394003,783,4623.836247205734,-9.901305198669434,8.08175277709961,8.887292861938477,0.39
280,MetaDrive-td3combine-expt_with_safe-alt-env,85,180.5530689993063,396362,785,4653.788008213043,,7.716700553894043,6.283580780029297,0.39
281,MetaDrive-td3combine-expt_with_safe-alt-env,85,179.33636491475954,397442,787,4667.5359852313995,,10.116107940673828,5.331048011779785,0.39
282,MetaDrive-td3combine-expt_with_safe-alt-env,85,179.31819638664828,398622,790,4682.138381242752,,17.258848190307617,4.344649791717529,0.4
283,MetaDrive-td3combine-expt_with_safe-alt-env,85,180.24924552328403,399204,791,4689.370493412018,,9.5474214553833,9.367386817932129,0.41
