TanmayH/CS269-RL-project-code/MetaDrive-td3combine-expt_with_safe-leaky-adamw-in-q-weighted/MetaDrive-Gen-Next-v1/td3/progress.csv
,log_dir,frame_per_second,episode_reward,total_steps,total_episodes,total_time,actor_loss,critic_loss,target_q,success_rate
0,MetaDrive-td3combine-expt_with_safe-leaky-adamw-in-q-weighted,173,48.00446328921598,1095,8,6.3240931034088135,-29.239707946777344,5.714199066162109,28.561485290527344,0.0
1,MetaDrive-td3combine-expt_with_safe-leaky-adamw-in-q-weighted,85,59.59709912727249,2792,15,32.78750729560852,,4.560400009155273,25.9445743560791,0.0
2,MetaDrive-td3combine-expt_with_safe-leaky-adamw-in-q-weighted,81,54.50519821783096,3201,19,39.09081530570984,-25.202110290527344,4.648550987243652,25.228500366210938,0.0
3,MetaDrive-td3combine-expt_with_safe-leaky-adamw-in-q-weighted,75,62.259153899796665,4466,21,59.41573119163513,,3.133511543273926,21.92121124267578,0.0
4,MetaDrive-td3combine-expt_with_safe-leaky-adamw-in-q-weighted,71,66.1487216238383,5467,22,76.70076417922974,-16.393497467041016,1.9645634889602661,16.149356842041016,0.0
5,MetaDrive-td3combine-expt_with_safe-leaky-adamw-in-q-weighted,69,68.78416079605246,6404,24,91.99181199073792,,8.361602783203125,13.964473724365234,0.0
6,MetaDrive-td3combine-expt_with_safe-leaky-adamw-in-q-weighted,65,81.23411701116288,7740,26,118.72667908668518,,5.875046730041504,15.746467590332031,0.038461538461538464
7,MetaDrive-td3combine-expt_with_safe-leaky-adamw-in-q-weighted,65,88.40082219957853,8416,28,129.07119512557983,,4.379770278930664,14.295377731323242,0.07142857142857142
8,MetaDrive-td3combine-expt_with_safe-leaky-adamw-in-q-weighted,65,91.3208649365466,9281,31,142.38908314704895,-17.19801902770996,1.8645713329315186,16.942768096923828,0.06451612903225806
9,MetaDrive-td3combine-expt_with_safe-leaky-adamw-in-q-weighted,65,93.26859180879484,10383,36,158.78763103485107,-18.227203369140625,3.7918522357940674,18.167028427124023,0.05555555555555555
10,MetaDrive-td3combine-expt_with_safe-leaky-adamw-in-q-weighted,64,97.78720373303398,11393,39,175.9181890487671,-15.892810821533203,3.459306478500366,15.781461715698242,0.07692307692307693
11,MetaDrive-td3combine-expt_with_safe-leaky-adamw-in-q-weighted,64,100.68035190950678,12394,40,193.02315998077393,,23.5522403717041,16.477493286132812,0.075
12,MetaDrive-td3combine-expt_with_safe-leaky-adamw-in-q-weighted,64,99.37102158183838,13035,43,202.00991415977478,-15.420971870422363,3.14876651763916,15.353317260742188,0.06976744186046512
13,MetaDrive-td3combine-expt_with_safe-leaky-adamw-in-q-weighted,64,99.87629782267054,14039,46,218.35685014724731,-19.04363441467285,3.7182869911193848,18.60452651977539,0.06521739130434782
14,MetaDrive-td3combine-expt_with_safe-leaky-adamw-in-q-weighted,64,107.56901118839154,15531,49,241.80552124977112,-13.120671272277832,3.325533390045166,13.772892951965332,0.08163265306122448
15,MetaDrive-td3combine-expt_with_safe-leaky-adamw-in-q-weighted,64,112.26470354406531,16858,51,262.81589913368225,,2.862689256668091,19.111717224121094,0.09803921568627451
16,MetaDrive-td3combine-expt_with_safe-leaky-adamw-in-q-weighted,63,113.2472112454661,17589,52,276.99383211135864,-15.064447402954102,1.2750484943389893,14.966798782348633,0.09615384615384616
17,MetaDrive-td3combine-expt_with_safe-leaky-adamw-in-q-weighted,63,112.50632773599412,18070,55,284.64038610458374,,7.614562511444092,17.26535987854004,0.09090909090909091
18,MetaDrive-td3combine-expt_with_safe-leaky-adamw-in-q-weighted,63,113.6898232666251,19071,56,301.8179621696472,-16.52358055114746,3.239628553390503,16.5400333404541,0.08928571428571429
19,MetaDrive-td3combine-expt_with_safe-leaky-adamw-in-q-weighted,63,117.6307511234745,20197,58,319.26951026916504,-13.94141960144043,2.8087258338928223,13.879188537597656,0.08620689655172414
20,MetaDrive-td3combine-expt_with_safe-leaky-adamw-in-q-weighted,63,122.41889145205249,21863,60,346.6141891479492,-17.745403289794922,3.3481192588806152,17.43007469177246,0.08333333333333333
21,MetaDrive-td3combine-expt_with_safe-leaky-adamw-in-q-weighted,63,125.91871358600964,22641,62,359.19528007507324,-17.776538848876953,4.072328567504883,17.67948341369629,0.0967741935483871
22,MetaDrive-td3combine-expt_with_safe-leaky-adamw-in-q-weighted,62,127.33269002502252,23642,63,381.0673840045929,,2.693498134613037,20.46723747253418,0.09523809523809523
23,MetaDrive-td3combine-expt_with_safe-leaky-adamw-in-q-weighted,62,126.81034457254954,24014,66,386.5447852611542,,3.5407028198242188,14.634071350097656,0.10606060606060606
24,MetaDrive-td3combine-expt_with_safe-leaky-adamw-in-q-weighted,62,129.66031954005777,25342,68,407.4026861190796,,4.880013465881348,18.852869033813477,0.11764705882352941
25,MetaDrive-td3combine-expt_with_safe-leaky-adamw-in-q-weighted,62,128.72241235687864,26052,70,419.3288109302521,,2.0682811737060547,14.990528106689453,0.11428571428571428
26,MetaDrive-td3combine-expt_with_safe-leaky-adamw-in-q-weighted,62,129.53902341265584,27053,71,435.8242611885071,-16.735576629638672,1.9140222072601318,16.144634246826172,0.11267605633802817
27,MetaDrive-td3combine-expt_with_safe-leaky-adamw-in-q-weighted,61,132.85051113776905,28574,73,466.4624512195587,,1.622563123703003,15.687167167663574,0.1095890410958904
28,MetaDrive-td3combine-expt_with_safe-leaky-adamw-in-q-weighted,61,130.16883712539345,29030,76,473.0114920139313,,4.149422645568848,18.098445892333984,0.10526315789473684
29,MetaDrive-td3combine-expt_with_safe-leaky-adamw-in-q-weighted,61,133.0771661501531,30676,81,502.5488529205322,,11.254257202148438,18.825763702392578,0.1111111111111111
30,MetaDrive-td3combine-expt_with_safe-leaky-adamw-in-q-weighted,61,129.7811838007994,31068,85,508.1215260028839,,2.0951380729675293,19.427398681640625,0.10588235294117647
31,MetaDrive-td3combine-expt_with_safe-leaky-adamw-in-q-weighted,61,129.51873253512716,32704,90,535.0281600952148,,2.0933899879455566,14.536489486694336,0.1111111111111111
32,MetaDrive-td3combine-expt_with_safe-leaky-adamw-in-q-weighted,61,128.89525642110635,33276,93,544.2932691574097,,1.7255901098251343,16.8365535736084,0.11827956989247312
33,MetaDrive-td3combine-expt_with_safe-leaky-adamw-in-q-weighted,61,124.3323585943101,34049,100,558.0414080619812,-22.702880859375,3.4204330444335938,22.552587509155273,0.11
34,MetaDrive-td3combine-expt_with_safe-leaky-adamw-in-q-weighted,61,127.06555186474539,35197,109,576.602254152298,-20.781208038330078,5.293797492980957,20.56643295288086,0.11
35,MetaDrive-td3combine-expt_with_safe-leaky-adamw-in-q-weighted,60,129.49056445098483,36701,115,608.161838054657,-21.848854064941406,3.3175735473632812,21.717288970947266,0.11
36,MetaDrive-td3combine-expt_with_safe-leaky-adamw-in-q-weighted,60,132.0648907853824,37053,117,613.8027622699738,-16.735305786132812,2.6642699241638184,17.101064682006836,0.11
37,MetaDrive-td3combine-expt_with_safe-leaky-adamw-in-q-weighted,60,130.93769898264983,38265,124,633.4070861339569,-26.007442474365234,2.774768352508545,26.02094078063965,0.12
38,MetaDrive-td3combine-expt_with_safe-leaky-adamw-in-q-weighted,60,131.94913455986512,39384,126,653.2516231536865,,6.071090221405029,19.050317764282227,0.12
39,MetaDrive-td3combine-expt_with_safe-leaky-adamw-in-q-weighted,60,129.95174365244165,40668,129,674.5961871147156,,3.9811575412750244,21.682323455810547,0.11
40,MetaDrive-td3combine-expt_with_safe-leaky-adamw-in-q-weighted,60,130.2771080145227,41044,131,680.5078241825104,,3.4101192951202393,22.27471923828125,0.11
41,MetaDrive-td3combine-expt_with_safe-leaky-adamw-in-q-weighted,60,128.4274940395044,42054,138,696.4115171432495,,5.140714168548584,25.457517623901367,0.11
42,MetaDrive-td3combine-expt_with_safe-leaky-adamw-in-q-weighted,60,128.26054011502643,43289,143,715.8109722137451,-22.522531509399414,3.1482601165771484,22.40162467956543,0.11
43,MetaDrive-td3combine-expt_with_safe-leaky-adamw-in-q-weighted,60,123.05849775171819,44031,149,726.9494731426239,-25.17364501953125,5.575043678283691,25.570234298706055,0.1
44,MetaDrive-td3combine-expt_with_safe-leaky-adamw-in-q-weighted,60,117.43797551656525,45002,156,742.5473430156708,,2.547032117843628,22.1431827545166,0.09
45,MetaDrive-td3combine-expt_with_safe-leaky-adamw-in-q-weighted,60,113.52526355614313,46110,160,760.346862077713,,2.367891788482666,21.979480743408203,0.1
46,MetaDrive-td3combine-expt_with_safe-leaky-adamw-in-q-weighted,60,113.65678806721843,47502,162,787.5020291805267,,4.293911933898926,19.829105377197266,0.1
47,MetaDrive-td3combine-expt_with_safe-leaky-adamw-in-q-weighted,60,112.87881138286834,48503,163,802.725016117096,-22.28897476196289,3.034518241882324,21.76228141784668,0.1
48,MetaDrive-td3combine-expt_with_safe-leaky-adamw-in-q-weighted,60,112.12184431422261,49171,165,814.2599542140961,-24.567934036254883,5.266026496887207,24.579517364501953,0.09
49,MetaDrive-td3combine-expt_with_safe-leaky-adamw-in-q-weighted,60,108.98995788025104,50061,171,827.7324242591858,-22.806333541870117,33.150169372558594,22.51591682434082,0.09
50,MetaDrive-td3combine-expt_with_safe-leaky-adamw-in-q-weighted,60,103.11655076613657,51177,179,844.5590121746063,-23.144229888916016,2.20027756690979,22.6258487701416,0.08
51,MetaDrive-td3combine-expt_with_safe-leaky-adamw-in-q-weighted,60,103.79285310789605,52075,182,858.3278450965881,-24.036081314086914,5.7915544509887695,23.763479232788086,0.09
52,MetaDrive-td3combine-expt_with_safe-leaky-adamw-in-q-weighted,60,102.231785755351,53025,189,873.3976590633392,-22.511499404907227,2.4433584213256836,22.861488342285156,0.08
53,MetaDrive-td3combine-expt_with_safe-leaky-adamw-in-q-weighted,60,101.87198028768498,54155,195,890.8239102363586,-22.230255126953125,6.1281867027282715,22.119319915771484,0.07
54,MetaDrive-td3combine-expt_with_safe-leaky-adamw-in-q-weighted,60,103.30810592235528,55079,202,906.1697931289673,-23.493953704833984,2.7304539680480957,23.56807518005371,0.07
55,MetaDrive-td3combine-expt_with_safe-leaky-adamw-in-q-weighted,60,104.08670985551507,56052,208,921.1203932762146,,2.969987392425537,24.689167022705078,0.07
56,MetaDrive-td3combine-expt_with_safe-leaky-adamw-in-q-weighted,60,104.76997231977808,57067,211,938.030463218689,-27.06629180908203,6.092872142791748,26.27002716064453,0.07
57,MetaDrive-td3combine-expt_with_safe-leaky-adamw-in-q-weighted,60,106.81240768586709,58075,213,956.8964221477509,-19.96367073059082,2.012889862060547,20.140262603759766,0.07
58,MetaDrive-td3combine-expt_with_safe-leaky-adamw-in-q-weighted,60,105.25677499566284,59877,220,984.8820321559906,-23.38143539428711,2.6226119995117188,23.293546676635742,0.07
59,MetaDrive-td3combine-expt_with_safe-leaky-adamw-in-q-weighted,60,106.06478477455128,60878,221,1003.2005753517151,,5.886197566986084,27.2061824798584,0.07
60,MetaDrive-td3combine-expt_with_safe-leaky-adamw-in-q-weighted,60,108.55936912304456,61371,222,1012.0649890899658,-26.18606948852539,1.885057806968689,26.21440887451172,0.08
61,MetaDrive-td3combine-expt_with_safe-leaky-adamw-in-q-weighted,60,104.29350071641115,62105,227,1023.5851981639862,-26.658477783203125,4.098823070526123,27.065696716308594,0.06
62,MetaDrive-td3combine-expt_with_safe-leaky-adamw-in-q-weighted,60,104.5074342633335,63337,234,1042.8494980335236,-24.00116539001465,4.160747528076172,24.159826278686523,0.07
63,MetaDrive-td3combine-expt_with_safe-leaky-adamw-in-q-weighted,60,103.78818219753113,64062,240,1054.1626880168915,,3.7524971961975098,23.1734676361084,0.07
64,MetaDrive-td3combine-expt_with_safe-leaky-adamw-in-q-weighted,60,103.19347692710727,65063,241,1071.3875722885132,-24.785049438476562,3.7436304092407227,25.18297576904297,0.07
65,MetaDrive-td3combine-expt_with_safe-leaky-adamw-in-q-weighted,60,99.88371751133249,66009,248,1087.5956180095673,-22.78677749633789,3.3155369758605957,22.582130432128906,0.06
66,MetaDrive-td3combine-expt_with_safe-leaky-adamw-in-q-weighted,60,101.98638852897012,67169,255,1107.749037027359,-24.10306167602539,2.318467855453491,24.087860107421875,0.06
67,MetaDrive-td3combine-expt_with_safe-leaky-adamw-in-q-weighted,60,101.9819336562605,68244,259,1126.6976881027222,,4.820174217224121,24.693775177001953,0.06
68,MetaDrive-td3combine-expt_with_safe-leaky-adamw-in-q-weighted,60,101.24756371097382,69398,261,1144.8509061336517,,3.3439364433288574,22.443464279174805,0.05
69,MetaDrive-td3combine-expt_with_safe-leaky-adamw-in-q-weighted,60,100.96813849289855,70244,266,1157.9907281398773,,2.7179040908813477,26.72212791442871,0.06
70,MetaDrive-td3combine-expt_with_safe-leaky-adamw-in-q-weighted,60,102.14618572447978,71099,271,1173.4221460819244,-25.867340087890625,3.7417092323303223,25.286191940307617,0.05
71,MetaDrive-td3combine-expt_with_safe-leaky-adamw-in-q-weighted,60,103.84051894682383,72657,276,1201.6406712532043,-25.322721481323242,4.612946510314941,25.612197875976562,0.05
72,MetaDrive-td3combine-expt_with_safe-leaky-adamw-in-q-weighted,60,103.70013646162968,73071,279,1208.661610364914,-25.36672592163086,3.4642250537872314,25.162792205810547,0.05
73,MetaDrive-td3combine-expt_with_safe-leaky-adamw-in-q-weighted,60,104.8527153061684,74058,282,1224.656746149063,,24.14661407470703,23.712865829467773,0.05
74,MetaDrive-td3combine-expt_with_safe-leaky-adamw-in-q-weighted,60,106.88873095589614,75383,290,1245.9715309143066,-25.043506622314453,2.0598230361938477,24.907365798950195,0.05
75,MetaDrive-td3combine-expt_with_safe-leaky-adamw-in-q-weighted,60,107.36693723872843,76384,291,1263.569018125534,,1.9537659883499146,26.651212692260742,0.05
76,MetaDrive-td3combine-expt_with_safe-leaky-adamw-in-q-weighted,60,108.17211653388826,77194,292,1275.5921771526337,,5.660284042358398,25.4556884765625,0.06
77,MetaDrive-td3combine-expt_with_safe-leaky-adamw-in-q-weighted,60,112.40272212116211,78824,294,1307.0281171798706,,3.4570627212524414,27.628990173339844,0.07
78,MetaDrive-td3combine-expt_with_safe-leaky-adamw-in-q-weighted,60,113.20155974436788,79978,297,1326.747807264328,,4.068360328674316,25.604690551757812,0.07
79,MetaDrive-td3combine-expt_with_safe-leaky-adamw-in-q-weighted,60,113.33606708699688,80117,298,1328.6987419128418,-27.687767028808594,3.750595808029175,27.53235626220703,0.07
80,MetaDrive-td3combine-expt_with_safe-leaky-adamw-in-q-weighted,60,113.8869526207566,81285,300,1348.4196500778198,-26.679948806762695,27.955720901489258,26.15001678466797,0.07
81,MetaDrive-td3combine-expt_with_safe-leaky-adamw-in-q-weighted,60,115.02731607413733,82286,301,1366.825983285904,,5.169034957885742,30.160003662109375,0.07
82,MetaDrive-td3combine-expt_with_safe-leaky-adamw-in-q-weighted,60,117.37296049535617,83071,302,1377.9221312999725,-25.905237197875977,5.935064315795898,25.817975997924805,0.08
83,MetaDrive-td3combine-expt_with_safe-leaky-adamw-in-q-weighted,60,120.39046080112314,84402,305,1399.8650641441345,,2.340333938598633,27.312698364257812,0.08
84,MetaDrive-td3combine-expt_with_safe-leaky-adamw-in-q-weighted,60,123.12921711226994,85334,308,1414.7952439785004,,3.821712017059326,25.561492919921875,0.08
85,MetaDrive-td3combine-expt_with_safe-leaky-adamw-in-q-weighted,60,125.37957664239362,86828,310,1437.710214138031,,3.2437689304351807,25.55951690673828,0.09
86,MetaDrive-td3combine-expt_with_safe-leaky-adamw-in-q-weighted,60,125.652068087793,87251,311,1444.8795750141144,-23.814620971679688,2.614344596862793,24.085342407226562,0.09
87,MetaDrive-td3combine-expt_with_safe-leaky-adamw-in-q-weighted,60,128.16302645976518,88100,312,1455.848274230957,,2.433790683746338,24.9405574798584,0.1
88,MetaDrive-td3combine-expt_with_safe-leaky-adamw-in-q-weighted,60,126.28247853388561,89167,314,1475.815109014511,-25.456073760986328,10.116161346435547,25.047344207763672,0.1
89,MetaDrive-td3combine-expt_with_safe-leaky-adamw-in-q-weighted,60,127.18816223825668,90168,315,1496.7970161437988,,24.188949584960938,25.319801330566406,0.1
90,MetaDrive-td3combine-expt_with_safe-leaky-adamw-in-q-weighted,60,127.4072121438731,91169,316,1511.7497642040253,-22.82269859313965,2.1752593517303467,22.767436981201172,0.1
91,MetaDrive-td3combine-expt_with_safe-leaky-adamw-in-q-weighted,60,129.38802869423185,92875,319,1544.5042951107025,-24.87293243408203,3.1746573448181152,24.403076171875,0.1
92,MetaDrive-td3combine-expt_with_safe-leaky-adamw-in-q-weighted,60,130.63838371922034,93295,320,1551.0039720535278,-25.055709838867188,2.8103418350219727,25.088741302490234,0.1
93,MetaDrive-td3combine-expt_with_safe-leaky-adamw-in-q-weighted,60,131.00119072408,94407,323,1568.7466700077057,-25.451642990112305,3.469909429550171,25.52674102783203,0.1
94,MetaDrive-td3combine-expt_with_safe-leaky-adamw-in-q-weighted,60,131.55605713047424,95543,327,1589.104760169983,-27.50121307373047,4.026747703552246,26.6737060546875,0.11
95,MetaDrive-td3combine-expt_with_safe-leaky-adamw-in-q-weighted,60,134.20741257693678,96267,328,1601.2815783023834,-26.718101501464844,3.699512481689453,26.46915054321289,0.12
96,MetaDrive-td3combine-expt_with_safe-leaky-adamw-in-q-weighted,60,139.30894927205566,97462,330,1621.3060100078583,,3.95066499710083,26.794536590576172,0.12
97,MetaDrive-td3combine-expt_with_safe-leaky-adamw-in-q-weighted,60,140.62815070037198,98862,332,1646.3269863128662,,2.104337692260742,23.54893684387207,0.12
98,MetaDrive-td3combine-expt_with_safe-leaky-adamw-in-q-weighted,60,140.33697017721045,99382,334,1654.4498159885406,,3.2531466484069824,27.230958938598633,0.12
99,MetaDrive-td3combine-expt_with_safe-leaky-adamw-in-q-weighted,60,143.020942598895,100122,336,1665.664073228836,,6.741646766662598,24.416805267333984,0.13
100,MetaDrive-td3combine-expt_with_safe-leaky-adamw-in-q-weighted,59,144.83844991955522,101708,339,1699.3568832874298,,9.310966491699219,25.66123390197754,0.13
101,MetaDrive-td3combine-expt_with_safe-leaky-adamw-in-q-weighted,59,145.7241851543927,102709,340,1715.8390100002289,-25.988927841186523,3.460279703140259,25.5612850189209,0.13
102,MetaDrive-td3combine-expt_with_safe-leaky-adamw-in-q-weighted,59,146.8051425921183,103784,342,1732.9913771152496,,4.858940124511719,25.353191375732422,0.13
103,MetaDrive-td3combine-expt_with_safe-leaky-adamw-in-q-weighted,59,148.10326561187532,104872,344,1755.0921850204468,,5.107734680175781,25.055883407592773,0.13
104,MetaDrive-td3combine-expt_with_safe-leaky-adamw-in-q-weighted,59,149.67658105442004,105372,345,1762.5508952140808,,3.861392021179199,26.993209838867188,0.14
105,MetaDrive-td3combine-expt_with_safe-leaky-adamw-in-q-weighted,59,150.5536993306108,106373,346,1778.284883260727,-23.172765731811523,2.3258039951324463,23.37772560119629,0.14
106,MetaDrive-td3combine-expt_with_safe-leaky-adamw-in-q-weighted,59,152.4014117307361,107374,347,1797.6639971733093,,2.2751216888427734,27.33084487915039,0.14
107,MetaDrive-td3combine-expt_with_safe-leaky-adamw-in-q-weighted,59,153.45734276468679,108075,349,1809.9474701881409,-24.60215187072754,2.100372552871704,24.68960189819336,0.14
108,MetaDrive-td3combine-expt_with_safe-leaky-adamw-in-q-weighted,59,154.74415296826973,109076,350,1826.214322090149,,5.386031150817871,24.53632354736328,0.14
109,MetaDrive-td3combine-expt_with_safe-leaky-adamw-in-q-weighted,59,155.27457869143626,110153,355,1842.1733932495117,-25.281431198120117,3.3608713150024414,25.158550262451172,0.15
110,MetaDrive-td3combine-expt_with_safe-leaky-adamw-in-q-weighted,59,154.63139007714437,111529,357,1865.708447933197,-25.284473419189453,3.7229371070861816,25.427799224853516,0.14
111,MetaDrive-td3combine-expt_with_safe-leaky-adamw-in-q-weighted,59,155.2847623084637,112212,358,1879.066554069519,,17.941757202148438,25.363052368164062,0.14
112,MetaDrive-td3combine-expt_with_safe-leaky-adamw-in-q-weighted,59,155.8799915186001,113213,359,1894.1690831184387,-23.13996696472168,5.796329498291016,22.994876861572266,0.14
113,MetaDrive-td3combine-expt_with_safe-leaky-adamw-in-q-weighted,59,157.07265532937046,114214,360,1913.541594028473,,2.8130557537078857,25.26738166809082,0.14
114,MetaDrive-td3combine-expt_with_safe-leaky-adamw-in-q-weighted,59,157.62681704365048,115215,361,1929.5674481391907,-24.404428482055664,1.8478915691375732,24.86163902282715,0.14
115,MetaDrive-td3combine-expt_with_safe-leaky-adamw-in-q-weighted,59,161.04785596146812,116316,364,1944.9314720630646,,3.8274986743927,28.312740325927734,0.16
116,MetaDrive-td3combine-expt_with_safe-leaky-adamw-in-q-weighted,59,162.1364301543951,117957,367,1972.1491582393646,-24.32542610168457,7.858815670013428,23.321603775024414,0.15
117,MetaDrive-td3combine-expt_with_safe-leaky-adamw-in-q-weighted,59,161.21723624749927,118178,368,1975.0836391448975,,2.9008238315582275,27.502626419067383,0.15
118,MetaDrive-td3combine-expt_with_safe-leaky-adamw-in-q-weighted,59,162.60310051402644,119179,369,1994.9259991645813,-26.841176986694336,4.075943470001221,26.700927734375,0.15
119,MetaDrive-td3combine-expt_with_safe-leaky-adamw-in-q-weighted,59,164.14049584810854,120681,371,2021.8212032318115,-26.425870895385742,2.8202991485595703,25.928800582885742,0.16
120,MetaDrive-td3combine-expt_with_safe-leaky-adamw-in-q-weighted,59,165.8199157025885,121322,373,2034.0322012901306,,2.915696859359741,27.307918548583984,0.16
121,MetaDrive-td3combine-expt_with_safe-leaky-adamw-in-q-weighted,59,166.87240647449522,122323,374,2055.524602174759,-22.50090980529785,3.478248357772827,22.865325927734375,0.16
122,MetaDrive-td3combine-expt_with_safe-leaky-adamw-in-q-weighted,59,168.04122067365253,123446,376,2074.3803849220276,,4.963911533355713,25.690401077270508,0.17
123,MetaDrive-td3combine-expt_with_safe-leaky-adamw-in-q-weighted,59,168.8741023222873,124447,377,2091.2201421260834,-25.155941009521484,3.046597480773926,25.024978637695312,0.17
124,MetaDrive-td3combine-expt_with_safe-leaky-adamw-in-q-weighted,59,171.13118758680787,125448,378,2109.7566130161285,,2.497521162033081,25.88372230529785,0.17
125,MetaDrive-td3combine-expt_with_safe-leaky-adamw-in-q-weighted,59,171.99891425458623,126252,380,2123.3640842437744,,5.639819145202637,28.90237808227539,0.17
126,MetaDrive-td3combine-expt_with_safe-leaky-adamw-in-q-weighted,59,174.0108561137222,127253,381,2147.4612369537354,-30.027324676513672,3.0349912643432617,29.72028350830078,0.17
127,MetaDrive-td3combine-expt_with_safe-leaky-adamw-in-q-weighted,59,176.59731754248972,128769,383,2176.0451650619507,-25.472196578979492,3.3363914489746094,25.484649658203125,0.17
128,MetaDrive-td3combine-expt_with_safe-leaky-adamw-in-q-weighted,59,179.8280830835277,129396,384,2185.4917261600494,,4.06773567199707,24.25895881652832,0.18
129,MetaDrive-td3combine-expt_with_safe-leaky-adamw-in-q-weighted,59,182.2124346413232,130188,386,2197.6980781555176,,4.2907514572143555,28.709857940673828,0.19
130,MetaDrive-td3combine-expt_with_safe-leaky-adamw-in-q-weighted,59,183.2189681193912,131320,388,2216.2947220802307,,9.284717559814453,25.083173751831055,0.19
131,MetaDrive-td3combine-expt_with_safe-leaky-adamw-in-q-weighted,59,184.08795792815584,132614,390,2239.8765921592712,,7.1397552490234375,25.809879302978516,0.19
132,MetaDrive-td3combine-expt_with_safe-leaky-adamw-in-q-weighted,59,186.87893465572134,133538,391,2254.3518011569977,,6.497250556945801,25.309846878051758,0.2
133,MetaDrive-td3combine-expt_with_safe-leaky-adamw-in-q-weighted,59,182.92849122130355,134141,393,2265.2649099826813,-30.043041229248047,4.674983501434326,29.135971069335938,0.18
134,MetaDrive-td3combine-expt_with_safe-leaky-adamw-in-q-weighted,59,185.1691867468005,135335,396,2283.526113986969,-23.82772445678711,2.702274799346924,23.966419219970703,0.19
135,MetaDrive-td3combine-expt_with_safe-leaky-adamw-in-q-weighted,59,185.5426575614775,136561,399,2305.9855840206146,-29.32432746887207,2.5476980209350586,29.264585494995117,0.19
136,MetaDrive-td3combine-expt_with_safe-leaky-adamw-in-q-weighted,59,186.6462195507758,137562,400,2328.623679161072,,4.813827991485596,29.464385986328125,0.19
137,MetaDrive-td3combine-expt_with_safe-leaky-adamw-in-q-weighted,59,181.393383045605,138864,405,2353.3700289726257,,3.3058199882507324,27.59604835510254,0.19
138,MetaDrive-td3combine-expt_with_safe-leaky-adamw-in-q-weighted,58,185.01869313805318,139698,406,2368.4297251701355,,4.233748912811279,24.98133659362793,0.2
139,MetaDrive-td3combine-expt_with_safe-leaky-adamw-in-q-weighted,58,186.93598481193422,140360,407,2379.3725621700287,,3.7271368503570557,25.615915298461914,0.21
140,MetaDrive-td3combine-expt_with_safe-leaky-adamw-in-q-weighted,59,182.82535030082613,141075,410,2390.6961851119995,-26.96744155883789,4.686101913452148,27.04743766784668,0.21
141,MetaDrive-td3combine-expt_with_safe-leaky-adamw-in-q-weighted,58,184.3067618674542,142076,411,2410.0028002262115,,3.1446619033813477,24.28809356689453,0.21
142,MetaDrive-td3combine-expt_with_safe-leaky-adamw-in-q-weighted,58,183.52709867321988,143441,415,2434.819057226181,-24.234424591064453,5.145941734313965,23.466136932373047,0.21
143,MetaDrive-td3combine-expt_with_safe-leaky-adamw-in-q-weighted,58,183.09624625913432,144196,417,2447.9927022457123,,7.916747093200684,27.022842407226562,0.21
144,MetaDrive-td3combine-expt_with_safe-leaky-adamw-in-q-weighted,58,183.95742067598522,145495,419,2471.3786470890045,-25.246828079223633,2.0964927673339844,25.541748046875,0.21
145,MetaDrive-td3combine-expt_with_safe-leaky-adamw-in-q-weighted,58,183.94616839662692,146008,420,2479.097930908203,,7.075778007507324,21.712875366210938,0.22
146,MetaDrive-td3combine-expt_with_safe-leaky-adamw-in-q-weighted,58,182.46484908555172,147300,423,2499.5844151973724,,2.1476564407348633,22.212459564208984,0.22
147,MetaDrive-td3combine-expt_with_safe-leaky-adamw-in-q-weighted,58,185.46505783139114,148223,424,2513.6748089790344,-27.25330352783203,20.13006019592285,27.50597381591797,0.23
148,MetaDrive-td3combine-expt_with_safe-leaky-adamw-in-q-weighted,58,187.37754038292135,149224,425,2530.5719830989838,,2.2878224849700928,28.418502807617188,0.23
149,MetaDrive-td3combine-expt_with_safe-leaky-adamw-in-q-weighted,59,189.82220577550225,150166,426,2544.8943819999695,,3.785562515258789,25.239177703857422,0.24
150,MetaDrive-td3combine-expt_with_safe-leaky-adamw-in-q-weighted,58,189.12791526249228,151167,427,2564.5023851394653,-24.922697067260742,2.7258522510528564,24.279645919799805,0.23
151,MetaDrive-td3combine-expt_with_safe-leaky-adamw-in-q-weighted,58,187.53118906409574,152270,429,2585.327986240387,,4.186394691467285,27.533748626708984,0.22
152,MetaDrive-td3combine-expt_with_safe-leaky-adamw-in-q-weighted,58,185.23297986793634,153271,430,2603.132916212082,-26.09007453918457,4.381956577301025,26.1141300201416,0.22
153,MetaDrive-td3combine-expt_with_safe-leaky-adamw-in-q-weighted,58,185.88723831358976,154272,431,2625.0555381774902,,5.676995754241943,24.812618255615234,0.22
154,MetaDrive-td3combine-expt_with_safe-leaky-adamw-in-q-weighted,58,186.10447112155475,155578,434,2649.3718581199646,,7.752796173095703,24.28717041015625,0.22
155,MetaDrive-td3combine-expt_with_safe-leaky-adamw-in-q-weighted,58,188.870892658534,156566,435,2667.739710330963,,14.043909072875977,27.65256690979004,0.23
156,MetaDrive-td3combine-expt_with_safe-leaky-adamw-in-q-weighted,58,188.3084067420493,157567,436,2687.3524651527405,-24.71791648864746,7.653708457946777,25.28225326538086,0.22
157,MetaDrive-td3combine-expt_with_safe-leaky-adamw-in-q-weighted,58,191.76231908421826,158272,437,2698.403800010681,,5.136018753051758,27.296802520751953,0.23
158,MetaDrive-td3combine-expt_with_safe-leaky-adamw-in-q-weighted,58,192.74521317974614,159273,438,2722.015677213669,-29.336769104003906,2.6788315773010254,28.813709259033203,0.23
159,MetaDrive-td3combine-expt_with_safe-leaky-adamw-in-q-weighted,58,192.082339691109,160274,439,2739.536299943924,,2.891693592071533,25.344524383544922,0.23
160,MetaDrive-td3combine-expt_with_safe-leaky-adamw-in-q-weighted,58,192.7155855348337,161275,440,2763.1885211467743,-28.255023956298828,5.2346906661987305,28.16240882873535,0.23
161,MetaDrive-td3combine-expt_with_safe-leaky-adamw-in-q-weighted,58,195.312229688814,162432,443,2784.8557329177856,,3.77907657623291,27.369869232177734,0.24
162,MetaDrive-td3combine-expt_with_safe-leaky-adamw-in-q-weighted,58,193.09302514948376,163082,445,2795.1133720874786,,3.1544058322906494,26.02301597595215,0.24
163,MetaDrive-td3combine-expt_with_safe-leaky-adamw-in-q-weighted,58,193.8799455847267,164083,446,2814.0403130054474,-24.673744201660156,3.649563789367676,24.519811630249023,0.24
164,MetaDrive-td3combine-expt_with_safe-leaky-adamw-in-q-weighted,58,190.63957752878304,165910,450,2844.3508682250977,,3.646026134490967,26.080841064453125,0.24
165,MetaDrive-td3combine-expt_with_safe-leaky-adamw-in-q-weighted,58,191.51899881957746,166409,451,2853.1832633018494,-28.060293197631836,3.1913716793060303,27.856603622436523,0.24
166,MetaDrive-td3combine-expt_with_safe-leaky-adamw-in-q-weighted,58,192.51864554152897,167152,453,2866.2389080524445,,3.8292057514190674,26.945825576782227,0.24
167,MetaDrive-td3combine-expt_with_safe-leaky-adamw-in-q-weighted,58,194.9713632978159,168153,454,2887.519988298416,-29.207542419433594,3.6256890296936035,28.78537368774414,0.24
168,MetaDrive-td3combine-expt_with_safe-leaky-adamw-in-q-weighted,58,196.59720552310708,169442,457,2909.1009929180145,,5.1265058517456055,23.016040802001953,0.24
169,MetaDrive-td3combine-expt_with_safe-leaky-adamw-in-q-weighted,58,196.33091925949418,170443,458,2928.2609400749207,-28.557031631469727,6.28940486907959,28.32354736328125,0.24
170,MetaDrive-td3combine-expt_with_safe-leaky-adamw-in-q-weighted,58,197.02108982238545,171046,459,2938.3242480754852,,2.818471908569336,24.67612648010254,0.24
171,MetaDrive-td3combine-expt_with_safe-leaky-adamw-in-q-weighted,58,199.12667720816938,172669,461,2967.0644793510437,-24.065250396728516,3.329214096069336,23.596881866455078,0.25
172,MetaDrive-td3combine-expt_with_safe-leaky-adamw-in-q-weighted,58,200.15947215343746,173670,462,2986.4753041267395,,2.9337878227233887,24.1633243560791,0.25
173,MetaDrive-td3combine-expt_with_safe-leaky-adamw-in-q-weighted,58,198.7794213703041,174692,464,3005.8027081489563,,8.852378845214844,27.28866958618164,0.23
174,MetaDrive-td3combine-expt_with_safe-leaky-adamw-in-q-weighted,58,198.86245658882623,175693,465,3024.235804080963,-27.366470336914062,2.3326311111450195,26.982763290405273,0.23
175,MetaDrive-td3combine-expt_with_safe-leaky-adamw-in-q-weighted,58,199.83895705282558,176140,466,3032.730528116226,,4.037354469299316,25.290773391723633,0.23
176,MetaDrive-td3combine-expt_with_safe-leaky-adamw-in-q-weighted,58,195.63939651941027,177317,470,3055.8975121974945,-24.57653045654297,3.35786771774292,23.881240844726562,0.22
177,MetaDrive-td3combine-expt_with_safe-leaky-adamw-in-q-weighted,57,197.74174496616314,178137,471,3071.5213401317596,-24.276142120361328,2.9567413330078125,24.10272979736328,0.23
178,MetaDrive-td3combine-expt_with_safe-leaky-adamw-in-q-weighted,57,199.60948807343902,179138,472,3090.904615163803,,6.119318962097168,25.846954345703125,0.23
179,MetaDrive-td3combine-expt_with_safe-leaky-adamw-in-q-weighted,57,201.974159867387,180139,473,3108.8354971408844,-24.62947654724121,20.02200698852539,25.598726272583008,0.23
180,MetaDrive-td3combine-expt_with_safe-leaky-adamw-in-q-weighted,57,200.58716135365466,181345,476,3130.5207662582397,-25.974781036376953,3.5444960594177246,25.878110885620117,0.23
181,MetaDrive-td3combine-expt_with_safe-leaky-adamw-in-q-weighted,57,200.63178905558274,182624,478,3154.7673630714417,,3.2997629642486572,25.63270378112793,0.23
182,MetaDrive-td3combine-expt_with_safe-leaky-adamw-in-q-weighted,57,202.8475439198245,183625,479,3173.7011692523956,-25.722606658935547,2.8730854988098145,25.90241241455078,0.23
183,MetaDrive-td3combine-expt_with_safe-leaky-adamw-in-q-weighted,57,200.69864175299824,184747,481,3203.9096550941467,-28.293729782104492,3.6125643253326416,27.926389694213867,0.23
184,MetaDrive-td3combine-expt_with_safe-leaky-adamw-in-q-weighted,57,201.6167167050709,185445,482,3215.744964122772,-23.06283950805664,2.897761344909668,22.88861846923828,0.24
185,MetaDrive-td3combine-expt_with_safe-leaky-adamw-in-q-weighted,57,200.11943322945618,186062,483,3228.2169489860535,,3.298600196838379,24.872697830200195,0.24
186,MetaDrive-td3combine-expt_with_safe-leaky-adamw-in-q-weighted,57,197.45232660917725,187710,486,3263.7782011032104,,4.496778964996338,21.97127914428711,0.22
187,MetaDrive-td3combine-expt_with_safe-leaky-adamw-in-q-weighted,57,197.7997011443505,188851,488,3285.816644191742,-22.646013259887695,3.4371371269226074,22.869319915771484,0.22
188,MetaDrive-td3combine-expt_with_safe-leaky-adamw-in-q-weighted,57,198.65359612763936,189370,489,3295.101005077362,,4.098156929016113,25.128080368041992,0.23
189,MetaDrive-td3combine-expt_with_safe-leaky-adamw-in-q-weighted,57,199.41304993194706,190107,490,3313.470561027527,-27.928070068359375,12.5271635055542,27.557640075683594,0.23
190,MetaDrive-td3combine-expt_with_safe-leaky-adamw-in-q-weighted,57,200.4657101236518,191348,492,3334.9015021324158,,3.7182750701904297,22.930259704589844,0.23
191,MetaDrive-td3combine-expt_with_safe-leaky-adamw-in-q-weighted,57,197.67270759144543,192701,495,3360.4706671237946,-26.811019897460938,4.591802597045898,26.73716163635254,0.22
192,MetaDrive-td3combine-expt_with_safe-leaky-adamw-in-q-weighted,57,196.93701534300587,193702,496,3380.788049221039,,10.486513137817383,27.50914764404297,0.22
193,MetaDrive-td3combine-expt_with_safe-leaky-adamw-in-q-weighted,57,196.97788848524033,194949,498,3406.958640098572,-25.52306365966797,3.2068142890930176,25.704511642456055,0.22
194,MetaDrive-td3combine-expt_with_safe-leaky-adamw-in-q-weighted,57,196.81377077921204,195778,499,3422.788777112961,,5.10836124420166,26.44036293029785,0.22
195,MetaDrive-td3combine-expt_with_safe-leaky-adamw-in-q-weighted,57,197.28083323114194,196459,500,3435.4676411151886,-24.01755714416504,3.5273594856262207,24.187332153320312,0.23
196,MetaDrive-td3combine-expt_with_safe-leaky-adamw-in-q-weighted,57,198.1752796549859,197460,501,3452.8694581985474,,6.200031280517578,24.978580474853516,0.23
197,MetaDrive-td3combine-expt_with_safe-leaky-adamw-in-q-weighted,57,201.37778704819763,198410,502,3469.298300266266,,3.814901351928711,23.36941909790039,0.24
198,MetaDrive-td3combine-expt_with_safe-leaky-adamw-in-q-weighted,57,204.75993100692725,199407,504,3488.1082921028137,-21.840776443481445,1.864851951599121,21.378662109375,0.25
199,MetaDrive-td3combine-expt_with_safe-leaky-adamw-in-q-weighted,57,198.53955063315524,200548,506,3514.553866147995,,5.668778419494629,28.320819854736328,0.23
200,MetaDrive-td3combine-expt_with_safe-leaky-adamw-in-q-weighted,57,199.5418494952895,201289,507,3528.434058904648,-21.525123596191406,3.762955904006958,21.307130813598633,0.23
201,MetaDrive-td3combine-expt_with_safe-leaky-adamw-in-q-weighted,57,200.07298845307724,202774,509,3556.1457781791687,,3.3288626670837402,22.874589920043945,0.22
202,MetaDrive-td3combine-expt_with_safe-leaky-adamw-in-q-weighted,56,201.63954660132546,203277,510,3566.405210018158,-28.028209686279297,8.686628341674805,28.274456024169922,0.22
203,MetaDrive-td3combine-expt_with_safe-leaky-adamw-in-q-weighted,56,201.69542098513884,204107,512,3581.7946453094482,-27.694732666015625,10.46261215209961,26.741409301757812,0.22
204,MetaDrive-td3combine-expt_with_safe-leaky-adamw-in-q-weighted,56,200.02187579296486,205099,515,3602.325151205063,-26.604900360107422,13.389573097229004,26.093067169189453,0.21
205,MetaDrive-td3combine-expt_with_safe-leaky-adamw-in-q-weighted,56,202.06577703745262,206100,516,3619.4110271930695,,3.2327466011047363,23.392820358276367,0.21
206,MetaDrive-td3combine-expt_with_safe-leaky-adamw-in-q-weighted,56,203.9976793983486,207491,519,3645.9558770656586,-24.720050811767578,2.782834768295288,24.60883331298828,0.23
207,MetaDrive-td3combine-expt_with_safe-leaky-adamw-in-q-weighted,56,207.73264421334082,208574,521,3666.8420462608337,,3.381500720977783,27.249744415283203,0.24
208,MetaDrive-td3combine-expt_with_safe-leaky-adamw-in-q-weighted,56,207.32343697395427,209298,522,3681.213207960129,,3.4194302558898926,24.488243103027344,0.23
209,MetaDrive-td3combine-expt_with_safe-leaky-adamw-in-q-weighted,56,206.0528405997389,210071,524,3697.9304370880127,-24.47385025024414,2.8288798332214355,23.784616470336914,0.22
210,MetaDrive-td3combine-expt_with_safe-leaky-adamw-in-q-weighted,56,204.6081288662841,211036,526,3715.5291261672974,,14.7620849609375,24.696609497070312,0.22
211,MetaDrive-td3combine-expt_with_safe-leaky-adamw-in-q-weighted,56,207.8493161764819,212071,528,3734.26149225235,-25.60097312927246,1.7972872257232666,25.28079605102539,0.24
212,MetaDrive-td3combine-expt_with_safe-leaky-adamw-in-q-weighted,56,206.0959536880082,213371,530,3760.2254922389984,-25.256011962890625,3.2766261100769043,24.64781951904297,0.24
213,MetaDrive-td3combine-expt_with_safe-leaky-adamw-in-q-weighted,56,202.89585393345035,214399,534,3780.917834997177,-29.917251586914062,3.2398829460144043,29.864850997924805,0.24
214,MetaDrive-td3combine-expt_with_safe-leaky-adamw-in-q-weighted,56,202.47191600712412,215230,535,3796.9240670204163,,11.497547149658203,21.40924835205078,0.24
215,MetaDrive-td3combine-expt_with_safe-leaky-adamw-in-q-weighted,56,202.67593798938518,216231,536,3819.160692214966,-25.422679901123047,33.099212646484375,24.640602111816406,0.24
216,MetaDrive-td3combine-expt_with_safe-leaky-adamw-in-q-weighted,56,201.28068145793588,217310,538,3841.1543033123016,,4.248709678649902,29.32476806640625,0.24
217,MetaDrive-td3combine-expt_with_safe-leaky-adamw-in-q-weighted,56,194.48367031671086,218101,543,3857.0202600955963,-23.733816146850586,1.910163164138794,23.925859451293945,0.23
218,MetaDrive-td3combine-expt_with_safe-leaky-adamw-in-q-weighted,56,195.3300997942053,219532,546,3883.017958164215,,3.3888893127441406,23.8679141998291,0.23
219,MetaDrive-td3combine-expt_with_safe-leaky-adamw-in-q-weighted,56,196.43460196013785,220533,547,3901.0308442115784,-23.66135025024414,2.373762607574463,24.03297233581543,0.23
220,MetaDrive-td3combine-expt_with_safe-leaky-adamw-in-q-weighted,56,199.61231173202577,221510,548,3923.673488140106,,2.8940887451171875,29.03055763244629,0.24
221,MetaDrive-td3combine-expt_with_safe-leaky-adamw-in-q-weighted,56,203.22007541354273,222511,549,3946.487143278122,-25.35588836669922,2.614410877227783,25.273639678955078,0.24
222,MetaDrive-td3combine-expt_with_safe-leaky-adamw-in-q-weighted,56,204.07320467103207,223077,550,3957.9244241714478,-28.803560256958008,5.2009477615356445,28.496200561523438,0.24
223,MetaDrive-td3combine-expt_with_safe-leaky-adamw-in-q-weighted,56,204.68862992463153,224009,552,3974.6354360580444,-29.181230545043945,8.063864707946777,29.27393913269043,0.25
224,MetaDrive-td3combine-expt_with_safe-leaky-adamw-in-q-weighted,56,205.38145274065388,225145,554,3999.436538219452,-26.625221252441406,3.5417885780334473,25.971132278442383,0.25
225,MetaDrive-td3combine-expt_with_safe-leaky-adamw-in-q-weighted,56,207.2079228625389,226048,555,4019.3931319713593,,13.338981628417969,29.974693298339844,0.26
226,MetaDrive-td3combine-expt_with_safe-leaky-adamw-in-q-weighted,56,208.77751395319328,227455,557,4047.5342292785645,-28.17808723449707,5.445291042327881,27.694549560546875,0.26
227,MetaDrive-td3combine-expt_with_safe-leaky-adamw-in-q-weighted,56,208.0428264983066,228031,559,4057.950291156769,-23.291580200195312,2.4184205532073975,23.31226348876953,0.27
228,MetaDrive-td3combine-expt_with_safe-leaky-adamw-in-q-weighted,56,206.78308388410866,229235,562,4079.955418109894,-30.138004302978516,2.4635586738586426,29.824922561645508,0.28
229,MetaDrive-td3combine-expt_with_safe-leaky-adamw-in-q-weighted,56,206.79978381745588,230234,564,4098.7758712768555,,2.7924656867980957,23.412551879882812,0.29
230,MetaDrive-td3combine-expt_with_safe-leaky-adamw-in-q-weighted,56,206.86034546694427,231235,565,4121.0464832782745,-25.87700080871582,2.5775909423828125,25.88241958618164,0.29
231,MetaDrive-td3combine-expt_with_safe-leaky-adamw-in-q-weighted,56,208.56216050518285,232692,567,4150.0458381175995,,2.213792562484741,20.35425567626953,0.3
232,MetaDrive-td3combine-expt_with_safe-leaky-adamw-in-q-weighted,56,211.60378176351657,233693,568,4172.885810136795,-25.821226119995117,18.154312133789062,25.7266788482666,0.3
233,MetaDrive-td3combine-expt_with_safe-leaky-adamw-in-q-weighted,55,211.44233944039402,234037,569,4180.036412239075,-25.7861270904541,2.8580799102783203,25.87670135498047,0.3
234,MetaDrive-td3combine-expt_with_safe-leaky-adamw-in-q-weighted,55,209.88365238380302,235288,571,4207.5990290641785,,2.955780506134033,25.866268157958984,0.3
235,MetaDrive-td3combine-expt_with_safe-leaky-adamw-in-q-weighted,55,209.35999389543275,236524,574,4230.377786159515,,5.16914176940918,24.59779930114746,0.32
236,MetaDrive-td3combine-expt_with_safe-leaky-adamw-in-q-weighted,55,209.83006715258256,237228,575,4242.873727321625,,2.4402871131896973,23.528484344482422,0.33
237,MetaDrive-td3combine-expt_with_safe-leaky-adamw-in-q-weighted,55,209.89164903089994,238579,577,4274.989487171173,-25.97967529296875,60.63933563232422,26.07617950439453,0.32
238,MetaDrive-td3combine-expt_with_safe-leaky-adamw-in-q-weighted,55,207.86983391730922,239081,578,4285.068165063858,-24.117448806762695,2.2867624759674072,23.627893447875977,0.32
239,MetaDrive-td3combine-expt_with_safe-leaky-adamw-in-q-weighted,55,208.4837012081777,240511,580,4321.626798152924,-27.450716018676758,1.858520269393921,26.979595184326172,0.32
240,MetaDrive-td3combine-expt_with_safe-leaky-adamw-in-q-weighted,55,205.75088738480486,241104,582,4332.92728805542,,4.141582489013672,25.11272621154785,0.32
241,MetaDrive-td3combine-expt_with_safe-leaky-adamw-in-q-weighted,55,207.71338382554336,242507,584,4368.78871512413,-28.53068733215332,6.166723251342773,28.198328018188477,0.31
242,MetaDrive-td3combine-expt_with_safe-leaky-adamw-in-q-weighted,55,210.07171948118412,243453,585,4387.409941196442,-21.856185913085938,3.982895612716675,21.87047004699707,0.32
243,MetaDrive-td3combine-expt_with_safe-leaky-adamw-in-q-weighted,55,210.4413865290076,244092,586,4401.45521402359,,2.7428860664367676,26.2618465423584,0.33
244,MetaDrive-td3combine-expt_with_safe-leaky-adamw-in-q-weighted,55,211.57829612663826,245329,588,4428.812066078186,-29.079204559326172,2.4449667930603027,28.748201370239258,0.33
245,MetaDrive-td3combine-expt_with_safe-leaky-adamw-in-q-weighted,55,209.24213677705427,246618,590,4462.916444063187,,3.2738876342773438,30.62687110900879,0.32
246,MetaDrive-td3combine-expt_with_safe-leaky-adamw-in-q-weighted,55,209.61679130377783,247505,591,4480.088650226593,-26.45362091064453,3.7275352478027344,26.88362693786621,0.32
247,MetaDrive-td3combine-expt_with_safe-leaky-adamw-in-q-weighted,55,209.96810001766923,248506,592,4501.066768169403,,3.1353063583374023,26.801565170288086,0.31
248,MetaDrive-td3combine-expt_with_safe-leaky-adamw-in-q-weighted,55,212.46359730264118,249067,593,4512.23573923111,-26.88189125061035,7.324383735656738,26.593969345092773,0.32
249,MetaDrive-td3combine-expt_with_safe-leaky-adamw-in-q-weighted,55,212.57064970573776,250686,597,4554.547151088715,,1.8303489685058594,24.268909454345703,0.32
250,MetaDrive-td3combine-expt_with_safe-leaky-adamw-in-q-weighted,55,213.7339397661557,251207,598,4563.637668132782,-29.19451332092285,2.631974220275879,29.363433837890625,0.33
251,MetaDrive-td3combine-expt_with_safe-leaky-adamw-in-q-weighted,55,210.63267280284725,252078,601,4579.566583156586,,2.735525608062744,25.24525260925293,0.33
252,MetaDrive-td3combine-expt_with_safe-leaky-adamw-in-q-weighted,54,210.51087723650718,253668,603,4613.319000005722,,3.6712522506713867,27.61137580871582,0.33
253,MetaDrive-td3combine-expt_with_safe-leaky-adamw-in-q-weighted,54,209.3211126567985,254211,604,4625.534434080124,-25.353750228881836,3.7764172554016113,25.548175811767578,0.32
254,MetaDrive-td3combine-expt_with_safe-leaky-adamw-in-q-weighted,54,210.1305804565579,255615,606,4654.360780000687,-29.05858612060547,3.420539379119873,28.99173355102539,0.32
255,MetaDrive-td3combine-expt_with_safe-leaky-adamw-in-q-weighted,54,208.8763146026313,256285,607,4667.840269088745,-27.479747772216797,2.263038158416748,27.156877517700195,0.32
256,MetaDrive-td3combine-expt_with_safe-leaky-adamw-in-q-weighted,54,210.3402973739586,257279,609,4687.623380184174,-22.6195011138916,2.2952990531921387,22.359712600708008,0.33
257,MetaDrive-td3combine-expt_with_safe-leaky-adamw-in-q-weighted,54,209.999023332519,258280,610,4709.294517040253,,6.772920608520508,25.89337158203125,0.33
258,MetaDrive-td3combine-expt_with_safe-leaky-adamw-in-q-weighted,54,210.35241803717108,259501,612,4738.880629062653,-27.784059524536133,2.3934426307678223,27.466636657714844,0.33
259,MetaDrive-td3combine-expt_with_safe-leaky-adamw-in-q-weighted,54,211.22358810664448,260502,613,4764.153833150864,,7.198352813720703,29.413259506225586,0.33
260,MetaDrive-td3combine-expt_with_safe-leaky-adamw-in-q-weighted,54,212.08408305389435,261503,614,4790.981339216232,-26.05967903137207,3.0632665157318115,26.3577938079834,0.33
261,MetaDrive-td3combine-expt_with_safe-leaky-adamw-in-q-weighted,54,210.16121307984156,262920,617,4823.028465270996,,4.816842079162598,29.277183532714844,0.33
262,MetaDrive-td3combine-expt_with_safe-leaky-adamw-in-q-weighted,54,208.35946245423153,263200,618,4829.018993139267,,3.7069735527038574,25.42452621459961,0.32
263,MetaDrive-td3combine-expt_with_safe-leaky-adamw-in-q-weighted,54,207.0153392327779,264201,619,4852.237460136414,-26.594615936279297,3.3367562294006348,26.207351684570312,0.31
264,MetaDrive-td3combine-expt_with_safe-leaky-adamw-in-q-weighted,54,200.3695671965588,265206,623,4871.341938257217,,3.5063822269439697,27.52131462097168,0.29
265,MetaDrive-td3combine-expt_with_safe-leaky-adamw-in-q-weighted,54,201.02122453842546,266341,625,4897.201386928558,-24.311847686767578,2.056323766708374,23.916141510009766,0.29
266,MetaDrive-td3combine-expt_with_safe-leaky-adamw-in-q-weighted,54,201.74625061867758,267712,627,4926.3944890499115,,3.5238804817199707,28.578989028930664,0.29
267,MetaDrive-td3combine-expt_with_safe-leaky-adamw-in-q-weighted,54,200.58805238986545,268713,628,4954.715302228928,-25.521286010742188,4.5036845207214355,26.095874786376953,0.28
268,MetaDrive-td3combine-expt_with_safe-leaky-adamw-in-q-weighted,54,200.59676665417382,269953,631,4980.804701089859,-23.140562057495117,2.5042364597320557,23.288476943969727,0.28
269,MetaDrive-td3combine-expt_with_safe-leaky-adamw-in-q-weighted,54,202.4508247352177,270681,632,4996.112191200256,-28.9088077545166,2.702141284942627,28.097951889038086,0.28
270,MetaDrive-td3combine-expt_with_safe-leaky-adamw-in-q-weighted,54,204.39716367024772,271682,633,5019.442882061005,,4.804946422576904,27.419416427612305,0.28
271,MetaDrive-td3combine-expt_with_safe-leaky-adamw-in-q-weighted,54,202.58482642884755,272033,634,5027.46157002449,-27.622634887695312,2.701845645904541,27.81304359436035,0.27
272,MetaDrive-td3combine-expt_with_safe-leaky-adamw-in-q-weighted,54,202.07870231456755,273541,636,5058.008231163025,-26.747272491455078,59.74412536621094,26.4052734375,0.27
273,MetaDrive-td3combine-expt_with_safe-leaky-adamw-in-q-weighted,54,199.6907220416427,274749,639,5083.4877140522,-26.6182804107666,2.2363171577453613,26.809932708740234,0.26
274,MetaDrive-td3combine-expt_with_safe-leaky-adamw-in-q-weighted,53,201.3804729965844,275750,640,5107.124842166901,,5.252437114715576,27.092737197875977,0.26
275,MetaDrive-td3combine-expt_with_safe-leaky-adamw-in-q-weighted,53,203.36578893078888,276272,641,5117.720685005188,,4.192157745361328,24.271799087524414,0.26
276,MetaDrive-td3combine-expt_with_safe-leaky-adamw-in-q-weighted,53,205.77529474839827,277831,643,5151.25461602211,-26.112476348876953,2.9143052101135254,25.97468376159668,0.27
277,MetaDrive-td3combine-expt_with_safe-leaky-adamw-in-q-weighted,53,207.4363497620468,278832,644,5177.41029214859,,2.929903030395508,28.489139556884766,0.27
278,MetaDrive-td3combine-expt_with_safe-leaky-adamw-in-q-weighted,53,208.573978802897,279656,645,5193.415204048157,,4.79667854309082,26.42508316040039,0.28
279,MetaDrive-td3combine-expt_with_safe-leaky-adamw-in-q-weighted,53,207.82566514714085,280657,646,5219.865602970123,-28.134105682373047,3.599778175354004,28.301685333251953,0.27
280,MetaDrive-td3combine-expt_with_safe-leaky-adamw-in-q-weighted,53,208.8371016338743,281206,647,5229.907493114471,,3.836463451385498,22.293209075927734,0.28
281,MetaDrive-td3combine-expt_with_safe-leaky-adamw-in-q-weighted,53,206.18144423058442,282207,648,5253.631273269653,-23.315631866455078,9.385276794433594,23.031362533569336,0.27
282,MetaDrive-td3combine-expt_with_safe-leaky-adamw-in-q-weighted,53,204.9510962823876,283470,650,5281.798176050186,,6.755465507507324,25.834548950195312,0.27
283,MetaDrive-td3combine-expt_with_safe-leaky-adamw-in-q-weighted,53,207.5290753983569,284931,652,5311.082574129105,-24.852571487426758,2.583789348602295,24.859519958496094,0.28
284,MetaDrive-td3combine-expt_with_safe-leaky-adamw-in-q-weighted,53,207.96454728160654,285480,653,5320.572284221649,,3.0504133701324463,27.714141845703125,0.29
285,MetaDrive-td3combine-expt_with_safe-leaky-adamw-in-q-weighted,53,209.18359310310956,286404,654,5344.389480113983,,1.8941876888275146,26.24159049987793,0.29
286,MetaDrive-td3combine-expt_with_safe-leaky-adamw-in-q-weighted,53,207.5484175877952,287010,655,5361.65730214119,,3.2058093547821045,27.2982177734375,0.28
287,MetaDrive-td3combine-expt_with_safe-leaky-adamw-in-q-weighted,53,205.7720708812408,288277,657,5388.791046142578,-26.083698272705078,3.138704299926758,26.19864273071289,0.27
288,MetaDrive-td3combine-expt_with_safe-leaky-adamw-in-q-weighted,53,205.13556401181114,289365,659,5415.115306138992,-27.16163444519043,3.197108507156372,27.201980590820312,0.26
289,MetaDrive-td3combine-expt_with_safe-leaky-adamw-in-q-weighted,53,208.6198727904804,290252,660,5433.493897199631,,4.745938301086426,27.67599105834961,0.27
290,MetaDrive-td3combine-expt_with_safe-leaky-adamw-in-q-weighted,53,207.94803411146628,291099,661,5450.151665210724,-24.333545684814453,3.608351707458496,24.326929092407227,0.26
291,MetaDrive-td3combine-expt_with_safe-leaky-adamw-in-q-weighted,53,206.0017395573759,292532,663,5481.460077047348,,3.2449259757995605,25.09688377380371,0.24
292,MetaDrive-td3combine-expt_with_safe-leaky-adamw-in-q-weighted,53,207.40585526559641,293533,664,5509.866959095001,-30.051342010498047,2.9996743202209473,30.199302673339844,0.24
293,MetaDrive-td3combine-expt_with_safe-leaky-adamw-in-q-weighted,53,207.86172574616216,294069,665,5519.555202007294,-31.143077850341797,3.8599469661712646,30.93691635131836,0.25
294,MetaDrive-td3combine-expt_with_safe-leaky-adamw-in-q-weighted,53,209.7399238910395,295705,667,5555.674738168716,-26.984411239624023,3.7911012172698975,26.42679786682129,0.25
295,MetaDrive-td3combine-expt_with_safe-leaky-adamw-in-q-weighted,53,208.2118492231309,296706,668,5585.225681066513,,3.962388277053833,26.353633880615234,0.25
296,MetaDrive-td3combine-expt_with_safe-leaky-adamw-in-q-weighted,53,208.4178315326001,297707,669,5612.431442260742,-24.240283966064453,10.303314208984375,23.643692016601562,0.25
297,MetaDrive-td3combine-expt_with_safe-leaky-adamw-in-q-weighted,53,210.0575975950877,298474,670,5627.355200052261,,8.421326637268066,26.809083938598633,0.26
298,MetaDrive-td3combine-expt_with_safe-leaky-adamw-in-q-weighted,53,210.7893039882742,299424,671,5647.172700166702,,9.694412231445312,24.581960678100586,0.26
299,MetaDrive-td3combine-expt_with_safe-leaky-adamw-in-q-weighted,53,213.05293721398758,300732,673,5673.305304050446,,6.407068252563477,27.33363914489746,0.27
300,MetaDrive-td3combine-expt_with_safe-leaky-adamw-in-q-weighted,52,211.55635789091878,301506,674,5690.161986112595,,1.9393975734710693,25.589370727539062,0.26
301,MetaDrive-td3combine-expt_with_safe-leaky-adamw-in-q-weighted,52,209.6406131491689,302507,675,5713.559697151184,-25.549510955810547,3.8310322761535645,25.705169677734375,0.25
302,MetaDrive-td3combine-expt_with_safe-leaky-adamw-in-q-weighted,52,210.97424054205362,303048,676,5723.163853168488,,3.709946632385254,31.458446502685547,0.26
303,MetaDrive-td3combine-expt_with_safe-leaky-adamw-in-q-weighted,52,212.15108841256682,304433,678,5755.973741054535,-25.552265167236328,5.052516937255859,25.926998138427734,0.26
304,MetaDrive-td3combine-expt_with_safe-leaky-adamw-in-q-weighted,52,210.77568531264816,305059,680,5770.320538043976,-26.296144485473633,2.770465612411499,26.119524002075195,0.26
305,MetaDrive-td3combine-expt_with_safe-leaky-adamw-in-q-weighted,52,212.4774415044034,306305,682,5795.547195196152,-27.238697052001953,2.842358112335205,26.946496963500977,0.26
306,MetaDrive-td3combine-expt_with_safe-leaky-adamw-in-q-weighted,52,211.31137219679468,307401,684,5817.096486091614,-27.50936508178711,4.506444931030273,26.900577545166016,0.27
307,MetaDrive-td3combine-expt_with_safe-leaky-adamw-in-q-weighted,52,210.17809988820952,308245,685,5834.607329130173,-27.006296157836914,3.221656322479248,26.25698471069336,0.27
308,MetaDrive-td3combine-expt_with_safe-leaky-adamw-in-q-weighted,52,210.18946248593033,309608,687,5862.423827171326,,3.9003543853759766,23.608638763427734,0.27
309,MetaDrive-td3combine-expt_with_safe-leaky-adamw-in-q-weighted,52,211.69012292841705,310398,688,5879.306882143021,,3.693507194519043,25.97559356689453,0.28
310,MetaDrive-td3combine-expt_with_safe-leaky-adamw-in-q-weighted,52,213.8352933819846,311567,690,5899.33629822731,-26.73248291015625,4.185807704925537,26.340003967285156,0.29
311,MetaDrive-td3combine-expt_with_safe-leaky-adamw-in-q-weighted,52,214.97792726284285,312497,691,5913.632828235626,-27.397859573364258,7.9060869216918945,27.087308883666992,0.3
312,MetaDrive-td3combine-expt_with_safe-leaky-adamw-in-q-weighted,52,214.34732553865715,313139,692,5924.409564256668,-28.41659927368164,3.9706032276153564,27.573341369628906,0.31
313,MetaDrive-td3combine-expt_with_safe-leaky-adamw-in-q-weighted,52,214.69868278292952,314598,695,5951.340235948563,,8.275911331176758,29.48682403564453,0.31
314,MetaDrive-td3combine-expt_with_safe-leaky-adamw-in-q-weighted,52,216.5179730178838,315588,697,5967.410378932953,,3.916228771209717,28.3953800201416,0.32
315,MetaDrive-td3combine-expt_with_safe-leaky-adamw-in-q-weighted,52,214.58165900019617,316883,699,5992.18216919899,-26.398311614990234,4.698939323425293,26.357666015625,0.3
316,MetaDrive-td3combine-expt_with_safe-leaky-adamw-in-q-weighted,52,214.61985935036185,317115,700,5997.052170991898,-25.823833465576172,5.525561332702637,25.951961517333984,0.3
317,MetaDrive-td3combine-expt_with_safe-leaky-adamw-in-q-weighted,52,216.7367332903048,318116,701,6018.516359090805,,2.2565431594848633,26.143136978149414,0.3
318,MetaDrive-td3combine-expt_with_safe-leaky-adamw-in-q-weighted,52,217.1463742829028,319175,704,6037.418596029282,-24.442501068115234,2.290402889251709,24.511302947998047,0.3
319,MetaDrive-td3combine-expt_with_safe-leaky-adamw-in-q-weighted,52,217.37263323683774,320631,707,6061.176757097244,-24.485261917114258,2.801326274871826,24.364151000976562,0.31
320,MetaDrive-td3combine-expt_with_safe-leaky-adamw-in-q-weighted,52,218.64397142801178,321105,708,6069.960053920746,-28.260467529296875,2.8354387283325195,27.505279541015625,0.31
321,MetaDrive-td3combine-expt_with_safe-leaky-adamw-in-q-weighted,52,216.02582586798403,322168,711,6089.548800945282,,1.9474905729293823,22.140769958496094,0.31
322,MetaDrive-td3combine-expt_with_safe-leaky-adamw-in-q-weighted,52,212.88821043071724,323017,715,6104.358933210373,-23.799509048461914,3.3338475227355957,23.5367374420166,0.32
323,MetaDrive-td3combine-expt_with_safe-leaky-adamw-in-q-weighted,52,213.4472816349974,324635,717,6137.614480018616,-26.09762191772461,11.198709487915039,25.19852066040039,0.32
324,MetaDrive-td3combine-expt_with_safe-leaky-adamw-in-q-weighted,52,213.86839173282937,325048,718,6144.339497327805,,2.2827348709106445,24.775758743286133,0.32
325,MetaDrive-td3combine-expt_with_safe-leaky-adamw-in-q-weighted,52,218.12473009658316,326473,720,6165.360006093979,-26.768144607543945,2.5711863040924072,26.769481658935547,0.34
326,MetaDrive-td3combine-expt_with_safe-leaky-adamw-in-q-weighted,52,220.5881970109689,327474,721,6185.922188997269,,5.2964887619018555,24.37641143798828,0.34
327,MetaDrive-td3combine-expt_with_safe-leaky-adamw-in-q-weighted,52,222.62472922938525,328094,722,6194.869822263718,,5.452550888061523,31.14691162109375,0.35
328,MetaDrive-td3combine-expt_with_safe-leaky-adamw-in-q-weighted,52,222.0987485379593,329095,723,6211.743089199066,-27.041175842285156,8.946792602539062,27.17083740234375,0.35
329,MetaDrive-td3combine-expt_with_safe-leaky-adamw-in-q-weighted,52,221.38265742715285,330517,725,6238.992686033249,-28.217065811157227,3.1706786155700684,27.65258026123047,0.35
330,MetaDrive-td3combine-expt_with_safe-leaky-adamw-in-q-weighted,52,219.05862294053972,331436,727,6253.75291800499,,3.818939685821533,26.214405059814453,0.34
331,MetaDrive-td3combine-expt_with_safe-leaky-adamw-in-q-weighted,53,220.57260580589,332959,729,6279.028379201889,-28.76420021057129,6.134350299835205,28.607521057128906,0.35
332,MetaDrive-td3combine-expt_with_safe-leaky-adamw-in-q-weighted,53,221.228126616345,333350,730,6285.826032161713,,3.314507007598877,28.219375610351562,0.35
333,MetaDrive-td3combine-expt_with_safe-leaky-adamw-in-q-weighted,53,221.48178295013298,334018,731,6295.5605590343475,,2.7824554443359375,28.305986404418945,0.36
334,MetaDrive-td3combine-expt_with_safe-leaky-adamw-in-q-weighted,53,219.49946127863655,335034,734,6314.38750910759,,1.360543966293335,27.759342193603516,0.36
335,MetaDrive-td3combine-expt_with_safe-leaky-adamw-in-q-weighted,53,218.8476037435268,336139,736,6331.436516046524,-24.719736099243164,6.922476768493652,24.30653190612793,0.35
336,MetaDrive-td3combine-expt_with_safe-leaky-adamw-in-q-weighted,53,220.51447886141847,337002,737,6347.789839029312,,5.095566749572754,28.31403160095215,0.35
337,MetaDrive-td3combine-expt_with_safe-leaky-adamw-in-q-weighted,53,221.8532917957031,338234,740,6365.791275024414,,5.657425880432129,23.35873794555664,0.37
338,MetaDrive-td3combine-expt_with_safe-leaky-adamw-in-q-weighted,53,222.6938297963193,339235,741,6386.076521158218,-25.648242950439453,6.170732498168945,26.190031051635742,0.37
339,MetaDrive-td3combine-expt_with_safe-leaky-adamw-in-q-weighted,53,223.91892808799628,340753,743,6419.495749235153,-25.771282196044922,2.5440220832824707,25.95415687561035,0.37
340,MetaDrive-td3combine-expt_with_safe-leaky-adamw-in-q-weighted,53,225.15091083668477,341407,744,6429.792583227158,-28.184207916259766,4.582424640655518,28.134660720825195,0.38
341,MetaDrive-td3combine-expt_with_safe-leaky-adamw-in-q-weighted,53,223.5984212297301,342352,745,6449.489130973816,,4.464054107666016,27.037757873535156,0.37
342,MetaDrive-td3combine-expt_with_safe-leaky-adamw-in-q-weighted,53,223.18243516291767,343353,746,6471.718725204468,-29.305238723754883,3.298856258392334,29.371488571166992,0.37
343,MetaDrive-td3combine-expt_with_safe-leaky-adamw-in-q-weighted,53,223.28664530245499,344165,747,6484.258377313614,-28.30927276611328,3.1776163578033447,28.27106285095215,0.37
344,MetaDrive-td3combine-expt_with_safe-leaky-adamw-in-q-weighted,53,223.82996461359718,345688,749,6518.482861042023,,2.0004701614379883,32.024776458740234,0.37
345,MetaDrive-td3combine-expt_with_safe-leaky-adamw-in-q-weighted,53,223.19994819388833,346058,750,6525.000282049179,,5.386074066162109,21.068029403686523,0.37
346,MetaDrive-td3combine-expt_with_safe-leaky-adamw-in-q-weighted,53,214.6351135530888,347822,754,6555.065866947174,,1.8749107122421265,28.115074157714844,0.34
347,MetaDrive-td3combine-expt_with_safe-leaky-adamw-in-q-weighted,53,214.9655774702065,348260,755,6561.61489200592,,5.628908157348633,26.999319076538086,0.35
348,MetaDrive-td3combine-expt_with_safe-leaky-adamw-in-q-weighted,53,216.67200378389936,349635,758,6582.1831221580505,-28.309326171875,1.6414532661437988,27.857078552246094,0.37
349,MetaDrive-td3combine-expt_with_safe-leaky-adamw-in-q-weighted,53,216.90352818941648,350149,759,6591.113349199295,-28.40130615234375,3.6740477085113525,28.18643569946289,0.38
350,MetaDrive-td3combine-expt_with_safe-leaky-adamw-in-q-weighted,53,215.94139637044057,351150,760,6609.752737998962,,2.7877769470214844,27.226886749267578,0.37
351,MetaDrive-td3combine-expt_with_safe-leaky-adamw-in-q-weighted,53,214.9170739567481,352151,761,6626.316982984543,-24.293819427490234,3.5403554439544678,24.68832778930664,0.37
352,MetaDrive-td3combine-expt_with_safe-leaky-adamw-in-q-weighted,53,217.4543903105354,353707,763,6652.67117524147,-29.411531448364258,3.5374913215637207,29.366100311279297,0.39
353,MetaDrive-td3combine-expt_with_safe-leaky-adamw-in-q-weighted,53,213.5118067170774,354785,765,6675.058602333069,-30.769264221191406,3.42283296585083,30.234821319580078,0.38
354,MetaDrive-td3combine-expt_with_safe-leaky-adamw-in-q-weighted,53,212.68006113836864,355283,766,6684.237131118774,-25.523927688598633,2.920109748840332,25.27972984313965,0.37
355,MetaDrive-td3combine-expt_with_safe-leaky-adamw-in-q-weighted,53,211.3128089702538,356284,767,6702.1713671684265,,4.860019683837891,25.871017456054688,0.37
356,MetaDrive-td3combine-expt_with_safe-leaky-adamw-in-q-weighted,53,212.77827584767766,357192,768,6717.376518249512,,3.3206043243408203,29.422718048095703,0.38
357,MetaDrive-td3combine-expt_with_safe-leaky-adamw-in-q-weighted,53,210.54799109905096,358967,771,6751.87967300415,-32.60655212402344,3.337803363800049,32.084510803222656,0.36
358,MetaDrive-td3combine-expt_with_safe-leaky-adamw-in-q-weighted,53,211.75746183374773,359711,772,6764.143862962723,-24.597957611083984,2.1676599979400635,24.556781768798828,0.36
359,MetaDrive-td3combine-expt_with_safe-leaky-adamw-in-q-weighted,53,211.61601088474782,360215,773,6772.94696521759,-25.344480514526367,6.312830924987793,25.378334045410156,0.35
360,MetaDrive-td3combine-expt_with_safe-leaky-adamw-in-q-weighted,53,212.01698943636592,361216,774,6793.34138417244,,2.8030524253845215,28.495283126831055,0.35
361,MetaDrive-td3combine-expt_with_safe-leaky-adamw-in-q-weighted,53,211.4829101253314,362059,776,6809.822476148605,-27.48824119567871,18.67346954345703,27.402923583984375,0.35
362,MetaDrive-td3combine-expt_with_safe-leaky-adamw-in-q-weighted,53,212.66930748883973,363883,778,6843.34764790535,-28.097007751464844,3.303330183029175,27.682220458984375,0.35
363,MetaDrive-td3combine-expt_with_safe-leaky-adamw-in-q-weighted,53,213.10283724370692,364093,779,6846.935595035553,-25.717041015625,3.1620030403137207,25.532367706298828,0.35
364,MetaDrive-td3combine-expt_with_safe-leaky-adamw-in-q-weighted,53,212.34764613197953,365784,782,6881.636430025101,,6.161309242248535,24.180757522583008,0.35
365,MetaDrive-td3combine-expt_with_safe-leaky-adamw-in-q-weighted,53,212.56100903942013,366785,783,6906.372291088104,-25.44308090209961,3.6031906604766846,25.3605899810791,0.35
366,MetaDrive-td3combine-expt_with_safe-leaky-adamw-in-q-weighted,53,212.9478302080656,367786,784,6926.532702207565,,5.418845176696777,27.064624786376953,0.34
367,MetaDrive-td3combine-expt_with_safe-leaky-adamw-in-q-weighted,53,213.09750495690147,368759,785,6943.623769044876,-27.908428192138672,5.260301113128662,28.318479537963867,0.33
368,MetaDrive-td3combine-expt_with_safe-leaky-adamw-in-q-weighted,53,214.02414635172423,369549,786,6958.900894165039,-26.86927032470703,3.463179588317871,27.00208282470703,0.34
369,MetaDrive-td3combine-expt_with_safe-leaky-adamw-in-q-weighted,53,209.71744046811307,370010,788,6967.153944015503,,5.34391975402832,25.233642578125,0.32
370,MetaDrive-td3combine-expt_with_safe-leaky-adamw-in-q-weighted,53,206.94315762268286,371408,791,6991.204477310181,,1.9658875465393066,28.860740661621094,0.31
371,MetaDrive-td3combine-expt_with_safe-leaky-adamw-in-q-weighted,53,205.54191706718345,372175,793,7004.479011058807,-28.0960636138916,4.543204307556152,28.106849670410156,0.3
372,MetaDrive-td3combine-expt_with_safe-leaky-adamw-in-q-weighted,53,208.09866815083925,373087,794,7022.86568903923,-29.618980407714844,3.9237844944000244,29.033611297607422,0.31
373,MetaDrive-td3combine-expt_with_safe-leaky-adamw-in-q-weighted,53,206.78602656843125,374239,796,7046.835921049118,-25.12676429748535,2.1567091941833496,24.68219757080078,0.3
374,MetaDrive-td3combine-expt_with_safe-leaky-adamw-in-q-weighted,53,206.71164496300366,375240,797,7074.553870201111,,6.933100700378418,28.43407440185547,0.29
375,MetaDrive-td3combine-expt_with_safe-leaky-adamw-in-q-weighted,53,207.83531481642274,376445,799,7095.779784202576,-29.883758544921875,5.882186412811279,29.430471420288086,0.29
376,MetaDrive-td3combine-expt_with_safe-leaky-adamw-in-q-weighted,53,209.17806834209884,377309,801,7111.492081165314,-27.66451644897461,4.297313213348389,27.397602081298828,0.3
377,MetaDrive-td3combine-expt_with_safe-leaky-adamw-in-q-weighted,53,211.63185230413762,378453,803,7130.959346294403,-24.70414924621582,3.278242826461792,24.58354377746582,0.3
378,MetaDrive-td3combine-expt_with_safe-leaky-adamw-in-q-weighted,53,208.17317005059306,379431,805,7151.844856977463,-25.432601928710938,3.9555087089538574,25.65805435180664,0.28
379,MetaDrive-td3combine-expt_with_safe-leaky-adamw-in-q-weighted,53,207.96003975815452,380096,807,7162.46773314476,,3.4445786476135254,26.25119400024414,0.28
380,MetaDrive-td3combine-expt_with_safe-leaky-adamw-in-q-weighted,53,207.4894658048805,381185,809,7181.285604000092,-28.09433364868164,2.1543126106262207,28.24279022216797,0.29
381,MetaDrive-td3combine-expt_with_safe-leaky-adamw-in-q-weighted,53,210.59551015683178,382186,810,7206.191829204559,,2.970897912979126,29.80792236328125,0.29
382,MetaDrive-td3combine-expt_with_safe-leaky-adamw-in-q-weighted,53,215.00394513177127,383790,812,7236.500319242477,,2.8255553245544434,26.892723083496094,0.3
383,MetaDrive-td3combine-expt_with_safe-leaky-adamw-in-q-weighted,53,215.7126323700989,384959,814,7259.664251089096,-29.977882385253906,5.27998161315918,30.761241912841797,0.3
384,MetaDrive-td3combine-expt_with_safe-leaky-adamw-in-q-weighted,53,217.90747241586058,385397,815,7269.589577198029,-25.835399627685547,13.983087539672852,25.977630615234375,0.3
385,MetaDrive-td3combine-expt_with_safe-leaky-adamw-in-q-weighted,53,217.2019035757157,386398,816,7289.745343208313,,3.9230194091796875,28.615737915039062,0.3
386,MetaDrive-td3combine-expt_with_safe-leaky-adamw-in-q-weighted,52,218.80557979727612,387316,817,7308.760427951813,,3.3797574043273926,25.581634521484375,0.31
387,MetaDrive-td3combine-expt_with_safe-leaky-adamw-in-q-weighted,52,219.2663572004891,388317,818,7327.620038032532,-26.430469512939453,6.103832244873047,26.035097122192383,0.31
388,MetaDrive-td3combine-expt_with_safe-leaky-adamw-in-q-weighted,52,216.0648213378408,389187,820,7344.739510059357,-30.192886352539062,6.749932765960693,29.733142852783203,0.29
389,MetaDrive-td3combine-expt_with_safe-leaky-adamw-in-q-weighted,52,215.56720809356548,390188,821,7370.520993947983,,4.421661376953125,26.259578704833984,0.29
390,MetaDrive-td3combine-expt_with_safe-leaky-adamw-in-q-weighted,52,215.71916068617026,391189,822,7393.723264932632,-27.421058654785156,5.8005781173706055,27.21537208557129,0.28
391,MetaDrive-td3combine-expt_with_safe-leaky-adamw-in-q-weighted,52,217.14697781812808,392190,823,7420.90834403038,,6.622854232788086,26.7022762298584,0.28
392,MetaDrive-td3combine-expt_with_safe-leaky-adamw-in-q-weighted,52,220.18937005880656,393191,824,7444.395467042923,-26.160037994384766,3.1246180534362793,26.231653213500977,0.28
393,MetaDrive-td3combine-expt_with_safe-leaky-adamw-in-q-weighted,52,219.8122330179242,394028,826,7459.810494184494,,2.6144862174987793,33.41371536254883,0.29
394,MetaDrive-td3combine-expt_with_safe-leaky-adamw-in-q-weighted,52,221.7783303610914,395511,828,7486.983727216721,-21.52106285095215,3.445773124694824,21.597034454345703,0.29
395,MetaDrive-td3combine-expt_with_safe-leaky-adamw-in-q-weighted,52,222.75162723490138,396296,829,7502.456299066544,,4.4249138832092285,27.828222274780273,0.29
396,MetaDrive-td3combine-expt_with_safe-leaky-adamw-in-q-weighted,52,221.49687123380943,397225,831,7520.822649002075,-29.14916229248047,6.898024082183838,28.88230323791504,0.28
397,MetaDrive-td3combine-expt_with_safe-leaky-adamw-in-q-weighted,52,224.66710345174837,398563,833,7542.000142097473,-25.469186782836914,2.4322516918182373,25.085908889770508,0.3
398,MetaDrive-td3combine-expt_with_safe-leaky-adamw-in-q-weighted,52,224.6859330755337,399502,834,7559.500189304352,,2.11832857131958,26.26251983642578,0.3
