TanmayH/CS269-RL-project-code/MetaDrive-td3combine-expt_with_safe/MetaDrive-Gen-Next-v0/td3/progress.csv
,log_dir,frame_per_second,episode_reward,total_steps,total_episodes,total_time,target_q,actor_loss,critic_loss,success_rate
0,MetaDrive-td3combine-expt_with_safe,206,0.5132396898128722,1856,2,8.997470617294312,,,,0.0
1,MetaDrive-td3combine-expt_with_safe,215,1.4320347500502326,2857,3,13.284812688827515,,,,0.0
2,MetaDrive-td3combine-expt_with_safe,214,1.9394635264069167,3858,4,17.998006582260132,,,,0.0
3,MetaDrive-td3combine-expt_with_safe,212,2.0605039637866427,4859,5,22.914002418518066,,,,0.0
4,MetaDrive-td3combine-expt_with_safe,182,1.358888077531094,5829,6,31.934431791305542,-0.16176144778728485,0.1586337685585022,5.3914209274807945e-05,0.0
5,MetaDrive-td3combine-expt_with_safe,167,-1.371799507108928,6008,14,35.94527339935303,-0.23458781838417053,,0.7302923798561096,0.0
6,MetaDrive-td3combine-expt_with_safe,145,-2.0186111091945294,7731,22,53.226468324661255,-0.12142950296401978,0.15306563675403595,0.006413545459508896,0.0
7,MetaDrive-td3combine-expt_with_safe,137,-2.005904513523828,8732,23,63.39376354217529,-0.11871076375246048,,0.00022744912712369114,0.0
8,MetaDrive-td3combine-expt_with_safe,135,-2.36820850193277,9336,26,68.86351799964905,-0.11753669381141663,,0.0030171885155141354,0.0
9,MetaDrive-td3combine-expt_with_safe,130,-2.6316894808946176,10666,29,81.93357515335083,-0.09572039544582367,,0.0010357500286772847,0.0
10,MetaDrive-td3combine-expt_with_safe,127,-2.860217982060891,11480,31,90.13545250892639,-0.09764553606510162,,0.001178503385744989,0.0
11,MetaDrive-td3combine-expt_with_safe,126,-2.962226289974218,12601,33,99.71698522567749,-0.09835212677717209,0.11536657810211182,0.0009663773234933615,0.0
12,MetaDrive-td3combine-expt_with_safe,124,-2.968428800219055,13602,34,109.36041212081909,-0.09909259527921677,,0.0005461476976051927,0.0
13,MetaDrive-td3combine-expt_with_safe,121,-2.9707004038577787,14603,35,119.87972903251648,-0.1020178273320198,0.14092813432216644,0.009968649595975876,0.0
14,MetaDrive-td3combine-expt_with_safe,120,-2.8690986194313663,15604,36,129.4608826637268,-0.10279080271720886,,0.010159604251384735,0.0
15,MetaDrive-td3combine-expt_with_safe,119,-2.6008520879750217,16502,37,138.60258054733276,-0.165607750415802,,0.7407571077346802,0.0
16,MetaDrive-td3combine-expt_with_safe,115,-1.700365649222375,17112,50,147.56137990951538,-0.08227547258138657,,0.0006004361202940345,0.0
17,MetaDrive-td3combine-expt_with_safe,112,-0.8749784522066753,18021,73,160.64595675468445,-0.03003770485520363,0.032787978649139404,0.012032410129904747,0.0
18,MetaDrive-td3combine-expt_with_safe,108,-0.5135666130262855,19017,100,175.67088961601257,-0.002198860514909029,0.020738430321216583,0.015324650332331657,0.0
19,MetaDrive-td3combine-expt_with_safe,105,-0.02571941812348599,20023,123,189.90604376792908,-0.028780607506632805,-0.052833810448646545,0.7220500111579895,0.0
20,MetaDrive-td3combine-expt_with_safe,102,0.8697670811192809,21046,147,204.55953550338745,0.1226469948887825,,0.006238726433366537,0.0
21,MetaDrive-td3combine-expt_with_safe,101,1.0283547496904968,22004,169,216.99210500717163,0.18078547716140747,,0.008540188893675804,0.0
22,MetaDrive-td3combine-expt_with_safe,99,3.421802608691692,23049,191,230.66574454307556,0.281427800655365,-0.37490159273147583,0.011214926838874817,0.0
23,MetaDrive-td3combine-expt_with_safe,98,6.214507035178818,24026,213,244.0840904712677,0.3847130835056305,,0.8963557481765747,0.0
24,MetaDrive-td3combine-expt_with_safe,96,6.981250910032233,25033,243,258.4945340156555,0.6683434247970581,-0.8087134957313538,0.03353309631347656,0.0
25,MetaDrive-td3combine-expt_with_safe,95,6.406968104433404,26011,273,272.2290394306183,0.8467029929161072,-1.0826585292816162,0.9791948795318604,0.0
26,MetaDrive-td3combine-expt_with_safe,94,6.067927565144933,27026,296,285.96111011505127,1.2170172929763794,,0.04581782966852188,0.0
27,MetaDrive-td3combine-expt_with_safe,93,7.311179612419892,28021,319,299.1897506713867,1.3756742477416992,-1.611017107963562,1.1207287311553955,0.0
28,MetaDrive-td3combine-expt_with_safe,92,9.898666585441417,29073,343,313.783652305603,1.8469504117965698,-1.8659827709197998,0.23292705416679382,0.0
29,MetaDrive-td3combine-expt_with_safe,91,12.73173406782784,30022,363,326.7369387149811,2.1566410064697266,,0.06672470271587372,0.0
30,MetaDrive-td3combine-expt_with_safe,91,14.115051686392707,31007,384,340.20083379745483,2.4347915649414062,-2.7023963928222656,1.9703547954559326,0.0
31,MetaDrive-td3combine-expt_with_safe,90,16.037476073386575,32017,401,353.7016558647156,2.8676440715789795,-3.0580711364746094,1.8970539569854736,0.0
32,MetaDrive-td3combine-expt_with_safe,90,21.99845241178366,33121,416,367.02958631515503,3.5083651542663574,-3.689103603363037,0.10537560284137726,0.0
33,MetaDrive-td3combine-expt_with_safe,89,26.984531409384914,34002,428,378.31309628486633,4.042793273925781,,0.27230599522590637,0.0
34,MetaDrive-td3combine-expt_with_safe,89,29.99774719567232,35013,443,391.7897639274597,4.502974033355713,-4.532202243804932,0.5056324005126953,0.0
35,MetaDrive-td3combine-expt_with_safe,88,34.68227076403245,36079,457,405.44349193573,4.841798782348633,-4.656913757324219,2.949697494506836,0.0
36,MetaDrive-td3combine-expt_with_safe,88,39.52643042290777,37107,469,417.24211740493774,5.473082542419434,-5.824487686157227,3.660031795501709,0.0
37,MetaDrive-td3combine-expt_with_safe,88,43.97559543259851,38046,481,429.04229378700256,6.509101867675781,,0.4839056432247162,0.0
38,MetaDrive-td3combine-expt_with_safe,88,46.67205564242025,39009,492,440.57159304618835,7.113386154174805,-7.323604106903076,0.23181426525115967,0.0
39,MetaDrive-td3combine-expt_with_safe,88,48.64806028209301,40022,506,452.78617429733276,7.755091667175293,,3.5316710472106934,0.0
40,MetaDrive-td3combine-expt_with_safe,88,51.01012509528371,41101,516,466.6067416667938,8.57432746887207,-8.810619354248047,0.7204872369766235,0.0
41,MetaDrive-td3combine-expt_with_safe,88,52.870267678877106,42083,526,477.8598458766937,9.376766204833984,-9.431461334228516,0.9649158716201782,0.0
42,MetaDrive-td3combine-expt_with_safe,87,55.497102294617044,43087,537,490.71265864372253,10.325782775878906,-11.007101058959961,0.6917891502380371,0.0
43,MetaDrive-td3combine-expt_with_safe,87,60.25140437898645,44036,545,502.19381308555603,10.927968978881836,,0.9724462032318115,0.0
44,MetaDrive-td3combine-expt_with_safe,87,63.9868595295633,45016,554,512.6676144599915,11.613630294799805,,8.262714385986328,0.0
45,MetaDrive-td3combine-expt_with_safe,87,67.63231507957215,46046,563,525.0666165351868,13.121173858642578,,10.15291690826416,0.0
46,MetaDrive-td3combine-expt_with_safe,87,69.17259753768276,47077,573,536.5124552249908,13.735391616821289,-14.256511688232422,0.9316838979721069,0.0
47,MetaDrive-td3combine-expt_with_safe,87,69.30553138607945,48078,585,548.3918223381042,14.582441329956055,,1.0607880353927612,0.0
48,MetaDrive-td3combine-expt_with_safe,87,71.92629986144131,49078,594,561.028080701828,15.503087043762207,,1.7115705013275146,0.0
49,MetaDrive-td3combine-expt_with_safe,87,75.74364139217731,50117,604,573.722825050354,15.819794654846191,-16.31078338623047,13.193374633789062,0.0
50,MetaDrive-td3combine-expt_with_safe,87,75.82049641830717,51057,613,584.4134838581085,16.509424209594727,-15.860546112060547,6.571207523345947,0.0
51,MetaDrive-td3combine-expt_with_safe,87,76.4651101409482,52076,622,596.2551579475403,17.833415985107422,,1.0730628967285156,0.0
52,MetaDrive-td3combine-expt_with_safe,87,77.32154121222891,53011,631,607.673725605011,18.94675064086914,-19.298995971679688,14.608155250549316,0.0
53,MetaDrive-td3combine-expt_with_safe,87,76.8627972079753,54013,641,619.4319849014282,18.72370147705078,-19.01983070373535,1.6737895011901855,0.0
54,MetaDrive-td3combine-expt_with_safe,87,76.6394190298304,55055,651,631.1239378452301,20.110729217529297,-19.887901306152344,19.08981704711914,0.0
55,MetaDrive-td3combine-expt_with_safe,87,76.04561804046783,56078,660,642.5436673164368,20.18867301940918,,1.9793620109558105,0.0
56,MetaDrive-td3combine-expt_with_safe,87,76.16701170906983,57002,668,652.960807800293,19.885908126831055,,1.802454948425293,0.0
57,MetaDrive-td3combine-expt_with_safe,87,77.12859683998353,58042,678,665.4164848327637,21.028335571289062,,4.173257827758789,0.0
58,MetaDrive-td3combine-expt_with_safe,86,82.62791872952886,59019,685,679.5543534755707,23.391464233398438,-23.605125427246094,2.0232558250427246,0.0
59,MetaDrive-td3combine-expt_with_safe,86,81.65028885549437,60027,695,690.8248300552368,23.410507202148438,-23.405132293701172,2.780463933944702,0.0
60,MetaDrive-td3combine-expt_with_safe,86,82.68330035141759,61065,704,704.9264938831329,22.91925048828125,-22.662370681762695,10.702880859375,0.0
61,MetaDrive-td3combine-expt_with_safe,86,86.593325680619,62218,710,719.4201011657715,23.459985733032227,,34.642364501953125,0.01
62,MetaDrive-td3combine-expt_with_safe,86,88.18630391028044,63098,715,731.0755188465118,23.374412536621094,,7.620471954345703,0.01
63,MetaDrive-td3combine-expt_with_safe,86,87.42707962404113,64067,723,742.6264498233795,24.370481491088867,-25.015552520751953,4.1215500831604,0.01
64,MetaDrive-td3combine-expt_with_safe,86,90.54886202132138,65191,729,756.9562859535217,26.279726028442383,-27.03413200378418,3.294063091278076,0.01
65,MetaDrive-td3combine-expt_with_safe,86,91.95168832583485,66156,737,768.5061826705933,24.717554092407227,,2.601731777191162,0.01
66,MetaDrive-td3combine-expt_with_safe,85,96.65760723485339,67286,741,784.2861926555634,26.565147399902344,,8.207986831665039,0.02
67,MetaDrive-td3combine-expt_with_safe,85,96.10655539918397,68022,748,793.9986879825592,27.716064453125,,3.0644125938415527,0.02
68,MetaDrive-td3combine-expt_with_safe,85,98.81413484229927,69259,754,811.1472020149231,27.347305297851562,-28.230056762695312,3.408827304840088,0.03
69,MetaDrive-td3combine-expt_with_safe,84,101.18123840221624,70625,760,831.1428565979004,26.998674392700195,-28.22085189819336,4.873053073883057,0.03
70,MetaDrive-td3combine-expt_with_safe,84,100.69418514277285,71084,764,836.8616194725037,27.42186737060547,,9.779794692993164,0.03
71,MetaDrive-td3combine-expt_with_safe,84,102.98886270828193,72123,770,850.2490961551666,28.83333969116211,-29.27251434326172,4.240787506103516,0.03
72,MetaDrive-td3combine-expt_with_safe,84,106.54595734451186,73544,774,868.2291133403778,30.597713470458984,,51.18077850341797,0.03
73,MetaDrive-td3combine-expt_with_safe,84,109.83779460270311,74288,777,878.9316794872284,30.56060028076172,,3.4853672981262207,0.04
74,MetaDrive-td3combine-expt_with_safe,84,110.78176161092102,75068,782,887.7109217643738,27.466432571411133,,6.100283622741699,0.05
75,MetaDrive-td3combine-expt_with_safe,84,109.26370330037689,76173,784,900.8583316802979,30.400636672973633,-30.946163177490234,7.046627044677734,0.05
76,MetaDrive-td3combine-expt_with_safe,84,109.83763243164977,77332,790,914.4169280529022,29.09777069091797,,22.440095901489258,0.05
77,MetaDrive-td3combine-expt_with_safe,84,114.14417726228525,78288,793,926.7803399562836,30.69774055480957,,6.378149032592773,0.06
78,MetaDrive-td3combine-expt_with_safe,84,116.50052635999901,79253,796,939.5005791187286,31.15183448791504,-31.902851104736328,3.275146961212158,0.07
79,MetaDrive-td3combine-expt_with_safe,84,117.65108251734137,80373,799,953.3623931407928,29.01856803894043,-29.293289184570312,39.061824798583984,0.07
80,MetaDrive-td3combine-expt_with_safe,83,120.61791908799024,81374,800,970.9085507392883,31.549697875976562,,43.99331283569336,0.07
81,MetaDrive-td3combine-expt_with_safe,83,124.03626311472955,82026,801,980.6375205516815,31.627620697021484,,33.32110595703125,0.08
82,MetaDrive-td3combine-expt_with_safe,83,126.25244519916089,83027,802,998.3200035095215,31.7352352142334,-33.374942779541016,52.23271179199219,0.08
83,MetaDrive-td3combine-expt_with_safe,82,132.80708349457444,84864,807,1027.178819179535,31.763622283935547,,3.381408452987671,0.09
84,MetaDrive-td3combine-expt_with_safe,82,135.33123526488026,85534,808,1036.7160861492157,34.03638458251953,,17.46346664428711,0.1
85,MetaDrive-td3combine-expt_with_safe,82,132.56187676685,86003,810,1042.928995847702,33.68370819091797,-34.6106071472168,4.0060038566589355,0.1
86,MetaDrive-td3combine-expt_with_safe,82,135.83397996331797,87129,815,1055.0696165561676,30.173999786376953,-30.638240814208984,5.730825424194336,0.12
87,MetaDrive-td3combine-expt_with_safe,82,140.26818682917406,88113,816,1071.3860416412354,32.81003189086914,-33.77327346801758,58.054832458496094,0.13
88,MetaDrive-td3combine-expt_with_safe,82,141.64563735715356,89147,819,1083.5498929023743,36.01844787597656,-36.80183792114258,4.572492599487305,0.13
89,MetaDrive-td3combine-expt_with_safe,81,145.5945968514509,90117,820,1099.3188214302063,33.94275665283203,-34.33043670654297,35.068458557128906,0.14
90,MetaDrive-td3combine-expt_with_safe,82,151.40318145444814,91481,823,1113.9855699539185,31.365629196166992,-31.77560043334961,24.794937133789062,0.15
91,MetaDrive-td3combine-expt_with_safe,82,151.72633175991893,92622,827,1127.6440551280975,36.890926361083984,,5.468208312988281,0.16
92,MetaDrive-td3combine-expt_with_safe,82,153.28525730781806,93123,829,1132.744693994522,37.37504577636719,-38.2178955078125,1.9646189212799072,0.17
93,MetaDrive-td3combine-expt_with_safe,82,155.89120750504634,94259,834,1144.9502296447754,35.66657257080078,-35.90618896484375,7.629772663116455,0.18
94,MetaDrive-td3combine-expt_with_safe,82,159.9334202574986,95501,838,1164.273734331131,35.20299530029297,-36.405296325683594,42.04446792602539,0.19
95,MetaDrive-td3combine-expt_with_safe,82,158.8729892056948,96423,841,1174.3004667758942,33.847511291503906,-35.05171203613281,57.85432434082031,0.19
96,MetaDrive-td3combine-expt_with_safe,82,162.38893887781234,97223,843,1184.3546431064606,37.057777404785156,-37.870399475097656,41.444549560546875,0.2
97,MetaDrive-td3combine-expt_with_safe,81,164.14780345988302,98003,844,1195.66636967659,35.42472839355469,-36.65358352661133,75.36957550048828,0.2
98,MetaDrive-td3combine-expt_with_safe,81,170.23745734281565,99072,846,1208.6988544464111,36.09571838378906,,53.44349670410156,0.22
99,MetaDrive-td3combine-expt_with_safe,81,171.8127266379536,100073,847,1226.3616981506348,39.891143798828125,-41.124122619628906,31.9392147064209,0.22
100,MetaDrive-td3combine-expt_with_safe,81,176.41793496479352,101491,852,1240.8204610347748,36.345863342285156,-37.02329635620117,13.576887130737305,0.24
101,MetaDrive-td3combine-expt_with_safe,81,179.13291626515962,102173,853,1248.1071712970734,36.17999267578125,-37.16357421875,61.58637237548828,0.25
102,MetaDrive-td3combine-expt_with_safe,81,179.74059526626104,103092,855,1259.8807909488678,39.206851959228516,,25.60370445251465,0.25
103,MetaDrive-td3combine-expt_with_safe,81,181.34277037587555,104003,858,1270.824065208435,38.537841796875,-39.30225372314453,78.26753997802734,0.26
104,MetaDrive-td3combine-expt_with_safe,81,184.2177434403369,105449,862,1288.833654642105,37.9654655456543,-38.94453811645508,29.166645050048828,0.28
105,MetaDrive-td3combine-expt_with_safe,81,187.69590795291174,106235,864,1298.4792869091034,35.726654052734375,-36.019805908203125,67.01911163330078,0.29
106,MetaDrive-td3combine-expt_with_safe,81,189.3923488945103,107148,867,1310.3613638877869,35.98965835571289,,117.40292358398438,0.3
107,MetaDrive-td3combine-expt_with_safe,81,191.5568020290467,108180,870,1324.9231803417206,35.024417877197266,,9.007909774780273,0.31
108,MetaDrive-td3combine-expt_with_safe,81,196.77306146209207,109500,873,1342.8493597507477,39.70915985107422,,8.424003601074219,0.33
109,MetaDrive-td3combine-expt_with_safe,81,195.85564280136816,110153,874,1350.7200846672058,36.128753662109375,-36.77983093261719,6.827480316162109,0.33
110,MetaDrive-td3combine-expt_with_safe,81,196.2848075088273,111064,877,1362.4410467147827,37.68597412109375,,4.6235198974609375,0.33
111,MetaDrive-td3combine-expt_with_safe,81,200.32203628107246,112562,882,1382.3074269294739,41.65607452392578,,4.744840145111084,0.34
112,MetaDrive-td3combine-expt_with_safe,81,201.52156075094362,113155,884,1391.7878766059875,37.53205871582031,-38.913047790527344,122.53677368164062,0.34
113,MetaDrive-td3combine-expt_with_safe,81,204.93928201819966,114248,887,1403.4555187225342,38.288414001464844,,6.700582504272461,0.36
114,MetaDrive-td3combine-expt_with_safe,81,209.81525283560143,115073,889,1415.1663386821747,42.21973419189453,-41.391075134277344,14.63471508026123,0.37
115,MetaDrive-td3combine-expt_with_safe,81,205.7750141828991,116065,894,1426.4260206222534,40.549530029296875,-41.050926208496094,10.95792007446289,0.36
116,MetaDrive-td3combine-expt_with_safe,81,209.5971747888926,117022,897,1437.6634731292725,39.169925689697266,,4.069265842437744,0.37
117,MetaDrive-td3combine-expt_with_safe,81,200.82329174768893,118151,903,1451.8133363723755,40.76502990722656,-40.972801208496094,6.562518119812012,0.36
118,MetaDrive-td3combine-expt_with_safe,81,199.2107781251454,119214,907,1465.455670595169,39.739810943603516,,3.7286579608917236,0.36
119,MetaDrive-td3combine-expt_with_safe,81,194.40636054914467,120039,912,1477.6772093772888,38.70892333984375,-40.10202407836914,61.54962921142578,0.33
120,MetaDrive-td3combine-expt_with_safe,81,191.87020860961755,121168,916,1495.4554159641266,40.77947998046875,,12.035597801208496,0.31
121,MetaDrive-td3combine-expt_with_safe,81,192.8626578255115,122092,919,1506.0010178089142,40.95634460449219,,5.4838056564331055,0.32
122,MetaDrive-td3combine-expt_with_safe,80,188.26701601233114,123425,925,1525.0830054283142,36.72114944458008,-37.05775451660156,3.25837779045105,0.3
123,MetaDrive-td3combine-expt_with_safe,80,190.47620978452272,124256,927,1535.5349102020264,37.987335205078125,,101.43290710449219,0.31
124,MetaDrive-td3combine-expt_with_safe,80,190.0359054985772,125331,931,1552.828150510788,40.24040222167969,-40.7486572265625,3.8684535026550293,0.3
125,MetaDrive-td3combine-expt_with_safe,80,190.59411463339254,126164,936,1563.7109289169312,40.855430603027344,,72.04796600341797,0.3
126,MetaDrive-td3combine-expt_with_safe,80,184.5874881405282,127120,941,1576.7411439418793,41.40331268310547,,7.39129114151001,0.28
127,MetaDrive-td3combine-expt_with_safe,80,186.45308535082927,128121,942,1592.9331154823303,38.77462387084961,-38.44002914428711,4.2271623611450195,0.28
128,MetaDrive-td3combine-expt_with_safe,80,179.53443872442313,129766,946,1618.614515542984,37.71290969848633,,4.505480766296387,0.25
129,MetaDrive-td3combine-expt_with_safe,80,181.53802532019716,130549,947,1630.1274046897888,41.116615295410156,-40.9948616027832,6.116119384765625,0.26
130,MetaDrive-td3combine-expt_with_safe,80,182.53193739331437,131084,949,1637.6180715560913,39.12346649169922,,6.476877212524414,0.26
131,MetaDrive-td3combine-expt_with_safe,80,176.67872505727118,132502,953,1654.2403328418732,40.829864501953125,,8.101371765136719,0.23
132,MetaDrive-td3combine-expt_with_safe,80,177.12718174121227,133079,954,1661.9835333824158,37.68548583984375,-39.089046478271484,3.0934011936187744,0.23
133,MetaDrive-td3combine-expt_with_safe,80,182.1605332141478,134537,956,1679.1185750961304,36.95112609863281,-37.26982879638672,97.17332458496094,0.25
134,MetaDrive-td3combine-expt_with_safe,80,181.87200469860042,135139,958,1685.7025544643402,38.442832946777344,-39.92095947265625,7.5539870262146,0.24
135,MetaDrive-td3combine-expt_with_safe,79,185.3624839979358,136140,959,1703.9424238204956,40.4364013671875,,6.475690841674805,0.24
136,MetaDrive-td3combine-expt_with_safe,79,183.289796064166,137111,962,1716.0632722377777,41.561546325683594,-42.21647644042969,4.745989799499512,0.22
137,MetaDrive-td3combine-expt_with_safe,79,185.14236587194003,138025,963,1730.48770570755,40.38306427001953,-41.2626953125,8.574069023132324,0.23
138,MetaDrive-td3combine-expt_with_safe,79,187.20834360837387,139372,965,1748.1875264644623,37.774436950683594,,5.847662925720215,0.24
139,MetaDrive-td3combine-expt_with_safe,79,187.8045481459263,140275,967,1758.8508470058441,41.80250549316406,-42.482093811035156,9.215322494506836,0.24
140,MetaDrive-td3combine-expt_with_safe,79,190.7025033180097,141129,969,1771.387348651886,40.08478546142578,-40.42533874511719,6.1129631996154785,0.24
141,MetaDrive-td3combine-expt_with_safe,79,189.65959922461766,142469,971,1786.8090841770172,38.612823486328125,-39.31544494628906,7.901561737060547,0.24
142,MetaDrive-td3combine-expt_with_safe,79,192.9218865243403,143172,972,1795.795200586319,40.160606384277344,,7.8799824714660645,0.25
143,MetaDrive-td3combine-expt_with_safe,79,190.39390686259966,144246,975,1807.9789543151855,37.72728729248047,,22.31063461303711,0.25
144,MetaDrive-td3combine-expt_with_safe,79,193.5405712870521,145335,978,1820.2623274326324,39.42509841918945,-40.02339172363281,6.1269307136535645,0.27
145,MetaDrive-td3combine-expt_with_safe,79,196.62329194760264,146305,980,1830.9353919029236,38.34001922607422,-39.743499755859375,8.785591125488281,0.28
146,MetaDrive-td3combine-expt_with_safe,79,195.24684324813762,147019,982,1838.9225661754608,41.33576202392578,-43.04198455810547,104.37104797363281,0.28
147,MetaDrive-td3combine-expt_with_safe,79,196.09177329104213,148413,986,1856.626329421997,40.62595748901367,-42.74798583984375,12.50003433227539,0.28
148,MetaDrive-td3combine-expt_with_safe,79,195.06720037411014,149414,987,1871.3954496383667,43.177345275878906,,7.482887268066406,0.27
149,MetaDrive-td3combine-expt_with_safe,79,194.05090059694078,150222,989,1880.7274868488312,39.6002197265625,,14.728935241699219,0.27
150,MetaDrive-td3combine-expt_with_safe,79,195.2502922517442,151310,993,1896.0217995643616,41.89095687866211,,6.718035697937012,0.26
151,MetaDrive-td3combine-expt_with_safe,79,198.4408162092232,152075,995,1903.6652767658234,39.40966796875,-39.78681564331055,44.47203826904297,0.27
152,MetaDrive-td3combine-expt_with_safe,79,198.66871699110033,153245,997,1923.3601863384247,41.808815002441406,-43.71748352050781,61.82213592529297,0.26
153,MetaDrive-td3combine-expt_with_safe,79,202.51576404474682,154274,1000,1934.8061950206757,42.137821197509766,,4.018252372741699,0.27
154,MetaDrive-td3combine-expt_with_safe,79,206.12707925008507,155290,1002,1950.6980698108673,40.830291748046875,,36.736045837402344,0.27
155,MetaDrive-td3combine-expt_with_safe,79,205.2947363660244,156411,1004,1965.6019508838654,42.58197784423828,-43.32317352294922,23.515104293823242,0.27
156,MetaDrive-td3combine-expt_with_safe,79,207.03196166348113,157082,1005,1973.5699927806854,43.3478889465332,,7.699560165405273,0.28
157,MetaDrive-td3combine-expt_with_safe,79,208.17517188979164,158005,1007,1986.3503034114838,41.90611267089844,-42.9085578918457,5.524681091308594,0.27
158,MetaDrive-td3combine-expt_with_safe,79,212.05706488517328,159070,1009,1998.1392359733582,43.328147888183594,,4.439655303955078,0.29
159,MetaDrive-td3combine-expt_with_safe,79,213.8020060739815,160731,1012,2020.6749341487885,42.611454010009766,-42.54457092285156,9.463958740234375,0.29
160,MetaDrive-td3combine-expt_with_safe,79,214.00322959753686,161269,1014,2026.8576891422272,43.305824279785156,-43.41505432128906,3.9375622272491455,0.3
161,MetaDrive-td3combine-expt_with_safe,79,217.34715930125265,162376,1016,2039.0412039756775,43.70484161376953,,3.976299285888672,0.32
162,MetaDrive-td3combine-expt_with_safe,79,218.7696324177264,163088,1017,2048.6447117328644,42.75310516357422,,4.7245378494262695,0.33
163,MetaDrive-td3combine-expt_with_safe,79,222.2931035660232,164719,1019,2077.215136051178,41.143985748291016,-42.15458297729492,57.769020080566406,0.33
164,MetaDrive-td3combine-expt_with_safe,79,224.50965121865593,165169,1020,2082.510263442993,43.884765625,-45.2940559387207,44.30299377441406,0.34
165,MetaDrive-td3combine-expt_with_safe,79,226.97033602820596,166170,1021,2100.38147521019,42.679832458496094,,3.8416190147399902,0.34
166,MetaDrive-td3combine-expt_with_safe,79,226.70808735970107,167215,1024,2115.3389291763306,45.991302490234375,-46.17637634277344,4.091714859008789,0.34
167,MetaDrive-td3combine-expt_with_safe,79,223.01133913027599,168183,1028,2125.431643009186,44.114646911621094,-44.03350830078125,68.69049835205078,0.33
168,MetaDrive-td3combine-expt_with_safe,79,225.04270582860093,169008,1030,2136.5603635311127,43.8606071472168,,24.688127517700195,0.34
169,MetaDrive-td3combine-expt_with_safe,79,226.34935551855736,170117,1032,2149.123287677765,43.77275085449219,-44.447288513183594,16.009510040283203,0.35
170,MetaDrive-td3combine-expt_with_safe,79,227.5207102663692,171073,1034,2160.0955295562744,42.22710418701172,-42.96844482421875,10.136068344116211,0.35
171,MetaDrive-td3combine-expt_with_safe,79,230.82804053133964,172071,1037,2171.8043489456177,44.67760467529297,-44.913299560546875,10.199174880981445,0.36
172,MetaDrive-td3combine-expt_with_safe,79,232.49926831341583,173072,1038,2189.735575437546,45.71150588989258,,53.369972229003906,0.36
173,MetaDrive-td3combine-expt_with_safe,79,234.25165723810613,174328,1040,2205.9781420230865,47.5186882019043,,30.919219970703125,0.37
174,MetaDrive-td3combine-expt_with_safe,78,236.16163524196816,175668,1042,2226.2049169540405,44.554351806640625,,115.88897705078125,0.38
175,MetaDrive-td3combine-expt_with_safe,78,238.3716866985868,176669,1043,2239.1862149238586,40.71039581298828,-40.989349365234375,10.097339630126953,0.38
176,MetaDrive-td3combine-expt_with_safe,78,239.4590806422261,177141,1044,2244.825391292572,42.32352066040039,-42.83574676513672,10.746718406677246,0.39
177,MetaDrive-td3combine-expt_with_safe,78,236.2391804517843,178060,1047,2257.334234237671,44.30358123779297,,6.052389144897461,0.39
178,MetaDrive-td3combine-expt_with_safe,78,239.76238447539544,179281,1049,2270.314064025879,44.944236755371094,-45.69994354248047,4.604592800140381,0.4
179,MetaDrive-td3combine-expt_with_safe,78,243.44924818259256,180641,1051,2291.96417593956,47.858055114746094,-48.31220626831055,7.032828330993652,0.4
180,MetaDrive-td3combine-expt_with_safe,78,239.9844413566778,181156,1054,2296.8710520267487,44.179542541503906,,60.19868469238281,0.4
181,MetaDrive-td3combine-expt_with_safe,78,240.11188286830193,182638,1057,2316.7316660881042,47.40013885498047,,5.57947301864624,0.4
182,MetaDrive-td3combine-expt_with_safe,78,240.8355098783257,183223,1058,2323.1195924282074,42.0771369934082,-42.45491027832031,40.32149124145508,0.41
183,MetaDrive-td3combine-expt_with_safe,78,240.02802075676914,184223,1060,2334.8524696826935,46.031776428222656,-46.33152770996094,5.200379371643066,0.42
184,MetaDrive-td3combine-expt_with_safe,78,236.72102773100636,185126,1063,2345.235391139984,48.11463928222656,,4.086914539337158,0.42
185,MetaDrive-td3combine-expt_with_safe,78,237.13234558406035,186172,1065,2360.7707419395447,45.517799377441406,,4.885976791381836,0.41
186,MetaDrive-td3combine-expt_with_safe,78,235.96648137938516,187575,1068,2379.337141752243,45.716468811035156,-45.9767951965332,11.671358108520508,0.42
187,MetaDrive-td3combine-expt_with_safe,78,236.63389867698427,188023,1069,2383.4090406894684,45.07600402832031,-46.01829528808594,5.64247465133667,0.43
188,MetaDrive-td3combine-expt_with_safe,78,224.57178306031398,189021,1075,2394.335686445236,43.90327453613281,-44.89932632446289,8.878768920898438,0.38
189,MetaDrive-td3combine-expt_with_safe,78,223.2760822495662,190018,1078,2405.344172000885,42.08515167236328,,10.370391845703125,0.37
190,MetaDrive-td3combine-expt_with_safe,78,221.2466817772221,191612,1082,2426.8226613998413,47.79907989501953,,5.1581220626831055,0.36
191,MetaDrive-td3combine-expt_with_safe,78,225.61727757916975,192804,1084,2445.1577336788177,44.48038101196289,,47.62274169921875,0.37
192,MetaDrive-td3combine-expt_with_safe,78,223.89672877625705,193153,1085,2448.6696541309357,44.40415954589844,-45.93001174926758,41.81959533691406,0.36
193,MetaDrive-td3combine-expt_with_safe,78,223.79850869442066,194103,1087,2461.081217765808,49.39671325683594,-49.31133270263672,4.2317070960998535,0.37
194,MetaDrive-td3combine-expt_with_safe,78,223.72491051249995,195294,1089,2477.006983757019,46.96986389160156,,5.303982734680176,0.37
195,MetaDrive-td3combine-expt_with_safe,78,225.64656828679963,196251,1092,2486.3059680461884,47.967010498046875,-48.056793212890625,9.092525482177734,0.39
196,MetaDrive-td3combine-expt_with_safe,78,228.20210591763677,197182,1093,2502.3368463516235,47.54334259033203,,7.218482971191406,0.4
197,MetaDrive-td3combine-expt_with_safe,78,227.99594497688201,198095,1095,2513.5438964366913,42.068138122558594,-42.26917266845703,100.25994110107422,0.4
198,MetaDrive-td3combine-expt_with_safe,78,228.01232478580417,199099,1097,2524.7087831497192,49.843505859375,-50.87605667114258,5.410229682922363,0.41
199,MetaDrive-td3combine-expt_with_safe,78,229.43935104164368,200165,1099,2538.6797120571136,44.63718032836914,-44.29296112060547,14.501216888427734,0.42
200,MetaDrive-td3combine-expt_with_safe,78,227.67030688441235,201029,1101,2548.3714048862457,43.919673919677734,-44.7605094909668,11.4473876953125,0.42
201,MetaDrive-td3combine-expt_with_safe,78,226.0949499435773,202088,1105,2560.0899217128754,47.8916015625,,19.334875106811523,0.42
202,MetaDrive-td3combine-expt_with_safe,79,225.92371073234818,203040,1107,2569.9278173446655,44.61410140991211,,11.82390022277832,0.44
203,MetaDrive-td3combine-expt_with_safe,78,223.70171824913103,204255,1110,2588.5670619010925,44.813018798828125,-45.312564849853516,7.5982465744018555,0.43
204,MetaDrive-td3combine-expt_with_safe,78,225.86848740530593,205295,1112,2601.2844450473785,48.730369567871094,-48.56852722167969,9.667372703552246,0.44
205,MetaDrive-td3combine-expt_with_safe,78,224.59851371645854,206257,1115,2612.245142698288,44.73786544799805,-45.29041290283203,4.3574676513671875,0.43
206,MetaDrive-td3combine-expt_with_safe,79,222.4977821963462,207388,1117,2624.7817947864532,46.272274017333984,,4.524447441101074,0.42
207,MetaDrive-td3combine-expt_with_safe,79,215.55122623627804,208090,1120,2633.5091540813446,43.12091827392578,,12.215571403503418,0.4
208,MetaDrive-td3combine-expt_with_safe,79,216.61527915337086,209511,1124,2648.9604337215424,46.97930145263672,-46.72314453125,11.57076358795166,0.42
209,MetaDrive-td3combine-expt_with_safe,79,218.6981955434757,210033,1125,2654.775208711624,47.52141571044922,-48.985130310058594,15.079429626464844,0.43
210,MetaDrive-td3combine-expt_with_safe,79,222.83642128032193,211413,1127,2673.9379122257233,50.359825134277344,-48.88783645629883,12.810066223144531,0.43
211,MetaDrive-td3combine-expt_with_safe,79,219.36319525536317,212670,1129,2688.5738439559937,46.90869140625,,6.567992687225342,0.42
212,MetaDrive-td3combine-expt_with_safe,79,217.98101895749625,213551,1132,2699.5263476371765,44.39350509643555,-44.135650634765625,5.695960521697998,0.41
213,MetaDrive-td3combine-expt_with_safe,79,219.2858058652536,214366,1134,2709.1400876045227,49.22100067138672,,9.185879707336426,0.42
214,MetaDrive-td3combine-expt_with_safe,79,218.00412340844818,215103,1136,2719.38538146019,44.362030029296875,-45.77436828613281,116.06266021728516,0.41
215,MetaDrive-td3combine-expt_with_safe,79,220.78860686641082,216118,1138,2730.3072714805603,46.09465026855469,,6.8292646408081055,0.43
216,MetaDrive-td3combine-expt_with_safe,79,221.4720705612388,217711,1141,2752.1048822402954,43.66295623779297,-43.54570388793945,8.41201400756836,0.44
217,MetaDrive-td3combine-expt_with_safe,79,221.16677378811247,218521,1142,2761.525532245636,47.08396911621094,-46.997833251953125,9.396970748901367,0.44
218,MetaDrive-td3combine-expt_with_safe,78,219.6775399281826,219618,1144,2780.0850505828857,45.7542610168457,,19.294639587402344,0.43
219,MetaDrive-td3combine-expt_with_safe,79,221.21506247844155,220055,1145,2784.529592037201,45.629512786865234,-45.609405517578125,3.474642038345337,0.43
220,MetaDrive-td3combine-expt_with_safe,79,221.38033374950246,221308,1148,2798.170141220093,44.918617248535156,,6.105123519897461,0.44
221,MetaDrive-td3combine-expt_with_safe,79,221.41387211704213,222181,1150,2810.498608350754,46.624942779541016,-47.0234375,5.988561630249023,0.43
222,MetaDrive-td3combine-expt_with_safe,79,223.10610894803438,223252,1153,2823.5112223625183,47.615867614746094,,10.814715385437012,0.44
223,MetaDrive-td3combine-expt_with_safe,79,221.74837043362717,224441,1156,2839.244484901428,41.97074890136719,-43.47125244140625,7.4857378005981445,0.42
224,MetaDrive-td3combine-expt_with_safe,79,220.69366441557082,225442,1157,2853.569831609726,44.370174407958984,,68.65142822265625,0.41
225,MetaDrive-td3combine-expt_with_safe,79,220.35738931045074,226443,1158,2866.064054965973,45.65327072143555,-46.359336853027344,9.189545631408691,0.4
226,MetaDrive-td3combine-expt_with_safe,79,221.69084711157072,227394,1160,2877.497282266617,46.785194396972656,,9.502435684204102,0.4
227,MetaDrive-td3combine-expt_with_safe,79,220.21615202925844,228501,1162,2891.6839900016785,46.8863525390625,-46.64739227294922,5.466169357299805,0.39
228,MetaDrive-td3combine-expt_with_safe,79,220.4821344252657,229031,1163,2898.1219067573547,50.14170455932617,-50.56060028076172,6.442751407623291,0.39
229,MetaDrive-td3combine-expt_with_safe,79,221.4287605151324,230163,1166,2909.3322999477386,46.88279724121094,-47.848697662353516,8.079030990600586,0.39
230,MetaDrive-td3combine-expt_with_safe,79,222.05914526387642,231048,1167,2921.3752460479736,46.52722930908203,,8.456520080566406,0.39
231,MetaDrive-td3combine-expt_with_safe,79,220.3050314489202,232549,1169,2939.49503326416,47.882965087890625,-47.75096893310547,3.759612560272217,0.38
232,MetaDrive-td3combine-expt_with_safe,79,224.12987660592663,233496,1171,2949.95698595047,46.17753601074219,,3.6631925106048584,0.4
233,MetaDrive-td3combine-expt_with_safe,79,225.1623993499461,234044,1172,2957.758718729019,47.31419372558594,,5.746763706207275,0.4
234,MetaDrive-td3combine-expt_with_safe,79,232.33350196897442,235843,1174,2982.444682121277,46.77627944946289,-47.93720245361328,78.38866424560547,0.42
235,MetaDrive-td3combine-expt_with_safe,79,234.59108983940655,236382,1175,2988.951558113098,46.943363189697266,,9.905290603637695,0.43
236,MetaDrive-td3combine-expt_with_safe,79,233.15237212502018,237264,1178,3001.352920293808,46.56914138793945,,10.755304336547852,0.42
237,MetaDrive-td3combine-expt_with_safe,79,235.12377248508045,238183,1180,3012.913465976715,45.872947692871094,-45.44862365722656,15.214116096496582,0.42
238,MetaDrive-td3combine-expt_with_safe,79,235.1531262304722,239578,1182,3029.894747018814,43.79032897949219,,16.829605102539062,0.42
239,MetaDrive-td3combine-expt_with_safe,79,236.48899684438436,240014,1183,3034.9349155426025,48.00856399536133,,5.693559646606445,0.42
240,MetaDrive-td3combine-expt_with_safe,79,237.56086784351447,241659,1186,3057.697229862213,44.186912536621094,-44.49259948730469,4.2136006355285645,0.42
241,MetaDrive-td3combine-expt_with_safe,79,237.4232579661336,242050,1187,3063.0358715057373,47.662147521972656,,5.903081893920898,0.42
242,MetaDrive-td3combine-expt_with_safe,79,238.4535386893521,243127,1189,3074.6742277145386,46.320281982421875,-47.34455108642578,5.050175666809082,0.42
243,MetaDrive-td3combine-expt_with_safe,79,239.97833829820127,244094,1191,3089.2670471668243,51.553672790527344,,8.476607322692871,0.42
244,MetaDrive-td3combine-expt_with_safe,79,238.23955194789963,245335,1193,3104.50289106369,45.01630401611328,-45.4178466796875,8.906564712524414,0.41
245,MetaDrive-td3combine-expt_with_safe,79,236.98919507028117,246065,1195,3112.3409667015076,47.81300354003906,-48.22406005859375,11.607075691223145,0.41
246,MetaDrive-td3combine-expt_with_safe,79,229.30327244783456,247514,1200,3129.6245737075806,47.24566650390625,,4.477802276611328,0.39
247,MetaDrive-td3combine-expt_with_safe,79,232.9773544958649,248628,1202,3143.3911168575287,42.78000259399414,,8.129807472229004,0.4
248,MetaDrive-td3combine-expt_with_safe,79,236.61196269206755,249363,1203,3151.183614253998,49.22203063964844,-48.78416442871094,10.97378921508789,0.41
249,MetaDrive-td3combine-expt_with_safe,79,239.06119486052881,250041,1204,3158.520844936371,47.34949493408203,-47.2780647277832,7.908139228820801,0.42
250,MetaDrive-td3combine-expt_with_safe,79,240.14487184640296,251788,1208,3179.673102617264,44.569488525390625,,4.6476240158081055,0.4
251,MetaDrive-td3combine-expt_with_safe,79,239.64229390174748,252173,1209,3184.1315262317657,42.83840560913086,-43.66842269897461,6.580043792724609,0.39
252,MetaDrive-td3combine-expt_with_safe,79,238.96268924892283,253402,1212,3199.8620393276215,43.45429992675781,,9.029365539550781,0.4
253,MetaDrive-td3combine-expt_with_safe,79,239.2844021581849,254102,1214,3208.256114959717,47.64794158935547,,9.126760482788086,0.4
254,MetaDrive-td3combine-expt_with_safe,79,239.04663234687013,255695,1217,3232.01783823967,43.52193832397461,-44.57415771484375,34.48278045654297,0.39
255,MetaDrive-td3combine-expt_with_safe,79,242.4864863638514,256422,1218,3242.074375152588,42.52812194824219,,9.983534812927246,0.4
256,MetaDrive-td3combine-expt_with_safe,78,245.19375467462717,257708,1220,3263.8363971710205,43.46687316894531,,28.122692108154297,0.4
257,MetaDrive-td3combine-expt_with_safe,78,244.3629831779476,258709,1221,3276.2218317985535,46.151973724365234,-47.47203063964844,22.21204376220703,0.39
258,MetaDrive-td3combine-expt_with_safe,79,246.19386126304278,259214,1222,3280.683930158615,44.327999114990234,,4.07600212097168,0.4
259,MetaDrive-td3combine-expt_with_safe,79,247.59936561628342,260240,1224,3291.3359167575836,42.04768371582031,,6.523114204406738,0.41
260,MetaDrive-td3combine-expt_with_safe,79,245.30383334678575,261134,1226,3299.500556945801,43.60986328125,,11.6446533203125,0.4
261,MetaDrive-td3combine-expt_with_safe,79,247.6760194849968,262028,1227,3313.7091286182404,46.44384002685547,,9.156699180603027,0.41
262,MetaDrive-td3combine-expt_with_safe,79,251.6563769790421,263476,1229,3334.7700686454773,44.28935241699219,,7.612151145935059,0.42
263,MetaDrive-td3combine-expt_with_safe,78,253.84136115382285,264976,1232,3356.0948321819305,43.93440246582031,,68.95240783691406,0.42
264,MetaDrive-td3combine-expt_with_safe,78,252.36269852849998,265177,1233,3358.3636739254,45.738922119140625,-47.04603576660156,19.139801025390625,0.41
265,MetaDrive-td3combine-expt_with_safe,79,250.68942984555187,266076,1236,3366.4774498939514,46.82794952392578,,63.99700164794922,0.42
266,MetaDrive-td3combine-expt_with_safe,79,251.58441168611208,267384,1238,3384.261077642441,42.07273483276367,,18.023012161254883,0.41
267,MetaDrive-td3combine-expt_with_safe,79,255.19285682355655,268170,1239,3394.523652076721,44.29031753540039,,8.803268432617188,0.42
268,MetaDrive-td3combine-expt_with_safe,78,250.05080962975669,269418,1242,3410.8117492198944,43.65806579589844,,6.625647068023682,0.4
269,MetaDrive-td3combine-expt_with_safe,78,252.56072622137188,270034,1243,3420.3781299591064,40.64358901977539,,10.275507926940918,0.4
270,MetaDrive-td3combine-expt_with_safe,78,251.64924804732198,271035,1244,3434.2653892040253,43.960609436035156,-44.567481994628906,51.896053314208984,0.4
271,MetaDrive-td3combine-expt_with_safe,78,253.24861086996572,272522,1246,3455.972400665283,44.23580551147461,,8.511175155639648,0.41
272,MetaDrive-td3combine-expt_with_safe,78,254.23007749817666,273909,1248,3472.767703771591,46.13197708129883,-46.58245849609375,4.062121391296387,0.4
273,MetaDrive-td3combine-expt_with_safe,78,255.03943732558946,274617,1249,3481.742038011551,47.16279602050781,-47.55876159667969,8.762555122375488,0.41
274,MetaDrive-td3combine-expt_with_safe,78,255.19712293960882,275428,1252,3491.906857252121,43.70802307128906,,77.69464111328125,0.41
275,MetaDrive-td3combine-expt_with_safe,78,255.88029885754787,276282,1253,3502.114487171173,46.5,,11.986595153808594,0.42
276,MetaDrive-td3combine-expt_with_safe,78,259.1605729226521,277203,1255,3513.608325242996,45.418827056884766,-45.86830139160156,6.720876693725586,0.43
277,MetaDrive-td3combine-expt_with_safe,78,260.3272159353105,278699,1257,3534.0247621536255,43.835670471191406,-43.526519775390625,9.899930953979492,0.45
278,MetaDrive-td3combine-expt_with_safe,78,256.6221476239552,279673,1260,3546.5245020389557,41.781768798828125,-42.23686599731445,4.449341773986816,0.45
279,MetaDrive-td3combine-expt_with_safe,78,258.96307132724723,280215,1261,3552.1144182682037,45.33515167236328,-45.982398986816406,7.835868835449219,0.46
280,MetaDrive-td3combine-expt_with_safe,78,261.53578255192616,281216,1262,3569.3081347942352,45.88800811767578,,4.737887382507324,0.46
281,MetaDrive-td3combine-expt_with_safe,78,261.95442134655,282203,1264,3582.0511026382446,41.9831428527832,-42.504817962646484,15.239322662353516,0.46
282,MetaDrive-td3combine-expt_with_safe,78,263.8631177598915,283101,1265,3596.2933502197266,45.19758224487305,-46.12065124511719,8.553518295288086,0.47
283,MetaDrive-td3combine-expt_with_safe,78,260.5881729240037,284001,1268,3606.6502895355225,43.63811492919922,-44.36040115356445,5.012157440185547,0.46
284,MetaDrive-td3combine-expt_with_safe,78,253.14118455206514,285254,1273,3620.1178913116455,45.97014617919922,,8.763050079345703,0.43
285,MetaDrive-td3combine-expt_with_safe,78,252.84490949237093,286661,1276,3637.4634308815002,39.4268798828125,-39.78578567504883,8.094212532043457,0.43
286,MetaDrive-td3combine-expt_with_safe,78,255.4657537374208,287288,1277,3645.7761569023132,48.22926330566406,,5.17931604385376,0.44
287,MetaDrive-td3combine-expt_with_safe,78,253.9306731672117,288219,1279,3656.901615381241,43.13463592529297,-43.2062873840332,6.497662544250488,0.44
288,MetaDrive-td3combine-expt_with_safe,78,256.3057630987331,289220,1280,3670.2742092609406,47.18739318847656,,5.977192401885986,0.44
289,MetaDrive-td3combine-expt_with_safe,78,258.46088556187567,290048,1281,3682.4811520576477,44.67255783081055,,10.314647674560547,0.45
290,MetaDrive-td3combine-expt_with_safe,78,259.01809431279037,291420,1283,3700.1983098983765,47.661251068115234,,11.519269943237305,0.46
291,MetaDrive-td3combine-expt_with_safe,78,258.00033362029995,292145,1284,3712.778572320938,44.457122802734375,-44.66389083862305,7.430935859680176,0.45
292,MetaDrive-td3combine-expt_with_safe,78,255.2617601422128,293392,1288,3727.628872156143,41.02510452270508,,7.758455753326416,0.46
293,MetaDrive-td3combine-expt_with_safe,78,252.17617651988184,294103,1290,3735.8106095790863,43.59613037109375,-43.38783264160156,4.900979995727539,0.45
294,MetaDrive-td3combine-expt_with_safe,78,249.81882200368506,295542,1294,3751.7644000053406,44.26708221435547,,4.339328289031982,0.44
295,MetaDrive-td3combine-expt_with_safe,78,251.93926339536335,296323,1295,3759.2028250694275,46.05094909667969,-45.654876708984375,12.706679344177246,0.45
296,MetaDrive-td3combine-expt_with_safe,78,255.00768877925006,297328,1297,3774.854630947113,44.01548767089844,,6.179373264312744,0.45
297,MetaDrive-td3combine-expt_with_safe,78,256.8831687968628,298059,1299,3785.0593440532684,43.556365966796875,-43.49394226074219,11.386148452758789,0.45
298,MetaDrive-td3combine-expt_with_safe,78,257.95518395776384,299305,1301,3799.1971492767334,46.370094299316406,-47.035621643066406,21.05257797241211,0.45
299,MetaDrive-td3combine-expt_with_safe,78,256.34381283075896,300239,1303,3809.513615131378,44.10215377807617,-44.054100036621094,77.86817169189453,0.45
300,MetaDrive-td3combine-expt_with_safe,78,258.1519694686276,301516,1305,3826.033651828766,41.39085388183594,,4.634163856506348,0.46
301,MetaDrive-td3combine-expt_with_safe,78,258.2771935502725,302108,1307,3831.5169792175293,43.085086822509766,,7.9312591552734375,0.47
302,MetaDrive-td3combine-expt_with_safe,78,257.13194023120667,303164,1309,3845.5801339149475,41.21133804321289,,7.889316558837891,0.47
303,MetaDrive-td3combine-expt_with_safe,78,257.029640701422,304556,1312,3861.735093355179,44.318450927734375,,7.11380672454834,0.47
304,MetaDrive-td3combine-expt_with_safe,78,260.82719920935176,305248,1313,3872.0219683647156,44.582725524902344,,7.202245712280273,0.48
305,MetaDrive-td3combine-expt_with_safe,78,254.85923260370527,306095,1317,3880.8192026615143,41.17002868652344,-41.91802215576172,16.526308059692383,0.48
306,MetaDrive-td3combine-expt_with_safe,78,255.89441161134877,307334,1319,3894.7658615112305,42.20551681518555,,9.353425979614258,0.49
307,MetaDrive-td3combine-expt_with_safe,78,254.99354361054972,308320,1320,3908.3410046100616,44.42467498779297,,8.280853271484375,0.5
308,MetaDrive-td3combine-expt_with_safe,78,255.94466752439635,309478,1322,3923.0630259513855,44.58213806152344,,4.916284561157227,0.5
309,MetaDrive-td3combine-expt_with_safe,78,255.2945116687632,310479,1323,3935.523092508316,42.144264221191406,-41.37421417236328,29.046804428100586,0.49
310,MetaDrive-td3combine-expt_with_safe,78,253.7426867507788,311186,1325,3942.212521314621,42.6348991394043,,13.768656730651855,0.48
311,MetaDrive-td3combine-expt_with_safe,78,253.3260104839793,312555,1327,3964.297842979431,40.64228057861328,-40.395965576171875,7.438515663146973,0.47
312,MetaDrive-td3combine-expt_with_safe,78,251.11373783904514,313305,1329,3972.5115122795105,44.51538848876953,-43.92068862915039,16.781906127929688,0.46
313,MetaDrive-td3combine-expt_with_safe,78,254.11493729573414,314112,1330,3981.992326259613,44.14554977416992,,5.331260681152344,0.47
314,MetaDrive-td3combine-expt_with_safe,78,256.5086184335003,315054,1331,3995.907619714737,44.5054817199707,,5.714611530303955,0.48
315,MetaDrive-td3combine-expt_with_safe,78,257.19746550610756,316097,1334,4007.447063922882,48.388999938964844,-49.72853088378906,75.44305419921875,0.5
316,MetaDrive-td3combine-expt_with_safe,78,258.48066887287274,317243,1336,4020.784959793091,43.24523162841797,-43.5435905456543,93.81985473632812,0.49
317,MetaDrive-td3combine-expt_with_safe,78,258.6498991235883,318244,1337,4038.8226935863495,44.242061614990234,,5.116683483123779,0.48
318,MetaDrive-td3combine-expt_with_safe,78,258.1715749466039,319680,1339,4056.1529819965363,43.11701202392578,,5.24388313293457,0.49
319,MetaDrive-td3combine-expt_with_safe,78,259.2511023625989,320262,1340,4067.962946653366,42.314292907714844,,9.623126029968262,0.49
320,MetaDrive-td3combine-expt_with_safe,78,260.9427189616387,321417,1342,4084.1062018871307,43.89301300048828,-44.144859313964844,13.747997283935547,0.49
321,MetaDrive-td3combine-expt_with_safe,78,259.527185141185,322303,1344,4093.9680728912354,46.48674011230469,-46.488739013671875,11.650813102722168,0.5
322,MetaDrive-td3combine-expt_with_safe,78,259.11724651711353,323446,1347,4106.460069894791,38.698394775390625,,7.986143112182617,0.51
323,MetaDrive-td3combine-expt_with_safe,78,255.57490065055325,324350,1349,4117.106743812561,43.911224365234375,,11.214600563049316,0.5
324,MetaDrive-td3combine-expt_with_safe,78,259.07335664106665,325351,1350,4131.332488536835,46.140480041503906,-46.15043258666992,8.29379653930664,0.5
325,MetaDrive-td3combine-expt_with_safe,78,260.20982779086427,326429,1352,4146.695917367935,42.397438049316406,-42.565773010253906,8.187219619750977,0.5
326,MetaDrive-td3combine-expt_with_safe,78,261.7838743050981,327899,1354,4170.715051651001,41.59983825683594,-41.972984313964844,5.450771331787109,0.5
327,MetaDrive-td3combine-expt_with_safe,78,262.3264027499461,328492,1355,4177.342073440552,40.786354064941406,,15.667730331420898,0.5
328,MetaDrive-td3combine-expt_with_safe,78,259.6733188361358,329241,1357,4184.490794658661,41.982093811035156,-42.49577331542969,105.18544006347656,0.5
329,MetaDrive-td3combine-expt_with_safe,78,261.0089459760172,330482,1360,4199.590970516205,44.24253845214844,,13.7447509765625,0.5
330,MetaDrive-td3combine-expt_with_safe,78,260.47608423910407,331095,1361,4209.322829723358,43.794715881347656,-43.26520919799805,11.627029418945312,0.49
331,MetaDrive-td3combine-expt_with_safe,78,261.31083847016185,332315,1363,4228.734277963638,35.27363586425781,-35.56721878051758,8.12407112121582,0.5
332,MetaDrive-td3combine-expt_with_safe,78,259.5775744077428,333569,1365,4242.683129072189,40.76659393310547,-41.320098876953125,21.617652893066406,0.49
333,MetaDrive-td3combine-expt_with_safe,78,260.149990859348,334356,1366,4253.128840923309,43.376136779785156,,10.007806777954102,0.49
334,MetaDrive-td3combine-expt_with_safe,78,264.07189492826075,335375,1368,4264.927624702454,45.21068572998047,-46.48573303222656,8.805435180664062,0.51
335,MetaDrive-td3combine-expt_with_safe,78,266.9494423351025,336351,1369,4281.0073325634,45.49531936645508,-45.75694274902344,9.522830963134766,0.52
336,MetaDrive-td3combine-expt_with_safe,78,269.1095815848577,337245,1370,4292.730431556702,40.612701416015625,-40.58930587768555,5.901825904846191,0.52
337,MetaDrive-td3combine-expt_with_safe,78,274.7033367333269,338336,1372,4303.605632305145,41.749786376953125,,15.257736206054688,0.54
338,MetaDrive-td3combine-expt_with_safe,78,272.94157826037673,339886,1374,4322.121980905533,42.81189727783203,,23.420204162597656,0.53
339,MetaDrive-td3combine-expt_with_safe,78,272.71643437745837,340140,1375,4325.551019191742,44.05275344848633,,10.56775951385498,0.53
340,MetaDrive-td3combine-expt_with_safe,78,273.1961514661973,341141,1376,4344.293684005737,44.97356414794922,-46.197505950927734,11.639155387878418,0.52
341,MetaDrive-td3combine-expt_with_safe,78,272.46875136692285,342431,1379,4359.610681772232,44.741554260253906,-46.70231246948242,10.099188804626465,0.52
342,MetaDrive-td3combine-expt_with_safe,78,268.46324884745275,343012,1381,4366.957928180695,43.010536193847656,,8.00747013092041,0.51
343,MetaDrive-td3combine-expt_with_safe,78,266.3642638494313,344044,1383,4379.9737820625305,42.051788330078125,,12.157600402832031,0.5
344,MetaDrive-td3combine-expt_with_safe,78,269.4461921383933,345422,1385,4396.900477170944,46.679718017578125,,5.086702346801758,0.52
345,MetaDrive-td3combine-expt_with_safe,78,271.1622558180433,346262,1386,4406.52436375618,41.896148681640625,,91.19685363769531,0.52
346,MetaDrive-td3combine-expt_with_safe,78,271.4201647565976,347320,1388,4418.661702156067,42.698883056640625,,4.063899040222168,0.52
347,MetaDrive-td3combine-expt_with_safe,78,271.21756465256783,348136,1390,4430.869074583054,39.80116653442383,,11.140915870666504,0.51
348,MetaDrive-td3combine-expt_with_safe,78,275.395661452208,349068,1392,4440.5901691913605,43.559913635253906,,7.9430108070373535,0.52
349,MetaDrive-td3combine-expt_with_safe,78,275.36501572568034,350212,1394,4457.781798124313,42.82976150512695,,88.77151489257812,0.52
350,MetaDrive-td3combine-expt_with_safe,78,276.41107837923767,351231,1396,4467.508673667908,40.65510559082031,-41.02036666870117,7.539557456970215,0.52
351,MetaDrive-td3combine-expt_with_safe,78,275.3180278062874,352357,1399,4478.457565307617,41.46580505371094,-41.47264862060547,6.100414276123047,0.53
352,MetaDrive-td3combine-expt_with_safe,78,276.3140970676357,353119,1400,4488.775532960892,44.964019775390625,-45.996986389160156,5.151459693908691,0.53
353,MetaDrive-td3combine-expt_with_safe,78,278.52804183567116,354532,1402,4514.077704668045,41.94729995727539,,5.383691787719727,0.52
354,MetaDrive-td3combine-expt_with_safe,78,277.345062464282,355028,1403,4518.644023180008,40.02022933959961,,43.45018768310547,0.52
355,MetaDrive-td3combine-expt_with_safe,78,277.0910216234833,356116,1405,4530.547135353088,38.86402893066406,,44.483253479003906,0.52
356,MetaDrive-td3combine-expt_with_safe,78,278.37799473571073,357511,1407,4546.615249156952,42.88811492919922,-43.75352478027344,5.568567276000977,0.52
357,MetaDrive-td3combine-expt_with_safe,78,273.9784969482905,358226,1410,4553.160679578781,44.97148513793945,,19.298725128173828,0.51
358,MetaDrive-td3combine-expt_with_safe,78,276.33245827436457,359318,1412,4565.295229673386,43.11746597290039,,11.373373031616211,0.52
359,MetaDrive-td3combine-expt_with_safe,78,274.19548564959774,360173,1413,4576.73283457756,45.319828033447266,-44.9397087097168,11.069511413574219,0.51
360,MetaDrive-td3combine-expt_with_safe,78,277.05962791702956,361363,1416,4592.4577004909515,41.66141128540039,-41.194419860839844,8.07235050201416,0.51
361,MetaDrive-td3combine-expt_with_safe,78,274.87957217886975,362317,1419,4602.094348192215,41.9886474609375,-42.566497802734375,5.15494441986084,0.5
362,MetaDrive-td3combine-expt_with_safe,78,273.27082475526197,363409,1421,4612.510089635849,43.52960205078125,-43.530029296875,6.905402660369873,0.51
363,MetaDrive-td3combine-expt_with_safe,78,275.31928644462505,364318,1422,4623.9848601818085,41.605812072753906,,9.646392822265625,0.51
364,MetaDrive-td3combine-expt_with_safe,78,277.44008441768227,365050,1423,4632.509817361832,40.47490692138672,,8.585664749145508,0.52
365,MetaDrive-td3combine-expt_with_safe,78,279.9730743037136,366319,1425,4647.903546094894,45.0789794921875,-45.97412872314453,7.804856300354004,0.53
366,MetaDrive-td3combine-expt_with_safe,78,278.23565878956225,367042,1427,4655.825369119644,44.157386779785156,,7.799654483795166,0.54
367,MetaDrive-td3combine-expt_with_safe,78,275.7404573195935,368621,1430,4676.555307626724,42.322959899902344,-42.634639739990234,5.066157817840576,0.54
368,MetaDrive-td3combine-expt_with_safe,78,274.5684798117407,369080,1431,4680.582114696503,40.71365737915039,,18.75613784790039,0.54
369,MetaDrive-td3combine-expt_with_safe,78,277.0594941612863,370086,1433,4694.397327899933,42.371337890625,,4.3883514404296875,0.53
370,MetaDrive-td3combine-expt_with_safe,78,275.5525274799091,371500,1436,4709.444072008133,44.49738311767578,,11.339564323425293,0.54
371,MetaDrive-td3combine-expt_with_safe,78,271.68804674268307,372094,1438,4715.771961688995,40.31932067871094,,4.508384704589844,0.54
372,MetaDrive-td3combine-expt_with_safe,78,272.368269124866,373371,1440,4730.9604115486145,44.99620819091797,-45.63578796386719,19.59760093688965,0.54
373,MetaDrive-td3combine-expt_with_safe,78,269.76143996085756,374245,1442,4741.072247028351,46.04880142211914,-47.295284271240234,7.610484600067139,0.53
374,MetaDrive-td3combine-expt_with_safe,78,270.3302110087971,375133,1444,4752.351777791977,44.008583068847656,-44.68706512451172,9.426003456115723,0.53
375,MetaDrive-td3combine-expt_with_safe,78,270.42246065361576,376033,1446,4761.518803119659,40.31854248046875,-39.411930084228516,9.733049392700195,0.53
376,MetaDrive-td3combine-expt_with_safe,78,271.7624086896186,377200,1448,4777.3979575634,41.088584899902344,,12.054088592529297,0.53
377,MetaDrive-td3combine-expt_with_safe,78,269.3752370535116,378116,1450,4787.423154592514,45.566856384277344,,6.616567611694336,0.53
378,MetaDrive-td3combine-expt_with_safe,78,269.6680820085678,379250,1452,4802.352562904358,40.844688415527344,,8.227999687194824,0.54
379,MetaDrive-td3combine-expt_with_safe,78,270.21019861762784,380544,1454,4819.472387075424,39.143699645996094,,13.370708465576172,0.54
380,MetaDrive-td3combine-expt_with_safe,78,266.2427016540159,381054,1456,4824.6846442222595,46.53157043457031,,11.930421829223633,0.52
381,MetaDrive-td3combine-expt_with_safe,78,266.157016193805,382042,1458,4836.540380239487,43.37229919433594,,8.772262573242188,0.51
382,MetaDrive-td3combine-expt_with_safe,79,267.2190156076786,383318,1461,4849.805703639984,43.39201736450195,,10.573686599731445,0.52
383,MetaDrive-td3combine-expt_with_safe,79,265.5736472442661,384274,1462,4863.588379144669,43.02159881591797,,12.983217239379883,0.51
384,MetaDrive-td3combine-expt_with_safe,79,264.9458249405249,385253,1464,4876.120059013367,45.116058349609375,-45.17416763305664,8.75295639038086,0.51
385,MetaDrive-td3combine-expt_with_safe,79,263.92156237762117,386086,1466,4887.013418197632,39.11494445800781,,7.946726322174072,0.52
386,MetaDrive-td3combine-expt_with_safe,79,259.4815872583953,387273,1469,4898.6277322769165,42.11565399169922,-41.197242736816406,10.973392486572266,0.51
387,MetaDrive-td3combine-expt_with_safe,79,256.6230793172561,388063,1471,4906.184557914734,39.70947265625,-40.591583251953125,59.43994140625,0.51
388,MetaDrive-td3combine-expt_with_safe,79,256.171074574188,389287,1474,4918.4662935733795,47.858177185058594,-48.91593933105469,10.984807968139648,0.51
389,MetaDrive-td3combine-expt_with_safe,79,253.31393243049826,390701,1478,4933.979975223541,43.067813873291016,-42.982852935791016,22.525758743286133,0.51
390,MetaDrive-td3combine-expt_with_safe,79,252.21986130283443,391145,1479,4939.528620004654,45.116825103759766,-45.11949920654297,5.159174919128418,0.5
391,MetaDrive-td3combine-expt_with_safe,79,255.30124875562288,392146,1480,4959.224570512772,45.527462005615234,,7.610651016235352,0.5
392,MetaDrive-td3combine-expt_with_safe,79,256.1657162439143,393158,1482,4972.025127887726,41.99951171875,,16.97133445739746,0.51
393,MetaDrive-td3combine-expt_with_safe,79,250.8710012838888,394057,1485,4981.0002336502075,39.5211181640625,-40.80734634399414,21.697532653808594,0.49
394,MetaDrive-td3combine-expt_with_safe,79,251.3072696530427,395346,1487,5000.5148158073425,44.93415069580078,,5.370766639709473,0.49
395,MetaDrive-td3combine-expt_with_safe,79,249.5125608351382,396054,1489,5010.409640550613,42.2758674621582,,42.110939025878906,0.48
396,MetaDrive-td3combine-expt_with_safe,79,250.75415748143485,397697,1492,5027.762238025665,39.57698059082031,-39.22381591796875,8.665821075439453,0.49
397,MetaDrive-td3combine-expt_with_safe,79,252.55638496249668,398347,1493,5035.277771472931,40.7940788269043,-41.0936393737793,9.950336456298828,0.5
398,MetaDrive-td3combine-expt_with_safe,79,251.9180205143249,399023,1494,5044.433760643005,43.68498229980469,-44.2186164855957,11.458280563354492,0.5
399,MetaDrive-td3combine-expt_with_safe,79,250.45676800289453,400109,1497,5055.970092535019,39.06618118286133,-39.17806625366211,5.314474582672119,0.49
400,MetaDrive-td3combine-expt_with_safe,79,251.92806315664478,401068,1499,5066.738078117371,41.65001678466797,,7.988718032836914,0.5
401,MetaDrive-td3combine-expt_with_safe,79,249.42289780427436,402335,1501,5081.420613765717,45.19723129272461,-46.652488708496094,8.179073333740234,0.51
402,MetaDrive-td3combine-expt_with_safe,79,245.14325109052734,403046,1504,5087.62756562233,43.06155776977539,,5.083612442016602,0.5
403,MetaDrive-td3combine-expt_with_safe,79,244.83025656401225,404615,1507,5105.242807149887,42.55430221557617,-43.27328109741211,80.62566375732422,0.5
404,MetaDrive-td3combine-expt_with_safe,79,248.02727294401552,405276,1508,5112.353707075119,41.61130142211914,,7.686491012573242,0.51
405,MetaDrive-td3combine-expt_with_safe,79,250.7847477503376,406277,1509,5130.095661401749,45.17973709106445,-45.85340881347656,24.823463439941406,0.51
406,MetaDrive-td3combine-expt_with_safe,79,251.88501935516575,407379,1511,5142.306636333466,42.28471374511719,-41.774776458740234,13.083517074584961,0.51
407,MetaDrive-td3combine-expt_with_safe,79,252.28932770446772,408058,1512,5153.438711166382,39.4998779296875,,83.97703552246094,0.5
408,MetaDrive-td3combine-expt_with_safe,79,249.51650802088497,409199,1516,5165.979135990143,40.84278869628906,-40.83918762207031,8.655033111572266,0.49
409,MetaDrive-td3combine-expt_with_safe,79,253.39502150382813,410087,1518,5176.02093911171,35.60125732421875,-36.80170822143555,12.959267616271973,0.5
410,MetaDrive-td3combine-expt_with_safe,79,253.03393281975085,411716,1520,5196.518759727478,43.58839416503906,,121.36381530761719,0.49
411,MetaDrive-td3combine-expt_with_safe,79,253.07892791089165,412093,1521,5200.599649906158,38.75041198730469,-39.61066436767578,11.227926254272461,0.49
412,MetaDrive-td3combine-expt_with_safe,79,249.32911541409013,413220,1523,5213.553989171982,39.3564338684082,,11.489498138427734,0.48
413,MetaDrive-td3combine-expt_with_safe,79,245.80987113724393,414464,1526,5229.424102783203,41.564109802246094,,11.907209396362305,0.46
414,MetaDrive-td3combine-expt_with_safe,79,249.9805254695127,415306,1527,5240.018501996994,45.45514678955078,,7.450736045837402,0.47
415,MetaDrive-td3combine-expt_with_safe,79,251.64500477038308,416071,1529,5248.462463617325,40.812931060791016,-41.13555145263672,23.102294921875,0.47
416,MetaDrive-td3combine-expt_with_safe,79,251.6056290871772,417142,1531,5260.889005422592,41.67993927001953,,38.478416442871094,0.48
417,MetaDrive-td3combine-expt_with_safe,79,253.77562469522408,418143,1532,5276.35458445549,43.07331466674805,-42.82387924194336,8.219184875488281,0.48
418,MetaDrive-td3combine-expt_with_safe,79,248.89134863737317,419464,1536,5294.292701482773,44.29704666137695,,109.56211853027344,0.45
419,MetaDrive-td3combine-expt_with_safe,79,248.26877588365093,420763,1539,5308.670638084412,46.49399185180664,-47.07775115966797,9.329347610473633,0.45
420,MetaDrive-td3combine-expt_with_safe,79,248.49041171919006,421319,1540,5314.340095043182,36.81128692626953,-38.205047607421875,89.63911437988281,0.45
421,MetaDrive-td3combine-expt_with_safe,79,248.33570338258664,422708,1543,5331.684714078903,36.83964538574219,,28.818737030029297,0.46
422,MetaDrive-td3combine-expt_with_safe,79,248.76325507736138,423439,1545,5339.489483594894,42.82398223876953,-43.05717468261719,4.782049179077148,0.46
423,MetaDrive-td3combine-expt_with_safe,79,249.116948700137,424238,1547,5347.671924591064,42.661659240722656,,7.357535362243652,0.45
424,MetaDrive-td3combine-expt_with_safe,79,251.19003426296024,425759,1549,5367.3617079257965,38.7805061340332,-39.21692657470703,14.72780990600586,0.46
425,MetaDrive-td3combine-expt_with_safe,79,249.8018530769824,426059,1550,5371.518695354462,39.98982620239258,-40.450653076171875,13.386825561523438,0.45
426,MetaDrive-td3combine-expt_with_safe,79,244.88362821324245,427550,1554,5389.010362863541,46.93463134765625,,4.966121196746826,0.43
427,MetaDrive-td3combine-expt_with_safe,79,248.2656053861021,428841,1556,5407.614681005478,42.59739685058594,-43.74872970581055,7.576411247253418,0.44
428,MetaDrive-td3combine-expt_with_safe,79,248.31231111658067,429228,1557,5411.0320336818695,39.705055236816406,,11.168306350708008,0.45
429,MetaDrive-td3combine-expt_with_safe,79,249.11931976913104,430229,1558,5423.058950424194,43.5475959777832,-43.948856353759766,13.556020736694336,0.44
430,MetaDrive-td3combine-expt_with_safe,79,253.17910118050932,431515,1560,5436.611154794693,40.596763610839844,-40.63470458984375,10.271859169006348,0.46
431,MetaDrive-td3combine-expt_with_safe,79,254.44306413405286,432437,1561,5450.641492366791,39.877017974853516,-39.3900146484375,82.39361572265625,0.46
432,MetaDrive-td3combine-expt_with_safe,79,254.8222535004692,433068,1562,5458.990669965744,41.842811584472656,,4.860227108001709,0.46
433,MetaDrive-td3combine-expt_with_safe,79,254.89424723434124,434509,1565,5475.935749769211,45.010231018066406,-45.19506072998047,5.407220840454102,0.45
434,MetaDrive-td3combine-expt_with_safe,79,258.4642846292885,435541,1567,5486.176269292831,40.58606719970703,-40.39146423339844,12.066431045532227,0.46
435,MetaDrive-td3combine-expt_with_safe,79,260.36789055512776,436489,1569,5497.9705510139465,45.72357940673828,-45.939186096191406,18.780460357666016,0.46
436,MetaDrive-td3combine-expt_with_safe,79,260.9302456072749,437088,1570,5505.506885051727,47.12329864501953,,6.184553146362305,0.46
437,MetaDrive-td3combine-expt_with_safe,79,266.94681564362406,438622,1572,5526.537002086639,43.06193161010742,,7.358174800872803,0.47
438,MetaDrive-td3combine-expt_with_safe,79,264.1930103242614,439144,1574,5531.982081890106,44.59380340576172,,7.151786804199219,0.45
439,MetaDrive-td3combine-expt_with_safe,79,268.7192321326891,440278,1576,5546.119925022125,43.43958282470703,,5.876736640930176,0.46
440,MetaDrive-td3combine-expt_with_safe,79,267.4944611765935,441239,1578,5557.921932935715,44.47697448730469,-44.70653533935547,6.955031871795654,0.46
441,MetaDrive-td3combine-expt_with_safe,79,266.42244507729623,442008,1580,5568.372527122498,45.886009216308594,,6.867214679718018,0.47
442,MetaDrive-td3combine-expt_with_safe,79,267.0116726914257,443117,1582,5581.743113040924,41.594425201416016,-41.778038024902344,9.697622299194336,0.47
443,MetaDrive-td3combine-expt_with_safe,79,269.00257725177795,444154,1585,5591.606330633163,39.16781234741211,,13.090435028076172,0.48
444,MetaDrive-td3combine-expt_with_safe,79,269.27379743893374,445599,1587,5608.068710327148,41.404937744140625,-41.5201416015625,11.066980361938477,0.49
445,MetaDrive-td3combine-expt_with_safe,79,270.42021286577204,446480,1589,5619.458923816681,40.69987487792969,,9.540968894958496,0.49
446,MetaDrive-td3combine-expt_with_safe,79,271.16765805475353,447414,1591,5629.112744569778,42.19785690307617,,9.57254695892334,0.5
447,MetaDrive-td3combine-expt_with_safe,79,268.39242916093065,448157,1593,5637.374224901199,43.776885986328125,-44.20759963989258,15.765308380126953,0.49
448,MetaDrive-td3combine-expt_with_safe,79,267.01736755692554,449287,1596,5648.250241756439,42.58250045776367,-41.86011505126953,20.845134735107422,0.49
449,MetaDrive-td3combine-expt_with_safe,79,267.43863996812604,450280,1598,5658.299307823181,44.220481872558594,,8.233509063720703,0.49
450,MetaDrive-td3combine-expt_with_safe,79,267.60813944662465,451254,1600,5671.190470457077,39.511085510253906,,39.38748550415039,0.48
451,MetaDrive-td3combine-expt_with_safe,79,269.7277313158964,452509,1602,5684.989800930023,42.14472961425781,-42.5169792175293,6.611578941345215,0.48
452,MetaDrive-td3combine-expt_with_safe,79,270.45445512628476,453417,1604,5694.611100196838,45.90586853027344,-46.00941848754883,11.649560928344727,0.48
453,MetaDrive-td3combine-expt_with_safe,79,271.2297613615284,454166,1606,5703.082788705826,40.9466552734375,,11.481780052185059,0.47
454,MetaDrive-td3combine-expt_with_safe,79,266.40311544993375,455170,1608,5716.095485448837,39.442535400390625,,24.660409927368164,0.45
455,MetaDrive-td3combine-expt_with_safe,79,265.13007768309654,456370,1610,5732.1757917404175,43.212406158447266,,11.108000755310059,0.46
456,MetaDrive-td3combine-expt_with_safe,79,260.8225214746712,457014,1612,5739.048850297928,42.71261978149414,,50.67682647705078,0.45
457,MetaDrive-td3combine-expt_with_safe,79,265.77731183879007,458537,1615,5758.5331699848175,41.827415466308594,-42.55845260620117,5.997288703918457,0.46
458,MetaDrive-td3combine-expt_with_safe,79,265.6818402003079,459469,1617,5771.3800530433655,45.46493148803711,-45.491371154785156,8.509613037109375,0.46
459,MetaDrive-td3combine-expt_with_safe,79,262.12744623272573,460238,1619,5779.3572726249695,40.81264114379883,,42.38373565673828,0.45
460,MetaDrive-td3combine-expt_with_safe,79,259.7017609166353,461024,1622,5788.14532661438,40.841400146484375,,10.043160438537598,0.44
461,MetaDrive-td3combine-expt_with_safe,79,259.10906270319725,462152,1624,5804.501192569733,40.130889892578125,,9.297045707702637,0.43
462,MetaDrive-td3combine-expt_with_safe,79,260.1624137983515,463109,1626,5815.617852687836,44.187416076660156,-44.12388229370117,7.296638011932373,0.44
463,MetaDrive-td3combine-expt_with_safe,79,257.0204715418445,464223,1628,5828.560741424561,41.90081787109375,-42.781822204589844,29.669097900390625,0.42
464,MetaDrive-td3combine-expt_with_safe,79,257.3669446474794,465305,1630,5840.7914083004,42.963661193847656,-43.813140869140625,6.274310111999512,0.43
465,MetaDrive-td3combine-expt_with_safe,79,256.23032953403157,466365,1632,5852.336489200592,42.75749206542969,-42.342586517333984,53.47378921508789,0.44
466,MetaDrive-td3combine-expt_with_safe,79,257.05377331452496,467008,1633,5859.82839679718,37.903472900390625,,14.617094993591309,0.45
467,MetaDrive-td3combine-expt_with_safe,79,260.6076693145146,468482,1636,5875.942181587219,46.22395324707031,,7.862082481384277,0.46
468,MetaDrive-td3combine-expt_with_safe,79,261.6226956717997,469017,1638,5883.0059633255005,39.619964599609375,-39.025482177734375,11.070810317993164,0.46
469,MetaDrive-td3combine-expt_with_safe,79,261.8722396179306,470336,1640,5898.867312669754,40.872291564941406,,12.535052299499512,0.46
470,MetaDrive-td3combine-expt_with_safe,79,263.2995459539204,471136,1642,5907.33495259285,45.285736083984375,,5.857583999633789,0.46
471,MetaDrive-td3combine-expt_with_safe,79,264.91376527045816,472789,1645,5926.194420337677,43.47361373901367,-44.143829345703125,8.321245193481445,0.46
472,MetaDrive-td3combine-expt_with_safe,79,264.925797124937,473697,1647,5938.180346727371,42.74676513671875,-42.670448303222656,6.447360038757324,0.47
473,MetaDrive-td3combine-expt_with_safe,79,263.8643879069906,474199,1648,5943.515215873718,42.27206802368164,-43.23994445800781,8.751321792602539,0.47
474,MetaDrive-td3combine-expt_with_safe,79,263.65029616147274,475502,1651,5959.992233037949,41.568634033203125,,28.560585021972656,0.47
475,MetaDrive-td3combine-expt_with_safe,79,266.81187014692324,476129,1652,5966.217641592026,39.76609802246094,-40.97637939453125,7.934146881103516,0.48
476,MetaDrive-td3combine-expt_with_safe,79,265.74000867849134,477039,1654,5975.821042060852,42.182899475097656,-42.02220916748047,6.3377485275268555,0.48
477,MetaDrive-td3combine-expt_with_safe,79,264.83624344676406,478362,1656,5994.192926645279,42.845314025878906,,7.9668779373168945,0.48
478,MetaDrive-td3combine-expt_with_safe,79,264.71095209822823,479324,1658,6005.602636814117,43.62812805175781,,8.595564842224121,0.48
479,MetaDrive-td3combine-expt_with_safe,79,263.70188467287227,480132,1659,6014.334200143814,41.69319152832031,,50.78862380981445,0.48
480,MetaDrive-td3combine-expt_with_safe,79,261.1629092178754,481087,1661,6025.655831813812,41.66449737548828,-41.5806884765625,10.857110977172852,0.47
481,MetaDrive-td3combine-expt_with_safe,79,259.7994385582696,482088,1662,6039.189502000809,42.87067794799805,,10.223175048828125,0.47
482,MetaDrive-td3combine-expt_with_safe,79,263.2501001754663,483539,1664,6056.959200620651,40.500518798828125,-40.255210876464844,24.773897171020508,0.48
483,MetaDrive-td3combine-expt_with_safe,79,262.6993907644669,484126,1665,6063.328299045563,42.0879020690918,,19.280765533447266,0.48
484,MetaDrive-td3combine-expt_with_safe,79,260.9242673069092,485387,1668,6079.79315161705,44.6224365234375,-44.508270263671875,7.089693069458008,0.47
485,MetaDrive-td3combine-expt_with_safe,79,260.4130809129637,486090,1669,6087.5100429058075,43.493534088134766,,8.08869457244873,0.47
486,MetaDrive-td3combine-expt_with_safe,79,253.25486567400327,487451,1673,6103.837042570114,39.0289306640625,-38.906917572021484,12.353631973266602,0.45
487,MetaDrive-td3combine-expt_with_safe,79,253.89863094656317,488751,1675,6125.6448266506195,39.63618469238281,-39.879573822021484,6.51552677154541,0.44
488,MetaDrive-td3combine-expt_with_safe,79,255.7294910977184,489752,1676,6138.658340454102,44.68000030517578,,8.884406089782715,0.44
489,MetaDrive-td3combine-expt_with_safe,79,254.62474728541008,490126,1677,6143.238185405731,41.21533966064453,,8.688932418823242,0.43
490,MetaDrive-td3combine-expt_with_safe,79,256.8756602545565,491016,1678,6156.09338760376,45.44664001464844,,12.73414421081543,0.44
491,MetaDrive-td3combine-expt_with_safe,79,259.7533187079784,492325,1680,6170.620993375778,40.14335632324219,-40.493553161621094,23.23100471496582,0.45
492,MetaDrive-td3combine-expt_with_safe,79,259.422129168732,493190,1682,6178.87668299675,44.04438018798828,,5.713843822479248,0.46
493,MetaDrive-td3combine-expt_with_safe,79,261.50988219773683,494161,1684,6193.826364278793,40.84067153930664,-40.93622970581055,52.60009002685547,0.46
494,MetaDrive-td3combine-expt_with_safe,79,261.9029619241182,495162,1685,6213.142053842545,40.29445266723633,,10.881916999816895,0.45
495,MetaDrive-td3combine-expt_with_safe,79,262.07239955483,496289,1687,6224.902305364609,44.852684020996094,-46.26384353637695,13.402030944824219,0.45
496,MetaDrive-td3combine-expt_with_safe,79,263.3434134358359,497190,1689,6235.756739854813,44.448890686035156,,8.224906921386719,0.46
497,MetaDrive-td3combine-expt_with_safe,79,264.435308775341,498680,1692,6252.655136108398,41.0350456237793,,13.14731502532959,0.46
498,MetaDrive-td3combine-expt_with_safe,79,265.70917732827996,499410,1693,6261.529230356216,38.61619567871094,,7.5233306884765625,0.46
