TanmayH/CS269-RL-project-code/MetaDrive-test-noise-reduction-td3_weighted_ignore/td3/progress.csv
,log_dir,frame_per_second,episode_reward,total_steps,total_episodes,total_time,target_q,actor_loss,critic_loss,success_rate
0,MetaDrive-test-noise-reduction-td3,562,11.80940083808127,2001,2,3.555629253387451,,,,0.0
1,MetaDrive-test-noise-reduction-td3,487,12.020278428787774,3002,3,6.153900146484375,,,,0.0
2,MetaDrive-test-noise-reduction-td3,466,11.228124911586546,4003,4,8.587870121002197,,,,0.0
3,MetaDrive-test-noise-reduction-td3,456,11.468853042578083,5004,5,10.968746185302734,0.022093763574957848,,0.006858014035969973,0.0
4,MetaDrive-test-noise-reduction-td3,213,0.3562438903900828,6890,37,32.30470108985901,0.004392385482788086,,0.807200014591217,0.0
5,MetaDrive-test-noise-reduction-td3,190,0.26401324078786315,7891,38,41.41396522521973,0.08298954367637634,-0.053125280886888504,0.009599458426237106,0.0
6,MetaDrive-test-noise-reduction-td3,187,0.14233356752706397,8055,39,42.89184522628784,-0.08250857889652252,-0.0008499971590936184,1.499078392982483,0.0
7,MetaDrive-test-noise-reduction-td3,172,0.30398142822043434,9039,43,52.33203315734863,0.010453669354319572,-0.0956469476222992,0.7468392848968506,0.0
8,MetaDrive-test-noise-reduction-td3,158,1.458278759436157,10052,57,63.503398180007935,0.13865993916988373,,0.025535983964800835,0.0
9,MetaDrive-test-noise-reduction-td3,145,2.5674615236606395,11029,82,75.66491508483887,0.13014832139015198,-0.19792889058589935,0.7864958047866821,0.0
10,MetaDrive-test-noise-reduction-td3,135,3.820650223333141,12009,107,88.47943210601807,0.2758072018623352,-0.33284685015678406,0.9510281085968018,0.0
11,MetaDrive-test-noise-reduction-td3,129,7.516177599764128,13016,129,100.37379837036133,0.584198534488678,,0.09041829407215118,0.0
12,MetaDrive-test-noise-reduction-td3,124,9.773047743300012,14025,153,112.89657497406006,0.8172096610069275,-0.9240437150001526,0.03921616077423096,0.0
13,MetaDrive-test-noise-reduction-td3,120,12.212288863003698,15063,175,125.11324119567871,1.2813513278961182,-1.31526780128479,0.10716148465871811,0.0
14,MetaDrive-test-noise-reduction-td3,116,12.632099935568572,16008,197,137.10188698768616,1.6793311834335327,,1.6607924699783325,0.0
15,MetaDrive-test-noise-reduction-td3,114,13.467459153629557,17053,220,148.8171501159668,1.9948818683624268,-2.1317965984344482,1.8706480264663696,0.0
16,MetaDrive-test-noise-reduction-td3,112,13.972061362208063,18046,241,160.33428525924683,2.155883312225342,,5.895812034606934,0.0
17,MetaDrive-test-noise-reduction-td3,110,13.353882295793802,19020,261,172.0754313468933,3.0965993404388428,,0.200974702835083,0.0
18,MetaDrive-test-noise-reduction-td3,109,13.254981430982223,20018,283,183.29301834106445,3.3435440063476562,,2.2871198654174805,0.0
19,MetaDrive-test-noise-reduction-td3,107,15.079582784617013,21015,301,194.81095623970032,3.9404420852661133,-3.8711485862731934,2.5299007892608643,0.0
20,MetaDrive-test-noise-reduction-td3,106,14.946969758838556,22044,322,206.17348408699036,4.331403732299805,,0.21721668541431427,0.0
21,MetaDrive-test-noise-reduction-td3,106,15.6956256328735,23093,342,217.6161072254181,4.913702964782715,-5.0764570236206055,0.5790762901306152,0.0
22,MetaDrive-test-noise-reduction-td3,105,17.073187467735924,24033,359,228.19625234603882,4.868191719055176,-5.416712760925293,13.899639129638672,0.0
23,MetaDrive-test-noise-reduction-td3,104,19.25704283487182,25021,374,238.69259333610535,5.656125068664551,-6.097542762756348,4.160926818847656,0.0
24,MetaDrive-test-noise-reduction-td3,104,24.35443725640455,26013,386,248.92483615875244,6.002774238586426,-6.4483819007873535,7.96983528137207,0.0
25,MetaDrive-test-noise-reduction-td3,103,28.3749045937131,27005,397,259.6647701263428,7.289759635925293,-7.4411234855651855,4.477789878845215,0.0
26,MetaDrive-test-noise-reduction-td3,103,33.52478009794536,28022,408,269.8172001838684,7.566614151000977,,5.160129547119141,0.0
27,MetaDrive-test-noise-reduction-td3,103,40.07684742472753,29022,418,279.5997631549835,8.180174827575684,,3.7214040756225586,0.0
28,MetaDrive-test-noise-reduction-td3,103,45.68539847645859,30076,429,291.0056610107422,9.221102714538574,,0.5532517433166504,0.0
29,MetaDrive-test-noise-reduction-td3,102,51.80477225390606,31127,439,302.6812582015991,9.93595027923584,-10.434873580932617,5.976274013519287,0.0
30,MetaDrive-test-noise-reduction-td3,102,55.795718384160054,32021,448,311.7162320613861,10.601826667785645,-11.329893112182617,5.025090217590332,0.0
31,MetaDrive-test-noise-reduction-td3,102,59.60146397345934,33007,458,321.6843252182007,11.331538200378418,-11.713533401489258,1.336252212524414,0.0
32,MetaDrive-test-noise-reduction-td3,102,65.16971634971577,34081,468,333.6523902416229,11.93131160736084,-12.064661979675293,11.632477760314941,0.0
33,MetaDrive-test-noise-reduction-td3,101,69.51759354677449,35127,477,345.3502390384674,12.348993301391602,-12.498116493225098,19.83228302001953,0.0
34,MetaDrive-test-noise-reduction-td3,101,74.21088386257172,36177,484,357.68668508529663,13.683965682983398,-13.974771499633789,0.5745747089385986,0.0
35,MetaDrive-test-noise-reduction-td3,101,76.74685365789864,37143,492,367.5941321849823,14.917939186096191,-14.984322547912598,10.321368217468262,0.0
36,MetaDrive-test-noise-reduction-td3,101,78.74544707638877,38085,500,376.8143651485443,16.513029098510742,-17.14324951171875,1.1764423847198486,0.0
37,MetaDrive-test-noise-reduction-td3,100,78.00415701388239,39045,510,386.5994210243225,15.653304100036621,-16.960433959960938,27.628833770751953,0.0
38,MetaDrive-test-noise-reduction-td3,100,79.14232850118191,40120,519,398.2179841995239,15.914074897766113,,5.044343948364258,0.0
39,MetaDrive-test-noise-reduction-td3,100,80.71005580742178,41064,527,408.73657298088074,17.905292510986328,,28.781551361083984,0.0
40,MetaDrive-test-noise-reduction-td3,100,83.00938524098841,42061,536,418.6074721813202,17.937345504760742,-18.35086441040039,15.612903594970703,0.01
41,MetaDrive-test-noise-reduction-td3,100,85.20235419421806,43064,544,428.4419593811035,18.935956954956055,,30.7897891998291,0.01
42,MetaDrive-test-noise-reduction-td3,100,86.04406028446076,44072,553,438.74336218833923,20.208654403686523,,21.37987518310547,0.01
43,MetaDrive-test-noise-reduction-td3,100,88.08982585779704,45087,561,448.8305883407593,21.903345108032227,-22.419065475463867,2.546302318572998,0.01
44,MetaDrive-test-noise-reduction-td3,100,89.50090193903725,46098,570,459.7657563686371,22.59895133972168,,3.242006540298462,0.01
45,MetaDrive-test-noise-reduction-td3,100,86.29067528817484,47031,579,470.0644953250885,22.677410125732422,-23.530851364135742,17.561279296875,0.01
46,MetaDrive-test-noise-reduction-td3,100,86.47886388330862,48089,588,480.66498017311096,20.700037002563477,-21.760581970214844,13.208560943603516,0.02
47,MetaDrive-test-noise-reduction-td3,99,84.30371384816247,49056,597,491.2902920246124,23.66775894165039,,9.651261329650879,0.02
48,MetaDrive-test-noise-reduction-td3,99,86.71756765903298,50012,605,500.591765165329,25.794313430786133,,13.004207611083984,0.02
49,MetaDrive-test-noise-reduction-td3,99,86.7271304647481,51092,615,512.0529911518097,27.016151428222656,,8.426480293273926,0.02
50,MetaDrive-test-noise-reduction-td3,99,85.22719569660849,52074,624,521.3809249401093,24.53169059753418,,30.72850227355957,0.02
51,MetaDrive-test-noise-reduction-td3,99,84.6008399874038,53064,633,532.6353080272675,27.394968032836914,,3.879648208618164,0.01
52,MetaDrive-test-noise-reduction-td3,99,83.04795297161155,54039,642,542.5906813144684,28.324974060058594,-28.971620559692383,3.4043049812316895,0.01
53,MetaDrive-test-noise-reduction-td3,99,86.71264532543815,55120,647,554.0131931304932,26.930633544921875,,30.49856185913086,0.02
54,MetaDrive-test-noise-reduction-td3,99,90.33958718709923,56012,650,564.327320098877,29.15724754333496,,13.883148193359375,0.03
55,MetaDrive-test-noise-reduction-td3,99,95.15668464754,57728,654,582.4672281742096,30.836685180664062,,19.417898178100586,0.05
56,MetaDrive-test-noise-reduction-td3,98,96.43973680824776,58298,656,589.2807621955872,27.563722610473633,,10.592405319213867,0.05
57,MetaDrive-test-noise-reduction-td3,98,100.60954413391266,59408,659,601.4792902469635,29.00548553466797,,6.045660018920898,0.06
58,MetaDrive-test-noise-reduction-td3,98,103.72756076607565,60223,662,610.4537312984467,31.556245803833008,-30.72203254699707,5.7343339920043945,0.07
59,MetaDrive-test-noise-reduction-td3,98,104.00479159461787,61032,668,618.5064492225647,32.586978912353516,,4.162269115447998,0.07
60,MetaDrive-test-noise-reduction-td3,98,106.82768369065302,62015,672,628.7098009586334,30.993122100830078,-31.956886291503906,7.461787223815918,0.08
61,MetaDrive-test-noise-reduction-td3,98,111.40053369565982,63016,676,640.1343922615051,34.26095199584961,,4.830857276916504,0.09
62,MetaDrive-test-noise-reduction-td3,98,114.30419112662483,64070,679,650.407145023346,33.81433868408203,,24.759544372558594,0.1
63,MetaDrive-test-noise-reduction-td3,97,118.90150128931651,65439,682,667.9379711151123,34.81288146972656,-34.76726531982422,13.2667875289917,0.1
64,MetaDrive-test-noise-reduction-td3,97,121.93371289372358,66046,683,674.8948550224304,32.896671295166016,,3.8729844093322754,0.11
65,MetaDrive-test-noise-reduction-td3,97,123.97658403244712,67091,685,685.6322960853577,34.06327438354492,-34.301292419433594,6.285620212554932,0.12
66,MetaDrive-test-noise-reduction-td3,97,124.51131769875501,68135,687,697.9261462688446,32.78550338745117,-34.291072845458984,64.18106079101562,0.11
67,MetaDrive-test-noise-reduction-td3,97,127.6369115805467,69044,688,709.7461030483246,31.7166690826416,,7.582282543182373,0.12
68,MetaDrive-test-noise-reduction-td3,97,128.2907776950778,70407,690,724.3671021461487,32.24414825439453,-34.25104522705078,68.53250122070312,0.12
69,MetaDrive-test-noise-reduction-td3,96,132.27842959423035,71436,692,736.8395490646362,35.302268981933594,,3.9314870834350586,0.13
70,MetaDrive-test-noise-reduction-td3,96,134.3204383139663,72014,694,742.8717021942139,35.40165328979492,,6.480969429016113,0.13
71,MetaDrive-test-noise-reduction-td3,96,134.89683678169084,73100,696,754.1913521289825,30.576549530029297,,65.64540100097656,0.13
72,MetaDrive-test-noise-reduction-td3,96,140.692130239784,74666,699,772.5904262065887,33.951904296875,,7.084454536437988,0.15
73,MetaDrive-test-noise-reduction-td3,96,143.02275052015216,75108,700,777.7798850536346,35.51731872558594,,6.092883586883545,0.16
74,MetaDrive-test-noise-reduction-td3,96,146.01245039709758,76335,703,790.1121690273285,36.94812774658203,-37.680328369140625,12.019414901733398,0.18
75,MetaDrive-test-noise-reduction-td3,96,149.48817611259176,77073,704,798.851939201355,34.26762390136719,-35.133544921875,8.092893600463867,0.19
76,MetaDrive-test-noise-reduction-td3,96,152.22243066141465,78201,707,810.6338591575623,37.583045959472656,-37.18986129760742,5.365457534790039,0.19
77,MetaDrive-test-noise-reduction-td3,96,155.69666748095,79533,712,823.460461139679,36.684783935546875,-37.28820037841797,10.529138565063477,0.21
78,MetaDrive-test-noise-reduction-td3,96,158.50261987944876,80611,715,834.543003320694,36.496246337890625,-36.132843017578125,6.134817123413086,0.22
79,MetaDrive-test-noise-reduction-td3,96,159.59366275510277,81059,716,839.9948570728302,38.21299362182617,-38.58369064331055,4.655119895935059,0.22
80,MetaDrive-test-noise-reduction-td3,96,165.02794690775215,82369,719,853.1723992824554,39.640201568603516,-40.23140335083008,3.595489025115967,0.24
81,MetaDrive-test-noise-reduction-td3,96,169.25383183257782,83586,721,867.8173460960388,37.22908401489258,,5.138848781585693,0.25
82,MetaDrive-test-noise-reduction-td3,96,171.10186568298252,84047,722,872.1985459327698,34.85121536254883,-35.55923080444336,16.51421356201172,0.26
83,MetaDrive-test-noise-reduction-td3,96,175.03194064465234,85884,724,892.5296511650085,39.65803527832031,,5.784261703491211,0.27
84,MetaDrive-test-noise-reduction-td3,96,178.25557513710882,86408,725,897.5498602390289,35.247562408447266,,11.047143936157227,0.28
85,MetaDrive-test-noise-reduction-td3,95,180.82736517390364,87777,727,915.1520521640778,34.3159065246582,-34.898963928222656,65.69049072265625,0.28
86,MetaDrive-test-noise-reduction-td3,95,183.84552990942402,88542,729,923.0166342258453,35.78880310058594,,28.37621307373047,0.29
87,MetaDrive-test-noise-reduction-td3,96,183.8122299772336,89651,731,933.3209080696106,35.3746337890625,-35.59221267700195,10.090256690979004,0.29
88,MetaDrive-test-noise-reduction-td3,96,185.52407226075215,90210,733,938.8573482036591,40.57775115966797,,3.376253604888916,0.29
89,MetaDrive-test-noise-reduction-td3,96,187.46663708431097,91118,736,948.6872231960297,42.731781005859375,,3.5719261169433594,0.29
90,MetaDrive-test-noise-reduction-td3,96,191.6300989716723,92112,738,958.7313752174377,35.854618072509766,,8.124805450439453,0.3
91,MetaDrive-test-noise-reduction-td3,95,194.35764847170378,93113,739,973.209016084671,39.3577766418457,-39.96111297607422,37.077030181884766,0.3
92,MetaDrive-test-noise-reduction-td3,95,201.3963152857772,94591,742,988.8193302154541,40.09574890136719,-40.168304443359375,8.589105606079102,0.32
93,MetaDrive-test-noise-reduction-td3,95,205.79361482567117,95380,743,996.5855731964111,39.666805267333984,,7.881939888000488,0.33
94,MetaDrive-test-noise-reduction-td3,95,209.32191254353322,96344,745,1005.8348491191864,36.622886657714844,,39.528587341308594,0.35
95,MetaDrive-test-noise-reduction-td3,95,208.95221472242608,97485,747,1022.3707931041718,37.994171142578125,-38.78226852416992,73.70899963378906,0.34
96,MetaDrive-test-noise-reduction-td3,95,209.8480600151805,98599,750,1033.885358095169,35.803916931152344,-35.56726837158203,4.79954195022583,0.34
97,MetaDrive-test-noise-reduction-td3,95,207.2279266047156,99105,752,1039.028046131134,39.06266403198242,-39.16850280761719,4.966451168060303,0.33
98,MetaDrive-test-noise-reduction-td3,95,208.43142573210625,100137,755,1049.0332763195038,36.32410430908203,-37.19689178466797,32.03813934326172,0.33
99,MetaDrive-test-noise-reduction-td3,95,204.00634575553954,101369,760,1061.6858251094818,39.842044830322266,-40.06487274169922,8.456790924072266,0.33
100,MetaDrive-test-noise-reduction-td3,95,204.51984518202573,102305,762,1071.6865911483765,39.157711029052734,-38.016109466552734,6.979029655456543,0.33
101,MetaDrive-test-noise-reduction-td3,95,206.89515236353824,103661,766,1086.6561732292175,39.09859848022461,-38.837093353271484,8.435388565063477,0.33
102,MetaDrive-test-noise-reduction-td3,95,209.97260175915434,104427,769,1094.3037509918213,40.22116470336914,-40.55406188964844,5.2143874168396,0.34
103,MetaDrive-test-noise-reduction-td3,95,213.10860960561448,105132,770,1101.9487891197205,41.512939453125,,86.21177673339844,0.35
104,MetaDrive-test-noise-reduction-td3,95,210.55059684968373,106133,771,1112.1319391727448,45.022186279296875,-44.84178161621094,5.370565891265869,0.34
105,MetaDrive-test-noise-reduction-td3,95,211.21887232020032,107134,772,1123.779087305069,43.80527114868164,,6.826525688171387,0.34
106,MetaDrive-test-noise-reduction-td3,95,203.7748816390232,108714,778,1140.2646720409393,41.43467712402344,,8.093891143798828,0.32
107,MetaDrive-test-noise-reduction-td3,95,206.7573517935428,109791,781,1152.8185663223267,40.219207763671875,-40.56931686401367,25.580156326293945,0.33
108,MetaDrive-test-noise-reduction-td3,95,201.38089434787923,110909,783,1166.6080610752106,39.4505729675293,-40.22883987426758,45.092384338378906,0.32
109,MetaDrive-test-noise-reduction-td3,95,200.23564545367321,111910,784,1177.653392314911,42.38612365722656,,5.749273300170898,0.31
110,MetaDrive-test-noise-reduction-td3,95,201.67616134139686,112506,785,1183.5894362926483,44.08271789550781,,4.173916816711426,0.32
111,MetaDrive-test-noise-reduction-td3,94,203.00388907246824,113507,786,1197.8925421237946,41.45992660522461,-41.486141204833984,5.281428813934326,0.32
112,MetaDrive-test-noise-reduction-td3,94,203.0602742248763,114464,788,1209.0635311603546,42.75447082519531,,9.05063533782959,0.32
113,MetaDrive-test-noise-reduction-td3,94,205.90612274330192,115199,789,1216.4263651371002,45.529571533203125,-45.12274169921875,63.53757095336914,0.33
114,MetaDrive-test-noise-reduction-td3,94,208.1241840541791,116723,792,1233.505930185318,45.327537536621094,-45.44712829589844,62.418922424316406,0.34
115,MetaDrive-test-noise-reduction-td3,94,208.89151887889145,117954,795,1248.973107099533,43.132266998291016,,4.036436080932617,0.34
116,MetaDrive-test-noise-reduction-td3,94,209.91434184702638,118425,796,1253.3003242015839,44.083900451660156,-43.667232513427734,14.306418418884277,0.34
117,MetaDrive-test-noise-reduction-td3,94,208.90484026102968,119426,797,1263.3457081317902,41.2386474609375,,4.997714042663574,0.33
118,MetaDrive-test-noise-reduction-td3,94,210.4382665705234,120060,798,1270.118087053299,44.563819885253906,,7.205636024475098,0.34
119,MetaDrive-test-noise-reduction-td3,94,210.36726240482287,121683,800,1287.4713311195374,44.55083465576172,-44.29943084716797,2.957859516143799,0.34
120,MetaDrive-test-noise-reduction-td3,94,212.61010711715227,122152,801,1292.0458850860596,42.355106353759766,,5.083930015563965,0.35
121,MetaDrive-test-noise-reduction-td3,94,211.68382078028557,123026,803,1300.4706602096558,41.077667236328125,,28.76215362548828,0.34
122,MetaDrive-test-noise-reduction-td3,94,209.2645473928542,124059,806,1310.515376329422,42.482669830322266,-43.070709228515625,4.774468421936035,0.34
123,MetaDrive-test-noise-reduction-td3,94,213.56593806064416,125790,810,1328.5499420166016,43.495819091796875,,13.569845199584961,0.35
124,MetaDrive-test-noise-reduction-td3,94,215.77450734289482,126154,811,1331.8454270362854,41.15439224243164,,5.464923858642578,0.36
125,MetaDrive-test-noise-reduction-td3,94,216.47658665018866,127007,813,1340.625999212265,44.50419235229492,-44.73860549926758,3.783987045288086,0.36
126,MetaDrive-test-noise-reduction-td3,94,211.27235116853123,128153,817,1351.8210592269897,43.90596389770508,-44.68183135986328,29.837871551513672,0.35
127,MetaDrive-test-noise-reduction-td3,94,212.8931556142604,129008,819,1360.7427489757538,43.01577377319336,,65.00466918945312,0.35
128,MetaDrive-test-noise-reduction-td3,94,209.281759386934,130662,823,1378.8523540496826,45.90950012207031,,6.674374580383301,0.34
129,MetaDrive-test-noise-reduction-td3,94,210.30451511479595,131009,824,1383.2549321651459,45.30972671508789,-45.3338623046875,12.487422943115234,0.35
130,MetaDrive-test-noise-reduction-td3,94,208.18824576899297,132010,825,1392.9122240543365,42.458595275878906,,36.610572814941406,0.34
131,MetaDrive-test-noise-reduction-td3,94,208.7829922351263,133747,828,1410.4867053031921,47.461978912353516,-47.51606750488281,6.167787551879883,0.35
132,MetaDrive-test-noise-reduction-td3,94,207.25370858742372,134316,830,1416.0289940834045,46.991783142089844,,3.791738271713257,0.34
133,MetaDrive-test-noise-reduction-td3,94,209.75855448402163,135262,831,1428.5696771144867,45.79125213623047,,8.077211380004883,0.35
134,MetaDrive-test-noise-reduction-td3,94,210.56892134515863,136020,833,1436.1852731704712,44.41887283325195,,6.156912803649902,0.36
135,MetaDrive-test-noise-reduction-td3,94,211.69707925957084,137377,837,1449.1386511325836,48.133846282958984,-50.09377670288086,24.87725830078125,0.38
136,MetaDrive-test-noise-reduction-td3,94,208.10111170345797,138072,839,1456.3667163848877,45.002933502197266,,10.556933403015137,0.38
137,MetaDrive-test-noise-reduction-td3,94,201.0629149582987,139401,843,1469.6447870731354,46.13098907470703,-46.23258590698242,7.970860004425049,0.36
138,MetaDrive-test-noise-reduction-td3,94,201.86955234718397,140402,844,1480.8070333003998,47.346805572509766,,4.194281578063965,0.35
139,MetaDrive-test-noise-reduction-td3,94,201.74478095304983,141012,846,1487.7620532512665,44.375633239746094,,5.875176429748535,0.34
140,MetaDrive-test-noise-reduction-td3,94,202.97781861358118,142441,849,1504.9486391544342,48.04719924926758,-48.41256332397461,5.3588972091674805,0.34
141,MetaDrive-test-noise-reduction-td3,94,202.96755187177322,143254,851,1513.598913192749,43.875038146972656,,11.126575469970703,0.34
142,MetaDrive-test-noise-reduction-td3,94,202.2322075274967,144936,855,1530.6457259654999,48.34320831298828,,76.43101501464844,0.34
143,MetaDrive-test-noise-reduction-td3,94,204.7628926654299,145378,856,1535.2896921634674,43.21430206298828,,6.127124786376953,0.35
144,MetaDrive-test-noise-reduction-td3,94,207.52307825075138,146366,858,1544.8169260025024,47.24046325683594,,7.01200008392334,0.36
145,MetaDrive-test-noise-reduction-td3,94,209.43726704060563,147095,859,1552.9303131103516,48.93538284301758,-48.76513671875,4.664649486541748,0.36
146,MetaDrive-test-noise-reduction-td3,94,206.83598025967618,148394,863,1566.6951732635498,47.02277374267578,,4.5652055740356445,0.35
147,MetaDrive-test-noise-reduction-td3,94,208.2544882032127,149162,865,1574.402794122696,48.54965591430664,,6.018363952636719,0.36
148,MetaDrive-test-noise-reduction-td3,94,210.07295915882762,150737,867,1591.2471270561218,45.76192092895508,-45.14570617675781,5.405604839324951,0.37
149,MetaDrive-test-noise-reduction-td3,94,212.69452991590663,151349,868,1598.1847841739655,47.160926818847656,-48.22151184082031,59.64936828613281,0.38
150,MetaDrive-test-noise-reduction-td3,94,213.30607065346828,152150,869,1607.3739361763,49.33427429199219,,4.6291351318359375,0.38
151,MetaDrive-test-noise-reduction-td3,94,211.4785808973966,153912,873,1626.2668311595917,45.0363655090332,,2.1663239002227783,0.37
152,MetaDrive-test-noise-reduction-td3,94,213.094832530241,154292,874,1629.5845830440521,46.79187774658203,,8.213520050048828,0.38
153,MetaDrive-test-noise-reduction-td3,94,216.53535529993198,155280,875,1640.5348172187805,49.338661193847656,,3.3144607543945312,0.39
154,MetaDrive-test-noise-reduction-td3,94,217.5589679812917,156281,876,1650.1941010951996,45.46381759643555,-45.48045349121094,33.18326187133789,0.39
155,MetaDrive-test-noise-reduction-td3,94,220.83616188356612,157074,878,1657.8366651535034,48.26134490966797,,5.324619770050049,0.41
156,MetaDrive-test-noise-reduction-td3,94,222.4125957098531,158380,881,1671.4996910095215,47.78479766845703,,7.4326677322387695,0.41
157,MetaDrive-test-noise-reduction-td3,94,225.78753067569315,159704,883,1684.5403981208801,47.537025451660156,,65.92326354980469,0.43
158,MetaDrive-test-noise-reduction-td3,94,226.41576775388484,160011,884,1687.3734290599823,51.91388702392578,-52.48699951171875,4.184929847717285,0.43
159,MetaDrive-test-noise-reduction-td3,94,222.44416847009802,161214,888,1700.3359911441803,49.22535705566406,,43.896793365478516,0.43
160,MetaDrive-test-noise-reduction-td3,94,220.97436533352132,162915,891,1718.418169260025,49.0306396484375,-50.40178680419922,10.828888893127441,0.42
161,MetaDrive-test-noise-reduction-td3,94,221.67235606235144,163837,892,1730.1620979309082,46.03385925292969,-45.93488311767578,17.300872802734375,0.42
162,MetaDrive-test-noise-reduction-td3,94,225.4713824531028,164931,894,1744.406452178955,46.9818115234375,-47.87576675415039,8.174991607666016,0.42
163,MetaDrive-test-noise-reduction-td3,94,224.98666232419143,165578,895,1751.3369500637054,50.160282135009766,,5.863615036010742,0.43
164,MetaDrive-test-noise-reduction-td3,94,227.03755941010084,166565,897,1762.0014472007751,45.75855255126953,-44.61177062988281,9.572580337524414,0.44
165,MetaDrive-test-noise-reduction-td3,94,226.48424998385323,167394,898,1770.0558831691742,50.924129486083984,,4.7940874099731445,0.44
166,MetaDrive-test-noise-reduction-td3,94,220.36495039506588,168114,901,1776.7411222457886,50.33721160888672,,101.26829528808594,0.42
167,MetaDrive-test-noise-reduction-td3,94,220.96466153744328,169115,902,1787.9759402275085,50.83443069458008,-52.04929733276367,5.7682905197143555,0.42
168,MetaDrive-test-noise-reduction-td3,94,217.96943357972523,170276,905,1800.4521861076355,51.63236618041992,,7.26978874206543,0.41
169,MetaDrive-test-noise-reduction-td3,94,223.45812904765845,171538,907,1812.5530042648315,45.7140007019043,,5.266055107116699,0.43
170,MetaDrive-test-noise-reduction-td3,94,222.93397973303357,172051,908,1817.9717330932617,47.5235710144043,-49.50774002075195,198.0222930908203,0.42
171,MetaDrive-test-noise-reduction-td3,94,223.00748105678326,173097,911,1828.064022064209,49.535484313964844,-49.46799087524414,4.139214515686035,0.42
172,MetaDrive-test-noise-reduction-td3,94,224.4340071487699,174137,913,1838.1957190036774,48.46601867675781,-49.19266128540039,5.525412559509277,0.43
173,MetaDrive-test-noise-reduction-td3,94,230.3378962050786,175488,916,1851.2516551017761,47.062862396240234,,8.786199569702148,0.46
174,MetaDrive-test-noise-reduction-td3,94,231.72276365669677,176119,917,1858.68026304245,45.55416488647461,-45.66018295288086,6.047238349914551,0.46
175,MetaDrive-test-noise-reduction-td3,94,230.1256767764988,177219,919,1870.4039239883423,47.73322677612305,-47.86375427246094,138.6334228515625,0.45
176,MetaDrive-test-noise-reduction-td3,94,233.72956456339477,178202,920,1881.8105812072754,51.04245376586914,,12.799834251403809,0.46
177,MetaDrive-test-noise-reduction-td3,94,235.21379423423733,179203,921,1894.5883741378784,50.586727142333984,-50.97959518432617,9.102832794189453,0.45
178,MetaDrive-test-noise-reduction-td3,94,236.06282666911972,180902,925,1910.9186041355133,47.71015930175781,,8.053077697753906,0.46
179,MetaDrive-test-noise-reduction-td3,94,235.5030886922211,181435,927,1915.64048910141,52.6646614074707,-53.178802490234375,6.422634124755859,0.46
180,MetaDrive-test-noise-reduction-td3,94,237.4330496045792,182834,930,1932.1046421527863,46.47913360595703,,8.361021041870117,0.46
181,MetaDrive-test-noise-reduction-td3,94,233.91237808547663,183086,931,1934.543004989624,47.238956451416016,,23.635990142822266,0.45
182,MetaDrive-test-noise-reduction-td3,94,237.3974624292528,184493,933,1949.9965331554413,51.04839324951172,-50.815330505371094,7.142689228057861,0.46
183,MetaDrive-test-noise-reduction-td3,94,239.80352342404396,185068,934,1955.5242171287537,51.447261810302734,,6.408361434936523,0.47
184,MetaDrive-test-noise-reduction-td3,94,237.16790511167298,186122,937,1966.354210138321,45.15597152709961,,17.329580307006836,0.46
185,MetaDrive-test-noise-reduction-td3,94,238.2173088233342,187297,940,1977.6495411396027,50.43636703491211,-49.95850372314453,4.785837173461914,0.47
186,MetaDrive-test-noise-reduction-td3,94,242.97778396497128,188416,942,1988.994600057602,48.93412399291992,,4.157682418823242,0.48
187,MetaDrive-test-noise-reduction-td3,94,241.92649483551276,189393,945,1998.2498512268066,51.40583801269531,-52.71582794189453,107.76885223388672,0.49
188,MetaDrive-test-noise-reduction-td3,94,242.99566976659787,190147,947,2005.293576002121,50.21170425415039,-50.943294525146484,6.033252716064453,0.5
189,MetaDrive-test-noise-reduction-td3,94,243.05196676311786,191353,949,2019.7443671226501,47.922725677490234,-48.051841735839844,9.427661895751953,0.51
190,MetaDrive-test-noise-reduction-td3,94,244.92135826182167,192336,951,2028.858840227127,50.92351531982422,,6.639394760131836,0.52
191,MetaDrive-test-noise-reduction-td3,94,245.43528493928707,193075,954,2036.1351239681244,49.21503829956055,-48.878150939941406,13.705120086669922,0.51
192,MetaDrive-test-noise-reduction-td3,94,245.84664401502886,194269,957,2048.645039319992,51.94077682495117,-51.71491241455078,10.893728256225586,0.52
193,MetaDrive-test-noise-reduction-td3,94,246.24829754261506,195043,958,2056.211019039154,50.339725494384766,-50.564876556396484,29.39488983154297,0.52
194,MetaDrive-test-noise-reduction-td3,94,250.01047713271575,196276,961,2068.4982941150665,51.67937469482422,,5.2849531173706055,0.54
195,MetaDrive-test-noise-reduction-td3,94,249.42778138100653,197181,964,2076.337991952896,49.9780158996582,-50.16819763183594,6.5981035232543945,0.55
196,MetaDrive-test-noise-reduction-td3,94,249.96291567124274,198387,966,2088.606411218643,48.040260314941406,-48.52375030517578,102.36033630371094,0.55
197,MetaDrive-test-noise-reduction-td3,95,252.30418480066012,199623,968,2100.987265110016,48.18772888183594,-48.51494216918945,43.702415466308594,0.56
198,MetaDrive-test-noise-reduction-td3,95,250.40473482044416,200571,972,2110.551393032074,47.74754333496094,-48.539791107177734,7.481276512145996,0.56
199,MetaDrive-test-noise-reduction-td3,95,251.6661744213735,201260,973,2117.8849651813507,48.390220642089844,,12.851957321166992,0.56
200,MetaDrive-test-noise-reduction-td3,95,250.7095814890402,202444,976,2129.661464214325,46.19599151611328,,3.7601640224456787,0.55
201,MetaDrive-test-noise-reduction-td3,95,250.81787499489553,203467,978,2141.49507522583,47.012203216552734,-48.11357498168945,64.26522827148438,0.54
202,MetaDrive-test-noise-reduction-td3,95,250.6225580357124,204476,980,2152.3237702846527,51.39500045776367,,26.853267669677734,0.54
203,MetaDrive-test-noise-reduction-td3,95,246.76491935563078,205557,983,2163.732917070389,50.74809265136719,-51.07086944580078,32.29222869873047,0.52
204,MetaDrive-test-noise-reduction-td3,95,247.77794157525244,206036,984,2168.0375912189484,48.863014221191406,,10.724588394165039,0.53
205,MetaDrive-test-noise-reduction-td3,95,251.42807154106265,207463,986,2183.091329097748,47.71702194213867,-47.76629638671875,7.609160423278809,0.54
206,MetaDrive-test-noise-reduction-td3,95,250.94311694174104,208313,988,2191.38321518898,47.05998229980469,-47.30579376220703,5.5496416091918945,0.54
207,MetaDrive-test-noise-reduction-td3,95,250.81093076733083,209314,989,2200.8297061920166,53.419944763183594,,6.55635929107666,0.53
208,MetaDrive-test-noise-reduction-td3,95,248.4108424020822,210383,992,2211.004916191101,52.71617889404297,-53.08287048339844,5.875690460205078,0.53
209,MetaDrive-test-noise-reduction-td3,95,249.2041594572482,211228,994,2220.340175151825,51.30540084838867,,6.825100421905518,0.54
210,MetaDrive-test-noise-reduction-td3,95,250.80899336105628,212375,996,2232.5372371673584,48.79608917236328,-49.39322280883789,6.936985015869141,0.55
211,MetaDrive-test-noise-reduction-td3,95,248.8265734185687,213430,998,2243.3021721839905,47.09682846069336,,14.079826354980469,0.54
212,MetaDrive-test-noise-reduction-td3,95,250.5756957418942,214002,999,2249.237540245056,52.37832260131836,,19.81403350830078,0.54
213,MetaDrive-test-noise-reduction-td3,95,256.02815581882817,215433,1001,2264.9912650585175,51.80525588989258,-53.224491119384766,5.710324287414551,0.55
214,MetaDrive-test-noise-reduction-td3,95,256.4997592681742,216434,1002,2277.9592711925507,50.40500259399414,,6.0084733963012695,0.55
215,MetaDrive-test-noise-reduction-td3,94,255.73974840517405,217797,1005,2295.8671910762787,49.717472076416016,-49.94493103027344,44.1393928527832,0.54
216,MetaDrive-test-noise-reduction-td3,94,254.59487090941522,218536,1006,2303.923840045929,51.05617141723633,,6.59070348739624,0.54
217,MetaDrive-test-noise-reduction-td3,94,252.84905992287094,219319,1008,2311.4478390216827,52.013710021972656,-51.952110290527344,4.8669915199279785,0.54
218,MetaDrive-test-noise-reduction-td3,94,254.9897209336588,220485,1010,2322.669647216797,45.854469299316406,-46.79404830932617,36.696434020996094,0.55
219,MetaDrive-test-noise-reduction-td3,94,255.92808226714783,221035,1011,2328.841548204422,50.128196716308594,-49.923194885253906,8.582840919494629,0.55
220,MetaDrive-test-noise-reduction-td3,94,253.58050129617786,222403,1014,2343.909627199173,48.63418197631836,-49.13051223754883,10.210811614990234,0.53
221,MetaDrive-test-noise-reduction-td3,94,253.02179859227527,223404,1015,2356.849284172058,50.32154083251953,,8.243091583251953,0.52
222,MetaDrive-test-noise-reduction-td3,94,253.24502345652735,224103,1016,2363.315367937088,54.61336898803711,-54.83576583862305,5.855066299438477,0.52
223,MetaDrive-test-noise-reduction-td3,94,253.92569534724026,225239,1018,2376.6060979366302,49.85091018676758,-50.18329620361328,6.898153781890869,0.52
224,MetaDrive-test-noise-reduction-td3,94,247.21951420366636,226310,1022,2386.3347153663635,50.487022399902344,,8.452286720275879,0.53
225,MetaDrive-test-noise-reduction-td3,94,248.2798896374921,227225,1024,2396.1926741600037,51.30018615722656,-50.06727600097656,8.681865692138672,0.53
226,MetaDrive-test-noise-reduction-td3,94,250.34498961601298,228199,1026,2405.689637184143,50.06020736694336,-50.59217071533203,21.180225372314453,0.53
227,MetaDrive-test-noise-reduction-td3,94,251.43812842046972,229197,1028,2416.4290630817413,47.50725555419922,-47.16365432739258,8.089038848876953,0.53
228,MetaDrive-test-noise-reduction-td3,94,251.24334985577494,230145,1031,2425.536387205124,50.989620208740234,-50.83873748779297,6.781363487243652,0.54
229,MetaDrive-test-noise-reduction-td3,94,247.6116913560075,231430,1034,2437.787577152252,50.70064926147461,,10.232989311218262,0.52
230,MetaDrive-test-noise-reduction-td3,94,250.43369498314183,232314,1035,2448.4932012557983,49.63208770751953,,17.36632537841797,0.53
231,MetaDrive-test-noise-reduction-td3,94,252.05322837555886,233693,1038,2464.6529681682587,47.638614654541016,-47.430198669433594,5.007394790649414,0.53
232,MetaDrive-test-noise-reduction-td3,94,255.5918207450694,234250,1039,2470.3630740642548,54.79975128173828,,10.664989471435547,0.54
233,MetaDrive-test-noise-reduction-td3,94,255.58899230958264,235168,1041,2478.81756234169,50.590423583984375,,5.234107971191406,0.55
234,MetaDrive-test-noise-reduction-td3,94,258.33964377276135,236094,1042,2490.336574077606,52.090187072753906,,6.556385040283203,0.55
235,MetaDrive-test-noise-reduction-td3,94,262.6080118757752,237383,1044,2502.8122911453247,50.71173095703125,-52.02567672729492,9.510699272155762,0.56
236,MetaDrive-test-noise-reduction-td3,94,255.36684285484932,238265,1048,2511.15927028656,52.74949645996094,-52.33407211303711,6.222594261169434,0.53
237,MetaDrive-test-noise-reduction-td3,94,252.32896868542193,239354,1051,2523.5251071453094,52.86960983276367,,77.87637329101562,0.52
238,MetaDrive-test-noise-reduction-td3,94,253.03915315409188,240022,1053,2529.553040266037,52.26130294799805,,34.32819366455078,0.53
239,MetaDrive-test-noise-reduction-td3,94,249.91328964007752,241124,1057,2540.4174721240997,49.744449615478516,,9.699457168579102,0.51
240,MetaDrive-test-noise-reduction-td3,94,251.94244314300536,242186,1059,2550.765873193741,48.98374557495117,,7.258766174316406,0.52
241,MetaDrive-test-noise-reduction-td3,95,250.51342249253972,243687,1062,2564.829264163971,55.297508239746094,-55.998146057128906,10.282227516174316,0.51
242,MetaDrive-test-noise-reduction-td3,95,253.91147629448378,244425,1063,2572.1182000637054,55.18245315551758,-56.031494140625,8.846593856811523,0.52
243,MetaDrive-test-noise-reduction-td3,95,252.64176559967302,245237,1065,2580.880711078644,45.81737518310547,-45.39213180541992,8.21239948272705,0.51
244,MetaDrive-test-noise-reduction-td3,95,248.1160846460917,246039,1068,2588.6905992031097,52.89270782470703,-54.13290023803711,9.54983139038086,0.5
245,MetaDrive-test-noise-reduction-td3,95,252.99533031188875,247026,1070,2598.16308927536,48.745582580566406,,6.9664201736450195,0.51
246,MetaDrive-test-noise-reduction-td3,95,251.4948292476308,248175,1073,2610.6646761894226,50.026512145996094,-49.792179107666016,10.625526428222656,0.51
247,MetaDrive-test-noise-reduction-td3,95,253.7877563198322,249094,1075,2620.1763701438904,49.37370300292969,,10.552469253540039,0.53
248,MetaDrive-test-noise-reduction-td3,95,254.40939371759617,250002,1076,2630.9215869903564,49.411216735839844,,48.34895324707031,0.53
249,MetaDrive-test-noise-reduction-td3,95,251.62571136531707,251109,1078,2643.123481273651,47.012535095214844,-46.75495529174805,10.299320220947266,0.52
250,MetaDrive-test-noise-reduction-td3,95,252.84798699682358,252016,1081,2651.619926214218,49.849300384521484,,9.733001708984375,0.53
251,MetaDrive-test-noise-reduction-td3,95,253.07306849043331,253129,1083,2663.189134120941,49.66579055786133,-50.394287109375,9.9346923828125,0.53
252,MetaDrive-test-noise-reduction-td3,95,250.76087882867122,254408,1086,2675.7355031967163,48.47180938720703,,103.54473876953125,0.52
253,MetaDrive-test-noise-reduction-td3,95,254.73271029563776,255126,1087,2684.199249267578,53.142333984375,,16.60841178894043,0.53
254,MetaDrive-test-noise-reduction-td3,95,256.5393771479489,256379,1089,2698.142753124237,52.52512741088867,-52.818275451660156,16.816864013671875,0.54
255,MetaDrive-test-noise-reduction-td3,95,261.2680146731169,257374,1091,2707.0719661712646,48.53606414794922,,6.784279823303223,0.55
256,MetaDrive-test-noise-reduction-td3,95,260.57658092970115,258166,1092,2716.222605228424,49.49192810058594,,8.57219123840332,0.55
257,MetaDrive-test-noise-reduction-td3,95,262.2943634483726,259046,1093,2724.680850982666,55.587440490722656,,4.913931846618652,0.56
258,MetaDrive-test-noise-reduction-td3,95,263.5489070778452,260380,1095,2738.1550221443176,51.201839447021484,,7.156623363494873,0.55
259,MetaDrive-test-noise-reduction-td3,95,264.1253429840254,261059,1096,2745.2348732948303,49.36970520019531,-50.31228256225586,8.73858642578125,0.55
260,MetaDrive-test-noise-reduction-td3,95,263.4510191196317,262666,1099,2761.85253405571,54.933746337890625,,11.654661178588867,0.55
261,MetaDrive-test-noise-reduction-td3,95,264.76326585226985,263494,1100,2770.6510281562805,49.146827697753906,,7.170925140380859,0.55
262,MetaDrive-test-noise-reduction-td3,95,264.96039846191775,264282,1101,2779.7567071914673,50.165164947509766,,21.719104766845703,0.56
263,MetaDrive-test-noise-reduction-td3,94,266.4604298546285,265283,1102,2793.642944097519,55.0966796875,-55.415122985839844,7.1658735275268555,0.56
264,MetaDrive-test-noise-reduction-td3,94,270.29654389486046,266112,1103,2802.113457918167,52.012939453125,,14.358625411987305,0.57
265,MetaDrive-test-noise-reduction-td3,94,271.1147689711467,267093,1105,2812.7002761363983,49.84440231323242,-48.62139892578125,40.37929153442383,0.58
266,MetaDrive-test-noise-reduction-td3,95,273.20110281695696,268502,1107,2826.179963350296,49.87014389038086,,9.248594284057617,0.58
267,MetaDrive-test-noise-reduction-td3,95,271.9018434944625,269461,1109,2834.8576180934906,50.3366813659668,-51.6015739440918,89.98983764648438,0.58
268,MetaDrive-test-noise-reduction-td3,95,269.0741866267297,270197,1111,2842.699456214905,49.553253173828125,-50.05448913574219,5.590838432312012,0.57
269,MetaDrive-test-noise-reduction-td3,95,270.78015086222916,271428,1113,2854.9656851291656,50.96607971191406,,8.092988014221191,0.58
270,MetaDrive-test-noise-reduction-td3,95,272.0983933276482,272416,1115,2865.516752243042,52.06324005126953,,15.040666580200195,0.59
271,MetaDrive-test-noise-reduction-td3,95,270.9109913987065,273492,1117,2877.347445011139,54.2550048828125,,8.756927490234375,0.58
272,MetaDrive-test-noise-reduction-td3,95,272.69211310797516,274640,1119,2889.214344024658,54.65636444091797,,5.084683418273926,0.58
273,MetaDrive-test-noise-reduction-td3,95,274.00858534076883,275191,1120,2894.58753323555,50.89103698730469,-52.05083465576172,71.84761810302734,0.58
274,MetaDrive-test-noise-reduction-td3,95,277.3460641116606,276412,1122,2906.229232311249,52.33165740966797,,12.222686767578125,0.59
275,MetaDrive-test-noise-reduction-td3,95,278.28378270688296,277413,1123,2918.547239303589,51.367305755615234,-52.49437713623047,29.64356803894043,0.58
276,MetaDrive-test-noise-reduction-td3,94,277.2674645149918,278759,1125,2935.2879643440247,52.13756561279297,-52.3989372253418,9.891168594360352,0.56
277,MetaDrive-test-noise-reduction-td3,94,277.2953424348591,279484,1126,2942.3614122867584,55.27302551269531,,38.14529800415039,0.56
278,MetaDrive-test-noise-reduction-td3,94,275.36112088791504,280138,1128,2948.8948872089386,56.11323547363281,,14.515470504760742,0.56
279,MetaDrive-test-noise-reduction-td3,95,275.0320724862196,281350,1131,2961.417929172516,51.98689270019531,,5.561057090759277,0.56
280,MetaDrive-test-noise-reduction-td3,95,273.4137640289757,282294,1134,2970.516277074814,51.46030807495117,,7.9826979637146,0.56
281,MetaDrive-test-noise-reduction-td3,95,270.0086676027936,283293,1137,2981.047242164612,59.561126708984375,-60.074729919433594,9.830788612365723,0.54
282,MetaDrive-test-noise-reduction-td3,94,269.3530004336924,284279,1138,2993.98761510849,50.624656677246094,-50.74713897705078,8.033958435058594,0.53
283,MetaDrive-test-noise-reduction-td3,94,268.345037105459,285280,1139,3005.8186750411987,53.35012435913086,,11.290719985961914,0.52
284,MetaDrive-test-noise-reduction-td3,94,267.6842082911914,286237,1141,3015.144126176834,53.4024772644043,-52.92768478393555,11.700185775756836,0.51
285,MetaDrive-test-noise-reduction-td3,94,266.1183349846104,287734,1143,3031.885900259018,50.55293655395508,,12.390628814697266,0.51
286,MetaDrive-test-noise-reduction-td3,94,266.2186010760528,288492,1144,3039.662215948105,50.381561279296875,,11.674333572387695,0.51
287,MetaDrive-test-noise-reduction-td3,94,268.6933984806799,289111,1146,3046.2788989543915,53.171939849853516,-53.506103515625,5.532512664794922,0.52
288,MetaDrive-test-noise-reduction-td3,94,274.03952847481867,290797,1148,3065.3959040641785,53.693504333496094,-54.99372100830078,5.236930847167969,0.54
289,MetaDrive-test-noise-reduction-td3,94,276.51789826810614,291798,1149,3076.5822701454163,46.70433807373047,,101.78120422363281,0.54
290,MetaDrive-test-noise-reduction-td3,94,277.19871529300696,292034,1150,3078.908991098404,54.4745979309082,,14.777588844299316,0.54
291,MetaDrive-test-noise-reduction-td3,94,275.09059327979213,293800,1153,3097.1633212566376,46.55946731567383,,22.41078758239746,0.53
292,MetaDrive-test-noise-reduction-td3,94,275.9813588054607,294242,1155,3100.9799082279205,53.509422302246094,,14.655168533325195,0.53
293,MetaDrive-test-noise-reduction-td3,94,279.91000983144795,295519,1157,3114.7555022239685,54.639278411865234,-54.76675033569336,9.054396629333496,0.54
294,MetaDrive-test-noise-reduction-td3,94,280.4097513389592,296520,1158,3127.7214500904083,54.74098205566406,,7.398685455322266,0.53
295,MetaDrive-test-noise-reduction-td3,94,281.09036874288194,297521,1159,3138.070182323456,51.95098876953125,-52.827911376953125,8.71497631072998,0.52
296,MetaDrive-test-noise-reduction-td3,94,281.4338742269693,298331,1160,3145.8353402614594,55.37906265258789,-56.48368835449219,10.682591438293457,0.52
297,MetaDrive-test-noise-reduction-td3,94,277.82485152230436,299434,1163,3157.585425376892,48.69807434082031,,91.22052001953125,0.5
298,MetaDrive-test-noise-reduction-td3,94,280.9908348909757,300205,1164,3166.361524105072,51.846099853515625,-52.52732849121094,14.856292724609375,0.51
299,MetaDrive-test-noise-reduction-td3,94,279.5813164102079,301024,1166,3174.4082131385803,56.34252166748047,,24.71853256225586,0.51
300,MetaDrive-test-noise-reduction-td3,94,284.0957816244727,302282,1168,3186.8374190330505,56.2316780090332,,13.98561954498291,0.52
301,MetaDrive-test-noise-reduction-td3,94,284.9751507007601,303176,1169,3195.942530155182,54.48284149169922,,12.766214370727539,0.52
302,MetaDrive-test-noise-reduction-td3,94,283.7497352814238,304636,1172,3210.7778000831604,56.354312896728516,,16.382801055908203,0.53
303,MetaDrive-test-noise-reduction-td3,94,286.17601717195026,305262,1173,3217.285147190094,56.545440673828125,,43.719200134277344,0.54
304,MetaDrive-test-noise-reduction-td3,94,281.7848197800068,306198,1176,3226.2131180763245,53.693965911865234,,8.332294464111328,0.52
305,MetaDrive-test-noise-reduction-td3,94,286.47802473286123,307406,1178,3238.5551040172577,53.78288650512695,,8.214143753051758,0.53
306,MetaDrive-test-noise-reduction-td3,94,288.6769365278271,308446,1180,3249.244443178177,52.3455924987793,,10.702653884887695,0.54
307,MetaDrive-test-noise-reduction-td3,94,291.76448658582444,309381,1181,3259.35599899292,54.48346710205078,-54.98452377319336,10.968734741210938,0.54
308,MetaDrive-test-noise-reduction-td3,94,291.61204446478104,310859,1183,3275.000214099884,48.66764831542969,-48.80763626098633,15.067561149597168,0.54
309,MetaDrive-test-noise-reduction-td3,94,290.8163926471569,311073,1184,3277.215363264084,53.83976745605469,-53.43403625488281,32.448219299316406,0.54
310,MetaDrive-test-noise-reduction-td3,94,289.13002338115155,312074,1185,3286.6315500736237,49.82716369628906,,208.66432189941406,0.53
311,MetaDrive-test-noise-reduction-td3,94,284.2487924374075,313006,1188,3296.1581671237946,50.68656539916992,,101.04058837890625,0.51
312,MetaDrive-test-noise-reduction-td3,94,280.47007253321385,314369,1191,3309.2231361865997,52.252288818359375,-53.20864486694336,6.207427978515625,0.5
313,MetaDrive-test-noise-reduction-td3,94,280.2468844056508,315370,1192,3321.3223371505737,55.31150817871094,,77.83816528320312,0.49
314,MetaDrive-test-noise-reduction-td3,94,278.0374769602276,316418,1194,3331.57235622406,53.41575622558594,,12.980419158935547,0.48
315,MetaDrive-test-noise-reduction-td3,94,274.89551837779726,317049,1196,3338.0583879947662,53.736541748046875,-55.011985778808594,10.039752960205078,0.47
316,MetaDrive-test-noise-reduction-td3,94,271.72692078392714,318032,1199,3347.7309939861298,55.4132080078125,,13.33875560760498,0.46
317,MetaDrive-test-noise-reduction-td3,94,269.3346855819472,319145,1201,3361.2831649780273,58.251869201660156,-59.23290252685547,8.810762405395508,0.45
318,MetaDrive-test-noise-reduction-td3,94,267.59451197183927,320218,1203,3371.7861812114716,52.183387756347656,,6.641274452209473,0.45
319,MetaDrive-test-noise-reduction-td3,95,265.02773186089865,321637,1206,3385.5932002067566,56.14014434814453,-57.07401657104492,20.829959869384766,0.44
320,MetaDrive-test-noise-reduction-td3,95,263.99260453259933,322080,1207,3389.6929762363434,57.15155792236328,,19.035402297973633,0.45
321,MetaDrive-test-noise-reduction-td3,95,264.3525546610083,323035,1209,3398.497312068939,57.197608947753906,-57.80046081542969,7.331275939941406,0.45
322,MetaDrive-test-noise-reduction-td3,95,259.53009326689755,324021,1213,3408.965546131134,53.89667510986328,-55.478004455566406,10.072720527648926,0.42
323,MetaDrive-test-noise-reduction-td3,95,256.5287391884994,325446,1217,3423.7938861846924,53.56981658935547,,20.483659744262695,0.42
324,MetaDrive-test-noise-reduction-td3,94,256.5256355262901,326947,1219,3442.924366235733,55.101985931396484,-54.973541259765625,8.826717376708984,0.42
325,MetaDrive-test-noise-reduction-td3,94,257.90763071291275,327562,1220,3449.1154901981354,59.10842514038086,,27.565444946289062,0.43
326,MetaDrive-test-noise-reduction-td3,94,259.1690397697341,328079,1221,3453.939159154892,52.164161682128906,-51.79972457885742,17.244468688964844,0.43
327,MetaDrive-test-noise-reduction-td3,94,255.61894764062748,329342,1224,3467.554722070694,58.51014709472656,,11.85205364227295,0.43
328,MetaDrive-test-noise-reduction-td3,95,253.74933436884933,330149,1226,3475.1693861484528,54.447547912597656,-53.716705322265625,8.954889297485352,0.44
329,MetaDrive-test-noise-reduction-td3,94,257.2843946628665,331073,1227,3485.068154335022,53.499515533447266,-54.85554504394531,12.684808731079102,0.45
330,MetaDrive-test-noise-reduction-td3,94,257.76467854421395,332335,1229,3498.2672820091248,55.93803024291992,-56.05824661254883,10.698112487792969,0.44
331,MetaDrive-test-noise-reduction-td3,95,262.94356385577163,333640,1231,3510.2715981006622,59.7479248046875,,10.384157180786133,0.46
332,MetaDrive-test-noise-reduction-td3,95,264.2510428476229,334654,1233,3520.454241037369,53.04938507080078,,13.630010604858398,0.46
333,MetaDrive-test-noise-reduction-td3,95,264.68669057964615,335002,1234,3523.980569124222,58.190399169921875,,10.796417236328125,0.46
334,MetaDrive-test-noise-reduction-td3,95,267.6495578825809,336403,1237,3536.7452211380005,56.087554931640625,-56.21623992919922,6.075225353240967,0.48
335,MetaDrive-test-noise-reduction-td3,95,266.2293146738594,337404,1238,3547.5075430870056,54.802711486816406,,7.010433197021484,0.48
336,MetaDrive-test-noise-reduction-td3,95,267.15025025918646,338175,1239,3555.8797540664673,53.155479431152344,-53.385005950927734,20.417797088623047,0.49
337,MetaDrive-test-noise-reduction-td3,95,264.5425628116372,339420,1242,3568.4124779701233,53.93505096435547,,17.627605438232422,0.48
338,MetaDrive-test-noise-reduction-td3,95,261.8893294033589,340485,1244,3578.8923892974854,52.42218017578125,-53.10511779785156,6.2010602951049805,0.47
339,MetaDrive-test-noise-reduction-td3,95,264.7428871358544,341592,1246,3590.1484451293945,55.65572738647461,,8.466032028198242,0.48
340,MetaDrive-test-noise-reduction-td3,95,263.57519909800277,342880,1248,3602.74338722229,55.9869499206543,,14.889781951904297,0.48
341,MetaDrive-test-noise-reduction-td3,95,262.16264476298903,343096,1249,3604.91801404953,60.18502426147461,,12.099318504333496,0.48
342,MetaDrive-test-noise-reduction-td3,95,264.1762583596593,344385,1251,3618.8734180927277,53.89607620239258,-56.482948303222656,122.98297119140625,0.49
343,MetaDrive-test-noise-reduction-td3,95,264.63821585003996,345386,1252,3628.90433716774,54.43268585205078,,9.65202522277832,0.49
344,MetaDrive-test-noise-reduction-td3,95,265.6974192668432,346051,1253,3635.638406276703,52.597740173339844,-53.65148162841797,85.68981170654297,0.5
345,MetaDrive-test-noise-reduction-td3,95,270.5959318550241,347629,1255,3654.7482421398163,53.37297439575195,-54.15711975097656,21.226377487182617,0.52
346,MetaDrive-test-noise-reduction-td3,95,265.93386586495615,348209,1257,3660.2197172641754,57.30246353149414,-57.06090545654297,9.216959953308105,0.52
347,MetaDrive-test-noise-reduction-td3,95,263.5973047528404,349060,1259,3668.0709602832794,60.5112190246582,,6.1692657470703125,0.53
348,MetaDrive-test-noise-reduction-td3,95,265.05164324019375,350222,1261,3680.20086312294,57.06977462768555,,7.904749870300293,0.53
349,MetaDrive-test-noise-reduction-td3,95,265.68982359095895,351063,1263,3687.6237902641296,54.97144317626953,-55.87837219238281,11.583900451660156,0.54
350,MetaDrive-test-noise-reduction-td3,95,264.3998402419726,352386,1265,3700.2750611305237,56.9307861328125,,5.785705089569092,0.54
351,MetaDrive-test-noise-reduction-td3,95,263.92012365989973,353545,1267,3712.9804241657257,53.53728485107422,-54.53664016723633,28.658174514770508,0.53
352,MetaDrive-test-noise-reduction-td3,95,259.51737425282806,354887,1269,3729.1688601970673,54.237274169921875,-54.376861572265625,14.152935981750488,0.51
353,MetaDrive-test-noise-reduction-td3,95,260.4334026556837,355326,1270,3733.8162450790405,51.91925048828125,,153.781494140625,0.51
354,MetaDrive-test-noise-reduction-td3,95,261.370809353995,356327,1271,3744.026266336441,55.330223083496094,-55.577003479003906,18.464340209960938,0.5
355,MetaDrive-test-noise-reduction-td3,95,261.13650065661693,357114,1272,3752.0650770664215,61.5466194152832,,21.11513900756836,0.49
356,MetaDrive-test-noise-reduction-td3,95,264.1733799914238,358406,1274,3766.3481030464172,57.80076217651367,,8.405235290527344,0.49
357,MetaDrive-test-noise-reduction-td3,95,263.8839132680516,359210,1276,3774.904564142227,52.41646194458008,,8.60928726196289,0.49
358,MetaDrive-test-noise-reduction-td3,95,265.0474916455294,360824,1278,3791.897319316864,52.08285140991211,,128.41099548339844,0.5
359,MetaDrive-test-noise-reduction-td3,95,266.9413737436296,361622,1279,3799.799092054367,55.52342987060547,,8.591090202331543,0.5
360,MetaDrive-test-noise-reduction-td3,95,266.31141220813583,362389,1280,3807.2502160072327,52.99815368652344,-54.09613037109375,8.997100830078125,0.5
361,MetaDrive-test-noise-reduction-td3,95,263.1907136151491,363176,1282,3815.0135440826416,59.159645080566406,,5.930102348327637,0.5
362,MetaDrive-test-noise-reduction-td3,95,266.5403229697682,364636,1285,3830.2883191108704,55.2498664855957,,5.794643402099609,0.52
363,MetaDrive-test-noise-reduction-td3,95,269.47409605894546,365332,1286,3837.4313571453094,57.7258415222168,,8.131660461425781,0.53
364,MetaDrive-test-noise-reduction-td3,95,267.1565282445718,366033,1289,3844.534748315811,56.11981964111328,-56.631553649902344,55.34474182128906,0.52
365,MetaDrive-test-noise-reduction-td3,95,266.209509126406,367610,1292,3861.4390490055084,55.06317901611328,,14.67399787902832,0.53
366,MetaDrive-test-noise-reduction-td3,95,267.40055458184065,368611,1293,3872.187366247177,60.739830017089844,-60.9073371887207,15.303293228149414,0.53
367,MetaDrive-test-noise-reduction-td3,95,265.03582443833426,369612,1294,3882.6732392311096,58.31608581542969,,14.41317081451416,0.52
368,MetaDrive-test-noise-reduction-td3,95,266.4824980102872,370197,1295,3888.1625022888184,57.2647819519043,-56.82014083862305,12.355939865112305,0.53
369,MetaDrive-test-noise-reduction-td3,95,270.7195102730706,371627,1298,3903.4103832244873,52.458091735839844,-53.7774543762207,28.57149314880371,0.55
370,MetaDrive-test-noise-reduction-td3,95,270.23529337725364,372143,1299,3908.28258728981,52.23582458496094,-50.22704315185547,15.590481758117676,0.54
371,MetaDrive-test-noise-reduction-td3,95,266.4526448937168,373185,1302,3918.955006122589,57.06553649902344,-57.774227142333984,15.511551856994629,0.53
372,MetaDrive-test-noise-reduction-td3,95,267.880508836719,374417,1304,3931.1217710971832,56.09232711791992,-56.41064453125,11.532320022583008,0.53
373,MetaDrive-test-noise-reduction-td3,95,271.37529854035836,375418,1305,3941.979807138443,53.82387161254883,,11.947811126708984,0.53
374,MetaDrive-test-noise-reduction-td3,95,273.55405047625464,376173,1306,3950.6276631355286,56.966880798339844,-58.14893341064453,25.438623428344727,0.54
375,MetaDrive-test-noise-reduction-td3,95,274.2064319820502,377808,1308,3969.134119987488,53.990882873535156,,7.919591426849365,0.53
376,MetaDrive-test-noise-reduction-td3,95,273.6862283018754,378608,1309,3976.379348039627,53.5507698059082,,14.379790306091309,0.53
377,MetaDrive-test-noise-reduction-td3,95,277.50116814499773,379529,1310,3986.5155861377716,58.364990234375,-58.045345306396484,14.513261795043945,0.53
378,MetaDrive-test-noise-reduction-td3,95,277.24940657102786,380090,1311,3992.1180851459503,52.34199905395508,,12.17434310913086,0.53
379,MetaDrive-test-noise-reduction-td3,95,281.09327365187806,381058,1313,4001.52335524559,59.746307373046875,,7.9863481521606445,0.54
380,MetaDrive-test-noise-reduction-td3,95,284.8314746144177,382670,1316,4016.9745149612427,53.648067474365234,,12.157674789428711,0.55
381,MetaDrive-test-noise-reduction-td3,95,285.62695922394204,383558,1317,4027.664958000183,53.902793884277344,,8.569860458374023,0.55
382,MetaDrive-test-noise-reduction-td3,95,286.8657005520792,384393,1318,4036.1767642498016,53.11430358886719,-53.43622970581055,10.942831993103027,0.55
383,MetaDrive-test-noise-reduction-td3,95,286.122902143305,385001,1319,4041.66473031044,53.87939453125,-54.594017028808594,8.579142570495605,0.56
384,MetaDrive-test-noise-reduction-td3,95,285.4478142703342,386587,1322,4056.4774301052094,55.0081787109375,-55.33189392089844,44.45952606201172,0.56
385,MetaDrive-test-noise-reduction-td3,95,286.4713490084577,387484,1323,4064.74103307724,57.38909149169922,,10.21243667602539,0.56
386,MetaDrive-test-noise-reduction-td3,95,288.2244599136995,388485,1324,4077.249754190445,53.264686584472656,-54.63819885253906,9.691673278808594,0.56
387,MetaDrive-test-noise-reduction-td3,95,287.10287704837197,389042,1326,4082.920256137848,59.600887298583984,,10.479000091552734,0.56
388,MetaDrive-test-noise-reduction-td3,95,279.79339244462926,390366,1330,4095.3673901557922,54.77461242675781,,15.220123291015625,0.54
389,MetaDrive-test-noise-reduction-td3,95,279.64791414078996,391344,1331,4105.106570005417,50.445072174072266,,33.194114685058594,0.54
390,MetaDrive-test-noise-reduction-td3,95,279.91930339808437,392303,1333,4113.639502286911,63.56098937988281,-63.74436950683594,12.595027923583984,0.54
391,MetaDrive-test-noise-reduction-td3,95,281.28902279876695,393320,1335,4123.508908033371,51.89055633544922,,16.11821746826172,0.54
392,MetaDrive-test-noise-reduction-td3,95,280.3113920937516,394163,1337,4132.1307721138,55.706817626953125,-56.50795364379883,21.170692443847656,0.54
393,MetaDrive-test-noise-reduction-td3,95,279.23554314592076,395209,1340,4142.633179187775,57.36698532104492,-57.63655471801758,32.19187545776367,0.54
394,MetaDrive-test-noise-reduction-td3,95,280.9488258226505,396795,1342,4161.332143306732,51.7170295715332,-52.48953628540039,177.22512817382812,0.54
395,MetaDrive-test-noise-reduction-td3,95,282.95826043641426,397796,1343,4173.920201063156,53.909385681152344,,13.18259048461914,0.54
396,MetaDrive-test-noise-reduction-td3,95,283.6413013608454,398617,1344,4181.774343013763,57.096656799316406,-57.4875602722168,12.022903442382812,0.54
397,MetaDrive-test-noise-reduction-td3,95,282.8286182363637,399618,1345,4193.616624355316,50.41909408569336,,8.521726608276367,0.53
398,MetaDrive-test-noise-reduction-td3,95,283.2677142531783,400534,1346,4203.411867141724,54.383399963378906,,12.835037231445312,0.53
399,MetaDrive-test-noise-reduction-td3,95,283.729219665048,401274,1347,4211.124902248383,56.15700149536133,,13.994939804077148,0.53
400,MetaDrive-test-noise-reduction-td3,95,283.8285204157087,402128,1348,4220.78450012207,57.74182891845703,,11.141048431396484,0.53
401,MetaDrive-test-noise-reduction-td3,95,282.87894948131424,403057,1350,4229.937212228775,53.90825271606445,-54.2250862121582,9.125548362731934,0.53
402,MetaDrive-test-noise-reduction-td3,95,284.82822715863125,404261,1352,4242.067830085754,52.454429626464844,-52.901832580566406,12.909517288208008,0.54
403,MetaDrive-test-noise-reduction-td3,95,284.767323870856,405597,1354,4256.057713985443,48.94053649902344,-49.11466598510742,8.584985733032227,0.54
404,MetaDrive-test-noise-reduction-td3,95,284.66985300986545,406598,1355,4267.356747150421,51.76165771484375,,13.299043655395508,0.53
405,MetaDrive-test-noise-reduction-td3,95,285.6788722975414,407073,1356,4272.359177112579,55.85628128051758,-56.328636169433594,11.039131164550781,0.53
406,MetaDrive-test-noise-reduction-td3,95,286.7992115602153,408189,1358,4284.573064088821,60.80867004394531,-61.76192092895508,8.503349304199219,0.52
407,MetaDrive-test-noise-reduction-td3,95,287.51794249406873,409697,1360,4299.84349322319,57.32509231567383,-58.560855865478516,6.650421619415283,0.53
408,MetaDrive-test-noise-reduction-td3,95,288.2665660932846,410350,1361,4306.335837125778,55.618309020996094,,165.00430297851562,0.54
409,MetaDrive-test-noise-reduction-td3,95,290.7583558456755,411832,1363,4320.816306114197,58.388427734375,,15.368911743164062,0.55
410,MetaDrive-test-noise-reduction-td3,95,292.92271925942725,412796,1364,4330.871308088303,53.647911071777344,,28.36710548400879,0.55
411,MetaDrive-test-noise-reduction-td3,95,294.08531359878003,413797,1365,4341.197293281555,54.99040222167969,-55.69477844238281,10.465102195739746,0.54
412,MetaDrive-test-noise-reduction-td3,95,293.59351607331706,414311,1366,4345.706449270248,58.27143096923828,-58.430355072021484,12.012250900268555,0.54
413,MetaDrive-test-noise-reduction-td3,95,295.7693024539919,415481,1368,4357.856157064438,56.922698974609375,-56.95860290527344,9.786556243896484,0.55
414,MetaDrive-test-noise-reduction-td3,95,295.3582548712628,416405,1370,4367.110512256622,59.22279739379883,-60.11381530761719,7.91524076461792,0.56
415,MetaDrive-test-noise-reduction-td3,95,288.8783512072658,417002,1373,4373.062214374542,53.771827697753906,,8.177728652954102,0.56
416,MetaDrive-test-noise-reduction-td3,95,286.3719802959415,418514,1375,4391.445832967758,55.787803649902344,,8.250943183898926,0.56
417,MetaDrive-test-noise-reduction-td3,95,283.9751915237044,419325,1377,4399.9304621219635,52.544166564941406,-53.215362548828125,10.599157333374023,0.55
418,MetaDrive-test-noise-reduction-td3,95,283.12190278786807,420008,1378,4406.016925096512,49.833587646484375,,91.20478820800781,0.55
419,MetaDrive-test-noise-reduction-td3,95,283.0718036280886,421564,1380,4421.561702251434,53.66268539428711,,14.310367584228516,0.55
420,MetaDrive-test-noise-reduction-td3,95,284.5412993280817,422094,1381,4426.760871171951,53.85539627075195,,8.153645515441895,0.56
421,MetaDrive-test-noise-reduction-td3,95,286.27388315043186,423095,1382,4437.770754098892,52.99481201171875,-53.30870819091797,12.348373413085938,0.55
422,MetaDrive-test-noise-reduction-td3,95,286.6492375496794,424212,1384,4450.901404380798,56.08504867553711,,12.493378639221191,0.54
423,MetaDrive-test-noise-reduction-td3,95,283.1707610664223,425168,1386,4460.658677101135,52.886131286621094,,10.692060470581055,0.53
424,MetaDrive-test-noise-reduction-td3,95,286.2353106532146,426169,1387,4472.065263271332,57.17851257324219,-57.722084045410156,10.00191879272461,0.53
425,MetaDrive-test-noise-reduction-td3,95,289.0449867023354,427293,1389,4482.894680261612,49.562496185302734,-49.91298294067383,7.641080856323242,0.54
426,MetaDrive-test-noise-reduction-td3,95,287.52250198959086,428004,1391,4489.845931053162,54.16127014160156,,8.24184799194336,0.54
427,MetaDrive-test-noise-reduction-td3,95,287.2797532948372,429612,1393,4507.125817298889,55.47041320800781,,10.724346160888672,0.55
428,MetaDrive-test-noise-reduction-td3,95,289.032569288481,430206,1394,4512.63116812706,58.43362045288086,,14.556598663330078,0.56
429,MetaDrive-test-noise-reduction-td3,95,291.7085633467592,431204,1395,4523.414426326752,56.846710205078125,,21.101417541503906,0.56
430,MetaDrive-test-noise-reduction-td3,95,291.077016137874,432205,1396,4535.74277305603,49.3299446105957,-50.79022216796875,20.502737045288086,0.55
431,MetaDrive-test-noise-reduction-td3,95,289.4150446309499,433031,1398,4545.279587268829,56.82807540893555,-57.69092559814453,7.677335739135742,0.54
432,MetaDrive-test-noise-reduction-td3,95,291.89121528627714,434614,1401,4560.162680149078,54.87757110595703,,12.349105834960938,0.56
433,MetaDrive-test-noise-reduction-td3,95,293.53540972423235,435602,1402,4570.6969883441925,55.60948944091797,,8.047159194946289,0.57
434,MetaDrive-test-noise-reduction-td3,95,292.7777922286474,436264,1403,4576.776944160461,55.96410369873047,,10.098745346069336,0.57
435,MetaDrive-test-noise-reduction-td3,95,291.949966709141,437560,1405,4588.611574172974,52.54328155517578,,7.413547515869141,0.58
436,MetaDrive-test-noise-reduction-td3,95,288.1112022233954,438629,1407,4600.196444272995,53.528770446777344,-54.80043029785156,54.367530822753906,0.57
437,MetaDrive-test-noise-reduction-td3,95,288.8713187420558,439333,1408,4607.082252264023,52.60214614868164,-54.090999603271484,13.800924301147461,0.58
438,MetaDrive-test-noise-reduction-td3,95,289.48338896533494,440334,1409,4617.714844226837,58.08707809448242,,10.442392349243164,0.57
439,MetaDrive-test-noise-reduction-td3,95,288.5975915227772,441335,1410,4631.66229724884,54.16954803466797,-55.126739501953125,9.960693359375,0.57
440,MetaDrive-test-noise-reduction-td3,95,285.4804408546608,442204,1413,4640.403619289398,54.90013122558594,,12.535064697265625,0.57
441,MetaDrive-test-noise-reduction-td3,95,286.48844630448986,443964,1415,4658.175517082214,45.42928695678711,,14.587417602539062,0.57
442,MetaDrive-test-noise-reduction-td3,95,285.6060960572458,444698,1416,4665.196677207947,53.65902328491211,,7.004956245422363,0.57
443,MetaDrive-test-noise-reduction-td3,95,285.52583012131595,445534,1417,4674.194752216339,51.978641510009766,,4.41771125793457,0.57
444,MetaDrive-test-noise-reduction-td3,95,284.71103975667916,446085,1418,4679.32221698761,54.9692497253418,-55.86983108520508,9.551477432250977,0.57
445,MetaDrive-test-noise-reduction-td3,95,286.08800989157584,447572,1420,4696.564199209213,58.434295654296875,,9.638975143432617,0.56
446,MetaDrive-test-noise-reduction-td3,95,286.34713691218343,448547,1422,4705.905724287033,52.25599670410156,-51.985389709472656,17.307331085205078,0.56
447,MetaDrive-test-noise-reduction-td3,95,286.9313387104549,449548,1423,4716.275231122971,56.195533752441406,,18.54020118713379,0.55
448,MetaDrive-test-noise-reduction-td3,95,285.38411536929596,450113,1424,4721.630903244019,49.05644226074219,-48.86052322387695,10.048152923583984,0.56
449,MetaDrive-test-noise-reduction-td3,95,285.994484644269,451114,1425,4734.0983991622925,51.50053405761719,,13.804901123046875,0.55
450,MetaDrive-test-noise-reduction-td3,95,292.010894593834,452511,1428,4748.425301074982,54.66804504394531,-55.262107849121094,10.28913402557373,0.57
451,MetaDrive-test-noise-reduction-td3,95,291.26261707410225,453512,1429,4758.201144218445,51.37733459472656,,8.428930282592773,0.56
452,MetaDrive-test-noise-reduction-td3,95,292.5380259087444,454513,1430,4769.928013086319,56.870384216308594,-57.71052169799805,6.176327228546143,0.56
453,MetaDrive-test-noise-reduction-td3,95,291.30286985180095,455088,1431,4775.130215167999,53.09615707397461,,10.326175689697266,0.56
454,MetaDrive-test-noise-reduction-td3,95,293.6587653198478,456482,1433,4788.933504104614,54.098388671875,,11.101887702941895,0.57
455,MetaDrive-test-noise-reduction-td3,95,294.57312703748624,457163,1434,4796.305188179016,47.38456726074219,-48.22642517089844,256.417724609375,0.58
456,MetaDrive-test-noise-reduction-td3,95,293.4638635620556,458301,1436,4806.523105144501,51.779178619384766,-52.11171340942383,11.585565567016602,0.57
457,MetaDrive-test-noise-reduction-td3,95,293.769628382753,459150,1438,4814.890992164612,55.29428482055664,,12.583192825317383,0.58
458,MetaDrive-test-noise-reduction-td3,95,295.6945639954632,460546,1440,4827.3473579883575,57.12181091308594,,8.76752758026123,0.59
459,MetaDrive-test-noise-reduction-td3,95,296.3853846084247,461359,1441,4835.834134101868,54.36979675292969,-54.88383865356445,9.046768188476562,0.59
460,MetaDrive-test-noise-reduction-td3,95,295.60636605983126,462273,1442,4845.125827074051,49.617958068847656,-49.229164123535156,12.830650329589844,0.6
461,MetaDrive-test-noise-reduction-td3,95,296.06902718572996,463274,1443,4856.402852296829,56.22451400756836,,12.149953842163086,0.6
462,MetaDrive-test-noise-reduction-td3,95,294.2816378512265,464396,1445,4866.9551429748535,55.16107940673828,,12.722203254699707,0.6
463,MetaDrive-test-noise-reduction-td3,95,293.0593521546661,465397,1446,4876.770900011063,58.75597381591797,-59.41502380371094,9.404779434204102,0.59
464,MetaDrive-test-noise-reduction-td3,95,292.9667079710699,466074,1447,4883.586925268173,60.283836364746094,,7.577840805053711,0.59
465,MetaDrive-test-noise-reduction-td3,95,289.1238798593336,467744,1450,4898.894157171249,53.19664764404297,,154.2581329345703,0.58
466,MetaDrive-test-noise-reduction-td3,95,289.84853355277005,468417,1451,4905.341091156006,56.117488861083984,-57.33095932006836,11.67013168334961,0.58
467,MetaDrive-test-noise-reduction-td3,95,290.07433955430963,469330,1452,4915.515281915665,51.61298751831055,,8.954093933105469,0.58
468,MetaDrive-test-noise-reduction-td3,95,290.2091725007989,470285,1453,4925.646587133408,56.41590881347656,-55.65510177612305,10.069572448730469,0.58
469,MetaDrive-test-noise-reduction-td3,95,288.18286806940307,471358,1455,4935.9904363155365,50.03643798828125,,26.472553253173828,0.58
470,MetaDrive-test-noise-reduction-td3,95,289.51349434826216,472359,1456,4949.783112049103,53.34737777709961,-53.85710906982422,12.42697811126709,0.58
471,MetaDrive-test-noise-reduction-td3,95,289.82821746467346,473502,1458,4959.434918165207,53.59272384643555,,7.690493106842041,0.59
472,MetaDrive-test-noise-reduction-td3,95,287.8368279653869,474909,1460,4974.201992988586,56.26057434082031,-56.684104919433594,10.892294883728027,0.58
473,MetaDrive-test-noise-reduction-td3,95,287.50006609127826,475646,1461,4981.113324165344,47.672340393066406,,17.154001235961914,0.58
474,MetaDrive-test-noise-reduction-td3,95,286.95970608095536,476647,1462,4993.837633132935,51.84103012084961,-51.85941696166992,6.1133952140808105,0.57
475,MetaDrive-test-noise-reduction-td3,95,287.10360726315173,477463,1463,5001.485293149948,51.417137145996094,-53.50858688354492,23.356712341308594,0.57
476,MetaDrive-test-noise-reduction-td3,95,283.7881874064512,478464,1464,5010.796997308731,50.07218933105469,,9.3200044631958,0.56
477,MetaDrive-test-noise-reduction-td3,95,281.25763364068115,479465,1465,5021.736059188843,50.64960861206055,-51.09123229980469,11.87485408782959,0.56
478,MetaDrive-test-noise-reduction-td3,95,282.0632258637431,480199,1466,5029.200105190277,52.58687210083008,-53.13210678100586,5.937784194946289,0.55
479,MetaDrive-test-noise-reduction-td3,95,281.53725233963763,481200,1467,5044.270655155182,54.96509552001953,,7.5084228515625,0.54
480,MetaDrive-test-noise-reduction-td3,95,285.8491660953772,482487,1469,5056.63377737999,54.07481384277344,-55.14642333984375,16.826690673828125,0.55
481,MetaDrive-test-noise-reduction-td3,95,285.5846963823579,483045,1470,5061.711668014526,56.29607009887695,-56.41257858276367,9.716217994689941,0.55
482,MetaDrive-test-noise-reduction-td3,95,289.6361068674786,484416,1472,5073.563801288605,56.50770568847656,,8.6785888671875,0.57
483,MetaDrive-test-noise-reduction-td3,95,291.85463028817617,485417,1473,5082.8541712760925,50.28583526611328,-50.16451644897461,9.643325805664062,0.57
484,MetaDrive-test-noise-reduction-td3,95,293.0572153626655,486074,1474,5088.827433109283,54.10414123535156,,12.612268447875977,0.57
485,MetaDrive-test-noise-reduction-td3,95,296.9716221828612,487583,1476,5104.060328006744,52.069984436035156,-53.169464111328125,12.36202621459961,0.59
486,MetaDrive-test-noise-reduction-td3,95,296.041837843624,488584,1477,5118.751687049866,56.838417053222656,,9.243619918823242,0.58
487,MetaDrive-test-noise-reduction-td3,95,297.1902090262676,489346,1478,5126.172582149506,53.14785385131836,,12.709426879882812,0.58
488,MetaDrive-test-noise-reduction-td3,95,295.2599166715431,490418,1480,5136.664197206497,54.69699478149414,,6.456818580627441,0.57
489,MetaDrive-test-noise-reduction-td3,95,295.68228183956506,491342,1481,5147.315978050232,53.011940002441406,,13.815301895141602,0.57
490,MetaDrive-test-noise-reduction-td3,95,294.10074918079806,492003,1482,5153.842276096344,54.818885803222656,-55.51675796508789,9.07676887512207,0.58
491,MetaDrive-test-noise-reduction-td3,95,296.255886639549,493418,1484,5167.531925201416,55.6990852355957,,59.86302185058594,0.6
492,MetaDrive-test-noise-reduction-td3,95,298.67806392669195,494399,1485,5176.490426301956,54.04759979248047,-53.9668083190918,15.031177520751953,0.61
493,MetaDrive-test-noise-reduction-td3,95,298.93225689801915,495400,1486,5187.031493186951,55.385250091552734,,7.782811164855957,0.6
494,MetaDrive-test-noise-reduction-td3,95,297.6250656074133,496714,1488,5199.981266975403,52.699851989746094,,18.595624923706055,0.61
495,MetaDrive-test-noise-reduction-td3,95,296.59007257477936,497031,1489,5203.774930000305,51.385658264160156,-51.592445373535156,18.48947525024414,0.6
496,MetaDrive-test-noise-reduction-td3,95,294.79132174921466,498032,1490,5215.64587020874,53.74775695800781,,21.070274353027344,0.59
497,MetaDrive-test-noise-reduction-td3,95,295.25327030019025,499659,1493,5232.9089641571045,48.92218780517578,-49.276153564453125,11.515820503234863,0.58
