TanmayH/CS269-RL-project-code/MetaDrive-td3combine-expt_with_safe-leaky-adamw-in-q-weighted-corrected-diff-env/MetaDrive-Alt-Next-v1/td3/progress.csv
,log_dir,frame_per_second,episode_reward,total_steps,total_episodes,total_time,actor_loss,critic_loss,target_q,success_rate
0,MetaDrive-td3combine-expt_with_safe-leaky-adamw-in-q-weighted-corrected-diff-env,202,589.2520047441122,1539,1,7.602981805801392,-43.24241638183594,7.039676666259766,43.30220031738281,1.0
1,MetaDrive-td3combine-expt_with_safe-leaky-adamw-in-q-weighted-corrected-diff-env,130,454.29527756916036,2503,2,19.142586708068848,-39.01725769042969,5.313014030456543,38.04424285888672,0.5
2,MetaDrive-td3combine-expt_with_safe-leaky-adamw-in-q-weighted-corrected-diff-env,116,408.45281495763567,3521,3,30.194478750228882,-40.742408752441406,8.278238296508789,40.61717987060547,0.3333333333333333
3,MetaDrive-td3combine-expt_with_safe-leaky-adamw-in-q-weighted-corrected-diff-env,106,347.079713589363,4351,5,40.928056716918945,-39.28376770019531,6.962998390197754,38.515010833740234,0.4
4,MetaDrive-td3combine-expt_with_safe-leaky-adamw-in-q-weighted-corrected-diff-env,99,187.02257367522563,5038,11,50.43444085121155,,7.781130790710449,40.76213073730469,0.18181818181818182
5,MetaDrive-td3combine-expt_with_safe-leaky-adamw-in-q-weighted-corrected-diff-env,86,175.2039390637498,7039,12,81.28402471542358,-46.92387771606445,5.3858842849731445,47.520809173583984,0.16666666666666666
6,MetaDrive-td3combine-expt_with_safe-leaky-adamw-in-q-weighted-corrected-diff-env,81,175.42186947843365,9633,14,117.87790274620056,-41.74986267089844,45.403602600097656,41.38490295410156,0.14285714285714285
7,MetaDrive-td3combine-expt_with_safe-leaky-adamw-in-q-weighted-corrected-diff-env,82,172.0560978671615,11340,15,136.74875903129578,,4.731436252593994,42.87575149536133,0.13333333333333333
8,MetaDrive-td3combine-expt_with_safe-leaky-adamw-in-q-weighted-corrected-diff-env,84,167.29966653632619,13494,18,160.47039365768433,,4.356597900390625,36.94332504272461,0.1111111111111111
9,MetaDrive-td3combine-expt_with_safe-leaky-adamw-in-q-weighted-corrected-diff-env,82,144.8765576836769,14165,24,170.95580172538757,-34.67202377319336,11.119054794311523,33.7899284362793,0.08333333333333333
10,MetaDrive-td3combine-expt_with_safe-leaky-adamw-in-q-weighted-corrected-diff-env,82,147.52234893949395,15243,30,185.71023774147034,-33.45494842529297,37.40294647216797,33.580081939697266,0.06666666666666667
11,MetaDrive-td3combine-expt_with_safe-leaky-adamw-in-q-weighted-corrected-diff-env,81,145.57731286858387,16954,33,207.65573382377625,,5.583423614501953,38.03211212158203,0.06060606060606061
12,MetaDrive-td3combine-expt_with_safe-leaky-adamw-in-q-weighted-corrected-diff-env,81,144.03605311537467,17062,34,209.1472189426422,,7.809826850891113,39.17596435546875,0.058823529411764705
13,MetaDrive-td3combine-expt_with_safe-leaky-adamw-in-q-weighted-corrected-diff-env,81,137.9344358077603,18404,37,226.92480373382568,,6.701255798339844,34.92158126831055,0.05405405405405406
14,MetaDrive-td3combine-expt_with_safe-leaky-adamw-in-q-weighted-corrected-diff-env,80,137.6500009532203,19171,39,237.42669796943665,-34.60581588745117,8.793869018554688,34.01032257080078,0.05128205128205128
15,MetaDrive-td3combine-expt_with_safe-leaky-adamw-in-q-weighted-corrected-diff-env,81,132.44590069236006,20638,43,253.82001090049744,,7.6744256019592285,36.64706802368164,0.046511627906976744
16,MetaDrive-td3combine-expt_with_safe-leaky-adamw-in-q-weighted-corrected-diff-env,81,131.93301569170555,21060,45,259.28561186790466,,70.56965637207031,37.98162078857422,0.044444444444444446
17,MetaDrive-td3combine-expt_with_safe-leaky-adamw-in-q-weighted-corrected-diff-env,80,139.75256989456355,22158,49,275.3881378173828,,4.174065589904785,36.6200065612793,0.04081632653061224
18,MetaDrive-td3combine-expt_with_safe-leaky-adamw-in-q-weighted-corrected-diff-env,79,151.5917281514161,23351,53,292.2483539581299,-34.79255676269531,9.186798095703125,35.504615783691406,0.05660377358490566
19,MetaDrive-td3combine-expt_with_safe-leaky-adamw-in-q-weighted-corrected-diff-env,79,151.88346269112563,25463,56,319.8303589820862,-35.5653076171875,27.403831481933594,35.255088806152344,0.05357142857142857
20,MetaDrive-td3combine-expt_with_safe-leaky-adamw-in-q-weighted-corrected-diff-env,80,153.03024066425854,27560,58,343.16649174690247,,5.429247856140137,31.657716751098633,0.05172413793103448
21,MetaDrive-td3combine-expt_with_safe-leaky-adamw-in-q-weighted-corrected-diff-env,80,162.9430095162432,28400,60,354.77963376045227,,50.50305938720703,34.05812072753906,0.06666666666666667
22,MetaDrive-td3combine-expt_with_safe-leaky-adamw-in-q-weighted-corrected-diff-env,80,159.5421946341693,30328,63,378.0955238342285,,70.52412414550781,32.67337417602539,0.06349206349206349
23,MetaDrive-td3combine-expt_with_safe-leaky-adamw-in-q-weighted-corrected-diff-env,80,157.75858374369577,32856,68,406.98857378959656,,10.270491600036621,35.69978332519531,0.058823529411764705
24,MetaDrive-td3combine-expt_with_safe-leaky-adamw-in-q-weighted-corrected-diff-env,81,160.54581229056942,34956,70,430.8017518520355,,6.7192487716674805,32.524166107177734,0.05714285714285714
25,MetaDrive-td3combine-expt_with_safe-leaky-adamw-in-q-weighted-corrected-diff-env,81,159.59193130978315,35072,71,432.4930579662323,,4.217946529388428,32.72149658203125,0.056338028169014086
26,MetaDrive-td3combine-expt_with_safe-leaky-adamw-in-q-weighted-corrected-diff-env,80,160.16533512998257,37073,72,460.08861470222473,-28.022571563720703,5.719112396240234,27.442611694335938,0.05555555555555555
27,MetaDrive-td3combine-expt_with_safe-leaky-adamw-in-q-weighted-corrected-diff-env,80,161.1194045389766,38187,73,472.85497188568115,-31.576444625854492,14.544628143310547,31.15230369567871,0.0547945205479452
28,MetaDrive-td3combine-expt_with_safe-leaky-adamw-in-q-weighted-corrected-diff-env,80,164.6768826682719,39893,75,493.21598267555237,-24.86678695678711,4.226874351501465,25.346853256225586,0.06666666666666667
29,MetaDrive-td3combine-expt_with_safe-leaky-adamw-in-q-weighted-corrected-diff-env,80,164.0059173404063,41894,76,519.1752328872681,,5.969037055969238,32.356170654296875,0.06578947368421052
30,MetaDrive-td3combine-expt_with_safe-leaky-adamw-in-q-weighted-corrected-diff-env,80,165.31439007206097,42278,77,524.7435038089752,,16.28850746154785,29.165313720703125,0.06493506493506493
31,MetaDrive-td3combine-expt_with_safe-leaky-adamw-in-q-weighted-corrected-diff-env,80,163.11632995837903,44630,80,555.0091478824615,,121.25770568847656,33.14503479003906,0.0625
32,MetaDrive-td3combine-expt_with_safe-leaky-adamw-in-q-weighted-corrected-diff-env,80,161.535756080099,45125,83,561.7965788841248,-36.38212585449219,7.972599983215332,35.93992614746094,0.060240963855421686
33,MetaDrive-td3combine-expt_with_safe-leaky-adamw-in-q-weighted-corrected-diff-env,79,161.30074580748524,47126,84,589.6236498355865,,8.536343574523926,32.55373764038086,0.05952380952380952
34,MetaDrive-td3combine-expt_with_safe-leaky-adamw-in-q-weighted-corrected-diff-env,79,168.32412026004886,48284,87,604.1222758293152,,6.077175617218018,42.23036193847656,0.08045977011494253
35,MetaDrive-td3combine-expt_with_safe-leaky-adamw-in-q-weighted-corrected-diff-env,79,166.02628214955678,50480,90,632.5110628604889,,13.267809867858887,30.427837371826172,0.07777777777777778
36,MetaDrive-td3combine-expt_with_safe-leaky-adamw-in-q-weighted-corrected-diff-env,79,164.0020729070024,52266,92,657.8355767726898,,5.554616451263428,30.74974250793457,0.07608695652173914
37,MetaDrive-td3combine-expt_with_safe-leaky-adamw-in-q-weighted-corrected-diff-env,79,162.39407908841375,53323,94,671.074521780014,-38.68503952026367,6.985782623291016,37.510589599609375,0.07446808510638298
38,MetaDrive-td3combine-expt_with_safe-leaky-adamw-in-q-weighted-corrected-diff-env,79,162.21891758443846,55765,99,699.090922832489,-41.194984436035156,23.281421661376953,41.49345779418945,0.0707070707070707
39,MetaDrive-td3combine-expt_with_safe-leaky-adamw-in-q-weighted-corrected-diff-env,79,164.21215385701723,56463,100,708.6943218708038,-37.14570617675781,11.857014656066895,38.053489685058594,0.07
40,MetaDrive-td3combine-expt_with_safe-leaky-adamw-in-q-weighted-corrected-diff-env,79,157.98348064111073,57240,103,719.0568559169769,,7.488311767578125,28.59233283996582,0.06
41,MetaDrive-td3combine-expt_with_safe-leaky-adamw-in-q-weighted-corrected-diff-env,79,154.81123609191107,58136,105,730.9019346237183,,10.214775085449219,39.53202819824219,0.05
42,MetaDrive-td3combine-expt_with_safe-leaky-adamw-in-q-weighted-corrected-diff-env,79,155.31607846588824,60137,106,755.5417127609253,-29.856475830078125,6.659564018249512,29.220609664916992,0.05
43,MetaDrive-td3combine-expt_with_safe-leaky-adamw-in-q-weighted-corrected-diff-env,79,163.6797976804033,61262,110,770.3574657440186,,9.230493545532227,27.229957580566406,0.06
44,MetaDrive-td3combine-expt_with_safe-leaky-adamw-in-q-weighted-corrected-diff-env,79,164.8019456260823,62347,111,783.49755692482,-36.221710205078125,11.362174987792969,36.60212707519531,0.06
45,MetaDrive-td3combine-expt_with_safe-leaky-adamw-in-q-weighted-corrected-diff-env,79,165.2091194325432,64193,112,804.5570030212402,-31.03099822998047,15.42462158203125,32.31304168701172,0.06
46,MetaDrive-td3combine-expt_with_safe-leaky-adamw-in-q-weighted-corrected-diff-env,79,164.21753593884256,66400,114,831.6437449455261,,3.519705295562744,31.43804168701172,0.06
47,MetaDrive-td3combine-expt_with_safe-leaky-adamw-in-q-weighted-corrected-diff-env,79,164.3965387000082,67207,115,843.2631418704987,-29.71977996826172,18.577152252197266,29.215957641601562,0.06
48,MetaDrive-td3combine-expt_with_safe-leaky-adamw-in-q-weighted-corrected-diff-env,80,165.74907479235554,69208,116,864.0314288139343,,16.256929397583008,32.330299377441406,0.06
49,MetaDrive-td3combine-expt_with_safe-leaky-adamw-in-q-weighted-corrected-diff-env,79,164.95837026528102,70809,117,885.428957939148,-40.17770767211914,9.522438049316406,39.815673828125,0.06
50,MetaDrive-td3combine-expt_with_safe-leaky-adamw-in-q-weighted-corrected-diff-env,79,164.85890471054662,72921,119,912.4078288078308,-28.627580642700195,5.016722679138184,27.092063903808594,0.06
51,MetaDrive-td3combine-expt_with_safe-leaky-adamw-in-q-weighted-corrected-diff-env,79,166.03457384020413,74922,120,936.6914937496185,,5.0815629959106445,27.41082191467285,0.06
52,MetaDrive-td3combine-expt_with_safe-leaky-adamw-in-q-weighted-corrected-diff-env,80,166.567120029258,76923,121,959.7734599113464,-34.934547424316406,11.670438766479492,33.8636589050293,0.06
53,MetaDrive-td3combine-expt_with_safe-leaky-adamw-in-q-weighted-corrected-diff-env,80,169.2654150814775,77306,122,964.7727508544922,,31.4384822845459,25.851581573486328,0.06
54,MetaDrive-td3combine-expt_with_safe-leaky-adamw-in-q-weighted-corrected-diff-env,79,170.68686739251595,78354,126,979.566725730896,,9.092823028564453,28.022668838500977,0.06
55,MetaDrive-td3combine-expt_with_safe-leaky-adamw-in-q-weighted-corrected-diff-env,79,172.26151497231965,79245,128,991.0505976676941,-23.578569412231445,9.386505126953125,23.525657653808594,0.06
56,MetaDrive-td3combine-expt_with_safe-leaky-adamw-in-q-weighted-corrected-diff-env,80,169.25199642587432,80239,130,1001.8602488040924,-29.288681030273438,14.350259780883789,28.14855194091797,0.06
57,MetaDrive-td3combine-expt_with_safe-leaky-adamw-in-q-weighted-corrected-diff-env,79,170.9644712021093,81148,135,1014.6892957687378,,20.151201248168945,37.15510177612305,0.06
58,MetaDrive-td3combine-expt_with_safe-leaky-adamw-in-q-weighted-corrected-diff-env,79,169.21573327658874,82082,139,1026.9540379047394,,9.338813781738281,32.312747955322266,0.06
59,MetaDrive-td3combine-expt_with_safe-leaky-adamw-in-q-weighted-corrected-diff-env,80,171.30976291172178,84083,140,1048.052708864212,-29.14287757873535,5.267071723937988,28.370254516601562,0.06
60,MetaDrive-td3combine-expt_with_safe-leaky-adamw-in-q-weighted-corrected-diff-env,80,174.60398461702775,85003,143,1059.5811748504639,-29.264455795288086,13.67106819152832,29.299631118774414,0.06
61,MetaDrive-td3combine-expt_with_safe-leaky-adamw-in-q-weighted-corrected-diff-env,79,174.3762037195812,87116,145,1091.7612626552582,,5.027852535247803,30.209266662597656,0.06
62,MetaDrive-td3combine-expt_with_safe-leaky-adamw-in-q-weighted-corrected-diff-env,79,175.78492003214788,88192,146,1104.5857589244843,,7.904814720153809,30.03656578063965,0.06
63,MetaDrive-td3combine-expt_with_safe-leaky-adamw-in-q-weighted-corrected-diff-env,79,172.33922956414844,90193,147,1129.7180399894714,-29.781892776489258,16.11731719970703,29.490697860717773,0.06
64,MetaDrive-td3combine-expt_with_safe-leaky-adamw-in-q-weighted-corrected-diff-env,79,173.86800767370735,92194,148,1157.5842847824097,,7.476136684417725,29.50830841064453,0.06
65,MetaDrive-td3combine-expt_with_safe-leaky-adamw-in-q-weighted-corrected-diff-env,79,173.9571285697766,93359,152,1173.9290549755096,-27.212696075439453,13.232919692993164,26.248764038085938,0.05
66,MetaDrive-td3combine-expt_with_safe-leaky-adamw-in-q-weighted-corrected-diff-env,79,174.07067981233246,94148,156,1184.9191389083862,,11.10118293762207,33.16432189941406,0.06
67,MetaDrive-td3combine-expt_with_safe-leaky-adamw-in-q-weighted-corrected-diff-env,79,171.32595588790747,95019,159,1197.0546329021454,-30.076927185058594,17.92636489868164,28.144826889038086,0.06
68,MetaDrive-td3combine-expt_with_safe-leaky-adamw-in-q-weighted-corrected-diff-env,79,169.9077733987109,97197,161,1226.3732578754425,-22.67742156982422,18.39533805847168,23.131261825561523,0.05
69,MetaDrive-td3combine-expt_with_safe-leaky-adamw-in-q-weighted-corrected-diff-env,78,170.97811848927824,99198,162,1256.7470588684082,,9.129609107971191,20.023157119750977,0.05
70,MetaDrive-td3combine-expt_with_safe-leaky-adamw-in-q-weighted-corrected-diff-env,78,169.7107324802853,100359,168,1273.2538537979126,-16.60021209716797,11.61392593383789,16.81026268005371,0.05
71,MetaDrive-td3combine-expt_with_safe-leaky-adamw-in-q-weighted-corrected-diff-env,78,167.15559127935592,101041,171,1281.4843237400055,-30.059513092041016,10.139992713928223,28.179210662841797,0.05
72,MetaDrive-td3combine-expt_with_safe-leaky-adamw-in-q-weighted-corrected-diff-env,78,165.52266366730947,102279,173,1297.0219638347626,-28.72006607055664,9.828994750976562,28.325237274169922,0.05
73,MetaDrive-td3combine-expt_with_safe-leaky-adamw-in-q-weighted-corrected-diff-env,78,167.70691756997792,104888,176,1330.0793766975403,,6.948702335357666,25.895442962646484,0.04
74,MetaDrive-td3combine-expt_with_safe-leaky-adamw-in-q-weighted-corrected-diff-env,78,167.01800236606903,105270,178,1336.7837297916412,,6.247734069824219,28.02001953125,0.04
75,MetaDrive-td3combine-expt_with_safe-leaky-adamw-in-q-weighted-corrected-diff-env,78,172.5495438965612,106166,181,1348.6929779052734,,11.470430374145508,31.06470489501953,0.05
76,MetaDrive-td3combine-expt_with_safe-leaky-adamw-in-q-weighted-corrected-diff-env,78,171.06929948044663,108307,184,1374.1260259151459,-24.587379455566406,18.51578712463379,23.10901641845703,0.05
77,MetaDrive-td3combine-expt_with_safe-leaky-adamw-in-q-weighted-corrected-diff-env,78,164.32604502725772,109078,188,1384.7008156776428,,71.54695129394531,29.574321746826172,0.03
78,MetaDrive-td3combine-expt_with_safe-leaky-adamw-in-q-weighted-corrected-diff-env,78,165.97395369188985,110480,193,1404.3828909397125,,21.289710998535156,28.596843719482422,0.03
79,MetaDrive-td3combine-expt_with_safe-leaky-adamw-in-q-weighted-corrected-diff-env,78,166.15284732487132,112742,196,1432.9036688804626,,11.783975601196289,29.45318031311035,0.03
80,MetaDrive-td3combine-expt_with_safe-leaky-adamw-in-q-weighted-corrected-diff-env,78,166.0581202601743,114743,197,1461.5202329158783,-31.394489288330078,14.183082580566406,33.64297103881836,0.03
81,MetaDrive-td3combine-expt_with_safe-leaky-adamw-in-q-weighted-corrected-diff-env,78,169.9948015500321,115414,198,1469.497654914856,,48.16020584106445,34.71904373168945,0.04
82,MetaDrive-td3combine-expt_with_safe-leaky-adamw-in-q-weighted-corrected-diff-env,78,169.9653965140442,116319,200,1483.4510159492493,-26.00965118408203,76.44485473632812,25.914794921875,0.05
83,MetaDrive-td3combine-expt_with_safe-leaky-adamw-in-q-weighted-corrected-diff-env,78,170.3558729290189,117117,203,1496.0993068218231,-33.579383850097656,9.556283950805664,32.37953186035156,0.05
84,MetaDrive-td3combine-expt_with_safe-leaky-adamw-in-q-weighted-corrected-diff-env,77,172.05664412609832,118982,204,1533.9540877342224,,17.18815040588379,29.03505516052246,0.05
85,MetaDrive-td3combine-expt_with_safe-leaky-adamw-in-q-weighted-corrected-diff-env,77,172.34065343891393,119087,205,1535.3470108509064,-27.459590911865234,20.07046127319336,27.426982879638672,0.05
86,MetaDrive-td3combine-expt_with_safe-leaky-adamw-in-q-weighted-corrected-diff-env,77,172.27227073945818,120304,209,1552.0974729061127,,8.850329399108887,29.57910919189453,0.05
87,MetaDrive-td3combine-expt_with_safe-leaky-adamw-in-q-weighted-corrected-diff-env,77,173.75795027075895,122305,210,1582.6011009216309,-21.485198974609375,8.159534454345703,20.68817901611328,0.05
88,MetaDrive-td3combine-expt_with_safe-leaky-adamw-in-q-weighted-corrected-diff-env,77,174.19442053511307,123008,212,1593.947105884552,,163.9717559814453,26.7187557220459,0.05
89,MetaDrive-td3combine-expt_with_safe-leaky-adamw-in-q-weighted-corrected-diff-env,77,174.9232017008521,124007,213,1606.60968875885,-28.63304901123047,9.056295394897461,27.243183135986328,0.05
90,MetaDrive-td3combine-expt_with_safe-leaky-adamw-in-q-weighted-corrected-diff-env,77,178.1427212887534,125377,216,1624.3052558898926,-28.116748809814453,30.433021545410156,28.48744010925293,0.05
91,MetaDrive-td3combine-expt_with_safe-leaky-adamw-in-q-weighted-corrected-diff-env,77,183.56116073060363,127725,219,1652.1251108646393,-28.201915740966797,13.19790267944336,27.484203338623047,0.05
92,MetaDrive-td3combine-expt_with_safe-leaky-adamw-in-q-weighted-corrected-diff-env,77,185.3443237016437,128184,220,1659.626741886139,,12.194128036499023,29.65090560913086,0.05
93,MetaDrive-td3combine-expt_with_safe-leaky-adamw-in-q-weighted-corrected-diff-env,77,184.68280430102345,130185,221,1686.3941450119019,-28.999839782714844,10.164188385009766,28.27969741821289,0.05
94,MetaDrive-td3combine-expt_with_safe-leaky-adamw-in-q-weighted-corrected-diff-env,77,183.2068577334661,131310,222,1698.8732316493988,,18.44990348815918,22.971250534057617,0.05
95,MetaDrive-td3combine-expt_with_safe-leaky-adamw-in-q-weighted-corrected-diff-env,77,185.07222822893033,133311,223,1721.5474557876587,-29.970561981201172,10.979585647583008,28.847658157348633,0.05
96,MetaDrive-td3combine-expt_with_safe-leaky-adamw-in-q-weighted-corrected-diff-env,77,187.17429155000383,134305,226,1735.6470038890839,-25.12643814086914,19.856639862060547,25.376972198486328,0.06
97,MetaDrive-td3combine-expt_with_safe-leaky-adamw-in-q-weighted-corrected-diff-env,77,185.3030578205943,136390,228,1764.809906721115,,68.98084259033203,26.841659545898438,0.06
98,MetaDrive-td3combine-expt_with_safe-leaky-adamw-in-q-weighted-corrected-diff-env,77,187.64213482152564,138740,230,1799.1792659759521,,15.237588882446289,28.220661163330078,0.06
99,MetaDrive-td3combine-expt_with_safe-leaky-adamw-in-q-weighted-corrected-diff-env,76,190.01548922890387,140984,232,1839.6984288692474,,40.42018508911133,20.136051177978516,0.06
100,MetaDrive-td3combine-expt_with_safe-leaky-adamw-in-q-weighted-corrected-diff-env,76,190.5180654857012,141339,233,1844.264131784439,-31.553691864013672,9.518016815185547,30.588314056396484,0.06
101,MetaDrive-td3combine-expt_with_safe-leaky-adamw-in-q-weighted-corrected-diff-env,76,192.55172191552938,142067,237,1854.0322318077087,-30.722536087036133,36.13471221923828,32.02102279663086,0.06
102,MetaDrive-td3combine-expt_with_safe-leaky-adamw-in-q-weighted-corrected-diff-env,76,191.59442813846962,143385,244,1873.283362865448,-34.14484405517578,13.928210258483887,32.48584747314453,0.06
103,MetaDrive-td3combine-expt_with_safe-leaky-adamw-in-q-weighted-corrected-diff-env,76,192.25547366574435,145386,245,1897.1069798469543,,5.928464889526367,25.508869171142578,0.06
104,MetaDrive-td3combine-expt_with_safe-leaky-adamw-in-q-weighted-corrected-diff-env,76,189.48735795984192,146137,248,1908.8605597019196,-42.81306838989258,15.682404518127441,42.143096923828125,0.06
105,MetaDrive-td3combine-expt_with_safe-leaky-adamw-in-q-weighted-corrected-diff-env,76,186.71711952418786,147322,253,1926.59122300148,,8.894018173217773,24.819059371948242,0.06
106,MetaDrive-td3combine-expt_with_safe-leaky-adamw-in-q-weighted-corrected-diff-env,76,183.5142306910559,148158,257,1936.7600629329681,,17.62765884399414,24.715194702148438,0.05
107,MetaDrive-td3combine-expt_with_safe-leaky-adamw-in-q-weighted-corrected-diff-env,76,184.64922451406653,150159,258,1975.0611798763275,-26.37210464477539,14.1829833984375,25.809494018554688,0.05
108,MetaDrive-td3combine-expt_with_safe-leaky-adamw-in-q-weighted-corrected-diff-env,76,184.0798788755857,152797,262,2010.2593820095062,-32.94207000732422,41.5321044921875,33.66991424560547,0.05
109,MetaDrive-td3combine-expt_with_safe-leaky-adamw-in-q-weighted-corrected-diff-env,76,185.76202669945317,154390,263,2029.0712578296661,,17.066625595092773,30.884384155273438,0.05
110,MetaDrive-td3combine-expt_with_safe-leaky-adamw-in-q-weighted-corrected-diff-env,76,187.12027323128967,156678,265,2058.6349539756775,,195.92916870117188,37.44036865234375,0.05
111,MetaDrive-td3combine-expt_with_safe-leaky-adamw-in-q-weighted-corrected-diff-env,76,193.85332285065968,157716,267,2071.011512041092,,8.871918678283691,35.22715759277344,0.06
112,MetaDrive-td3combine-expt_with_safe-leaky-adamw-in-q-weighted-corrected-diff-env,75,190.80558108639931,159867,269,2104.0138788223267,-32.378604888916016,12.366670608520508,31.709096908569336,0.06
113,MetaDrive-td3combine-expt_with_safe-leaky-adamw-in-q-weighted-corrected-diff-env,76,194.69796785506142,160286,270,2108.816747903824,,22.87822151184082,28.2042236328125,0.07
114,MetaDrive-td3combine-expt_with_safe-leaky-adamw-in-q-weighted-corrected-diff-env,76,194.41652509561948,161665,273,2126.735426902771,-28.934444427490234,12.216165542602539,28.38715171813965,0.07
115,MetaDrive-td3combine-expt_with_safe-leaky-adamw-in-q-weighted-corrected-diff-env,75,193.6399721833747,163826,275,2157.809859752655,,15.25735092163086,32.23448944091797,0.07
116,MetaDrive-td3combine-expt_with_safe-leaky-adamw-in-q-weighted-corrected-diff-env,75,191.900597643731,164006,276,2160.2675487995148,,12.70787239074707,28.344863891601562,0.07
117,MetaDrive-td3combine-expt_with_safe-leaky-adamw-in-q-weighted-corrected-diff-env,76,192.46616118400664,165176,278,2172.6435120105743,,15.467904090881348,23.58794403076172,0.07
118,MetaDrive-td3combine-expt_with_safe-leaky-adamw-in-q-weighted-corrected-diff-env,76,196.23373217589827,167720,280,2199.573474884033,,6.716571807861328,26.318111419677734,0.08
119,MetaDrive-td3combine-expt_with_safe-leaky-adamw-in-q-weighted-corrected-diff-env,76,192.67223686921966,168033,282,2203.6542489528656,-32.76423645019531,14.518597602844238,32.24469757080078,0.07
120,MetaDrive-td3combine-expt_with_safe-leaky-adamw-in-q-weighted-corrected-diff-env,76,193.71787819698707,169616,283,2220.203456878662,,9.700386047363281,32.103633880615234,0.07
121,MetaDrive-td3combine-expt_with_safe-leaky-adamw-in-q-weighted-corrected-diff-env,76,195.76836582558425,170379,285,2230.6721918582916,-32.08598709106445,205.70941162109375,32.181243896484375,0.07
122,MetaDrive-td3combine-expt_with_safe-leaky-adamw-in-q-weighted-corrected-diff-env,76,196.0294404481004,171110,287,2239.9167709350586,,12.607057571411133,34.55988311767578,0.07
123,MetaDrive-td3combine-expt_with_safe-leaky-adamw-in-q-weighted-corrected-diff-env,76,195.13186404515028,173111,288,2262.0956149101257,-34.087913513183594,15.548513412475586,32.93848419189453,0.07
124,MetaDrive-td3combine-expt_with_safe-leaky-adamw-in-q-weighted-corrected-diff-env,76,197.61987595499187,174937,292,2292.9788846969604,-29.559619903564453,15.16944694519043,28.140666961669922,0.07
125,MetaDrive-td3combine-expt_with_safe-leaky-adamw-in-q-weighted-corrected-diff-env,76,196.71175539158546,175170,293,2296.181715965271,,11.904781341552734,32.21474838256836,0.07
126,MetaDrive-td3combine-expt_with_safe-leaky-adamw-in-q-weighted-corrected-diff-env,76,196.73597526800776,177194,296,2320.3521888256073,,18.73600959777832,26.672473907470703,0.07
127,MetaDrive-td3combine-expt_with_safe-leaky-adamw-in-q-weighted-corrected-diff-env,76,197.6228965349953,179195,297,2344.5048928260803,-26.97435760498047,7.55534553527832,26.409276962280273,0.07
128,MetaDrive-td3combine-expt_with_safe-leaky-adamw-in-q-weighted-corrected-diff-env,76,193.73390739219292,181196,298,2371.6408870220184,,10.670585632324219,27.943004608154297,0.06
129,MetaDrive-td3combine-expt_with_safe-leaky-adamw-in-q-weighted-corrected-diff-env,76,195.21833456469432,182423,299,2385.841425895691,-30.52570343017578,11.04758358001709,30.218732833862305,0.06
130,MetaDrive-td3combine-expt_with_safe-leaky-adamw-in-q-weighted-corrected-diff-env,76,191.06905863093428,183035,301,2393.5459797382355,-27.339588165283203,12.224104881286621,27.999530792236328,0.05
131,MetaDrive-td3combine-expt_with_safe-leaky-adamw-in-q-weighted-corrected-diff-env,76,190.80996856322793,185036,302,2413.9628467559814,,24.046812057495117,34.82304382324219,0.05
132,MetaDrive-td3combine-expt_with_safe-leaky-adamw-in-q-weighted-corrected-diff-env,76,185.1910637529014,186115,308,2428.7634019851685,-25.79722023010254,13.786623001098633,24.94365692138672,0.04
133,MetaDrive-td3combine-expt_with_safe-leaky-adamw-in-q-weighted-corrected-diff-env,76,184.44415577829713,188116,309,2453.800265789032,,11.730537414550781,36.48320770263672,0.04
134,MetaDrive-td3combine-expt_with_safe-leaky-adamw-in-q-weighted-corrected-diff-env,76,182.5299050222285,190733,312,2484.431702852249,-33.65519332885742,25.05088996887207,32.82495880126953,0.04
135,MetaDrive-td3combine-expt_with_safe-leaky-adamw-in-q-weighted-corrected-diff-env,76,180.12400064467963,192866,314,2508.3008539676666,,23.117671966552734,34.568729400634766,0.04
136,MetaDrive-td3combine-expt_with_safe-leaky-adamw-in-q-weighted-corrected-diff-env,76,180.6601230102525,193030,315,2511.2182519435883,,19.453662872314453,26.954288482666016,0.04
137,MetaDrive-td3combine-expt_with_safe-leaky-adamw-in-q-weighted-corrected-diff-env,76,178.6356660737035,194536,317,2531.830267906189,,10.780370712280273,35.96595764160156,0.04
138,MetaDrive-td3combine-expt_with_safe-leaky-adamw-in-q-weighted-corrected-diff-env,76,174.9655753801482,195565,321,2547.1362369060516,-27.705188751220703,11.223913192749023,25.462621688842773,0.04
139,MetaDrive-td3combine-expt_with_safe-leaky-adamw-in-q-weighted-corrected-diff-env,76,174.97964638331646,197566,322,2568.904269695282,,18.307640075683594,25.41440200805664,0.04
140,MetaDrive-td3combine-expt_with_safe-leaky-adamw-in-q-weighted-corrected-diff-env,76,174.03144700398192,198086,324,2575.5918579101562,,14.557188034057617,34.74419403076172,0.04
141,MetaDrive-td3combine-expt_with_safe-leaky-adamw-in-q-weighted-corrected-diff-env,76,170.9419290559438,200200,329,2605.1188249588013,,23.405820846557617,34.18312072753906,0.03
142,MetaDrive-td3combine-expt_with_safe-leaky-adamw-in-q-weighted-corrected-diff-env,76,163.032117738548,201921,334,2628.1873557567596,-38.86804962158203,25.485408782958984,38.93229293823242,0.03
143,MetaDrive-td3combine-expt_with_safe-leaky-adamw-in-q-weighted-corrected-diff-env,76,165.5934731241414,202326,335,2634.676666736603,,23.519046783447266,22.69281005859375,0.03
144,MetaDrive-td3combine-expt_with_safe-leaky-adamw-in-q-weighted-corrected-diff-env,76,169.4018573708377,203361,338,2649.6172058582306,-29.773731231689453,19.378103256225586,30.910831451416016,0.03
145,MetaDrive-td3combine-expt_with_safe-leaky-adamw-in-q-weighted-corrected-diff-env,76,171.37805789736703,205362,339,2679.477952003479,,23.300579071044922,36.760223388671875,0.03
146,MetaDrive-td3combine-expt_with_safe-leaky-adamw-in-q-weighted-corrected-diff-env,76,172.84787828580713,207754,342,2705.901836872101,,17.92937469482422,31.041015625,0.03
147,MetaDrive-td3combine-expt_with_safe-leaky-adamw-in-q-weighted-corrected-diff-env,76,172.78254583052546,209919,344,2734.662158727646,-27.836339950561523,6.075430870056152,27.664461135864258,0.03
148,MetaDrive-td3combine-expt_with_safe-leaky-adamw-in-q-weighted-corrected-diff-env,76,172.8099531827382,210147,345,2737.522933959961,-32.12743377685547,8.315685272216797,31.998750686645508,0.03
149,MetaDrive-td3combine-expt_with_safe-leaky-adamw-in-q-weighted-corrected-diff-env,76,171.496694250188,211208,349,2753.9623069763184,,17.612998962402344,30.217529296875,0.03
150,MetaDrive-td3combine-expt_with_safe-leaky-adamw-in-q-weighted-corrected-diff-env,76,173.1039389884672,213557,352,2786.0677688121796,-37.57072448730469,11.262395858764648,36.28950500488281,0.03
151,MetaDrive-td3combine-expt_with_safe-leaky-adamw-in-q-weighted-corrected-diff-env,76,171.7556951729141,215698,354,2812.2883257865906,,47.45512390136719,26.75275421142578,0.03
152,MetaDrive-td3combine-expt_with_safe-leaky-adamw-in-q-weighted-corrected-diff-env,76,174.91489610180437,216051,355,2818.6703329086304,-40.982627868652344,20.915775299072266,40.616905212402344,0.03
153,MetaDrive-td3combine-expt_with_safe-leaky-adamw-in-q-weighted-corrected-diff-env,76,176.34172603441164,217123,358,2832.4354977607727,-19.270679473876953,23.04891586303711,21.27243995666504,0.03
154,MetaDrive-td3combine-expt_with_safe-leaky-adamw-in-q-weighted-corrected-diff-env,76,178.54246433706467,218279,362,2849.2443199157715,-32.798397064208984,25.481521606445312,33.64031219482422,0.03
155,MetaDrive-td3combine-expt_with_safe-leaky-adamw-in-q-weighted-corrected-diff-env,76,178.02954820193128,220467,365,2888.2157649993896,-22.61410903930664,19.237110137939453,21.527193069458008,0.03
156,MetaDrive-td3combine-expt_with_safe-leaky-adamw-in-q-weighted-corrected-diff-env,76,174.48027548871454,222868,367,2922.449206829071,,16.63863754272461,24.50513458251953,0.02
157,MetaDrive-td3combine-expt_with_safe-leaky-adamw-in-q-weighted-corrected-diff-env,76,174.94526406916881,223139,368,2926.5127606391907,-36.13092803955078,29.098403930664062,35.92620086669922,0.02
158,MetaDrive-td3combine-expt_with_safe-leaky-adamw-in-q-weighted-corrected-diff-env,76,176.0186495169473,225140,369,2954.5952219963074,,11.093367576599121,29.252634048461914,0.02
159,MetaDrive-td3combine-expt_with_safe-leaky-adamw-in-q-weighted-corrected-diff-env,76,174.54602851532408,227085,370,2976.819169998169,-34.34703063964844,18.40221405029297,35.460975646972656,0.01
160,MetaDrive-td3combine-expt_with_safe-leaky-adamw-in-q-weighted-corrected-diff-env,76,180.00451237796082,228701,372,3003.2481956481934,-33.30293273925781,17.631547927856445,34.6846923828125,0.02
161,MetaDrive-td3combine-expt_with_safe-leaky-adamw-in-q-weighted-corrected-diff-env,76,181.72877991865832,229252,373,3011.463728904724,,16.574214935302734,25.102418899536133,0.02
162,MetaDrive-td3combine-expt_with_safe-leaky-adamw-in-q-weighted-corrected-diff-env,75,180.81959918105846,231217,375,3053.1552147865295,-33.28881072998047,13.43667221069336,33.44573211669922,0.02
163,MetaDrive-td3combine-expt_with_safe-leaky-adamw-in-q-weighted-corrected-diff-env,75,180.9934448584127,233418,377,3081.375655889511,,167.18804931640625,28.64349937438965,0.02
164,MetaDrive-td3combine-expt_with_safe-leaky-adamw-in-q-weighted-corrected-diff-env,75,182.63371047148954,235419,378,3106.3953099250793,-33.72252655029297,9.150117874145508,33.56899642944336,0.02
165,MetaDrive-td3combine-expt_with_safe-leaky-adamw-in-q-weighted-corrected-diff-env,75,180.59745614954582,237964,380,3144.6551978588104,,36.831642150878906,37.83531951904297,0.01
166,MetaDrive-td3combine-expt_with_safe-leaky-adamw-in-q-weighted-corrected-diff-env,75,181.91200329626395,238363,381,3151.1314606666565,-35.29143142700195,21.535198211669922,35.917816162109375,0.01
167,MetaDrive-td3combine-expt_with_safe-leaky-adamw-in-q-weighted-corrected-diff-env,75,184.33869126737136,240880,383,3183.3521058559418,,14.69955825805664,33.21831512451172,0.02
168,MetaDrive-td3combine-expt_with_safe-leaky-adamw-in-q-weighted-corrected-diff-env,75,184.43536091777366,241037,384,3185.492337703705,-33.75243377685547,15.281047821044922,33.46571350097656,0.02
169,MetaDrive-td3combine-expt_with_safe-leaky-adamw-in-q-weighted-corrected-diff-env,75,185.03519895037348,242108,386,3203.6350548267365,,27.819395065307617,30.53626251220703,0.02
170,MetaDrive-td3combine-expt_with_safe-leaky-adamw-in-q-weighted-corrected-diff-env,75,184.38370671517634,243065,389,3216.9462859630585,-37.08042907714844,6.761113166809082,37.68393325805664,0.02
171,MetaDrive-td3combine-expt_with_safe-leaky-adamw-in-q-weighted-corrected-diff-env,75,185.17425268017462,244553,393,3236.9589257240295,-36.70307922363281,6.013957977294922,36.25611877441406,0.02
172,MetaDrive-td3combine-expt_with_safe-leaky-adamw-in-q-weighted-corrected-diff-env,75,187.63778501134323,246503,394,3264.395097732544,-35.78527069091797,6.662296295166016,35.92857360839844,0.02
173,MetaDrive-td3combine-expt_with_safe-leaky-adamw-in-q-weighted-corrected-diff-env,75,188.76878308455179,248504,395,3295.625769853592,,12.60786247253418,40.28382873535156,0.02
174,MetaDrive-td3combine-expt_with_safe-leaky-adamw-in-q-weighted-corrected-diff-env,75,191.11091636612701,249055,396,3302.0842537879944,-34.4163818359375,11.580672264099121,33.466941833496094,0.02
175,MetaDrive-td3combine-expt_with_safe-leaky-adamw-in-q-weighted-corrected-diff-env,75,190.68853381762216,250754,397,3326.1894960403442,,12.454719543457031,31.655540466308594,0.02
176,MetaDrive-td3combine-expt_with_safe-leaky-adamw-in-q-weighted-corrected-diff-env,75,192.87203047827447,252453,398,3349.4192519187927,-41.25455856323242,21.434497833251953,40.811309814453125,0.02
177,MetaDrive-td3combine-expt_with_safe-leaky-adamw-in-q-weighted-corrected-diff-env,75,190.15050075151848,253998,400,3368.5475409030914,,99.19328308105469,32.615108489990234,0.02
178,MetaDrive-td3combine-expt_with_safe-leaky-adamw-in-q-weighted-corrected-diff-env,75,189.44037936555128,254210,401,3371.9007427692413,,6.233036041259766,27.958192825317383,0.02
179,MetaDrive-td3combine-expt_with_safe-leaky-adamw-in-q-weighted-corrected-diff-env,75,190.58060157664121,255968,402,3391.684283733368,,13.987650871276855,30.978857040405273,0.02
180,MetaDrive-td3combine-expt_with_safe-leaky-adamw-in-q-weighted-corrected-diff-env,75,191.45143390010603,256794,404,3403.8931908607483,,9.16672134399414,30.424224853515625,0.02
181,MetaDrive-td3combine-expt_with_safe-leaky-adamw-in-q-weighted-corrected-diff-env,75,190.79417018509997,257020,405,3406.651176929474,,6.069707870483398,37.8327751159668,0.02
182,MetaDrive-td3combine-expt_with_safe-leaky-adamw-in-q-weighted-corrected-diff-env,75,195.49122550769636,258911,408,3431.202563762665,-27.102678298950195,5.333293437957764,27.187536239624023,0.02
183,MetaDrive-td3combine-expt_with_safe-leaky-adamw-in-q-weighted-corrected-diff-env,75,195.16359704666243,260891,409,3455.9847218990326,-32.5250244140625,12.898641586303711,31.988985061645508,0.02
184,MetaDrive-td3combine-expt_with_safe-leaky-adamw-in-q-weighted-corrected-diff-env,75,194.94718881554164,262892,410,3480.351446866989,,18.360618591308594,39.365509033203125,0.02
185,MetaDrive-td3combine-expt_with_safe-leaky-adamw-in-q-weighted-corrected-diff-env,75,192.7387361361277,263092,412,3483.111387729645,,7.457250595092773,33.14292907714844,0.02
186,MetaDrive-td3combine-expt_with_safe-leaky-adamw-in-q-weighted-corrected-diff-env,75,192.87161905862732,265455,415,3513.5597927570343,-21.372447967529297,34.89109802246094,21.07942008972168,0.02
187,MetaDrive-td3combine-expt_with_safe-leaky-adamw-in-q-weighted-corrected-diff-env,75,198.2240499411881,266866,418,3533.2694149017334,,12.507827758789062,40.633296966552734,0.03
188,MetaDrive-td3combine-expt_with_safe-leaky-adamw-in-q-weighted-corrected-diff-env,75,197.9885873866699,267076,419,3536.394127845764,,18.556264877319336,25.869483947753906,0.03
189,MetaDrive-td3combine-expt_with_safe-leaky-adamw-in-q-weighted-corrected-diff-env,75,198.02833751151775,269077,420,3567.585252761841,-25.191492080688477,6.421708106994629,25.159725189208984,0.03
190,MetaDrive-td3combine-expt_with_safe-leaky-adamw-in-q-weighted-corrected-diff-env,75,197.05189120110134,271835,424,3608.802934885025,-30.739675521850586,6.929684638977051,31.133222579956055,0.03
191,MetaDrive-td3combine-expt_with_safe-leaky-adamw-in-q-weighted-corrected-diff-env,75,197.51925293851176,273623,425,3633.6307430267334,-30.13665771484375,21.327964782714844,29.582717895507812,0.03
192,MetaDrive-td3combine-expt_with_safe-leaky-adamw-in-q-weighted-corrected-diff-env,75,198.75587055018627,274106,427,3640.917017698288,,11.494800567626953,34.636962890625,0.03
193,MetaDrive-td3combine-expt_with_safe-leaky-adamw-in-q-weighted-corrected-diff-env,75,200.93944368509142,275132,428,3657.1736397743225,,14.576560974121094,32.40304946899414,0.03
194,MetaDrive-td3combine-expt_with_safe-leaky-adamw-in-q-weighted-corrected-diff-env,75,199.53503919682177,277133,429,3681.911333799362,-27.59782600402832,13.88170051574707,27.554346084594727,0.03
195,MetaDrive-td3combine-expt_with_safe-leaky-adamw-in-q-weighted-corrected-diff-env,75,206.1094684814148,278372,433,3699.6615817546844,,10.759123802185059,32.0408935546875,0.04
196,MetaDrive-td3combine-expt_with_safe-leaky-adamw-in-q-weighted-corrected-diff-env,75,206.5013518874547,279426,434,3712.833771944046,,11.68210220336914,25.576915740966797,0.04
197,MetaDrive-td3combine-expt_with_safe-leaky-adamw-in-q-weighted-corrected-diff-env,75,208.55503012400533,280213,435,3723.8888947963715,-37.29511642456055,14.508600234985352,36.9290771484375,0.04
198,MetaDrive-td3combine-expt_with_safe-leaky-adamw-in-q-weighted-corrected-diff-env,75,209.98955560211823,281699,437,3743.9915318489075,-31.979110717773438,14.990335464477539,30.47295379638672,0.05
199,MetaDrive-td3combine-expt_with_safe-leaky-adamw-in-q-weighted-corrected-diff-env,75,207.6727673262186,282176,440,3750.686115026474,,25.989124298095703,33.361480712890625,0.05
200,MetaDrive-td3combine-expt_with_safe-leaky-adamw-in-q-weighted-corrected-diff-env,75,208.43337526081046,284449,442,3778.444168806076,-33.81345748901367,14.311944961547852,33.704158782958984,0.05
201,MetaDrive-td3combine-expt_with_safe-leaky-adamw-in-q-weighted-corrected-diff-env,75,206.68071374339212,286949,445,3823.3398327827454,-39.420467376708984,28.287765502929688,39.647605895996094,0.05
202,MetaDrive-td3combine-expt_with_safe-leaky-adamw-in-q-weighted-corrected-diff-env,75,206.76141789410684,288950,446,3849.628438949585,,187.62466430664062,33.05945587158203,0.05
203,MetaDrive-td3combine-expt_with_safe-leaky-adamw-in-q-weighted-corrected-diff-env,75,208.27421277689527,290745,447,3869.7840349674225,-38.80803680419922,11.504220962524414,38.36524963378906,0.05
204,MetaDrive-td3combine-expt_with_safe-leaky-adamw-in-q-weighted-corrected-diff-env,75,211.50455552674407,291245,448,3877.8400156497955,-32.83712387084961,22.31169891357422,31.691207885742188,0.05
205,MetaDrive-td3combine-expt_with_safe-leaky-adamw-in-q-weighted-corrected-diff-env,75,211.55494263948773,292284,451,3891.5856487751007,,18.417255401611328,36.77815246582031,0.05
206,MetaDrive-td3combine-expt_with_safe-leaky-adamw-in-q-weighted-corrected-diff-env,75,211.3632153419228,294440,453,3919.589113712311,,61.2935791015625,34.88665771484375,0.05
207,MetaDrive-td3combine-expt_with_safe-leaky-adamw-in-q-weighted-corrected-diff-env,75,209.9832027485362,296837,455,3948.6969599723816,-24.088134765625,18.713455200195312,24.369104385375977,0.05
208,MetaDrive-td3combine-expt_with_safe-leaky-adamw-in-q-weighted-corrected-diff-env,75,208.03579856015403,297763,456,3959.7665808200836,-28.62425994873047,36.481163024902344,29.516210556030273,0.05
209,MetaDrive-td3combine-expt_with_safe-leaky-adamw-in-q-weighted-corrected-diff-env,75,206.57691556620358,299058,457,3977.261881828308,,15.043842315673828,30.399158477783203,0.05
210,MetaDrive-td3combine-expt_with_safe-leaky-adamw-in-q-weighted-corrected-diff-env,75,203.9654823031948,301329,459,4010.7260608673096,-30.865774154663086,17.353317260742188,31.2515869140625,0.05
211,MetaDrive-td3combine-expt_with_safe-leaky-adamw-in-q-weighted-corrected-diff-env,75,207.99452163726102,302339,461,4024.860600709915,-31.977275848388672,17.171085357666016,30.94019317626953,0.06
212,MetaDrive-td3combine-expt_with_safe-leaky-adamw-in-q-weighted-corrected-diff-env,74,209.49360173110952,304340,462,4063.824275970459,,9.721059799194336,34.96851348876953,0.06
213,MetaDrive-td3combine-expt_with_safe-leaky-adamw-in-q-weighted-corrected-diff-env,74,210.78518382109877,306341,463,4090.5692608356476,-34.95885467529297,37.51018524169922,34.29032516479492,0.06
214,MetaDrive-td3combine-expt_with_safe-leaky-adamw-in-q-weighted-corrected-diff-env,74,207.07658338833917,308749,467,4124.084819793701,-29.676305770874023,10.704139709472656,29.609657287597656,0.06
215,MetaDrive-td3combine-expt_with_safe-leaky-adamw-in-q-weighted-corrected-diff-env,74,208.22376940582387,309026,468,4127.817447900772,,9.885626792907715,39.26752471923828,0.06
216,MetaDrive-td3combine-expt_with_safe-leaky-adamw-in-q-weighted-corrected-diff-env,74,201.2411077882838,311505,471,4167.345464706421,-38.841773986816406,7.911352157592773,37.80249786376953,0.05
217,MetaDrive-td3combine-expt_with_safe-leaky-adamw-in-q-weighted-corrected-diff-env,74,197.70905269301315,312343,474,4181.0377316474915,-23.632617950439453,6.036981105804443,23.56076431274414,0.05
218,MetaDrive-td3combine-expt_with_safe-leaky-adamw-in-q-weighted-corrected-diff-env,74,201.74755664921358,314379,477,4215.893790960312,-28.87285041809082,32.04800796508789,28.04227066040039,0.06
219,MetaDrive-td3combine-expt_with_safe-leaky-adamw-in-q-weighted-corrected-diff-env,74,201.07990010417765,316904,479,4258.392046689987,,8.847223281860352,21.866363525390625,0.07
220,MetaDrive-td3combine-expt_with_safe-leaky-adamw-in-q-weighted-corrected-diff-env,74,201.29971941741005,317862,480,4272.030962944031,,18.27468490600586,32.18320083618164,0.07
221,MetaDrive-td3combine-expt_with_safe-leaky-adamw-in-q-weighted-corrected-diff-env,74,201.95612219168237,319863,481,4297.533004045486,-29.557910919189453,24.564170837402344,29.303836822509766,0.07
222,MetaDrive-td3combine-expt_with_safe-leaky-adamw-in-q-weighted-corrected-diff-env,74,199.45475882179966,320351,482,4304.667886734009,-33.56052780151367,14.151510238647461,33.70331954956055,0.06
223,MetaDrive-td3combine-expt_with_safe-leaky-adamw-in-q-weighted-corrected-diff-env,74,200.3619132849517,321103,485,4319.73820066452,-36.36579895019531,25.511688232421875,34.04027557373047,0.06
224,MetaDrive-td3combine-expt_with_safe-leaky-adamw-in-q-weighted-corrected-diff-env,74,202.11823153732723,323104,486,4356.58168387413,,19.399919509887695,32.960933685302734,0.06
225,MetaDrive-td3combine-expt_with_safe-leaky-adamw-in-q-weighted-corrected-diff-env,74,204.953793600879,325564,488,4392.155481815338,,26.46026611328125,40.00160217285156,0.06
226,MetaDrive-td3combine-expt_with_safe-leaky-adamw-in-q-weighted-corrected-diff-env,74,210.20261132226082,327999,490,4427.895875692368,-25.952999114990234,8.288341522216797,24.571931838989258,0.06
227,MetaDrive-td3combine-expt_with_safe-leaky-adamw-in-q-weighted-corrected-diff-env,74,214.0734940369588,328673,491,4438.592752695084,-30.853435516357422,16.21767807006836,30.095722198486328,0.06
228,MetaDrive-td3combine-expt_with_safe-leaky-adamw-in-q-weighted-corrected-diff-env,74,212.9647806163658,329023,493,4444.156689882278,-25.994251251220703,18.282102584838867,26.53863525390625,0.06
229,MetaDrive-td3combine-expt_with_safe-leaky-adamw-in-q-weighted-corrected-diff-env,74,212.96336144293923,330297,495,4462.988958835602,-32.26219940185547,34.12760925292969,31.570341110229492,0.06
230,MetaDrive-td3combine-expt_with_safe-leaky-adamw-in-q-weighted-corrected-diff-env,73,209.28143857727065,331984,497,4490.796672821045,,12.189056396484375,36.44099426269531,0.06
231,MetaDrive-td3combine-expt_with_safe-leaky-adamw-in-q-weighted-corrected-diff-env,73,207.00765169781855,333316,498,4512.790237903595,,22.14391326904297,39.08235549926758,0.06
232,MetaDrive-td3combine-expt_with_safe-leaky-adamw-in-q-weighted-corrected-diff-env,73,211.36740903726465,334652,499,4532.47171497345,,15.718240737915039,32.529029846191406,0.06
233,MetaDrive-td3combine-expt_with_safe-leaky-adamw-in-q-weighted-corrected-diff-env,73,214.15189331296426,335457,501,4544.0241458415985,-40.062156677246094,12.685158729553223,39.16960906982422,0.06
234,MetaDrive-td3combine-expt_with_safe-leaky-adamw-in-q-weighted-corrected-diff-env,73,213.78507333147158,337458,502,4568.363296985626,,8.731422424316406,35.17853546142578,0.06
235,MetaDrive-td3combine-expt_with_safe-leaky-adamw-in-q-weighted-corrected-diff-env,73,218.14471905766433,339459,503,4593.417155742645,-37.39504623413086,9.154115676879883,36.85972595214844,0.06
236,MetaDrive-td3combine-expt_with_safe-leaky-adamw-in-q-weighted-corrected-diff-env,73,219.77711912481456,340217,505,4603.345555782318,-32.560203552246094,13.619816780090332,31.91217803955078,0.06
237,MetaDrive-td3combine-expt_with_safe-leaky-adamw-in-q-weighted-corrected-diff-env,73,220.6022967927872,341735,506,4624.888706922531,-37.52199172973633,17.122596740722656,38.614864349365234,0.06
238,MetaDrive-td3combine-expt_with_safe-leaky-adamw-in-q-weighted-corrected-diff-env,73,217.25568701104777,342239,508,4631.637961864471,-37.99528503417969,22.612503051757812,37.59870910644531,0.06
239,MetaDrive-td3combine-expt_with_safe-leaky-adamw-in-q-weighted-corrected-diff-env,73,217.27140515770324,343359,509,4645.686695814133,-33.9423713684082,22.13472557067871,32.85497283935547,0.06
240,MetaDrive-td3combine-expt_with_safe-leaky-adamw-in-q-weighted-corrected-diff-env,73,219.1505536748371,344870,511,4669.174234867096,,10.826391220092773,28.907968521118164,0.06
241,MetaDrive-td3combine-expt_with_safe-leaky-adamw-in-q-weighted-corrected-diff-env,73,222.94883411115458,345284,512,4673.8554837703705,,24.6901912689209,40.15094757080078,0.07
242,MetaDrive-td3combine-expt_with_safe-leaky-adamw-in-q-weighted-corrected-diff-env,73,228.15250348156897,346521,515,4690.342661857605,-39.836238861083984,15.996475219726562,38.923946380615234,0.07
243,MetaDrive-td3combine-expt_with_safe-leaky-adamw-in-q-weighted-corrected-diff-env,73,230.64765777650626,348549,517,4718.035539865494,-37.42017364501953,35.496246337890625,37.4863395690918,0.07
244,MetaDrive-td3combine-expt_with_safe-leaky-adamw-in-q-weighted-corrected-diff-env,73,225.00636538004656,349895,519,4737.072442770004,-33.12397384643555,51.02631378173828,31.4415225982666,0.06
245,MetaDrive-td3combine-expt_with_safe-leaky-adamw-in-q-weighted-corrected-diff-env,73,225.80484294831248,351896,520,4761.026259899139,,6.7785725593566895,23.442184448242188,0.06
246,MetaDrive-td3combine-expt_with_safe-leaky-adamw-in-q-weighted-corrected-diff-env,73,227.65139313959898,353348,521,4782.91085267067,,28.618892669677734,42.11687088012695,0.06
247,MetaDrive-td3combine-expt_with_safe-leaky-adamw-in-q-weighted-corrected-diff-env,73,227.20342262178593,355113,523,4803.4016189575195,-39.080684661865234,10.938899040222168,39.62449264526367,0.06
248,MetaDrive-td3combine-expt_with_safe-leaky-adamw-in-q-weighted-corrected-diff-env,74,223.9254409491085,357332,526,4828.429345846176,,12.545047760009766,43.80827331542969,0.06
249,MetaDrive-td3combine-expt_with_safe-leaky-adamw-in-q-weighted-corrected-diff-env,74,224.53179986711683,359918,529,4863.48863196373,,23.239479064941406,36.200828552246094,0.06
250,MetaDrive-td3combine-expt_with_safe-leaky-adamw-in-q-weighted-corrected-diff-env,74,224.73790741111333,360241,530,4867.995631694794,-39.14677429199219,161.35653686523438,38.450260162353516,0.06
251,MetaDrive-td3combine-expt_with_safe-leaky-adamw-in-q-weighted-corrected-diff-env,74,224.57856760104366,361495,531,4884.3436160087585,-39.75912857055664,19.1712589263916,38.713932037353516,0.06
252,MetaDrive-td3combine-expt_with_safe-leaky-adamw-in-q-weighted-corrected-diff-env,73,221.61372299832377,363643,533,4916.275480031967,-30.82727813720703,16.848297119140625,30.99799346923828,0.05
253,MetaDrive-td3combine-expt_with_safe-leaky-adamw-in-q-weighted-corrected-diff-env,74,223.58811350924233,365644,534,4937.2798807621,,20.260486602783203,40.51498031616211,0.05
254,MetaDrive-td3combine-expt_with_safe-leaky-adamw-in-q-weighted-corrected-diff-env,74,220.61476260280236,367645,535,4967.947561979294,-33.28645324707031,14.25472640991211,32.30191421508789,0.05
255,MetaDrive-td3combine-expt_with_safe-leaky-adamw-in-q-weighted-corrected-diff-env,74,218.72414148748513,368155,536,4974.290928840637,-38.47187805175781,14.09678840637207,37.59706115722656,0.04
256,MetaDrive-td3combine-expt_with_safe-leaky-adamw-in-q-weighted-corrected-diff-env,74,218.81049741159848,370156,537,5000.933874845505,,26.917110443115234,37.32489013671875,0.04
257,MetaDrive-td3combine-expt_with_safe-leaky-adamw-in-q-weighted-corrected-diff-env,73,219.3883664394349,372452,540,5037.234395742416,,17.08956527709961,36.69390106201172,0.04
258,MetaDrive-td3combine-expt_with_safe-leaky-adamw-in-q-weighted-corrected-diff-env,73,220.9076971027697,374453,541,5068.017164945602,-32.940860748291016,13.173046112060547,33.434146881103516,0.04
259,MetaDrive-td3combine-expt_with_safe-leaky-adamw-in-q-weighted-corrected-diff-env,73,217.72033343268097,376592,544,5096.630749940872,,14.713594436645508,27.242502212524414,0.04
260,MetaDrive-td3combine-expt_with_safe-leaky-adamw-in-q-weighted-corrected-diff-env,73,217.19476071318658,377390,546,5106.81374001503,,14.88871955871582,38.07005310058594,0.04
261,MetaDrive-td3combine-expt_with_safe-leaky-adamw-in-q-weighted-corrected-diff-env,73,212.19704956202787,378459,548,5120.474893808365,-27.20734214782715,19.078495025634766,27.22882843017578,0.04
262,MetaDrive-td3combine-expt_with_safe-leaky-adamw-in-q-weighted-corrected-diff-env,73,214.64997564781189,379536,551,5139.276250839233,,39.592262268066406,30.010913848876953,0.04
263,MetaDrive-td3combine-expt_with_safe-leaky-adamw-in-q-weighted-corrected-diff-env,73,217.58710292935444,381705,553,5169.709459781647,-30.984111785888672,4.882059097290039,31.032575607299805,0.04
264,MetaDrive-td3combine-expt_with_safe-leaky-adamw-in-q-weighted-corrected-diff-env,73,218.75857395884762,383706,554,5210.538755655289,,13.084991455078125,38.0794792175293,0.04
265,MetaDrive-td3combine-expt_with_safe-leaky-adamw-in-q-weighted-corrected-diff-env,73,215.86856599251928,384037,556,5216.453093767166,-31.486915588378906,11.519447326660156,30.955745697021484,0.04
266,MetaDrive-td3combine-expt_with_safe-leaky-adamw-in-q-weighted-corrected-diff-env,73,215.79757529798772,386038,557,5246.191555738449,,16.854215621948242,34.162689208984375,0.04
267,MetaDrive-td3combine-expt_with_safe-leaky-adamw-in-q-weighted-corrected-diff-env,73,215.27759300151706,388569,559,5283.260792732239,-40.58510208129883,16.861003875732422,40.85774612426758,0.04
268,MetaDrive-td3combine-expt_with_safe-leaky-adamw-in-q-weighted-corrected-diff-env,73,211.67460762142045,389242,561,5292.27108669281,,28.605392456054688,32.2961311340332,0.03
269,MetaDrive-td3combine-expt_with_safe-leaky-adamw-in-q-weighted-corrected-diff-env,73,213.64379189918873,390701,563,5313.160184621811,-40.78318786621094,18.43816375732422,40.445133209228516,0.04
270,MetaDrive-td3combine-expt_with_safe-leaky-adamw-in-q-weighted-corrected-diff-env,73,215.01810515913454,391022,564,5317.216294765472,,22.20115089416504,29.02512550354004,0.04
271,MetaDrive-td3combine-expt_with_safe-leaky-adamw-in-q-weighted-corrected-diff-env,73,213.7939961536935,393023,565,5345.3562388420105,-34.21590805053711,11.199380874633789,33.64688491821289,0.04
272,MetaDrive-td3combine-expt_with_safe-leaky-adamw-in-q-weighted-corrected-diff-env,73,214.6255168946294,395024,566,5374.432546854019,,18.711023330688477,29.031925201416016,0.04
273,MetaDrive-td3combine-expt_with_safe-leaky-adamw-in-q-weighted-corrected-diff-env,73,215.48509829816194,396791,568,5395.630676984787,-31.561079025268555,28.043190002441406,30.326984405517578,0.04
274,MetaDrive-td3combine-expt_with_safe-leaky-adamw-in-q-weighted-corrected-diff-env,73,216.21958677968908,397062,569,5400.239833831787,,7.69987154006958,31.400238037109375,0.04
275,MetaDrive-td3combine-expt_with_safe-leaky-adamw-in-q-weighted-corrected-diff-env,73,217.90400378284838,399405,572,5439.236393928528,-28.735641479492188,8.322735786437988,28.28925323486328,0.04
