TanmayH/CS269-RL-project-code/MetaDrive-td3combine-expt_with_safe-alt-env/MetaDrive-Alt-Next-v1/td3/progress.csv
,log_dir,frame_per_second,episode_reward,total_steps,total_episodes,total_time,actor_loss,critic_loss,target_q,success_rate
0,MetaDrive-td3combine-expt_with_safe-alt-env,149,79.23195972987712,2062,2,13.806034803390503,,0.4402098059654236,43.9290771484375,0.0
1,MetaDrive-td3combine-expt_with_safe-alt-env,109,86.159179988635,4317,4,39.453742027282715,-35.54399871826172,0.718399167060852,35.366607666015625,0.0
2,MetaDrive-td3combine-expt_with_safe-alt-env,103,175.04642744144098,5062,6,49.05524301528931,,2.8409132957458496,37.682777404785156,0.16666666666666666
3,MetaDrive-td3combine-expt_with_safe-alt-env,95,204.1139473621152,6020,9,62.98178195953369,,2.489288330078125,38.68760299682617,0.2222222222222222
4,MetaDrive-td3combine-expt_with_safe-alt-env,92,212.6970055703238,7064,12,76.34784412384033,,47.69439697265625,40.93241882324219,0.16666666666666666
5,MetaDrive-td3combine-expt_with_safe-alt-env,86,235.5327111009628,8906,15,102.55027508735657,,3.629167079925537,30.710601806640625,0.13333333333333333
6,MetaDrive-td3combine-expt_with_safe-alt-env,85,255.74044909259004,9626,16,112.58219480514526,,3.6531615257263184,33.899391174316406,0.1875
7,MetaDrive-td3combine-expt_with_safe-alt-env,84,274.7967911510389,10199,17,120.29886507987976,-38.10586166381836,9.389610290527344,37.64891052246094,0.23529411764705882
8,MetaDrive-td3combine-expt_with_safe-alt-env,81,321.59756789941747,11937,19,146.15547895431519,-36.2884635925293,10.327750205993652,35.50355529785156,0.3157894736842105
9,MetaDrive-td3combine-expt_with_safe-alt-env,81,329.6189185030987,12497,20,152.6815149784088,-40.12798309326172,7.069736003875732,39.59471130371094,0.35
10,MetaDrive-td3combine-expt_with_safe-alt-env,81,334.51862655081817,13207,22,161.12650990486145,-39.023834228515625,10.455161094665527,38.251441955566406,0.36363636363636365
11,MetaDrive-td3combine-expt_with_safe-alt-env,82,318.59256161244605,14059,25,171.20052194595337,-39.79164505004883,7.862941265106201,40.1533203125,0.36
12,MetaDrive-td3combine-expt_with_safe-alt-env,80,321.9364622209899,15288,29,189.2190499305725,,4.896132946014404,39.14628601074219,0.3448275862068966
13,MetaDrive-td3combine-expt_with_safe-alt-env,80,305.72070448078586,16032,33,199.56450605392456,,36.820213317871094,44.153202056884766,0.30303030303030304
14,MetaDrive-td3combine-expt_with_safe-alt-env,79,314.50188089904515,17575,36,221.0869529247284,-34.02797317504883,7.847901344299316,32.86405944824219,0.3055555555555556
15,MetaDrive-td3combine-expt_with_safe-alt-env,79,299.3044099937678,18025,39,227.37819385528564,-39.77085494995117,11.47802734375,40.013946533203125,0.28205128205128205
16,MetaDrive-td3combine-expt_with_safe-alt-env,78,302.90120177307983,19395,43,246.23718905448914,-42.05595397949219,8.940792083740234,41.955936431884766,0.27906976744186046
17,MetaDrive-td3combine-expt_with_safe-alt-env,78,295.91392359223823,20022,46,254.3338840007782,,5.3464274406433105,45.289703369140625,0.2608695652173913
18,MetaDrive-td3combine-expt_with_safe-alt-env,78,301.27330141962153,21150,49,270.0743217468262,,17.046722412109375,42.637935638427734,0.24489795918367346
19,MetaDrive-td3combine-expt_with_safe-alt-env,78,275.1636882108849,22012,56,281.3575758934021,,6.67874813079834,43.907264709472656,0.21428571428571427
20,MetaDrive-td3combine-expt_with_safe-alt-env,78,274.81561342004136,23016,60,294.03375601768494,,7.029184818267822,46.52804946899414,0.2
21,MetaDrive-td3combine-expt_with_safe-alt-env,77,271.74515648447607,24188,65,310.2044620513916,,18.87375259399414,43.921749114990234,0.2
22,MetaDrive-td3combine-expt_with_safe-alt-env,78,265.5939422489254,25120,70,322.00929498672485,,8.078268051147461,50.3763313293457,0.18571428571428572
23,MetaDrive-td3combine-expt_with_safe-alt-env,77,260.7020051121587,26202,76,337.91909098625183,,15.44998550415039,41.5611686706543,0.17105263157894737
24,MetaDrive-td3combine-expt_with_safe-alt-env,77,256.9331066020251,27057,81,349.800274848938,-45.76758575439453,12.341087341308594,46.58462142944336,0.16049382716049382
25,MetaDrive-td3combine-expt_with_safe-alt-env,77,256.5479981972599,28019,85,363.03834795951843,-51.33348846435547,13.592142105102539,49.86402130126953,0.15294117647058825
26,MetaDrive-td3combine-expt_with_safe-alt-env,77,248.00971018078081,29098,92,376.97704792022705,,31.286712646484375,53.41135787963867,0.14130434782608695
27,MetaDrive-td3combine-expt_with_safe-alt-env,77,241.11986657809248,30024,98,388.7475769519806,,32.646156311035156,49.1721076965332,0.1326530612244898
28,MetaDrive-td3combine-expt_with_safe-alt-env,76,246.58832391010955,32854,102,427.468857049942,,10.457451820373535,50.075958251953125,0.13
29,MetaDrive-td3combine-expt_with_safe-alt-env,76,249.82937056697773,33306,104,433.4738841056824,,11.569010734558105,50.810726165771484,0.13
30,MetaDrive-td3combine-expt_with_safe-alt-env,76,250.57301295689606,35307,105,464.0538921356201,-48.32624435424805,14.121740341186523,47.53298568725586,0.12
31,MetaDrive-td3combine-expt_with_safe-alt-env,76,251.64284274404375,36341,107,476.08097100257874,-46.9620246887207,52.8779296875,46.758182525634766,0.12
32,MetaDrive-td3combine-expt_with_safe-alt-env,76,255.9003315626248,37060,109,486.6687479019165,,59.64863586425781,47.04790115356445,0.12
33,MetaDrive-td3combine-expt_with_safe-alt-env,75,253.48332414450346,38077,113,501.0734441280365,-47.529457092285156,15.747005462646484,48.13307189941406,0.12
34,MetaDrive-td3combine-expt_with_safe-alt-env,76,257.26910290485944,39077,115,513.5360717773438,-53.81505584716797,11.708747863769531,53.483150482177734,0.13
35,MetaDrive-td3combine-expt_with_safe-alt-env,76,250.3297527359373,40248,118,528.1619691848755,,19.858776092529297,50.687164306640625,0.11
36,MetaDrive-td3combine-expt_with_safe-alt-env,76,248.03115092440916,41368,120,541.3717529773712,,12.00009536743164,48.27642822265625,0.1
37,MetaDrive-td3combine-expt_with_safe-alt-env,75,246.23088073590512,42246,122,556.2997150421143,,11.69302749633789,45.75819778442383,0.09
38,MetaDrive-td3combine-expt_with_safe-alt-env,75,248.84739381130453,43302,126,571.6447260379791,,14.252723693847656,52.6274528503418,0.08
39,MetaDrive-td3combine-expt_with_safe-alt-env,75,255.18187786338927,44040,127,580.7183611392975,,20.113431930541992,51.90610885620117,0.09
40,MetaDrive-td3combine-expt_with_safe-alt-env,76,256.1829728345803,45289,129,595.8399610519409,-59.14369583129883,13.193391799926758,58.7675666809082,0.1
41,MetaDrive-td3combine-expt_with_safe-alt-env,75,256.39956077716283,47410,131,625.1436200141907,,16.621105194091797,52.80052947998047,0.1
42,MetaDrive-td3combine-expt_with_safe-alt-env,75,259.9558549666218,48263,132,637.16335105896,-55.1589241027832,21.08243179321289,53.05467987060547,0.11
43,MetaDrive-td3combine-expt_with_safe-alt-env,75,264.6796730296305,50593,134,668.4980390071869,-56.91291046142578,11.340861320495605,56.51866912841797,0.12
44,MetaDrive-td3combine-expt_with_safe-alt-env,75,265.8894386376237,51129,135,675.2221989631653,-50.08771514892578,17.478870391845703,49.98042678833008,0.13
45,MetaDrive-td3combine-expt_with_safe-alt-env,75,271.5831983908822,52577,138,694.6966738700867,-51.91244888305664,12.035045623779297,51.38576126098633,0.14
46,MetaDrive-td3combine-expt_with_safe-alt-env,75,276.481990506993,53204,139,703.5026428699493,,18.683120727539062,54.600563049316406,0.15
47,MetaDrive-td3combine-expt_with_safe-alt-env,75,282.5012712743837,54707,141,725.1376750469208,-54.39759826660156,18.024253845214844,53.57324981689453,0.17
48,MetaDrive-td3combine-expt_with_safe-alt-env,75,287.0053686296675,55510,142,737.1301400661469,,24.155559539794922,51.42031478881836,0.18
49,MetaDrive-td3combine-expt_with_safe-alt-env,75,290.2238947851081,56564,143,753.2963199615479,,72.56302642822266,51.13856887817383,0.18
50,MetaDrive-td3combine-expt_with_safe-alt-env,75,293.66140022146107,57024,144,759.2545340061188,,243.86151123046875,52.267906188964844,0.19
51,MetaDrive-td3combine-expt_with_safe-alt-env,75,296.57457889258535,58273,147,774.4513649940491,-47.99327087402344,11.34511947631836,48.27531051635742,0.2
52,MetaDrive-td3combine-expt_with_safe-alt-env,75,299.67046682198907,59550,149,793.2003560066223,,40.72686767578125,56.13161087036133,0.21
53,MetaDrive-td3combine-expt_with_safe-alt-env,75,305.61820529066995,60220,150,801.5867309570312,,227.88742065429688,57.40192413330078,0.22
54,MetaDrive-td3combine-expt_with_safe-alt-env,74,311.44258832239393,62876,152,839.4943549633026,,15.671611785888672,62.56047439575195,0.23
55,MetaDrive-td3combine-expt_with_safe-alt-env,74,318.4501390709106,63653,153,850.3281378746033,-56.535423278808594,11.096061706542969,55.395668029785156,0.24
56,MetaDrive-td3combine-expt_with_safe-alt-env,74,322.2813331638757,64300,154,859.5362370014191,,10.686079978942871,59.042503356933594,0.25
57,MetaDrive-td3combine-expt_with_safe-alt-env,74,325.57619472193636,65268,157,871.2482678890228,,17.907249450683594,51.827613830566406,0.26
58,MetaDrive-td3combine-expt_with_safe-alt-env,75,328.6232670354176,66045,158,880.5575227737427,-63.893672943115234,17.09199333190918,62.976112365722656,0.27
59,MetaDrive-td3combine-expt_with_safe-alt-env,75,329.3955571325828,67396,161,898.1711359024048,,14.758864402770996,55.567344665527344,0.28
60,MetaDrive-td3combine-expt_with_safe-alt-env,75,334.19134499527763,68432,163,911.7235100269318,,18.97372055053711,67.09048461914062,0.29
61,MetaDrive-td3combine-expt_with_safe-alt-env,74,338.5794688029222,69780,165,932.0464470386505,,20.54248046875,63.915916442871094,0.29
62,MetaDrive-td3combine-expt_with_safe-alt-env,74,346.35130597001233,71004,166,947.8317959308624,,18.4763126373291,63.14753723144531,0.3
63,MetaDrive-td3combine-expt_with_safe-alt-env,74,348.97429625318904,73005,167,980.9261958599091,-54.5308723449707,18.76375389099121,54.37273406982422,0.3
64,MetaDrive-td3combine-expt_with_safe-alt-env,74,361.0362389925416,74896,169,1008.3530468940735,,17.505285263061523,59.78334426879883,0.32
65,MetaDrive-td3combine-expt_with_safe-alt-env,74,361.89522982398086,75350,170,1013.3831920623779,,90.96243286132812,57.94774627685547,0.33
66,MetaDrive-td3combine-expt_with_safe-alt-env,74,366.6468355030879,76430,171,1028.808040857315,,13.519111633300781,59.131866455078125,0.33
67,MetaDrive-td3combine-expt_with_safe-alt-env,74,369.677979688831,77140,172,1037.5238420963287,,39.916194915771484,56.130393981933594,0.34
68,MetaDrive-td3combine-expt_with_safe-alt-env,74,372.7218740662232,78062,174,1049.4033379554749,,21.101093292236328,61.12867736816406,0.34
69,MetaDrive-td3combine-expt_with_safe-alt-env,74,378.76315210989304,79425,176,1066.4919657707214,-55.51664733886719,49.952571868896484,54.14474868774414,0.36
70,MetaDrive-td3combine-expt_with_safe-alt-env,74,381.47985906965283,80313,178,1078.4440550804138,-67.06570434570312,13.50435733795166,67.57483673095703,0.36
71,MetaDrive-td3combine-expt_with_safe-alt-env,74,385.3105771759733,81138,179,1090.4109711647034,,25.823755264282227,64.32352447509766,0.37
72,MetaDrive-td3combine-expt_with_safe-alt-env,74,391.5200353580052,82026,180,1102.8661460876465,,20.81570816040039,63.217864990234375,0.38
73,MetaDrive-td3combine-expt_with_safe-alt-env,74,395.9916349596086,83327,182,1119.0049457550049,-63.37650680541992,13.535019874572754,63.522972106933594,0.39
74,MetaDrive-td3combine-expt_with_safe-alt-env,74,399.8749924826843,84446,183,1133.0686268806458,,16.614429473876953,57.24113845825195,0.4
75,MetaDrive-td3combine-expt_with_safe-alt-env,74,400.93804713671153,85083,184,1141.379760980606,-67.3560562133789,60.11869812011719,67.17329406738281,0.41
76,MetaDrive-td3combine-expt_with_safe-alt-env,74,411.1397703287629,86567,186,1159.6256921291351,-70.23050689697266,19.582294464111328,70.0044174194336,0.43
77,MetaDrive-td3combine-expt_with_safe-alt-env,74,414.02310724699646,87430,188,1171.0580320358276,,57.684879302978516,62.017845153808594,0.43
78,MetaDrive-td3combine-expt_with_safe-alt-env,74,416.8938633729338,89431,189,1198.9951710700989,-63.2030029296875,12.839555740356445,62.83199691772461,0.43
79,MetaDrive-td3combine-expt_with_safe-alt-env,74,421.9300100570968,91761,191,1228.6515469551086,-65.5945053100586,17.664508819580078,64.91203308105469,0.43
80,MetaDrive-td3combine-expt_with_safe-alt-env,74,426.1851696345247,92523,192,1238.7296681404114,-60.43911361694336,19.452266693115234,58.6590576171875,0.44
81,MetaDrive-td3combine-expt_with_safe-alt-env,74,429.7632304101573,93559,194,1251.112617969513,-64.7155990600586,22.737606048583984,65.14459991455078,0.45
82,MetaDrive-td3combine-expt_with_safe-alt-env,74,431.3193641331811,95560,195,1276.8377740383148,,46.02386474609375,58.05813217163086,0.45
83,MetaDrive-td3combine-expt_with_safe-alt-env,74,435.69594496984627,96415,196,1287.5519320964813,-62.0284423828125,11.583914756774902,62.402793884277344,0.45
84,MetaDrive-td3combine-expt_with_safe-alt-env,74,441.44866673373457,97292,197,1299.5070230960846,,313.881591796875,66.7192153930664,0.46
85,MetaDrive-td3combine-expt_with_safe-alt-env,74,444.92098565720386,98131,198,1309.6967751979828,-60.03495788574219,16.416574478149414,60.47161865234375,0.47
86,MetaDrive-td3combine-expt_with_safe-alt-env,74,448.8129866505591,99406,199,1329.7213690280914,,16.133596420288086,62.547420501708984,0.48
87,MetaDrive-td3combine-expt_with_safe-alt-env,74,454.4078423115663,100222,200,1339.966989994049,,18.003311157226562,63.2205810546875,0.49
88,MetaDrive-td3combine-expt_with_safe-alt-env,74,461.05395095891237,101704,202,1360.76939702034,,16.81463050842285,66.19788360595703,0.51
89,MetaDrive-td3combine-expt_with_safe-alt-env,74,467.07279677211665,102650,203,1374.32670211792,,26.316082000732422,65.02662658691406,0.52
90,MetaDrive-td3combine-expt_with_safe-alt-env,74,466.3913261187463,104651,204,1400.7690999507904,-52.42461395263672,19.036359786987305,50.698280334472656,0.52
91,MetaDrive-td3combine-expt_with_safe-alt-env,74,464.71157766739583,105045,205,1405.9587879180908,-55.997108459472656,16.235292434692383,55.19697570800781,0.52
92,MetaDrive-td3combine-expt_with_safe-alt-env,74,468.9148130476328,106709,207,1426.8025999069214,-65.20386505126953,23.64873504638672,65.67704772949219,0.53
93,MetaDrive-td3combine-expt_with_safe-alt-env,74,471.7949088493231,107595,208,1437.6162071228027,-63.300655364990234,24.27243995666504,62.60565948486328,0.54
94,MetaDrive-td3combine-expt_with_safe-alt-env,74,472.8308403194567,108578,209,1449.961303949356,,21.99811553955078,59.6297492980957,0.55
95,MetaDrive-td3combine-expt_with_safe-alt-env,74,476.7779220900656,110663,211,1478.8003199100494,-59.435001373291016,12.76081657409668,59.2517204284668,0.55
96,MetaDrive-td3combine-expt_with_safe-alt-env,74,477.95479626273385,112215,213,1499.6574258804321,-64.38279724121094,17.18551254272461,63.085689544677734,0.56
97,MetaDrive-td3combine-expt_with_safe-alt-env,74,481.43603694339873,113461,214,1516.2111439704895,-53.67744064331055,27.240385055541992,55.474082946777344,0.57
98,MetaDrive-td3combine-expt_with_safe-alt-env,74,477.52299816015034,114413,216,1529.02086019516,-58.98271942138672,14.694894790649414,59.192474365234375,0.56
99,MetaDrive-td3combine-expt_with_safe-alt-env,74,481.2211233896672,115245,217,1540.2066469192505,-60.34038162231445,52.47581481933594,60.0445556640625,0.57
100,MetaDrive-td3combine-expt_with_safe-alt-env,74,483.802993771135,116001,218,1550.4781308174133,-50.33544921875,14.800174713134766,50.927188873291016,0.58
101,MetaDrive-td3combine-expt_with_safe-alt-env,74,484.45785339900726,117535,220,1572.9475917816162,-62.683502197265625,16.167457580566406,62.54200744628906,0.59
102,MetaDrive-td3combine-expt_with_safe-alt-env,74,488.53360691790533,118142,221,1580.4256629943848,,15.139402389526367,60.094329833984375,0.6
103,MetaDrive-td3combine-expt_with_safe-alt-env,74,490.364803799757,119353,223,1599.0195679664612,-65.00614166259766,14.809477806091309,64.76494598388672,0.6
104,MetaDrive-td3combine-expt_with_safe-alt-env,74,492.364769028678,120402,225,1612.580177783966,,17.60272979736328,56.65850067138672,0.61
105,MetaDrive-td3combine-expt_with_safe-alt-env,74,494.88122683808905,121144,226,1622.6088619232178,,18.3627986907959,59.961822509765625,0.62
106,MetaDrive-td3combine-expt_with_safe-alt-env,74,492.6024688645228,122501,228,1641.1347670555115,-68.2590103149414,22.44304847717285,69.18767547607422,0.61
107,MetaDrive-td3combine-expt_with_safe-alt-env,74,490.30913675430884,123220,229,1652.0274999141693,,15.420426368713379,67.54578399658203,0.6
108,MetaDrive-td3combine-expt_with_safe-alt-env,74,495.48542579199574,124546,231,1668.005343914032,,14.783336639404297,60.251766204833984,0.62
109,MetaDrive-td3combine-expt_with_safe-alt-env,74,496.839408164543,125452,232,1681.6989691257477,,72.1953125,64.85846710205078,0.62
110,MetaDrive-td3combine-expt_with_safe-alt-env,74,496.9336729668814,126297,233,1691.4605250358582,-62.440834045410156,15.194530487060547,63.47382354736328,0.62
111,MetaDrive-td3combine-expt_with_safe-alt-env,74,495.6326050566541,127406,235,1704.4057440757751,,23.23491096496582,61.10145568847656,0.62
112,MetaDrive-td3combine-expt_with_safe-alt-env,74,494.867120949737,128442,237,1716.62713098526,,13.076980590820312,64.16986846923828,0.62
113,MetaDrive-td3combine-expt_with_safe-alt-env,74,496.59555273744957,129727,238,1738.4870510101318,-57.81156921386719,19.529170989990234,56.790611267089844,0.62
114,MetaDrive-td3combine-expt_with_safe-alt-env,74,497.2518353212743,130622,239,1749.2521719932556,,20.15219497680664,60.818641662597656,0.62
115,MetaDrive-td3combine-expt_with_safe-alt-env,74,492.9296097906739,131580,241,1761.8392760753632,,21.41739273071289,62.14393997192383,0.61
116,MetaDrive-td3combine-expt_with_safe-alt-env,74,490.06517400924514,132184,242,1768.9974250793457,,32.51319122314453,60.21917724609375,0.61
117,MetaDrive-td3combine-expt_with_safe-alt-env,74,489.47263776480906,133089,243,1783.0439369678497,-55.305301666259766,40.32433319091797,54.49406433105469,0.61
118,MetaDrive-td3combine-expt_with_safe-alt-env,74,494.0874650318955,134832,245,1805.3782539367676,,11.578712463378906,62.77271270751953,0.62
119,MetaDrive-td3combine-expt_with_safe-alt-env,74,490.19841939407814,135042,246,1808.4933218955994,,11.888900756835938,65.48091125488281,0.61
120,MetaDrive-td3combine-expt_with_safe-alt-env,74,491.7380260973363,136036,248,1821.93670296669,,18.856447219848633,61.60963821411133,0.62
121,MetaDrive-td3combine-expt_with_safe-alt-env,74,483.2650494370219,138471,250,1853.1324751377106,-53.47628402709961,24.16478729248047,54.39011001586914,0.6
122,MetaDrive-td3combine-expt_with_safe-alt-env,74,483.86089405106674,139280,251,1862.9760282039642,,38.099266052246094,57.62095642089844,0.6
123,MetaDrive-td3combine-expt_with_safe-alt-env,74,486.24773616952706,140081,252,1872.4167139530182,-64.88813018798828,23.719928741455078,67.31973266601562,0.61
124,MetaDrive-td3combine-expt_with_safe-alt-env,74,482.6291560222875,141100,254,1885.527391910553,,25.791139602661133,63.517051696777344,0.6
125,MetaDrive-td3combine-expt_with_safe-alt-env,74,487.1380239332042,142417,256,1902.9921698570251,-63.36030960083008,31.864444732666016,63.082515716552734,0.61
126,MetaDrive-td3combine-expt_with_safe-alt-env,74,491.6686095466619,143127,257,1911.8859629631042,-55.26183319091797,164.4210205078125,53.88404083251953,0.62
127,MetaDrive-td3combine-expt_with_safe-alt-env,74,492.7969684910672,144232,259,1927.8326020240784,,14.17234992980957,61.86073684692383,0.62
128,MetaDrive-td3combine-expt_with_safe-alt-env,74,492.19027961710594,145053,261,1938.5103158950806,-57.38069534301758,20.10550308227539,56.9996337890625,0.61
129,MetaDrive-td3combine-expt_with_safe-alt-env,74,495.3756171297245,146491,263,1957.2133719921112,-55.541038513183594,10.398114204406738,55.14430236816406,0.62
130,MetaDrive-td3combine-expt_with_safe-alt-env,74,499.2949319494226,147548,264,1972.0828049182892,,93.04460144042969,60.599971771240234,0.63
131,MetaDrive-td3combine-expt_with_safe-alt-env,74,493.9343680801976,149236,265,1995.9239580631256,,16.700721740722656,62.48546600341797,0.62
132,MetaDrive-td3combine-expt_with_safe-alt-env,74,491.72614992358444,150492,266,2012.7709910869598,,19.093530654907227,63.87350082397461,0.62
133,MetaDrive-td3combine-expt_with_safe-alt-env,74,492.70180067588944,151405,267,2026.5794208049774,-65.80602264404297,13.33619499206543,64.6895523071289,0.62
134,MetaDrive-td3combine-expt_with_safe-alt-env,74,492.5112287406466,152031,268,2037.0176701545715,-63.84730529785156,12.702859878540039,63.05384063720703,0.61
135,MetaDrive-td3combine-expt_with_safe-alt-env,74,491.8508695478268,153295,270,2057.0958240032196,-51.611324310302734,326.62286376953125,51.337120056152344,0.6
136,MetaDrive-td3combine-expt_with_safe-alt-env,74,492.3463431551798,154340,271,2070.595141172409,,15.729214668273926,57.646575927734375,0.61
137,MetaDrive-td3combine-expt_with_safe-alt-env,74,484.27296974817284,155154,274,2081.3813779354095,,18.323904037475586,58.75994873046875,0.6
138,MetaDrive-td3combine-expt_with_safe-alt-env,74,481.68304377590584,156589,276,2099.314076900482,-61.46054458618164,19.298574447631836,60.9093017578125,0.59
139,MetaDrive-td3combine-expt_with_safe-alt-env,74,484.36587004414474,157151,277,2106.596288919449,-65.9018325805664,28.669708251953125,64.0788803100586,0.6
140,MetaDrive-td3combine-expt_with_safe-alt-env,74,484.7856461443595,158685,279,2130.208806037903,-58.663116455078125,72.0430679321289,58.296043395996094,0.6
141,MetaDrive-td3combine-expt_with_safe-alt-env,74,482.2649799865188,159592,280,2142.7008271217346,,15.350105285644531,67.71520233154297,0.6
142,MetaDrive-td3combine-expt_with_safe-alt-env,74,482.19475724303686,160180,281,2149.90971493721,,11.602313995361328,66.91570281982422,0.61
143,MetaDrive-td3combine-expt_with_safe-alt-env,74,485.27838876800524,161829,283,2171.1615250110626,-61.920066833496094,34.918487548828125,60.772010803222656,0.61
144,MetaDrive-td3combine-expt_with_safe-alt-env,74,481.71776082312806,162058,284,2174.138398885727,,30.337871551513672,50.62171936035156,0.6
145,MetaDrive-td3combine-expt_with_safe-alt-env,74,479.2485732103828,163414,286,2190.351504087448,,39.72160720825195,55.69062805175781,0.6
146,MetaDrive-td3combine-expt_with_safe-alt-env,74,482.70053924488593,165048,288,2211.095004081726,,13.460614204406738,57.953086853027344,0.62
147,MetaDrive-td3combine-expt_with_safe-alt-env,74,484.29264173699454,166566,291,2231.894471168518,,25.326885223388672,49.265357971191406,0.64
148,MetaDrive-td3combine-expt_with_safe-alt-env,74,482.3266603146552,168567,292,2261.1379759311676,-51.737361907958984,10.24581527709961,50.28828048706055,0.63
149,MetaDrive-td3combine-expt_with_safe-alt-env,74,485.01195193945784,169116,293,2268.2638549804688,,38.86936950683594,62.11751174926758,0.64
150,MetaDrive-td3combine-expt_with_safe-alt-env,74,488.87634787035427,170777,295,2290.016574859619,-63.15362548828125,12.99111270904541,62.59703063964844,0.65
151,MetaDrive-td3combine-expt_with_safe-alt-env,74,488.9904050428242,171575,296,2299.8895978927612,-53.71634292602539,148.30587768554688,55.48967742919922,0.66
152,MetaDrive-td3combine-expt_with_safe-alt-env,74,486.69693272105667,172066,297,2305.8912391662598,,15.794504165649414,50.069923400878906,0.66
153,MetaDrive-td3combine-expt_with_safe-alt-env,74,480.9099434473257,173162,299,2321.143065929413,,14.030754089355469,57.459983825683594,0.65
154,MetaDrive-td3combine-expt_with_safe-alt-env,74,481.23026046615274,174074,300,2335.193925142288,,17.868820190429688,54.13676452636719,0.65
155,MetaDrive-td3combine-expt_with_safe-alt-env,74,474.53757492163663,176086,303,2363.5268120765686,,14.752187728881836,65.42093658447266,0.64
156,MetaDrive-td3combine-expt_with_safe-alt-env,74,476.83979608480763,177902,305,2391.9046487808228,,17.72842025756836,59.891109466552734,0.65
157,MetaDrive-td3combine-expt_with_safe-alt-env,74,472.821311630792,178206,306,2396.2733500003815,,23.030691146850586,60.897335052490234,0.64
158,MetaDrive-td3combine-expt_with_safe-alt-env,74,473.0663323356201,179060,307,2409.410527944565,,10.853044509887695,58.38296127319336,0.64
159,MetaDrive-td3combine-expt_with_safe-alt-env,74,473.07448581161754,180134,308,2423.1868839263916,,12.049140930175781,54.44316482543945,0.64
160,MetaDrive-td3combine-expt_with_safe-alt-env,74,476.6918713681301,181184,309,2440.5624549388885,,12.632539749145508,51.64103698730469,0.64
161,MetaDrive-td3combine-expt_with_safe-alt-env,74,482.58019990467983,182378,310,2460.2268879413605,,17.15070343017578,55.930519104003906,0.65
162,MetaDrive-td3combine-expt_with_safe-alt-env,74,485.7727310917809,183149,311,2470.8739829063416,-57.02799987792969,9.927021980285645,57.05857467651367,0.66
163,MetaDrive-td3combine-expt_with_safe-alt-env,74,488.72668780224876,184380,313,2486.8977551460266,,7.875331878662109,56.98973846435547,0.66
164,MetaDrive-td3combine-expt_with_safe-alt-env,74,486.5725149827439,185054,314,2495.1079919338226,,13.378029823303223,56.96916580200195,0.66
165,MetaDrive-td3combine-expt_with_safe-alt-env,74,491.2617962421081,186169,315,2511.680547952652,-62.66204071044922,19.582801818847656,61.635337829589844,0.67
166,MetaDrive-td3combine-expt_with_safe-alt-env,74,485.94144265909097,187562,318,2529.661556005478,,12.378105163574219,59.51826477050781,0.65
167,MetaDrive-td3combine-expt_with_safe-alt-env,74,485.29396073006734,188164,319,2537.011682987213,,55.410499572753906,60.3488883972168,0.64
168,MetaDrive-td3combine-expt_with_safe-alt-env,74,481.3986619133278,189134,321,2549.872714996338,,16.343862533569336,55.775123596191406,0.63
169,MetaDrive-td3combine-expt_with_safe-alt-env,73,483.1479602654508,191695,323,2598.868103981018,-49.572723388671875,14.363556861877441,49.768165588378906,0.64
170,MetaDrive-td3combine-expt_with_safe-alt-env,73,485.08557008709795,192235,324,2606.585037946701,-63.041770935058594,19.508541107177734,63.07908248901367,0.64
171,MetaDrive-td3combine-expt_with_safe-alt-env,73,483.1152504830402,193512,326,2623.2802097797394,,15.214582443237305,61.53312683105469,0.64
172,MetaDrive-td3combine-expt_with_safe-alt-env,73,485.396559115343,194458,327,2638.5900127887726,,44.07830047607422,56.250457763671875,0.65
173,MetaDrive-td3combine-expt_with_safe-alt-env,73,488.9093340005864,195452,328,2654.0014369487762,,22.49964141845703,52.439388275146484,0.65
174,MetaDrive-td3combine-expt_with_safe-alt-env,73,485.30587840863086,196029,330,2663.663962125778,-58.38252639770508,12.661190032958984,59.26646423339844,0.64
175,MetaDrive-td3combine-expt_with_safe-alt-env,73,481.38294927240685,197014,332,2679.352802991867,,15.19838809967041,52.37702178955078,0.63
176,MetaDrive-td3combine-expt_with_safe-alt-env,73,485.3288416198252,198584,334,2700.9030561447144,,16.27310562133789,53.68912124633789,0.63
177,MetaDrive-td3combine-expt_with_safe-alt-env,73,485.54696033408015,199012,335,2706.285948753357,,13.13736343383789,59.97503662109375,0.64
178,MetaDrive-td3combine-expt_with_safe-alt-env,73,487.92541247044863,200533,337,2732.7798221111298,-65.84396362304688,13.890390396118164,66.04974365234375,0.63
179,MetaDrive-td3combine-expt_with_safe-alt-env,73,483.85343046871736,201148,338,2740.922886133194,,38.47135925292969,59.37898254394531,0.63
180,MetaDrive-td3combine-expt_with_safe-alt-env,73,483.46834385617177,202507,340,2758.8130819797516,-66.49853515625,9.965621948242188,66.54486083984375,0.64
181,MetaDrive-td3combine-expt_with_safe-alt-env,73,482.3804017844804,203077,341,2766.0265760421753,-57.17219924926758,30.473812103271484,57.801753997802734,0.64
182,MetaDrive-td3combine-expt_with_safe-alt-env,73,484.2812942798633,205028,343,2794.91441988945,,13.211204528808594,56.951141357421875,0.64
183,MetaDrive-td3combine-expt_with_safe-alt-env,73,478.0377035064064,207411,345,2831.5907969474792,-51.87900924682617,19.385459899902344,52.153263092041016,0.62
184,MetaDrive-td3combine-expt_with_safe-alt-env,73,485.45514138423545,208523,346,2848.0467159748077,-64.32105255126953,20.385953903198242,64.42578887939453,0.63
185,MetaDrive-td3combine-expt_with_safe-alt-env,73,486.06001771463986,209502,347,2863.8984811306,,28.976234436035156,61.86146545410156,0.63
186,MetaDrive-td3combine-expt_with_safe-alt-env,73,493.3087615884517,211083,349,2888.1049971580505,-47.524505615234375,41.035789489746094,45.553077697753906,0.64
187,MetaDrive-td3combine-expt_with_safe-alt-env,73,496.39132272878743,212103,350,2904.7154018878937,-53.52572250366211,22.889968872070312,52.568843841552734,0.64
188,MetaDrive-td3combine-expt_with_safe-alt-env,72,496.2438138142841,213216,352,2921.207356929779,,26.813276290893555,57.05604934692383,0.63
189,MetaDrive-td3combine-expt_with_safe-alt-env,72,497.9899485458143,214440,354,2938.5441389083862,,37.88166427612305,57.41130828857422,0.63
190,MetaDrive-td3combine-expt_with_safe-alt-env,72,491.85030409433114,215784,357,2957.9022991657257,,11.677244186401367,57.08831787109375,0.62
191,MetaDrive-td3combine-expt_with_safe-alt-env,72,499.38200708666716,216714,358,2973.249029159546,,18.495941162109375,66.13768005371094,0.63
192,MetaDrive-td3combine-expt_with_safe-alt-env,72,496.6335445841172,217554,359,2985.4926178455353,,16.261930465698242,56.976070404052734,0.62
193,MetaDrive-td3combine-expt_with_safe-alt-env,72,497.6794015534446,218201,360,2993.99591588974,-51.58176040649414,18.987323760986328,51.116188049316406,0.63
194,MetaDrive-td3combine-expt_with_safe-alt-env,72,498.8791023060985,220000,363,3021.9720618724823,,14.488214492797852,57.25773239135742,0.63
195,MetaDrive-td3combine-expt_with_safe-alt-env,72,497.95909656766594,221022,364,3037.5563650131226,,23.610149383544922,56.65534210205078,0.63
196,MetaDrive-td3combine-expt_with_safe-alt-env,72,492.9922338860321,223876,367,3079.6470460891724,,11.422855377197266,57.0795783996582,0.63
197,MetaDrive-td3combine-expt_with_safe-alt-env,72,490.2110815967717,224353,368,3086.508847951889,-56.033329010009766,20.942176818847656,56.25322723388672,0.64
198,MetaDrive-td3combine-expt_with_safe-alt-env,72,486.23844678047686,225286,370,3098.069853782654,,16.066131591796875,55.52880859375,0.64
199,MetaDrive-td3combine-expt_with_safe-alt-env,72,485.3599768024061,226819,373,3125.3123700618744,-49.82610321044922,12.798135757446289,49.417110443115234,0.63
200,MetaDrive-td3combine-expt_with_safe-alt-env,72,489.00072844114305,227316,374,3132.358426094055,,14.893270492553711,56.05534362792969,0.63
201,MetaDrive-td3combine-expt_with_safe-alt-env,72,492.7805088883463,228219,375,3145.9346139431,-51.624874114990234,11.38094711303711,51.2635498046875,0.64
202,MetaDrive-td3combine-expt_with_safe-alt-env,72,493.647162906507,229772,377,3167.207587957382,,13.791171073913574,53.10866165161133,0.64
203,MetaDrive-td3combine-expt_with_safe-alt-env,72,494.1983637256555,231545,378,3194.229472875595,-53.50892639160156,31.627439498901367,52.860477447509766,0.65
204,MetaDrive-td3combine-expt_with_safe-alt-env,72,493.5475705807245,232350,379,3205.796996116638,,20.59217643737793,52.27542495727539,0.65
205,MetaDrive-td3combine-expt_with_safe-alt-env,72,493.6623295239781,233159,380,3218.594332933426,-59.78312683105469,34.81330490112305,57.255271911621094,0.65
206,MetaDrive-td3combine-expt_with_safe-alt-env,72,491.51027624984084,235856,382,3263.8129279613495,,17.336349487304688,57.99352264404297,0.64
207,MetaDrive-td3combine-expt_with_safe-alt-env,72,492.3367054931537,236553,383,3274.8591117858887,-52.89536666870117,20.364154815673828,52.017303466796875,0.64
208,MetaDrive-td3combine-expt_with_safe-alt-env,72,497.63327297025535,237602,384,3292.6110219955444,,14.152335166931152,53.72407150268555,0.65
209,MetaDrive-td3combine-expt_with_safe-alt-env,72,500.7227802503564,238438,385,3307.704680919647,,15.018242835998535,54.79285430908203,0.65
210,MetaDrive-td3combine-expt_with_safe-alt-env,72,502.67461614595084,239196,386,3318.2214000225067,,22.60348892211914,56.07575988769531,0.65
211,MetaDrive-td3combine-expt_with_safe-alt-env,72,497.8201789389685,240415,389,3337.6877858638763,-61.34130859375,16.212608337402344,61.154815673828125,0.63
212,MetaDrive-td3combine-expt_with_safe-alt-env,71,500.4710789062321,241913,391,3362.631194114685,-58.98090362548828,26.184581756591797,58.73244094848633,0.63
213,MetaDrive-td3combine-expt_with_safe-alt-env,71,504.0070325091029,242528,392,3373.958259820938,,22.099380493164062,56.494346618652344,0.63
214,MetaDrive-td3combine-expt_with_safe-alt-env,71,494.885687999207,243426,395,3388.573949813843,,15.05614185333252,54.06808853149414,0.61
215,MetaDrive-td3combine-expt_with_safe-alt-env,71,496.4090308940767,244893,397,3412.1691319942474,-55.797969818115234,18.933135986328125,54.8625373840332,0.6
216,MetaDrive-td3combine-expt_with_safe-alt-env,71,497.17719542199507,245306,398,3418.172101020813,,20.488540649414062,56.92097854614258,0.6
217,MetaDrive-td3combine-expt_with_safe-alt-env,71,497.992720447847,247100,401,3450.2867200374603,,15.649836540222168,53.88909149169922,0.59
218,MetaDrive-td3combine-expt_with_safe-alt-env,71,497.1260610299627,248443,403,3470.201028108597,-56.515380859375,21.047080993652344,56.01451873779297,0.59
219,MetaDrive-td3combine-expt_with_safe-alt-env,71,500.91108817582506,249162,404,3481.3819539546967,,10.624977111816406,58.27610778808594,0.6
220,MetaDrive-td3combine-expt_with_safe-alt-env,71,498.3928281822987,251435,406,3518.647964000702,-59.15188980102539,17.3851375579834,58.38056564331055,0.59
221,MetaDrive-td3combine-expt_with_safe-alt-env,71,496.55218838688336,253173,408,3549.0780589580536,-48.163475036621094,58.062252044677734,48.579437255859375,0.58
222,MetaDrive-td3combine-expt_with_safe-alt-env,71,487.5456804842741,254387,410,3570.1573832035065,-55.97156524658203,20.363996505737305,56.03195571899414,0.57
223,MetaDrive-td3combine-expt_with_safe-alt-env,71,482.23102180836327,255649,412,3589.8113288879395,-54.429317474365234,21.042877197265625,54.00908660888672,0.56
224,MetaDrive-td3combine-expt_with_safe-alt-env,71,484.8626600519017,256366,413,3601.0121409893036,,40.64854049682617,56.14818572998047,0.57
225,MetaDrive-td3combine-expt_with_safe-alt-env,71,476.92682247901894,257014,415,3610.665863752365,,12.943046569824219,59.03160095214844,0.55
226,MetaDrive-td3combine-expt_with_safe-alt-env,71,478.7379140758759,259691,417,3651.239996910095,-55.057395935058594,26.81199836730957,54.97309494018555,0.56
227,MetaDrive-td3combine-expt_with_safe-alt-env,71,478.5671758032263,260349,418,3661.385099887848,-45.67155075073242,16.930744171142578,44.51368713378906,0.56
228,MetaDrive-td3combine-expt_with_safe-alt-env,71,477.25760022036326,261176,420,3674.672348022461,,12.475796699523926,59.706459045410156,0.56
229,MetaDrive-td3combine-expt_with_safe-alt-env,70,477.68913000826376,263177,421,3708.5976860523224,-52.22502517700195,15.943573951721191,51.770294189453125,0.56
230,MetaDrive-td3combine-expt_with_safe-alt-env,70,478.8721287452895,264088,422,3723.8419950008392,,103.74761962890625,53.66436004638672,0.56
231,MetaDrive-td3combine-expt_with_safe-alt-env,70,477.29502884794704,266643,424,3763.6036269664764,-52.9345703125,20.04813575744629,52.20279312133789,0.57
232,MetaDrive-td3combine-expt_with_safe-alt-env,70,477.3742560078379,267124,425,3770.2270410060883,,12.443944931030273,61.460968017578125,0.57
233,MetaDrive-td3combine-expt_with_safe-alt-env,70,473.7747827603087,268343,427,3788.958351135254,-58.164894104003906,11.018806457519531,56.780494689941406,0.57
234,MetaDrive-td3combine-expt_with_safe-alt-env,70,471.83501659260924,269002,428,3798.624804019928,,11.724814414978027,52.671783447265625,0.57
235,MetaDrive-td3combine-expt_with_safe-alt-env,70,476.2861831771345,270269,429,3824.2949419021606,-59.423274993896484,44.154869079589844,59.30320358276367,0.58
236,MetaDrive-td3combine-expt_with_safe-alt-env,70,485.27672004968997,271486,431,3844.500643968582,,16.04513168334961,52.784339904785156,0.6
237,MetaDrive-td3combine-expt_with_safe-alt-env,70,478.23088243644213,272059,433,3853.633225917816,-59.1025276184082,9.443403244018555,58.041419982910156,0.58
238,MetaDrive-td3combine-expt_with_safe-alt-env,70,479.82710578901856,273176,434,3874.818487882614,,15.579099655151367,51.15212631225586,0.58
239,MetaDrive-td3combine-expt_with_safe-alt-env,70,483.56918918390176,274537,436,3899.221713066101,-50.596588134765625,11.419175148010254,50.0752067565918,0.58
240,MetaDrive-td3combine-expt_with_safe-alt-env,70,479.7488354225853,275234,438,3909.7226190567017,,8.194449424743652,52.12059020996094,0.58
241,MetaDrive-td3combine-expt_with_safe-alt-env,70,479.1945340830446,276290,440,3926.1277511119843,,9.675838470458984,56.25785827636719,0.57
242,MetaDrive-td3combine-expt_with_safe-alt-env,70,478.1462300757455,278291,441,3960.6867129802704,-50.29603958129883,16.61656951904297,50.312286376953125,0.56
243,MetaDrive-td3combine-expt_with_safe-alt-env,70,475.35906634004436,279547,443,3982.5554621219635,-61.34928512573242,19.684816360473633,60.42652893066406,0.56
244,MetaDrive-td3combine-expt_with_safe-alt-env,70,475.8688244224218,280014,444,3990.216845035553,,16.497608184814453,58.59086608886719,0.56
245,MetaDrive-td3combine-expt_with_safe-alt-env,70,470.04815038180476,281398,447,4013.797098875046,,25.760208129882812,58.687923431396484,0.54
246,MetaDrive-td3combine-expt_with_safe-alt-env,70,470.59472139024285,282001,448,4023.1064398288727,-53.10744857788086,11.695680618286133,52.98810577392578,0.54
247,MetaDrive-td3combine-expt_with_safe-alt-env,70,463.4977492525752,283480,451,4046.054217815399,,34.55504608154297,63.40526580810547,0.54
248,MetaDrive-td3combine-expt_with_safe-alt-env,70,462.22440576168447,284187,453,4057.066909790039,-54.205596923828125,52.30766677856445,54.870975494384766,0.55
249,MetaDrive-td3combine-expt_with_safe-alt-env,69,464.3008555704195,285370,455,4078.6107959747314,,15.273138046264648,65.01742553710938,0.55
250,MetaDrive-td3combine-expt_with_safe-alt-env,69,455.8407375571068,286623,458,4099.040305137634,-51.729164123535156,19.372760772705078,51.48518753051758,0.54
251,MetaDrive-td3combine-expt_with_safe-alt-env,69,453.0061897412776,287398,460,4110.922108888626,,26.745147705078125,46.591835021972656,0.54
252,MetaDrive-td3combine-expt_with_safe-alt-env,69,457.4524641952658,288118,461,4122.954126119614,,28.650253295898438,54.12413787841797,0.55
253,MetaDrive-td3combine-expt_with_safe-alt-env,69,454.3077275016374,290776,463,4173.07498383522,,25.881996154785156,48.66709899902344,0.54
254,MetaDrive-td3combine-expt_with_safe-alt-env,69,451.4665442059029,292777,464,4209.347203016281,-58.70853805541992,8.98292064666748,58.11240768432617,0.53
255,MetaDrive-td3combine-expt_with_safe-alt-env,69,450.0365883713082,293352,465,4218.852767944336,,30.31664276123047,57.49980163574219,0.53
256,MetaDrive-td3combine-expt_with_safe-alt-env,69,449.90011713643594,294229,467,4234.226802110672,-48.72896957397461,31.771747589111328,48.25433349609375,0.53
257,MetaDrive-td3combine-expt_with_safe-alt-env,69,448.2877414398505,295296,470,4253.028491973877,,19.727500915527344,66.64222717285156,0.52
258,MetaDrive-td3combine-expt_with_safe-alt-env,69,450.04550336941844,296131,471,4267.677144050598,-58.59573745727539,23.67034149169922,58.39107894897461,0.53
259,MetaDrive-td3combine-expt_with_safe-alt-env,69,455.4896594117062,297593,473,4292.758439064026,-55.61054229736328,50.05200958251953,55.7003288269043,0.55
260,MetaDrive-td3combine-expt_with_safe-alt-env,69,454.0786326985245,298101,474,4301.1994841098785,-51.247737884521484,22.18041229248047,52.066253662109375,0.56
261,MetaDrive-td3combine-expt_with_safe-alt-env,69,456.9913939368723,299697,476,4330.191115856171,-59.09842300415039,18.98529815673828,58.10637283325195,0.56
262,MetaDrive-td3combine-expt_with_safe-alt-env,69,454.93704166101634,300246,477,4338.238515853882,,13.889652252197266,54.87602615356445,0.56
263,MetaDrive-td3combine-expt_with_safe-alt-env,69,457.2779241973656,301131,478,4355.25861287117,-54.382591247558594,13.156988143920898,54.85655212402344,0.56
264,MetaDrive-td3combine-expt_with_safe-alt-env,69,452.81026872842637,302059,480,4370.906359910965,-62.123538970947266,21.948406219482422,60.50323486328125,0.55
265,MetaDrive-td3combine-expt_with_safe-alt-env,69,453.33170015700546,303177,482,4389.125716924667,-66.0640640258789,18.848770141601562,64.95913696289062,0.55
266,MetaDrive-td3combine-expt_with_safe-alt-env,69,448.87422765615185,304160,484,4405.363619089127,,34.793922424316406,58.59518051147461,0.54
267,MetaDrive-td3combine-expt_with_safe-alt-env,68,446.3672585219047,305536,486,4428.979937076569,,16.38560676574707,50.085426330566406,0.54
268,MetaDrive-td3combine-expt_with_safe-alt-env,68,453.2933749251518,306367,487,4444.358177900314,-56.401390075683594,25.135610580444336,57.20839309692383,0.55
269,MetaDrive-td3combine-expt_with_safe-alt-env,68,448.98207957635503,307139,489,4457.094848871231,-48.31394958496094,17.674240112304688,47.87667465209961,0.55
270,MetaDrive-td3combine-expt_with_safe-alt-env,68,448.2355946322873,309140,490,4492.867446899414,,8.926639556884766,56.77900314331055,0.55
271,MetaDrive-td3combine-expt_with_safe-alt-env,68,441.6602682323512,310005,492,4507.150574922562,-47.37378692626953,21.647136688232422,48.900630950927734,0.55
272,MetaDrive-td3combine-expt_with_safe-alt-env,68,450.8804805729354,311387,494,4529.698843002319,-54.750850677490234,18.709888458251953,55.4058837890625,0.57
273,MetaDrive-td3combine-expt_with_safe-alt-env,68,447.4091969553876,312231,496,4544.824999094009,-56.714290618896484,16.006969451904297,56.734291076660156,0.57
274,MetaDrive-td3combine-expt_with_safe-alt-env,68,446.5886109024716,313067,497,4558.602609157562,-55.20679473876953,26.25333023071289,55.402435302734375,0.57
275,MetaDrive-td3combine-expt_with_safe-alt-env,68,454.9770047708387,314459,499,4582.408045053482,-52.965782165527344,37.73778533935547,52.33448028564453,0.59
276,MetaDrive-td3combine-expt_with_safe-alt-env,68,447.59695215612055,315160,501,4594.218564033508,,18.03826904296875,49.90802001953125,0.58
277,MetaDrive-td3combine-expt_with_safe-alt-env,68,445.8454926041283,316352,503,4614.2151658535,,13.183664321899414,57.11008834838867,0.57
278,MetaDrive-td3combine-expt_with_safe-alt-env,68,446.2573015815513,317489,505,4632.317143917084,-56.87518310546875,19.231689453125,57.344844818115234,0.58
279,MetaDrive-td3combine-expt_with_safe-alt-env,68,447.64240728644853,318135,506,4643.193029165268,-54.083648681640625,15.190023422241211,54.26249313354492,0.59
280,MetaDrive-td3combine-expt_with_safe-alt-env,68,445.1711563103345,319289,509,4663.227718114853,-61.228607177734375,16.03557014465332,59.98224639892578,0.58
281,MetaDrive-td3combine-expt_with_safe-alt-env,68,439.3990292830675,320382,512,4681.711071968079,,18.336917877197266,60.74406433105469,0.57
282,MetaDrive-td3combine-expt_with_safe-alt-env,68,430.6173090228392,321603,516,4702.154479980469,-59.286922454833984,26.421875,58.54471206665039,0.56
283,MetaDrive-td3combine-expt_with_safe-alt-env,68,434.5588410717004,322360,517,4716.017649173737,,15.00244140625,59.002647399902344,0.57
284,MetaDrive-td3combine-expt_with_safe-alt-env,68,429.6762324485545,324506,519,4754.621260881424,,20.89167022705078,57.054996490478516,0.56
285,MetaDrive-td3combine-expt_with_safe-alt-env,68,429.8593417465158,325618,520,4775.203800916672,,19.68777847290039,57.64493179321289,0.55
286,MetaDrive-td3combine-expt_with_safe-alt-env,68,431.982992554418,326260,521,4785.40052986145,,11.991754531860352,58.9407958984375,0.56
287,MetaDrive-td3combine-expt_with_safe-alt-env,68,431.5184586660087,327527,523,4806.082374095917,-56.753028869628906,15.693907737731934,57.216697692871094,0.56
288,MetaDrive-td3combine-expt_with_safe-alt-env,68,434.41033477220765,328417,524,4821.32338809967,-55.14708709716797,17.34006118774414,55.17481994628906,0.57
289,MetaDrive-td3combine-expt_with_safe-alt-env,68,433.8282111234915,330418,525,4857.062339067459,,111.01113891601562,57.213504791259766,0.56
290,MetaDrive-td3combine-expt_with_safe-alt-env,67,431.47438474813185,331153,527,4871.119062900543,-56.02756881713867,13.237253189086914,54.92201614379883,0.54
291,MetaDrive-td3combine-expt_with_safe-alt-env,67,428.6593114219735,332655,529,4896.282259941101,-58.13092041015625,21.185338973999023,58.042259216308594,0.54
292,MetaDrive-td3combine-expt_with_safe-alt-env,67,423.5042232522066,333389,531,4909.1272921562195,-64.76432800292969,25.642505645751953,63.954917907714844,0.52
293,MetaDrive-td3combine-expt_with_safe-alt-env,67,429.89772929990903,334700,533,4934.936794042587,,18.92202377319336,50.779502868652344,0.53
294,MetaDrive-td3combine-expt_with_safe-alt-env,67,427.2645939818123,335428,534,4947.9432899951935,,14.657200813293457,59.16383361816406,0.53
295,MetaDrive-td3combine-expt_with_safe-alt-env,67,430.49396769336397,336110,535,4960.350641012192,,18.366596221923828,59.111968994140625,0.54
296,MetaDrive-td3combine-expt_with_safe-alt-env,67,428.14879429757013,337375,538,4981.0151998996735,-63.031890869140625,20.475696563720703,62.7999153137207,0.54
297,MetaDrive-td3combine-expt_with_safe-alt-env,67,427.44238399397057,339694,540,5020.20655298233,,18.245880126953125,42.27516555786133,0.53
298,MetaDrive-td3combine-expt_with_safe-alt-env,67,429.0674424828996,340304,541,5030.062673091888,,34.23271942138672,54.1488037109375,0.54
299,MetaDrive-td3combine-expt_with_safe-alt-env,67,427.09803456847635,341337,543,5048.452154159546,-63.2740364074707,18.680583953857422,62.5931396484375,0.53
300,MetaDrive-td3combine-expt_with_safe-alt-env,67,430.6959243499921,342653,545,5070.555914878845,-58.230567932128906,12.051737785339355,57.83802032470703,0.54
301,MetaDrive-td3combine-expt_with_safe-alt-env,67,433.7632212332664,343300,546,5081.324631929398,,12.242389678955078,58.38002395629883,0.55
302,MetaDrive-td3combine-expt_with_safe-alt-env,67,431.6647848364439,345301,547,5117.622004985809,-51.74812316894531,28.206510543823242,49.40179443359375,0.55
303,MetaDrive-td3combine-expt_with_safe-alt-env,67,430.9845385422584,346112,549,5131.039669036865,,15.30781364440918,56.25418472290039,0.56
304,MetaDrive-td3combine-expt_with_safe-alt-env,67,430.8039139693207,347617,551,5157.133892059326,-52.59002685546875,12.281962394714355,51.252933502197266,0.56
305,MetaDrive-td3combine-expt_with_safe-alt-env,67,433.34137395651663,348461,552,5171.140350818634,-56.60560989379883,11.798347473144531,55.74214172363281,0.56
306,MetaDrive-td3combine-expt_with_safe-alt-env,67,437.252337729094,349063,553,5181.827777862549,-56.30529022216797,17.17768096923828,56.949012756347656,0.57
307,MetaDrive-td3combine-expt_with_safe-alt-env,67,436.3258568931295,350076,555,5199.009876012802,,12.953628540039062,55.71616744995117,0.57
308,MetaDrive-td3combine-expt_with_safe-alt-env,67,440.501979271896,351356,557,5220.7828068733215,,8.586612701416016,58.200801849365234,0.58
309,MetaDrive-td3combine-expt_with_safe-alt-env,67,442.51105249236724,352142,558,5238.398880004883,,14.466880798339844,48.17020797729492,0.57
310,MetaDrive-td3combine-expt_with_safe-alt-env,67,448.4088610377595,353218,559,5259.779358863831,,90.57330322265625,50.17878723144531,0.57
311,MetaDrive-td3combine-expt_with_safe-alt-env,67,446.9184996399547,354551,561,5282.210759162903,-57.35816192626953,15.444138526916504,56.006248474121094,0.57
312,MetaDrive-td3combine-expt_with_safe-alt-env,67,443.45256452012256,355519,563,5298.908159017563,-56.73194122314453,18.775096893310547,54.81268310546875,0.57
313,MetaDrive-td3combine-expt_with_safe-alt-env,67,446.31951180576624,356068,564,5307.789964914322,,12.484293937683105,56.43946075439453,0.58
314,MetaDrive-td3combine-expt_with_safe-alt-env,67,452.79247389014904,357344,566,5330.55082321167,,28.499252319335938,58.243072509765625,0.59
315,MetaDrive-td3combine-expt_with_safe-alt-env,67,452.5833537245253,358120,567,5343.840623140335,,16.867313385009766,56.120513916015625,0.59
316,MetaDrive-td3combine-expt_with_safe-alt-env,66,456.87834084950015,359319,569,5363.083128929138,-57.46922302246094,43.33515167236328,57.395503997802734,0.6
317,MetaDrive-td3combine-expt_with_safe-alt-env,66,454.82988052212875,360553,571,5385.281445026398,-56.51850509643555,18.8671817779541,55.911556243896484,0.6
318,MetaDrive-td3combine-expt_with_safe-alt-env,66,455.131905741734,361124,572,5394.925813913345,,17.693727493286133,55.077056884765625,0.6
319,MetaDrive-td3combine-expt_with_safe-alt-env,66,454.4381512040477,362238,574,5413.584901094437,,20.555450439453125,54.058685302734375,0.6
320,MetaDrive-td3combine-expt_with_safe-alt-env,66,452.4297143671091,364239,575,5450.030709981918,-64.04737854003906,15.22212028503418,64.27951049804688,0.59
321,MetaDrive-td3combine-expt_with_safe-alt-env,66,438.4309850888983,365066,578,5463.044430971146,,23.204402923583984,61.449615478515625,0.57
322,MetaDrive-td3combine-expt_with_safe-alt-env,66,434.5434776878994,366260,581,5482.366605043411,,14.09231948852539,52.531410217285156,0.56
323,MetaDrive-td3combine-expt_with_safe-alt-env,66,435.66340155663596,367101,583,5497.830481767654,-52.60017395019531,9.614001274108887,52.84451675415039,0.57
324,MetaDrive-td3combine-expt_with_safe-alt-env,66,434.5160913365895,368281,585,5516.862596988678,-65.7008056640625,14.54977035522461,64.48582458496094,0.56
325,MetaDrive-td3combine-expt_with_safe-alt-env,66,426.16400818387586,370829,587,5558.958684921265,-48.749114990234375,226.98599243164062,47.01072692871094,0.55
326,MetaDrive-td3combine-expt_with_safe-alt-env,66,432.1522849445791,371513,588,5570.939877033234,-53.94584655761719,16.555330276489258,54.16775131225586,0.56
327,MetaDrive-td3combine-expt_with_safe-alt-env,66,431.68608554396815,372027,589,5580.111718177795,-55.57073974609375,16.395549774169922,55.75922393798828,0.56
328,MetaDrive-td3combine-expt_with_safe-alt-env,66,430.4054200732833,373407,592,5604.272443056107,-61.56626892089844,10.502052307128906,61.209354400634766,0.56
329,MetaDrive-td3combine-expt_with_safe-alt-env,66,429.6139514805883,374529,594,5623.955209970474,-48.23549270629883,11.701306343078613,48.139732360839844,0.55
330,MetaDrive-td3combine-expt_with_safe-alt-env,66,433.22188945031775,375240,595,5636.8701140880585,,17.562118530273438,47.4050178527832,0.56
331,MetaDrive-td3combine-expt_with_safe-alt-env,66,429.7478499466877,376107,597,5652.288596868515,-55.03497314453125,20.88033103942871,56.00520324707031,0.55
332,MetaDrive-td3combine-expt_with_safe-alt-env,66,428.3923729171272,377797,600,5683.879819869995,-56.673065185546875,17.98674964904785,57.96477127075195,0.55
333,MetaDrive-td3combine-expt_with_safe-alt-env,66,428.9165647960713,378175,601,5690.7997081279755,-51.70697021484375,44.016578674316406,51.116493225097656,0.55
334,MetaDrive-td3combine-expt_with_safe-alt-env,66,430.7131225990347,379426,603,5711.475878000259,,12.245838165283203,61.42898941040039,0.56
335,MetaDrive-td3combine-expt_with_safe-alt-env,66,431.1790300253479,380349,604,5728.124603033066,-63.51313400268555,20.19064712524414,63.23713684082031,0.56
336,MetaDrive-td3combine-expt_with_safe-alt-env,66,431.1236599576321,381478,606,5746.806467056274,,16.960899353027344,57.90843200683594,0.56
337,MetaDrive-td3combine-expt_with_safe-alt-env,66,433.4973912387606,382024,607,5755.957964897156,,64.49185180664062,50.71087646484375,0.57
338,MetaDrive-td3combine-expt_with_safe-alt-env,66,433.63268081643963,383185,609,5775.938236951828,-52.04242706298828,16.772525787353516,52.06956100463867,0.58
339,MetaDrive-td3combine-expt_with_safe-alt-env,66,439.85461522197795,384147,611,5794.4457268714905,-49.06040573120117,12.017789840698242,48.70449447631836,0.59
340,MetaDrive-td3combine-expt_with_safe-alt-env,66,441.9710001414754,385063,612,5810.744246006012,-60.413543701171875,37.17762756347656,59.895423889160156,0.59
341,MetaDrive-td3combine-expt_with_safe-alt-env,66,455.96744275719664,387101,614,5850.213724851608,-58.807861328125,22.83114242553711,57.701942443847656,0.61
342,MetaDrive-td3combine-expt_with_safe-alt-env,66,459.6108692096542,388004,615,5868.219059944153,,49.5203742980957,59.198631286621094,0.61
343,MetaDrive-td3combine-expt_with_safe-alt-env,66,459.0288364291812,389541,617,5895.958873033524,-57.73797607421875,10.1007080078125,56.82923889160156,0.59
344,MetaDrive-td3combine-expt_with_safe-alt-env,66,456.803347570164,390668,620,5915.838086128235,,14.377861976623535,62.010108947753906,0.6
345,MetaDrive-td3combine-expt_with_safe-alt-env,66,446.2970142553153,391393,623,5928.573158025742,-60.430572509765625,87.60597229003906,60.435508728027344,0.57
346,MetaDrive-td3combine-expt_with_safe-alt-env,66,445.56282048162547,392177,624,5941.8659818172455,-56.73965072631836,12.140312194824219,55.92226028442383,0.57
347,MetaDrive-td3combine-expt_with_safe-alt-env,65,447.03708600877917,393902,625,5977.617158174515,,21.988107681274414,50.65242004394531,0.57
348,MetaDrive-td3combine-expt_with_safe-alt-env,65,450.4502311751852,394714,626,5994.46808385849,,46.43626403808594,62.11382293701172,0.57
349,MetaDrive-td3combine-expt_with_safe-alt-env,65,454.38561509450375,395747,627,6015.052581071854,-53.08659362792969,17.596439361572266,52.728816986083984,0.57
350,MetaDrive-td3combine-expt_with_safe-alt-env,65,452.57117436043904,396077,628,6021.12793803215,-51.336647033691406,29.431324005126953,49.08325958251953,0.56
351,MetaDrive-td3combine-expt_with_safe-alt-env,65,453.6713228086688,397415,630,6043.810431003571,-58.377620697021484,13.772392272949219,59.146541595458984,0.57
352,MetaDrive-td3combine-expt_with_safe-alt-env,65,458.65921044355696,398481,631,6066.024127006531,-55.62618637084961,14.237497329711914,55.592613220214844,0.58
353,MetaDrive-td3combine-expt_with_safe-alt-env,65,447.0992945207397,399595,634,6088.344898939133,-56.44188690185547,9.037179946899414,56.085365295410156,0.56
