TanmayH/CS269-RL-project-code/MetaDrive-td3combine-expt_with_safe_fix_again/MetaDrive-Gen-Next-v0/td3/progress.csv
,log_dir,frame_per_second,episode_reward,total_steps,total_episodes,total_time,target_q,actor_loss,critic_loss,success_rate
0,MetaDrive-td3combine-expt_with_safe_fix_again,671,13.078120272019714,2001,2,2.981995105743408,,,,0.0
1,MetaDrive-td3combine-expt_with_safe_fix_again,664,12.198128971498365,3002,3,4.520966529846191,,,,0.0
2,MetaDrive-td3combine-expt_with_safe_fix_again,577,8.736342093810691,4998,6,8.64911961555481,,,,0.0
3,MetaDrive-td3combine-expt_with_safe_fix_again,410,7.005364953118435,5118,7,12.468362808227539,-0.11277972906827927,,0.0010782820172607899,0.0
4,MetaDrive-td3combine-expt_with_safe_fix_again,252,-0.27831897300768427,6618,27,26.244189262390137,-0.1647881269454956,,0.7346973419189453,0.0
5,MetaDrive-td3combine-expt_with_safe_fix_again,237,-0.8917006089793489,7026,31,29.635847806930542,-0.15438348054885864,,0.7431291341781616,0.0
6,MetaDrive-td3combine-expt_with_safe_fix_again,213,-1.2876481881572992,8223,34,38.52575874328613,-0.07841046154499054,0.08372390270233154,0.003078102134168148,0.0
7,MetaDrive-td3combine-expt_with_safe_fix_again,203,-1.2564537096290973,9040,35,44.42164635658264,-0.15896102786064148,,0.7590488195419312,0.0
8,MetaDrive-td3combine-expt_with_safe_fix_again,194,-1.074871501095238,10041,36,51.52293157577515,-0.06648674607276917,0.05958013981580734,0.0006770121981389821,0.0
9,MetaDrive-td3combine-expt_with_safe_fix_again,182,0.12098168475240344,11285,41,61.72796440124512,-0.03971331566572189,0.048758365213871,0.006902784574776888,0.0
10,MetaDrive-td3combine-expt_with_safe_fix_again,175,-0.07327861170110446,12503,48,71.16457915306091,0.016665009781718254,0.045422740280628204,0.021075090393424034,0.0
11,MetaDrive-td3combine-expt_with_safe_fix_again,172,-0.04803027081129213,13081,49,75.64688873291016,0.043321654200553894,0.024856310337781906,0.027732331305742264,0.0
12,MetaDrive-td3combine-expt_with_safe_fix_again,169,0.11777529461374671,14082,50,83.07597947120667,0.058349765837192535,,0.005369436461478472,0.0
13,MetaDrive-td3combine-expt_with_safe_fix_again,165,1.057881840108247,15227,53,92.08426928520203,0.07654741406440735,-0.07454296946525574,0.004137828946113586,0.0
14,MetaDrive-td3combine-expt_with_safe_fix_again,162,2.258533962491771,16004,56,98.73417687416077,0.15433278679847717,,0.001978754298761487,0.0
15,MetaDrive-td3combine-expt_with_safe_fix_again,156,1.8892700135339995,17033,76,108.95618653297424,0.19893032312393188,-0.23364830017089844,0.010736040771007538,0.0
16,MetaDrive-td3combine-expt_with_safe_fix_again,151,2.3278846735940055,18057,95,118.9142017364502,0.28676849603652954,-0.2697752118110657,0.014981234446167946,0.0
17,MetaDrive-td3combine-expt_with_safe_fix_again,147,3.275706334360766,19018,115,128.66259384155273,0.4065261483192444,,0.03059929981827736,0.0
18,MetaDrive-td3combine-expt_with_safe_fix_again,144,5.25740365609273,20008,135,138.64535474777222,0.4264971613883972,,0.7410303354263306,0.0
19,MetaDrive-td3combine-expt_with_safe_fix_again,139,3.5264809756171087,21021,167,150.2437105178833,0.5337191820144653,-0.6272875070571899,0.9662403464317322,0.0
20,MetaDrive-td3combine-expt_with_safe_fix_again,136,5.616391332765769,22039,187,160.91190314292908,0.6845084428787231,-0.7375511527061462,0.9232360124588013,0.0
21,MetaDrive-td3combine-expt_with_safe_fix_again,134,5.465134325616234,23020,211,171.59595561027527,0.9407356977462769,,0.062468208372592926,0.0
22,MetaDrive-td3combine-expt_with_safe_fix_again,131,4.499888303501463,24016,240,182.0352234840393,1.0029290914535522,,1.2204645872116089,0.0
23,MetaDrive-td3combine-expt_with_safe_fix_again,130,5.899255568711295,25018,265,191.81758761405945,0.9679555296897888,,3.526705265045166,0.0
24,MetaDrive-td3combine-expt_with_safe_fix_again,128,5.400733835512628,26008,289,202.2607011795044,1.1357370615005493,,3.7945265769958496,0.0
25,MetaDrive-td3combine-expt_with_safe_fix_again,126,4.889581002581953,27085,314,213.30285573005676,1.7730252742767334,-1.7364439964294434,0.12880662083625793,0.0
26,MetaDrive-td3combine-expt_with_safe_fix_again,126,6.7344255980806835,28030,334,222.02846693992615,1.8990881443023682,,0.06378389149904251,0.0
27,MetaDrive-td3combine-expt_with_safe_fix_again,125,8.172367818442801,29010,354,231.53641748428345,1.975509524345398,,1.398020625114441,0.0
28,MetaDrive-td3combine-expt_with_safe_fix_again,124,9.954487782603518,30019,373,240.8428328037262,2.4233765602111816,-2.3648948669433594,0.2706819176673889,0.0
29,MetaDrive-td3combine-expt_with_safe_fix_again,124,11.28343379584453,31021,389,249.41007137298584,2.6322717666625977,-2.746859312057495,0.07468132674694061,0.0
30,MetaDrive-td3combine-expt_with_safe_fix_again,123,12.679205233965929,32012,407,258.7660925388336,2.8883094787597656,,2.292506456375122,0.0
31,MetaDrive-td3combine-expt_with_safe_fix_again,123,16.282818745152387,33038,419,266.6916718482971,3.1565754413604736,,3.7331953048706055,0.0
32,MetaDrive-td3combine-expt_with_safe_fix_again,123,15.21929120176465,34648,430,280.2788360118866,3.194061756134033,,2.1093125343322754,0.0
33,MetaDrive-td3combine-expt_with_safe_fix_again,123,15.369722383930217,35132,435,284.73605465888977,3.950547456741333,,2.1571249961853027,0.0
34,MetaDrive-td3combine-expt_with_safe_fix_again,123,20.151938695334554,36085,445,292.94806718826294,4.364344120025635,-4.429054260253906,3.164602279663086,0.0
35,MetaDrive-td3combine-expt_with_safe_fix_again,123,21.81692677653728,37926,456,307.22506499290466,5.136635780334473,,0.1962662935256958,0.0
36,MetaDrive-td3combine-expt_with_safe_fix_again,123,23.096274928210097,38190,457,309.28944396972656,5.276826858520508,,0.4572094678878784,0.0
37,MetaDrive-td3combine-expt_with_safe_fix_again,123,25.05760514327726,39581,460,321.63894605636597,5.672049522399902,-5.6309123039245605,0.3311666250228882,0.0
38,MetaDrive-td3combine-expt_with_safe_fix_again,122,26.782099459262763,40658,462,331.03666520118713,5.649259090423584,,10.90285587310791,0.0
39,MetaDrive-td3combine-expt_with_safe_fix_again,122,27.274591812872018,41659,463,339.0755236148834,6.144706726074219,-6.376520156860352,0.7723241448402405,0.0
40,MetaDrive-td3combine-expt_with_safe_fix_again,122,27.46627375482641,42660,464,346.8994860649109,5.838642120361328,,1.1045372486114502,0.0
41,MetaDrive-td3combine-expt_with_safe_fix_again,122,29.146484598586184,43171,465,351.3174479007721,5.993249893188477,-6.558337688446045,7.709045886993408,0.01
42,MetaDrive-td3combine-expt_with_safe_fix_again,123,32.50092574737017,44356,467,360.2632076740265,7.219346046447754,,0.7360389232635498,0.02
43,MetaDrive-td3combine-expt_with_safe_fix_again,123,33.28791706687716,45852,472,372.0413541793823,6.402421951293945,,11.419479370117188,0.02
44,MetaDrive-td3combine-expt_with_safe_fix_again,123,36.055635864398965,46250,473,375.3573417663574,7.590494632720947,,6.797438621520996,0.03
45,MetaDrive-td3combine-expt_with_safe_fix_again,123,36.463909557924744,47251,474,383.21683263778687,6.923877716064453,-7.176598072052002,7.464332103729248,0.03
46,MetaDrive-td3combine-expt_with_safe_fix_again,123,37.14693637585985,48338,476,391.32360219955444,7.279384613037109,,0.6928286552429199,0.03
47,MetaDrive-td3combine-expt_with_safe_fix_again,123,37.961643182735656,49463,478,400.171350479126,9.351885795593262,-9.40110969543457,0.7879323959350586,0.03
48,MetaDrive-td3combine-expt_with_safe_fix_again,123,38.75840287568144,50464,479,407.57713532447815,6.3343825340271,,8.310445785522461,0.03
49,MetaDrive-td3combine-expt_with_safe_fix_again,123,39.005025741112334,51044,480,412.26843452453613,9.360326766967773,,1.1243252754211426,0.03
50,MetaDrive-td3combine-expt_with_safe_fix_again,124,41.98676712126897,52607,484,423.50912714004517,8.63383674621582,-8.706965446472168,1.1070938110351562,0.03
51,MetaDrive-td3combine-expt_with_safe_fix_again,124,42.608165342820946,53694,486,432.33280181884766,7.478285789489746,,0.9244430065155029,0.03
52,MetaDrive-td3combine-expt_with_safe_fix_again,124,43.02775963128437,54784,488,440.94549107551575,7.338139533996582,,11.116018295288086,0.03
53,MetaDrive-td3combine-expt_with_safe_fix_again,124,45.08244905610097,55785,489,447.907527923584,9.608085632324219,-9.293497085571289,1.6971662044525146,0.03
54,MetaDrive-td3combine-expt_with_safe_fix_again,124,45.61123971897839,56786,490,455.9362688064575,10.2506103515625,,23.317075729370117,0.03
55,MetaDrive-td3combine-expt_with_safe_fix_again,124,45.53972550525952,57787,491,463.70484948158264,6.385808944702148,-6.237532615661621,0.814799427986145,0.03
56,MetaDrive-td3combine-expt_with_safe_fix_again,124,45.60515258383751,58788,492,471.4040925502777,8.071884155273438,,16.17144203186035,0.03
57,MetaDrive-td3combine-expt_with_safe_fix_again,124,45.73315362421892,59789,493,479.9047660827637,10.708512306213379,-10.966041564941406,5.521445274353027,0.03
58,MetaDrive-td3combine-expt_with_safe_fix_again,124,49.288481128229606,60790,494,488.03214406967163,9.4720458984375,,1.4642891883850098,0.03
59,MetaDrive-td3combine-expt_with_safe_fix_again,124,51.26804027248487,61089,495,490.34730863571167,9.458915710449219,-9.756185531616211,1.0054166316986084,0.04
60,MetaDrive-td3combine-expt_with_safe_fix_again,124,51.39925363202465,62090,496,497.96229243278503,9.338659286499023,,2.7955422401428223,0.04
61,MetaDrive-td3combine-expt_with_safe_fix_again,124,51.31915152509741,63091,497,505.63725543022156,6.8447771072387695,-7.45999813079834,12.299072265625,0.04
62,MetaDrive-td3combine-expt_with_safe_fix_again,124,53.74980545321037,64092,498,513.1675758361816,8.40084457397461,,1.2865402698516846,0.04
63,MetaDrive-td3combine-expt_with_safe_fix_again,124,59.26206492569766,65080,502,521.3134768009186,8.251168251037598,,0.645022988319397,0.05
64,MetaDrive-td3combine-expt_with_safe_fix_again,125,62.694008044848296,66700,506,533.4840986728668,9.544473648071289,,2.2550904750823975,0.06
65,MetaDrive-td3combine-expt_with_safe_fix_again,124,63.88499027952167,67060,508,536.6171164512634,9.294432640075684,,1.1522629261016846,0.06
66,MetaDrive-td3combine-expt_with_safe_fix_again,124,66.17516249428674,68686,512,549.7522258758545,11.688173294067383,,11.337242126464844,0.07
67,MetaDrive-td3combine-expt_with_safe_fix_again,124,66.9104016864085,69687,513,558.2926731109619,7.191005706787109,-7.212205410003662,3.008256435394287,0.07
68,MetaDrive-td3combine-expt_with_safe_fix_again,124,68.58576517576364,70143,515,562.0594890117645,8.410261154174805,-8.502694129943848,3.6910557746887207,0.07
69,MetaDrive-td3combine-expt_with_safe_fix_again,124,67.9608871395378,71592,519,573.5752546787262,11.17314338684082,,1.5131170749664307,0.08
70,MetaDrive-td3combine-expt_with_safe_fix_again,124,68.0535114214799,72593,520,581.7576742172241,8.61067008972168,-8.602950096130371,2.6999025344848633,0.08
71,MetaDrive-td3combine-expt_with_safe_fix_again,124,69.91898083876782,73726,522,591.4157421588898,11.745695114135742,,11.035561561584473,0.08
72,MetaDrive-td3combine-expt_with_safe_fix_again,124,70.9993552505982,74727,523,599.023992061615,9.000253677368164,-9.535650253295898,5.794994354248047,0.08
73,MetaDrive-td3combine-expt_with_safe_fix_again,124,71.31602541294733,75035,525,601.6449880599976,11.768120765686035,-11.98746395111084,14.374227523803711,0.08
74,MetaDrive-td3combine-expt_with_safe_fix_again,124,72.60686821176071,76036,526,609.0910310745239,10.238470077514648,,13.953729629516602,0.08
75,MetaDrive-td3combine-expt_with_safe_fix_again,124,79.16075795943682,77115,531,617.3322329521179,8.32262897491455,-8.237506866455078,2.0957190990448,0.1
76,MetaDrive-td3combine-expt_with_safe_fix_again,125,83.07228466323107,78702,536,629.4055588245392,7.508832931518555,,1.4265111684799194,0.11
77,MetaDrive-td3combine-expt_with_safe_fix_again,125,84.26900172956674,79218,538,633.4374053478241,11.212238311767578,,37.5159797668457,0.13
78,MetaDrive-td3combine-expt_with_safe_fix_again,125,84.22666565854468,80539,542,643.9524507522583,11.461359024047852,-11.905233383178711,0.896941065788269,0.13
79,MetaDrive-td3combine-expt_with_safe_fix_again,125,84.38870327647675,81629,544,652.716587305069,11.049859046936035,-11.518881797790527,1.9144833087921143,0.13
80,MetaDrive-td3combine-expt_with_safe_fix_again,124,83.86291473325645,82732,546,662.1273052692413,12.367528915405273,,5.7063307762146,0.13
81,MetaDrive-td3combine-expt_with_safe_fix_again,124,84.28343865262298,83111,549,665.0254423618317,12.704425811767578,-12.832170486450195,1.5670384168624878,0.13
82,MetaDrive-td3combine-expt_with_safe_fix_again,125,86.09212458099388,84815,554,678.0124626159668,9.257049560546875,-9.81020450592041,1.8654892444610596,0.14
83,MetaDrive-td3combine-expt_with_safe_fix_again,125,85.43311538380335,85816,555,685.8232214450836,12.553192138671875,,1.5677683353424072,0.14
84,MetaDrive-td3combine-expt_with_safe_fix_again,125,85.71785356338223,86916,557,694.1413130760193,7.652477264404297,,4.138154029846191,0.14
85,MetaDrive-td3combine-expt_with_safe_fix_again,125,85.40089347054604,87917,558,701.6106202602386,13.008834838867188,-13.357102394104004,2.1665923595428467,0.14
86,MetaDrive-td3combine-expt_with_safe_fix_again,125,84.3366956246112,88093,560,703.1228723526001,9.475408554077148,-9.355194091796875,4.397243499755859,0.14
87,MetaDrive-td3combine-expt_with_safe_fix_again,125,85.52162750384755,89065,565,710.6514818668365,14.140140533447266,-14.492889404296875,2.7216851711273193,0.15
88,MetaDrive-td3combine-expt_with_safe_fix_again,125,85.13789680954163,90066,566,717.4666459560394,10.293841361999512,,4.119691848754883,0.14
89,MetaDrive-td3combine-expt_with_safe_fix_again,125,84.47791651093517,91249,569,727.1634047031403,14.30053997039795,-14.341750144958496,3.311776638031006,0.14
90,MetaDrive-td3combine-expt_with_safe_fix_again,125,85.48885157704599,92250,570,734.5725548267365,11.194357872009277,,6.759549140930176,0.14
91,MetaDrive-td3combine-expt_with_safe_fix_again,125,86.07305034456955,93251,571,742.4048840999603,12.100754737854004,-13.291043281555176,4.823136329650879,0.14
92,MetaDrive-td3combine-expt_with_safe_fix_again,125,82.20635641530188,94438,574,752.1404588222504,12.739805221557617,,5.176400184631348,0.13
93,MetaDrive-td3combine-expt_with_safe_fix_again,125,85.79360085185863,95288,576,759.0564312934875,15.630355834960938,,2.1877074241638184,0.15
94,MetaDrive-td3combine-expt_with_safe_fix_again,125,86.61758993390575,96478,578,767.9565055370331,9.508515357971191,,28.68279266357422,0.15
95,MetaDrive-td3combine-expt_with_safe_fix_again,125,87.09223996516457,97107,581,773.0263466835022,12.334379196166992,-13.57563591003418,4.179447174072266,0.16
96,MetaDrive-td3combine-expt_with_safe_fix_again,125,84.83418966738684,98403,585,782.8750054836273,13.892559051513672,-14.229626655578613,22.545045852661133,0.16
97,MetaDrive-td3combine-expt_with_safe_fix_again,125,85.60687664022804,99404,586,790.3516325950623,10.587018966674805,,12.757355690002441,0.16
98,MetaDrive-td3combine-expt_with_safe_fix_again,125,85.88716479219804,100405,587,797.116030216217,14.741065979003906,-15.11063003540039,3.10312557220459,0.16
99,MetaDrive-td3combine-expt_with_safe_fix_again,125,85.6661813331727,101406,588,804.982017993927,13.096292495727539,,4.038649559020996,0.16
100,MetaDrive-td3combine-expt_with_safe_fix_again,126,82.91843849374986,102503,590,813.3597686290741,11.123893737792969,-11.933441162109375,3.734281301498413,0.16
101,MetaDrive-td3combine-expt_with_safe_fix_again,126,82.95991043100348,103504,591,820.6378276348114,10.061744689941406,,2.8622524738311768,0.16
102,MetaDrive-td3combine-expt_with_safe_fix_again,126,82.2255488616076,104893,594,831.2192685604095,12.939971923828125,-13.28466796875,2.4055123329162598,0.17
103,MetaDrive-td3combine-expt_with_safe_fix_again,126,80.97940651941217,105302,595,834.5849056243896,14.480839729309082,,12.59124755859375,0.17
104,MetaDrive-td3combine-expt_with_safe_fix_again,126,82.41951016352317,106303,596,843.0458581447601,12.386927604675293,-13.219511032104492,1.9579079151153564,0.17
105,MetaDrive-td3combine-expt_with_safe_fix_again,126,82.8833622446651,107304,597,850.919585943222,13.867593765258789,,2.0624470710754395,0.17
106,MetaDrive-td3combine-expt_with_safe_fix_again,126,80.54196830412982,108305,598,858.0353646278381,13.734169006347656,-13.901397705078125,1.919484257698059,0.17
107,MetaDrive-td3combine-expt_with_safe_fix_again,126,80.25847962943627,109587,600,867.2668597698212,13.782794952392578,-14.04241943359375,5.002669811248779,0.18
108,MetaDrive-td3combine-expt_with_safe_fix_again,126,78.11771670089311,110951,604,877.6211955547333,13.026718139648438,-13.754040718078613,13.062616348266602,0.17
109,MetaDrive-td3combine-expt_with_safe_fix_again,126,77.88137296538274,111221,605,879.634624004364,15.50503158569336,-16.126285552978516,3.3712387084960938,0.17
110,MetaDrive-td3combine-expt_with_safe_fix_again,126,78.01083716389253,112222,606,887.1379418373108,12.881460189819336,,11.264298439025879,0.17
111,MetaDrive-td3combine-expt_with_safe_fix_again,126,77.12855367523593,113223,607,894.7807948589325,9.492351531982422,-10.294051170349121,9.865330696105957,0.17
112,MetaDrive-td3combine-expt_with_safe_fix_again,126,77.95619862961401,114224,608,902.4910132884979,13.58816909790039,,2.676520347595215,0.17
113,MetaDrive-td3combine-expt_with_safe_fix_again,126,78.2181603293387,115225,609,910.2760791778564,10.565622329711914,-10.64845085144043,3.0980007648468018,0.17
114,MetaDrive-td3combine-expt_with_safe_fix_again,126,76.37954310896376,116413,612,919.6957440376282,12.124360084533691,-12.951038360595703,6.265547275543213,0.16
115,MetaDrive-td3combine-expt_with_safe_fix_again,126,76.22949787796395,117414,613,927.0808112621307,9.619536399841309,,2.884443759918213,0.16
116,MetaDrive-td3combine-expt_with_safe_fix_again,126,74.38737182367421,118907,617,938.7362475395203,13.557439804077148,-14.128949165344238,3.422314167022705,0.15
117,MetaDrive-td3combine-expt_with_safe_fix_again,126,74.84458223253186,119048,618,939.8102958202362,14.043601989746094,,4.463018417358398,0.15
118,MetaDrive-td3combine-expt_with_safe_fix_again,126,74.8231751308288,120235,621,949.0903708934784,10.388837814331055,-11.66103458404541,3.0546231269836426,0.15
119,MetaDrive-td3combine-expt_with_safe_fix_again,126,73.48137677799957,121102,624,955.7964029312134,10.328853607177734,,7.35854434967041,0.16
120,MetaDrive-td3combine-expt_with_safe_fix_again,126,72.40322504444298,122270,626,965.0104465484619,14.741142272949219,,5.2640509605407715,0.16
121,MetaDrive-td3combine-expt_with_safe_fix_again,126,74.5639519990812,123022,628,971.4334490299225,11.956932067871094,,2.97920560836792,0.15
122,MetaDrive-td3combine-expt_with_safe_fix_again,126,74.50204047175201,124023,629,978.4888422489166,11.756767272949219,-11.64786148071289,4.370388031005859,0.15
123,MetaDrive-td3combine-expt_with_safe_fix_again,126,75.43729580114831,125024,630,985.8139727115631,7.034078598022461,,14.011618614196777,0.15
124,MetaDrive-td3combine-expt_with_safe_fix_again,126,79.4146929210843,126577,633,998.0809969902039,12.002517700195312,-12.791748046875,15.710176467895508,0.15
125,MetaDrive-td3combine-expt_with_safe_fix_again,126,81.39260882712213,127578,634,1006.3281426429749,10.908024787902832,,2.390659809112549,0.15
126,MetaDrive-td3combine-expt_with_safe_fix_again,126,79.84780239631571,128579,635,1013.3407645225525,14.567480087280273,-14.870800018310547,6.721400260925293,0.14
127,MetaDrive-td3combine-expt_with_safe_fix_again,126,78.06148908774244,129022,636,1016.5344290733337,14.107345581054688,,10.380353927612305,0.14
128,MetaDrive-td3combine-expt_with_safe_fix_again,126,80.29893677698936,130115,639,1025.915494441986,14.730429649353027,-14.225175857543945,7.376194000244141,0.14
129,MetaDrive-td3combine-expt_with_safe_fix_again,126,85.37078904751954,131101,643,1034.4214284420013,9.580824851989746,-10.228453636169434,3.6060023307800293,0.15
130,MetaDrive-td3combine-expt_with_safe_fix_again,126,85.895634114847,132102,644,1042.1843297481537,11.750570297241211,,2.5113272666931152,0.15
131,MetaDrive-td3combine-expt_with_safe_fix_again,126,89.5140549733377,133761,647,1054.966061592102,8.231670379638672,-9.173364639282227,14.844432830810547,0.17
132,MetaDrive-td3combine-expt_with_safe_fix_again,126,90.54269938288239,134762,648,1062.7609384059906,10.516698837280273,,3.4396438598632812,0.17
133,MetaDrive-td3combine-expt_with_safe_fix_again,126,90.65017757873977,135118,650,1065.360279560089,14.018381118774414,,1.73697030544281,0.17
134,MetaDrive-td3combine-expt_with_safe_fix_again,126,94.48307098069971,136803,653,1078.543884754181,11.369717597961426,-11.6473970413208,23.57330894470215,0.18
135,MetaDrive-td3combine-expt_with_safe_fix_again,126,95.4139558830042,137082,654,1080.9924688339233,11.705747604370117,,24.318344116210938,0.18
136,MetaDrive-td3combine-expt_with_safe_fix_again,126,96.06145812817205,138201,656,1089.0148816108704,10.672067642211914,-11.187520980834961,2.3962268829345703,0.18
137,MetaDrive-td3combine-expt_with_safe_fix_again,126,95.91130105679285,139492,658,1098.6265032291412,14.265005111694336,,4.71943473815918,0.19
138,MetaDrive-td3combine-expt_with_safe_fix_again,127,100.3242231673363,140204,660,1103.918170928955,11.781769752502441,,2.717259407043457,0.21
139,MetaDrive-td3combine-expt_with_safe_fix_again,126,102.8299273633129,141305,664,1113.1770231723785,12.464204788208008,-12.932746887207031,12.679895401000977,0.21
140,MetaDrive-td3combine-expt_with_safe_fix_again,126,104.92491686908943,142034,667,1118.5788943767548,10.694936752319336,,17.619945526123047,0.23
141,MetaDrive-td3combine-expt_with_safe_fix_again,127,105.99731332930892,143914,673,1133.1588699817657,12.339670181274414,,3.4056928157806396,0.24
142,MetaDrive-td3combine-expt_with_safe_fix_again,127,107.18174122745334,144171,674,1134.9311118125916,12.758407592773438,-13.114595413208008,3.8785085678100586,0.25
143,MetaDrive-td3combine-expt_with_safe_fix_again,126,103.14474813597295,145881,677,1148.8697736263275,15.503995895385742,-15.285236358642578,10.57966136932373,0.24
144,MetaDrive-td3combine-expt_with_safe_fix_again,126,103.07752914615217,146032,678,1150.0194959640503,7.378667831420898,,4.129656791687012,0.24
145,MetaDrive-td3combine-expt_with_safe_fix_again,127,104.07381134134349,147241,680,1158.359691619873,13.35661506652832,-13.298426628112793,6.834048271179199,0.23
146,MetaDrive-td3combine-expt_with_safe_fix_again,127,107.638622754855,148705,682,1168.8901946544647,13.477567672729492,-14.339616775512695,7.550886154174805,0.24
147,MetaDrive-td3combine-expt_with_safe_fix_again,127,108.3693107881691,149795,684,1177.2841770648956,9.641328811645508,-10.501757621765137,1.8143621683120728,0.24
148,MetaDrive-td3combine-expt_with_safe_fix_again,127,108.75050460556312,150796,685,1184.859666109085,11.150045394897461,,2.690864324569702,0.24
149,MetaDrive-td3combine-expt_with_safe_fix_again,127,109.68357997286144,151299,687,1189.223789691925,10.616804122924805,-10.9835205078125,4.859785079956055,0.25
150,MetaDrive-td3combine-expt_with_safe_fix_again,127,113.65797176294487,152575,689,1199.276309967041,8.972973823547363,-9.280826568603516,2.460279941558838,0.26
151,MetaDrive-td3combine-expt_with_safe_fix_again,127,116.38992797553992,153207,691,1204.5889823436737,12.40201187133789,-12.503033638000488,21.62346649169922,0.27
152,MetaDrive-td3combine-expt_with_safe_fix_again,127,116.80597385676187,154208,692,1211.7391397953033,13.220682144165039,,6.911314964294434,0.27
153,MetaDrive-td3combine-expt_with_safe_fix_again,127,118.0742412490295,155754,695,1222.914227962494,9.21916675567627,,15.22421646118164,0.26
154,MetaDrive-td3combine-expt_with_safe_fix_again,127,117.75130491913971,156050,696,1225.07191324234,16.32988166809082,,3.427618980407715,0.27
155,MetaDrive-td3combine-expt_with_safe_fix_again,127,118.26577726484558,157142,698,1233.7899656295776,9.959071159362793,,11.406980514526367,0.27
156,MetaDrive-td3combine-expt_with_safe_fix_again,127,118.19699844380455,158286,700,1242.634318113327,15.611845970153809,,5.593331813812256,0.26
157,MetaDrive-td3combine-expt_with_safe_fix_again,127,122.2252838355039,159562,702,1252.2808701992035,14.29672908782959,,2.629988670349121,0.27
158,MetaDrive-td3combine-expt_with_safe_fix_again,127,122.598729645824,160406,704,1258.7317724227905,11.00295352935791,,24.56809425354004,0.28
159,MetaDrive-td3combine-expt_with_safe_fix_again,127,120.62467340964186,161558,706,1266.910061120987,11.249784469604492,,3.2065529823303223,0.27
160,MetaDrive-td3combine-expt_with_safe_fix_again,127,121.70049991263336,162267,710,1272.4522726535797,6.697676658630371,-7.81501579284668,18.918041229248047,0.28
161,MetaDrive-td3combine-expt_with_safe_fix_again,127,121.80235683729843,163362,712,1281.19020986557,13.42000961303711,,7.160737037658691,0.28
162,MetaDrive-td3combine-expt_with_safe_fix_again,127,126.24825316453457,164212,714,1288.1548442840576,13.89967155456543,,4.4366302490234375,0.3
163,MetaDrive-td3combine-expt_with_safe_fix_again,127,127.97680730670858,165537,717,1297.997484922409,11.11387825012207,-11.878410339355469,4.830096244812012,0.3
164,MetaDrive-td3combine-expt_with_safe_fix_again,127,130.3126048385976,166023,718,1301.7537434101105,7.762712478637695,-7.634268760681152,6.071234703063965,0.31
165,MetaDrive-td3combine-expt_with_safe_fix_again,127,134.0327997896086,167722,721,1314.4442956447601,12.758508682250977,,7.285783290863037,0.32
166,MetaDrive-td3combine-expt_with_safe_fix_again,127,134.7970713533615,168039,722,1316.8300740718842,10.568363189697266,-11.148353576660156,4.554475784301758,0.33
167,MetaDrive-td3combine-expt_with_safe_fix_again,127,135.6409924321697,169040,723,1324.2695598602295,17.618297576904297,,37.237274169921875,0.32
168,MetaDrive-td3combine-expt_with_safe_fix_again,127,135.7969239486203,170439,725,1335.559647321701,16.97123146057129,-17.325748443603516,5.008274555206299,0.33
169,MetaDrive-td3combine-expt_with_safe_fix_again,127,136.01882907918778,171440,726,1343.110895872116,9.080772399902344,,6.198122501373291,0.33
170,MetaDrive-td3combine-expt_with_safe_fix_again,127,132.32147669294432,172622,728,1352.0944123268127,16.492258071899414,,17.652523040771484,0.33
171,MetaDrive-td3combine-expt_with_safe_fix_again,127,130.8009977021186,173309,731,1357.421970129013,15.93931770324707,-15.994247436523438,5.583354949951172,0.33
172,MetaDrive-td3combine-expt_with_safe_fix_again,127,130.8332547004113,174310,732,1365.0384392738342,12.219085693359375,,7.00388765335083,0.33
173,MetaDrive-td3combine-expt_with_safe_fix_again,127,127.29630892566729,175404,734,1372.9512434005737,14.358251571655273,,4.4202680587768555,0.33
174,MetaDrive-td3combine-expt_with_safe_fix_again,127,130.36925935313965,176012,736,1377.4418919086456,13.478662490844727,,5.258927822113037,0.35
175,MetaDrive-td3combine-expt_with_safe_fix_again,127,127.5157513428891,177254,738,1386.749341726303,12.926156044006348,,4.880441188812256,0.34
176,MetaDrive-td3combine-expt_with_safe_fix_again,127,127.74106550675623,178174,741,1393.9722263813019,16.19171905517578,,4.953161716461182,0.35
177,MetaDrive-td3combine-expt_with_safe_fix_again,127,122.4885516758074,179040,746,1401.375744819641,14.416662216186523,,4.359104156494141,0.33
178,MetaDrive-td3combine-expt_with_safe_fix_again,127,122.88122795560686,180832,750,1414.8606595993042,18.17884063720703,,7.1995649337768555,0.33
179,MetaDrive-td3combine-expt_with_safe_fix_again,127,122.08056333276278,181140,751,1416.940866947174,10.368486404418945,,3.387655735015869,0.34
180,MetaDrive-td3combine-expt_with_safe_fix_again,127,119.97734716984529,182141,752,1424.315634727478,13.441303253173828,-13.332585334777832,15.372615814208984,0.33
181,MetaDrive-td3combine-expt_with_safe_fix_again,127,118.7820192204037,183234,754,1432.3690056800842,17.442604064941406,,6.858163833618164,0.33
182,MetaDrive-td3combine-expt_with_safe_fix_again,127,118.84196517788169,184235,755,1439.9417507648468,10.61756706237793,-10.3696870803833,8.178260803222656,0.33
183,MetaDrive-td3combine-expt_with_safe_fix_again,127,120.88826304392977,185666,757,1450.5995647907257,8.532651901245117,,42.22218322753906,0.33
184,MetaDrive-td3combine-expt_with_safe_fix_again,128,121.76065317226903,186937,759,1459.9823067188263,12.546865463256836,-12.524101257324219,3.562568187713623,0.33
185,MetaDrive-td3combine-expt_with_safe_fix_again,128,120.43599127956595,187041,760,1460.9859073162079,17.897672653198242,-18.702178955078125,2.2039072513580322,0.32
186,MetaDrive-td3combine-expt_with_safe_fix_again,128,121.17053109075003,188483,762,1472.306643486023,15.846254348754883,-15.778221130371094,7.211706161499023,0.32
187,MetaDrive-td3combine-expt_with_safe_fix_again,128,121.94930135314226,189484,763,1480.0359373092651,18.83983612060547,,31.314998626708984,0.32
188,MetaDrive-td3combine-expt_with_safe_fix_again,128,117.74504597107831,190127,766,1484.8063020706177,12.792060852050781,-14.149700164794922,9.100954055786133,0.31
189,MetaDrive-td3combine-expt_with_safe_fix_again,127,117.79472258037445,191849,768,1499.0021433830261,12.376447677612305,-12.478240013122559,6.6571197509765625,0.31
190,MetaDrive-td3combine-expt_with_safe_fix_again,128,117.10425550049281,192850,769,1506.4611389636993,13.312721252441406,,5.738207817077637,0.3
191,MetaDrive-td3combine-expt_with_safe_fix_again,128,117.22877059267508,193851,770,1514.1730725765228,15.982675552368164,-17.020835876464844,14.471504211425781,0.3
192,MetaDrive-td3combine-expt_with_safe_fix_again,128,117.62125079102603,194852,771,1521.1900761127472,14.388570785522461,,47.53704071044922,0.3
193,MetaDrive-td3combine-expt_with_safe_fix_again,128,118.82025929181067,195253,772,1524.0404965877533,11.449777603149414,-11.954877853393555,33.21843719482422,0.31
194,MetaDrive-td3combine-expt_with_safe_fix_again,128,117.3648674549468,196774,776,1535.3621563911438,15.19699478149414,,1.4268677234649658,0.3
195,MetaDrive-td3combine-expt_with_safe_fix_again,128,117.75428611119007,197775,777,1542.5675098896027,13.839170455932617,-14.618796348571777,20.244476318359375,0.3
196,MetaDrive-td3combine-expt_with_safe_fix_again,128,119.31882459870029,198334,778,1546.8569030761719,14.956766128540039,,12.102354049682617,0.31
197,MetaDrive-td3combine-expt_with_safe_fix_again,128,119.442876590256,199262,780,1553.414434671402,17.79228973388672,,18.142013549804688,0.32
198,MetaDrive-td3combine-expt_with_safe_fix_again,128,115.39882482790158,200263,781,1560.5962188243866,11.162903785705566,-11.290433883666992,5.114870071411133,0.31
199,MetaDrive-td3combine-expt_with_safe_fix_again,128,118.03652597675953,201890,785,1573.3402678966522,13.798341751098633,,4.594366073608398,0.32
200,MetaDrive-td3combine-expt_with_safe_fix_again,128,119.21750863667607,202306,786,1576.6350123882294,11.621535301208496,,2.5510995388031006,0.33
201,MetaDrive-td3combine-expt_with_safe_fix_again,128,117.76370440901988,203307,787,1583.8151323795319,13.315771102905273,-13.744338989257812,6.715705871582031,0.32
202,MetaDrive-td3combine-expt_with_safe_fix_again,128,118.27656623509164,204349,790,1591.9796199798584,20.00149917602539,-19.108476638793945,5.50457763671875,0.32
203,MetaDrive-td3combine-expt_with_safe_fix_again,128,118.9727056190872,205016,791,1597.0788521766663,16.277111053466797,,7.322932243347168,0.33
204,MetaDrive-td3combine-expt_with_safe_fix_again,128,118.96143909103712,206017,792,1604.8157064914703,10.505254745483398,-11.468294143676758,6.33138370513916,0.33
205,MetaDrive-td3combine-expt_with_safe_fix_again,128,119.33733054884038,207756,795,1618.724839925766,17.65349769592285,,5.398102760314941,0.34
206,MetaDrive-td3combine-expt_with_safe_fix_again,128,118.93695402003483,208757,796,1626.826581478119,12.26819133758545,-12.339776039123535,10.304515838623047,0.33
207,MetaDrive-td3combine-expt_with_safe_fix_again,128,121.13549123088958,209054,797,1629.0949647426605,15.607429504394531,,39.03986740112305,0.34
208,MetaDrive-td3combine-expt_with_safe_fix_again,128,125.43291642764018,210182,800,1638.0400154590607,17.061744689941406,,26.682897567749023,0.36
209,MetaDrive-td3combine-expt_with_safe_fix_again,128,123.79823200381743,211183,801,1645.1333239078522,12.396320343017578,-12.625361442565918,8.946451187133789,0.35
210,MetaDrive-td3combine-expt_with_safe_fix_again,128,123.32769782962423,212486,803,1655.6921217441559,10.164918899536133,,9.70412826538086,0.35
211,MetaDrive-td3combine-expt_with_safe_fix_again,128,122.84187029463855,213120,806,1660.4544944763184,17.256629943847656,,3.496061325073242,0.35
212,MetaDrive-td3combine-expt_with_safe_fix_again,128,124.5637936588927,214449,808,1670.6437187194824,17.133529663085938,-17.288978576660156,6.299420356750488,0.36
213,MetaDrive-td3combine-expt_with_safe_fix_again,128,125.16654211888458,215450,809,1678.3887193202972,18.030254364013672,,4.285473346710205,0.36
214,MetaDrive-td3combine-expt_with_safe_fix_again,128,123.19531861967982,216451,810,1685.1825921535492,16.05864715576172,-16.244524002075195,4.290884971618652,0.35
215,MetaDrive-td3combine-expt_with_safe_fix_again,128,125.42673667197393,217452,811,1692.533418893814,16.685211181640625,,6.554838180541992,0.35
216,MetaDrive-td3combine-expt_with_safe_fix_again,128,125.56643126304407,218453,812,1699.5803442001343,10.052804946899414,-10.58971118927002,4.058963775634766,0.35
217,MetaDrive-td3combine-expt_with_safe_fix_again,128,122.58253235874093,219020,813,1703.713160276413,10.45622730255127,,2.3204870223999023,0.35
218,MetaDrive-td3combine-expt_with_safe_fix_again,128,124.08330209070728,220021,814,1710.9940004348755,13.433384895324707,-14.424273490905762,4.654131889343262,0.34
219,MetaDrive-td3combine-expt_with_safe_fix_again,128,124.9843891415841,221154,816,1718.9668247699738,13.455341339111328,,2.2528958320617676,0.34
220,MetaDrive-td3combine-expt_with_safe_fix_again,128,124.39833447809306,222155,817,1727.9942576885223,12.570249557495117,-12.005245208740234,3.657599449157715,0.34
221,MetaDrive-td3combine-expt_with_safe_fix_again,128,122.53708097306,223922,820,1741.924217224121,14.971175193786621,,4.192539215087891,0.33
222,MetaDrive-td3combine-expt_with_safe_fix_again,128,123.90948325504405,224923,821,1750.465512752533,10.108372688293457,-9.85517692565918,5.260794162750244,0.33
223,MetaDrive-td3combine-expt_with_safe_fix_again,128,125.78890496399134,225832,822,1758.1248934268951,14.052248001098633,,4.548927307128906,0.33
224,MetaDrive-td3combine-expt_with_safe_fix_again,128,126.54697148082167,226330,824,1761.8984429836273,11.001716613769531,,8.67354679107666,0.33
225,MetaDrive-td3combine-expt_with_safe_fix_again,128,131.23937513607652,227165,826,1768.5751838684082,17.841840744018555,-18.056825637817383,4.200122833251953,0.35
226,MetaDrive-td3combine-expt_with_safe_fix_again,128,133.7709319583037,228473,828,1777.9513382911682,16.894073486328125,-18.291305541992188,29.484485626220703,0.36
227,MetaDrive-td3combine-expt_with_safe_fix_again,128,131.1176235088384,229087,832,1782.7239110469818,20.926103591918945,-21.272258758544922,5.543689727783203,0.35
228,MetaDrive-td3combine-expt_with_safe_fix_again,128,133.9986367240257,230915,835,1796.296464920044,16.220794677734375,-17.34256362915039,49.27074432373047,0.36
229,MetaDrive-td3combine-expt_with_safe_fix_again,128,132.45324859536746,231916,836,1804.68457365036,17.639331817626953,,7.178134918212891,0.35
230,MetaDrive-td3combine-expt_with_safe_fix_again,128,134.0622122550826,232457,837,1808.6318352222443,18.41343116760254,-18.535846710205078,10.84541130065918,0.36
231,MetaDrive-td3combine-expt_with_safe_fix_again,128,136.12347239094706,233106,839,1813.3481259346008,10.455105781555176,,5.678671836853027,0.37
232,MetaDrive-td3combine-expt_with_safe_fix_again,128,134.9877596331689,234107,840,1820.648687839508,10.876314163208008,-11.267374038696289,7.338804244995117,0.36
233,MetaDrive-td3combine-expt_with_safe_fix_again,128,133.12767382836805,235272,842,1829.3598544597626,12.583815574645996,,6.111349582672119,0.35
234,MetaDrive-td3combine-expt_with_safe_fix_again,128,133.36330527938128,236273,843,1836.49383020401,12.185150146484375,-13.243171691894531,2.425535202026367,0.35
235,MetaDrive-td3combine-expt_with_safe_fix_again,128,135.97293525900696,237545,845,1846.6541650295258,11.94923210144043,-12.275404930114746,4.032038688659668,0.36
236,MetaDrive-td3combine-expt_with_safe_fix_again,128,138.20555003893614,238202,847,1851.4232432842255,18.275535583496094,,4.69395637512207,0.38
237,MetaDrive-td3combine-expt_with_safe_fix_again,128,141.19338721098077,239469,850,1860.823988199234,19.691226959228516,-20.147632598876953,46.25290298461914,0.39
238,MetaDrive-td3combine-expt_with_safe_fix_again,128,140.48617513697357,240470,851,1868.6147811412811,12.659137725830078,,3.581615686416626,0.38
239,MetaDrive-td3combine-expt_with_safe_fix_again,128,140.9350665482419,241471,852,1876.1621670722961,14.016155242919922,-14.925064086914062,4.0607709884643555,0.38
240,MetaDrive-td3combine-expt_with_safe_fix_again,128,144.8575173073766,242606,854,1884.9818034172058,17.13780403137207,,15.263923645019531,0.4
241,MetaDrive-td3combine-expt_with_safe_fix_again,128,145.26062298716306,243607,855,1891.9025287628174,14.417252540588379,-14.632147789001465,6.273810386657715,0.4
242,MetaDrive-td3combine-expt_with_safe_fix_again,128,142.8271058160952,244608,856,1900.3212110996246,20.244720458984375,,7.559075355529785,0.39
243,MetaDrive-td3combine-expt_with_safe_fix_again,128,142.54270091608726,245298,857,1905.6588904857635,17.409912109375,,2.5626258850097656,0.39
244,MetaDrive-td3combine-expt_with_safe_fix_again,128,141.2699759348131,246299,858,1913.3430063724518,17.771469116210938,-18.929946899414062,10.746729850769043,0.38
245,MetaDrive-td3combine-expt_with_safe_fix_again,128,144.09535823285987,247056,860,1919.1028854846954,12.220246315002441,,9.056264877319336,0.4
246,MetaDrive-td3combine-expt_with_safe_fix_again,128,145.29637204771288,248105,862,1927.1338477134705,13.444222450256348,-13.956161499023438,6.477756977081299,0.41
247,MetaDrive-td3combine-expt_with_safe_fix_again,128,148.505879981758,249109,865,1934.447867155075,15.609088897705078,-15.66151237487793,18.909465789794922,0.43
248,MetaDrive-td3combine-expt_with_safe_fix_again,128,152.3240276237599,250479,868,1945.0879085063934,18.778749465942383,-19.420738220214844,3.524895429611206,0.45
249,MetaDrive-td3combine-expt_with_safe_fix_again,128,153.95558209905911,251929,870,1955.7002265453339,19.850112915039062,-20.108335494995117,7.6002302169799805,0.46
250,MetaDrive-td3combine-expt_with_safe_fix_again,128,154.22332047545402,252930,871,1962.933032989502,15.11109733581543,,6.265690803527832,0.46
251,MetaDrive-td3combine-expt_with_safe_fix_again,128,153.03746060506998,253931,872,1969.9079344272614,19.04099464416504,-19.73247528076172,7.635197639465332,0.45
252,MetaDrive-td3combine-expt_with_safe_fix_again,128,155.57644099284454,254310,873,1972.674921989441,17.180225372314453,,12.152502059936523,0.46
253,MetaDrive-td3combine-expt_with_safe_fix_again,128,155.6404771999131,255311,874,1979.8049275875092,19.006816864013672,-20.428030014038086,14.247076034545898,0.46
254,MetaDrive-td3combine-expt_with_safe_fix_again,128,155.1147556437024,256312,875,1987.3086030483246,20.054866790771484,,7.262579441070557,0.45
255,MetaDrive-td3combine-expt_with_safe_fix_again,129,154.72113603587175,257313,876,1994.3762381076813,14.007667541503906,-14.610477447509766,5.405372619628906,0.45
256,MetaDrive-td3combine-expt_with_safe_fix_again,129,154.86413947493907,258779,878,2005.566606760025,21.245929718017578,-21.205326080322266,5.997506141662598,0.45
257,MetaDrive-td3combine-expt_with_safe_fix_again,129,154.68860221850287,259780,879,2013.2260193824768,14.250833511352539,,6.889275550842285,0.44
258,MetaDrive-td3combine-expt_with_safe_fix_again,129,155.072135814868,260959,881,2021.637484550476,17.443683624267578,-18.417078018188477,5.501564025878906,0.44
259,MetaDrive-td3combine-expt_with_safe_fix_again,129,154.9746822420511,261960,882,2028.6377532482147,13.657225608825684,,4.901659965515137,0.44
260,MetaDrive-td3combine-expt_with_safe_fix_again,129,155.19652789342442,262961,883,2035.8072443008423,18.703861236572266,-18.335628509521484,7.923695087432861,0.44
261,MetaDrive-td3combine-expt_with_safe_fix_again,129,154.82726510524463,263133,884,2037.1605868339539,11.163485527038574,-11.498525619506836,6.19422721862793,0.43
262,MetaDrive-td3combine-expt_with_safe_fix_again,129,155.61461376637342,264474,886,2046.9492163658142,13.598020553588867,,28.35661506652832,0.43
263,MetaDrive-td3combine-expt_with_safe_fix_again,129,155.51369537538056,265475,887,2054.5552065372467,10.069385528564453,-9.626397132873535,7.248033046722412,0.43
264,MetaDrive-td3combine-expt_with_safe_fix_again,129,153.54134437714475,266476,888,2062.1527547836304,15.722970962524414,,5.7630839347839355,0.42
265,MetaDrive-td3combine-expt_with_safe_fix_again,129,156.76710161960494,267144,889,2067.7070677280426,15.855464935302734,,4.246444225311279,0.43
266,MetaDrive-td3combine-expt_with_safe_fix_again,129,157.30603227463615,268133,890,2074.7899208068848,14.88724136352539,-15.39858627319336,17.28970718383789,0.43
267,MetaDrive-td3combine-expt_with_safe_fix_again,129,156.28229531589488,269134,891,2082.0864543914795,17.3011474609375,,11.489256858825684,0.42
268,MetaDrive-td3combine-expt_with_safe_fix_again,129,156.0667453308398,270135,892,2089.6565368175507,9.00359058380127,-9.28697395324707,14.785799980163574,0.42
269,MetaDrive-td3combine-expt_with_safe_fix_again,129,154.53572035135502,271136,893,2098.2046613693237,12.18979263305664,,7.342352390289307,0.41
270,MetaDrive-td3combine-expt_with_safe_fix_again,129,152.9017822637767,272237,895,2106.392643928528,17.053966522216797,-17.57357406616211,4.436851978302002,0.4
271,MetaDrive-td3combine-expt_with_safe_fix_again,129,150.64653496335288,273463,898,2116.4198246002197,18.49924087524414,-19.12403106689453,2.991534948348999,0.38
272,MetaDrive-td3combine-expt_with_safe_fix_again,129,148.63150089955133,274754,900,2125.548125743866,11.665257453918457,,41.471343994140625,0.38
273,MetaDrive-td3combine-expt_with_safe_fix_again,129,151.27910305179748,275755,901,2132.7949957847595,18.105098724365234,-19.185161590576172,6.060493469238281,0.38
274,MetaDrive-td3combine-expt_with_safe_fix_again,129,151.32724030210716,276315,903,2137.127583026886,12.620068550109863,-13.452923774719238,4.831291198730469,0.39
275,MetaDrive-td3combine-expt_with_safe_fix_again,129,154.60769377846592,277065,904,2142.9270293712616,20.262311935424805,-21.584280014038086,11.345433235168457,0.4
276,MetaDrive-td3combine-expt_with_safe_fix_again,129,154.68064710220423,278066,905,2150.6348161697388,8.902055740356445,,4.8295159339904785,0.39
277,MetaDrive-td3combine-expt_with_safe_fix_again,129,152.81578998374755,279194,907,2158.6465718746185,14.980175018310547,,41.374855041503906,0.38
278,MetaDrive-td3combine-expt_with_safe_fix_again,129,153.41659725008114,280195,908,2165.743903875351,21.649232864379883,-21.38552474975586,3.5574088096618652,0.38
279,MetaDrive-td3combine-expt_with_safe_fix_again,129,156.90119144385818,281310,910,2174.2102134227753,18.73115348815918,,8.958475112915039,0.39
280,MetaDrive-td3combine-expt_with_safe_fix_again,129,157.8576976742892,282781,912,2185.0559446811676,10.945808410644531,-10.775023460388184,116.25978088378906,0.4
281,MetaDrive-td3combine-expt_with_safe_fix_again,129,158.86294156599382,283485,913,2190.503605365753,13.15929126739502,-13.210466384887695,35.69580841064453,0.4
282,MetaDrive-td3combine-expt_with_safe_fix_again,129,156.71702072010498,284486,914,2198.2443330287933,22.217937469482422,,5.710028648376465,0.4
283,MetaDrive-td3combine-expt_with_safe_fix_again,129,157.42695395271082,285487,915,2206.7252101898193,18.24024200439453,-17.896554946899414,11.77944564819336,0.4
284,MetaDrive-td3combine-expt_with_safe_fix_again,129,158.11035524435775,286488,916,2214.2726545333862,12.150997161865234,,10.285381317138672,0.4
285,MetaDrive-td3combine-expt_with_safe_fix_again,129,157.3519118111896,287489,917,2222.2184755802155,15.083951950073242,-15.832223892211914,9.330008506774902,0.4
286,MetaDrive-td3combine-expt_with_safe_fix_again,129,157.7900022772346,288490,918,2229.4627401828766,15.626975059509277,,4.286632537841797,0.4
287,MetaDrive-td3combine-expt_with_safe_fix_again,129,154.20075427811443,289639,920,2237.5237345695496,17.951160430908203,-18.036357879638672,14.884719848632812,0.39
288,MetaDrive-td3combine-expt_with_safe_fix_again,129,153.85224710499057,290114,921,2240.7943634986877,20.576950073242188,,46.55731964111328,0.4
289,MetaDrive-td3combine-expt_with_safe_fix_again,129,152.21511161943937,291548,923,2250.7033660411835,17.096458435058594,,5.353638172149658,0.39
290,MetaDrive-td3combine-expt_with_safe_fix_again,129,150.11809423920067,292549,924,2257.671520471573,18.152130126953125,-18.54151153564453,57.0896110534668,0.38
291,MetaDrive-td3combine-expt_with_safe_fix_again,129,150.7030468051185,293385,925,2263.431948661804,14.685586929321289,-15.54662799835205,5.800405025482178,0.38
292,MetaDrive-td3combine-expt_with_safe_fix_again,129,147.9310826816792,294902,928,2274.483887195587,18.036218643188477,,11.342012405395508,0.37
293,MetaDrive-td3combine-expt_with_safe_fix_again,129,148.89368793854817,295095,929,2275.9692435264587,16.02991485595703,-17.323165893554688,11.24101448059082,0.37
294,MetaDrive-td3combine-expt_with_safe_fix_again,129,150.27435629923403,296096,930,2282.685879945755,18.985836029052734,,8.135448455810547,0.37
295,MetaDrive-td3combine-expt_with_safe_fix_again,129,146.6788704836608,297630,935,2294.201761007309,14.828351974487305,,3.5269861221313477,0.35
296,MetaDrive-td3combine-expt_with_safe_fix_again,129,145.18005312221447,298786,937,2303.590525865555,15.683698654174805,,19.33255386352539,0.34
297,MetaDrive-td3combine-expt_with_safe_fix_again,129,144.55429235720854,299781,938,2310.8668580055237,13.626409530639648,-13.452398300170898,9.070043563842773,0.33
298,MetaDrive-td3combine-expt_with_safe_fix_again,129,143.84196546177176,300002,939,2312.7012276649475,19.82461166381836,,6.509341239929199,0.33
299,MetaDrive-td3combine-expt_with_safe_fix_again,129,147.26311591365615,301185,942,2322.730003595352,19.85049057006836,-20.951679229736328,4.469461441040039,0.34
300,MetaDrive-td3combine-expt_with_safe_fix_again,129,145.7234665902639,302695,945,2333.9269144535065,14.661792755126953,-15.200543403625488,69.65933990478516,0.33
301,MetaDrive-td3combine-expt_with_safe_fix_again,129,145.0257372453365,303696,946,2341.1168456077576,19.100933074951172,,6.702384948730469,0.32
302,MetaDrive-td3combine-expt_with_safe_fix_again,129,144.8437672660868,304697,947,2348.8939135074615,12.742871284484863,-12.493780136108398,21.91379737854004,0.31
303,MetaDrive-td3combine-expt_with_safe_fix_again,129,145.9323735456913,305698,948,2356.2075197696686,8.54475212097168,,49.34066390991211,0.3
304,MetaDrive-td3combine-expt_with_safe_fix_again,129,143.73630579467533,306699,949,2363.756887435913,16.21432113647461,-15.571117401123047,4.986019134521484,0.29
305,MetaDrive-td3combine-expt_with_safe_fix_again,129,142.27918152278428,307230,951,2367.994933128357,12.112221717834473,,9.122185707092285,0.29
306,MetaDrive-td3combine-expt_with_safe_fix_again,129,145.09943137550187,308827,953,2379.7631397247314,16.302623748779297,-16.755722045898438,14.98898696899414,0.3
307,MetaDrive-td3combine-expt_with_safe_fix_again,129,145.17825255947685,309545,954,2384.8735501766205,24.144245147705078,-24.27609634399414,9.344207763671875,0.3
308,MetaDrive-td3combine-expt_with_safe_fix_again,129,146.19528244924916,310546,955,2391.9627895355225,8.643723487854004,,7.852644920349121,0.3
309,MetaDrive-td3combine-expt_with_safe_fix_again,129,149.38277628705902,311359,956,2397.786716222763,10.171098709106445,-10.366870880126953,12.988326072692871,0.31
310,MetaDrive-td3combine-expt_with_safe_fix_again,129,149.67987507261307,312794,958,2408.3596065044403,18.023889541625977,,8.436785697937012,0.32
311,MetaDrive-td3combine-expt_with_safe_fix_again,129,148.78967399410018,313229,959,2411.459867954254,17.853303909301758,-19.744592666625977,19.859846115112305,0.31
312,MetaDrive-td3combine-expt_with_safe_fix_again,129,142.17376708571067,314489,962,2420.7271716594696,8.455370903015137,-7.918792247772217,7.396223068237305,0.28
313,MetaDrive-td3combine-expt_with_safe_fix_again,129,140.68091675510794,315490,963,2428.171464920044,12.117082595825195,,5.41745662689209,0.27
314,MetaDrive-td3combine-expt_with_safe_fix_again,129,139.32155201486344,316491,964,2435.7757773399353,25.487693786621094,-25.877342224121094,7.32277774810791,0.26
315,MetaDrive-td3combine-expt_with_safe_fix_again,129,139.10239416685098,317492,965,2442.4418206214905,15.207036972045898,,8.319282531738281,0.25
316,MetaDrive-td3combine-expt_with_safe_fix_again,129,137.93972369501245,318053,966,2446.597941160202,16.564685821533203,-16.546268463134766,8.235918998718262,0.24
317,MetaDrive-td3combine-expt_with_safe_fix_again,130,136.57910399156793,319054,967,2454.078543663025,13.951139450073242,,13.077943801879883,0.23
318,MetaDrive-td3combine-expt_with_safe_fix_again,130,137.4705293404147,320802,969,2467.3815240859985,5.304140567779541,,6.953417778015137,0.22
319,MetaDrive-td3combine-expt_with_safe_fix_again,130,138.19729204409376,321156,970,2469.9643511772156,14.832529067993164,,12.329885482788086,0.22
320,MetaDrive-td3combine-expt_with_safe_fix_again,130,139.4004476436676,322832,972,2482.0510969161987,17.235248565673828,,6.697991371154785,0.23
321,MetaDrive-td3combine-expt_with_safe_fix_again,130,138.9277107764493,323596,973,2487.5615124702454,23.343608856201172,,7.038852691650391,0.22
322,MetaDrive-td3combine-expt_with_safe_fix_again,130,138.88609894834752,324597,974,2495.1668317317963,13.24712085723877,-13.322836875915527,9.746950149536133,0.22
323,MetaDrive-td3combine-expt_with_safe_fix_again,130,140.5256775034137,325598,975,2502.3277354240417,20.899246215820312,,9.376694679260254,0.22
324,MetaDrive-td3combine-expt_with_safe_fix_again,130,144.04236328954767,326293,976,2508.0308451652527,17.094396591186523,-17.437541961669922,9.429814338684082,0.23
325,MetaDrive-td3combine-expt_with_safe_fix_again,130,142.1595832269148,327294,977,2514.763106584549,16.749282836914062,,7.771505832672119,0.22
326,MetaDrive-td3combine-expt_with_safe_fix_again,130,143.86594432413847,328165,980,2521.465613603592,8.264867782592773,-7.387488842010498,56.60328674316406,0.23
327,MetaDrive-td3combine-expt_with_safe_fix_again,130,142.4772414258775,329166,981,2528.347738981247,17.929086685180664,,31.413726806640625,0.23
328,MetaDrive-td3combine-expt_with_safe_fix_again,130,144.81636236144476,330227,983,2535.8731141090393,8.369625091552734,-7.599478244781494,7.705806732177734,0.24
329,MetaDrive-td3combine-expt_with_safe_fix_again,130,145.80908313925661,331228,984,2543.9828333854675,18.658946990966797,,11.552314758300781,0.24
330,MetaDrive-td3combine-expt_with_safe_fix_again,130,143.08921823669073,332943,987,2556.198855161667,29.73375129699707,-29.93734359741211,11.675939559936523,0.23
331,MetaDrive-td3combine-expt_with_safe_fix_again,130,142.4128840513103,333132,988,2557.703281879425,19.42168617248535,,11.48322868347168,0.23
332,MetaDrive-td3combine-expt_with_safe_fix_again,130,137.02482645002019,334255,990,2566.3822259902954,11.031614303588867,-11.335251808166504,10.57778549194336,0.21
333,MetaDrive-td3combine-expt_with_safe_fix_again,130,135.04944914849017,335005,993,2572.6203801631927,19.656429290771484,-20.756479263305664,4.846796989440918,0.21
334,MetaDrive-td3combine-expt_with_safe_fix_again,130,136.22465966832272,336204,996,2580.9132540225983,16.92868423461914,,14.765913009643555,0.23
335,MetaDrive-td3combine-expt_with_safe_fix_again,130,139.0440131964584,337571,998,2591.6905570030212,14.532509803771973,-15.593378067016602,59.0809211730957,0.24
336,MetaDrive-td3combine-expt_with_safe_fix_again,130,138.77222794237116,338572,999,2598.528601169586,16.780120849609375,,6.818689346313477,0.23
337,MetaDrive-td3combine-expt_with_safe_fix_again,130,139.9760438071636,339077,1000,2602.0398955345154,19.611860275268555,-20.391246795654297,77.33499145507812,0.24
338,MetaDrive-td3combine-expt_with_safe_fix_again,130,137.33166709708829,340078,1001,2610.434977531433,18.871044158935547,,7.070930480957031,0.24
339,MetaDrive-td3combine-expt_with_safe_fix_again,130,135.48268863789514,341205,1004,2618.6985788345337,15.573966026306152,-15.6990966796875,4.1291093826293945,0.24
340,MetaDrive-td3combine-expt_with_safe_fix_again,130,136.66876939216954,342525,1006,2628.1633887290955,20.60051727294922,-21.099075317382812,6.3261895179748535,0.24
341,MetaDrive-td3combine-expt_with_safe_fix_again,130,137.61903270542885,343526,1007,2635.288785457611,22.93097686767578,,17.2808837890625,0.24
342,MetaDrive-td3combine-expt_with_safe_fix_again,130,138.82050643034793,344393,1009,2641.650496006012,16.211755752563477,-16.021087646484375,4.956873893737793,0.26
343,MetaDrive-td3combine-expt_with_safe_fix_again,130,135.5259393993285,345297,1011,2648.59245800972,9.032966613769531,-10.045828819274902,47.9425163269043,0.25
344,MetaDrive-td3combine-expt_with_safe_fix_again,130,135.94540151999644,346298,1012,2655.340718269348,20.83759117126465,,90.3917236328125,0.25
345,MetaDrive-td3combine-expt_with_safe_fix_again,130,134.85924016352237,347450,1014,2663.672213792801,18.71467399597168,,3.5088698863983154,0.24
346,MetaDrive-td3combine-expt_with_safe_fix_again,130,134.02114689371538,348451,1015,2671.440534353256,13.558830261230469,-15.086788177490234,17.575992584228516,0.24
347,MetaDrive-td3combine-expt_with_safe_fix_again,130,133.48732873667714,349452,1016,2678.77450299263,21.919635772705078,,12.654111862182617,0.24
348,MetaDrive-td3combine-expt_with_safe_fix_again,130,133.6136557848553,350453,1017,2685.600372314453,23.194259643554688,-24.143993377685547,15.950211524963379,0.24
349,MetaDrive-td3combine-expt_with_safe_fix_again,130,134.29048255485222,351884,1020,2695.6311814785004,26.456911087036133,,48.49717712402344,0.24
350,MetaDrive-td3combine-expt_with_safe_fix_again,130,132.51944803593864,352089,1021,2697.255147218704,16.217676162719727,-16.44546890258789,6.511768817901611,0.23
351,MetaDrive-td3combine-expt_with_safe_fix_again,130,135.05484046390467,353563,1023,2709.163342475891,11.666419982910156,-11.390068054199219,8.866170883178711,0.23
352,MetaDrive-td3combine-expt_with_safe_fix_again,130,135.30096649539587,354564,1024,2716.38335108757,21.522279739379883,,11.26083755493164,0.23
353,MetaDrive-td3combine-expt_with_safe_fix_again,130,133.1039217373979,355565,1025,2723.8923950195312,14.108844757080078,-14.136770248413086,9.632182121276855,0.22
354,MetaDrive-td3combine-expt_with_safe_fix_again,130,132.4312068481939,356566,1026,2731.0683028697968,11.900774955749512,,21.860633850097656,0.21
355,MetaDrive-td3combine-expt_with_safe_fix_again,130,134.4340381512555,357195,1027,2735.3254704475403,15.81534194946289,-16.09667205810547,46.65349578857422,0.22
356,MetaDrive-td3combine-expt_with_safe_fix_again,130,134.4206192681455,358043,1029,2741.6028974056244,15.742778778076172,-15.924050331115723,33.1337890625,0.23
357,MetaDrive-td3combine-expt_with_safe_fix_again,130,134.38705440217146,359044,1030,2748.4199969768524,29.662750244140625,,7.609785556793213,0.23
358,MetaDrive-td3combine-expt_with_safe_fix_again,130,134.48160506617063,360223,1032,2757.2013030052185,16.949848175048828,-18.11341094970703,9.914756774902344,0.23
359,MetaDrive-td3combine-expt_with_safe_fix_again,130,137.50724676822733,361167,1034,2763.739100933075,13.464984893798828,-13.448291778564453,10.251440048217773,0.25
360,MetaDrive-td3combine-expt_with_safe_fix_again,130,139.8697266631812,362056,1036,2770.7495148181915,10.956083297729492,,7.04647159576416,0.26
361,MetaDrive-td3combine-expt_with_safe_fix_again,130,139.518573412439,363456,1038,2780.7936749458313,22.321720123291016,,11.867166519165039,0.26
362,MetaDrive-td3combine-expt_with_safe_fix_again,130,138.79714492957999,364609,1040,2789.9843368530273,20.20547103881836,-20.313655853271484,4.570013999938965,0.26
363,MetaDrive-td3combine-expt_with_safe_fix_again,130,139.87818284395308,365008,1041,2792.8876416683197,18.609376907348633,,5.896121025085449,0.27
364,MetaDrive-td3combine-expt_with_safe_fix_again,130,138.06979296958414,366009,1042,2800.5568368434906,16.209360122680664,-16.90376853942871,8.882547378540039,0.26
365,MetaDrive-td3combine-expt_with_safe_fix_again,130,136.80506893042696,367437,1044,2810.600248813629,23.36953353881836,-23.09966278076172,3.3929009437561035,0.25
366,MetaDrive-td3combine-expt_with_safe_fix_again,130,139.8330203529796,368204,1046,2816.412445306778,15.107576370239258,,29.522342681884766,0.26
367,MetaDrive-td3combine-expt_with_safe_fix_again,130,138.10782763323385,369205,1047,2824.526401758194,16.24950408935547,-15.089323997497559,12.583880424499512,0.26
368,MetaDrive-td3combine-expt_with_safe_fix_again,130,135.76950723042972,370206,1048,2831.732980489731,17.19524383544922,,19.042694091796875,0.26
369,MetaDrive-td3combine-expt_with_safe_fix_again,130,137.51232099591255,371609,1050,2841.6555807590485,17.501392364501953,-16.67315101623535,4.514985084533691,0.28
370,MetaDrive-td3combine-expt_with_safe_fix_again,130,136.31661870884017,372120,1052,2845.4042286872864,12.28543472290039,,7.4634528160095215,0.27
371,MetaDrive-td3combine-expt_with_safe_fix_again,130,133.9194448383382,373121,1053,2853.9125921726227,12.629810333251953,-12.147329330444336,5.276369094848633,0.26
372,MetaDrive-td3combine-expt_with_safe_fix_again,130,131.64189392354183,374122,1054,2861.4237146377563,11.716686248779297,,9.003450393676758,0.25
373,MetaDrive-td3combine-expt_with_safe_fix_again,130,132.62892091760543,375123,1055,2868.583838701248,22.319684982299805,-24.206859588623047,9.364803314208984,0.25
374,MetaDrive-td3combine-expt_with_safe_fix_again,130,131.41509406000432,376100,1057,2875.610419511795,19.762149810791016,,18.351398468017578,0.25
375,MetaDrive-td3combine-expt_with_safe_fix_again,130,131.25531876800403,377101,1058,2883.09805727005,17.10995864868164,-17.252105712890625,14.561052322387695,0.25
376,MetaDrive-td3combine-expt_with_safe_fix_again,130,133.76902926693433,378823,1061,2895.4768402576447,16.117319107055664,-18.007001876831055,163.2535858154297,0.25
377,MetaDrive-td3combine-expt_with_safe_fix_again,130,134.140227153265,379592,1063,2901.0509328842163,15.917190551757812,,160.02304077148438,0.26
378,MetaDrive-td3combine-expt_with_safe_fix_again,130,137.27831491164562,380583,1065,2908.360318660736,25.19610595703125,-26.03704833984375,6.3409528732299805,0.28
379,MetaDrive-td3combine-expt_with_safe_fix_again,130,138.24744823827797,381584,1066,2915.3549251556396,25.051998138427734,,73.75381469726562,0.28
380,MetaDrive-td3combine-expt_with_safe_fix_again,130,138.130740750365,382585,1067,2923.10569357872,14.757781982421875,-15.305351257324219,107.34590148925781,0.28
381,MetaDrive-td3combine-expt_with_safe_fix_again,130,134.76186088153503,383586,1068,2930.0787525177,19.484394073486328,,4.114735126495361,0.27
382,MetaDrive-td3combine-expt_with_safe_fix_again,130,133.77104537709837,384587,1069,2937.2648389339447,13.744796752929688,-13.310188293457031,22.66710662841797,0.27
383,MetaDrive-td3combine-expt_with_safe_fix_again,130,133.2706240329547,385928,1072,2946.8686969280243,21.820907592773438,,90.11634826660156,0.26
384,MetaDrive-td3combine-expt_with_safe_fix_again,130,131.35742747297084,386678,1073,2952.2286715507507,20.81585121154785,,11.439491271972656,0.26
385,MetaDrive-td3combine-expt_with_safe_fix_again,130,131.69383694705687,387679,1074,2959.7569234371185,16.17647933959961,-16.452125549316406,2.5558128356933594,0.26
386,MetaDrive-td3combine-expt_with_safe_fix_again,130,131.18155193698442,388680,1075,2967.9431734085083,24.14670181274414,,11.218072891235352,0.26
387,MetaDrive-td3combine-expt_with_safe_fix_again,130,129.77044023654807,389217,1076,2972.0106699466705,16.308847427368164,-15.624502182006836,14.23413372039795,0.26
388,MetaDrive-td3combine-expt_with_safe_fix_again,130,127.34610514376332,390024,1079,2978.0996148586273,17.139928817749023,,5.306681156158447,0.25
389,MetaDrive-td3combine-expt_with_safe_fix_again,130,127.93699468984394,391059,1082,2985.7864711284637,24.3587646484375,-24.80679702758789,13.352033615112305,0.25
390,MetaDrive-td3combine-expt_with_safe_fix_again,130,126.2034631589558,392060,1083,2993.0241825580597,23.940242767333984,,15.837953567504883,0.24
391,MetaDrive-td3combine-expt_with_safe_fix_again,131,128.33242642996794,393455,1085,3003.2798240184784,21.896102905273438,-22.47901153564453,22.06670379638672,0.24
392,MetaDrive-td3combine-expt_with_safe_fix_again,131,126.02827885159668,394332,1088,3009.6754076480865,19.006267547607422,,71.0765380859375,0.24
393,MetaDrive-td3combine-expt_with_safe_fix_again,131,127.40745848671435,395871,1090,3020.9949946403503,24.66844940185547,-25.19207000732422,11.712453842163086,0.24
394,MetaDrive-td3combine-expt_with_safe_fix_again,131,127.6336027710953,396872,1091,3028.263421535492,23.529653549194336,,20.467483520507812,0.24
395,MetaDrive-td3combine-expt_with_safe_fix_again,131,127.74989554740937,397873,1092,3035.8447313308716,16.756683349609375,-17.35028839111328,7.713691711425781,0.24
396,MetaDrive-td3combine-expt_with_safe_fix_again,131,128.82699244766673,398570,1093,3040.5875012874603,22.747753143310547,,11.782573699951172,0.25
397,MetaDrive-td3combine-expt_with_safe_fix_again,131,130.78530104793867,399043,1094,3043.9098217487335,25.947351455688477,-26.063701629638672,7.827753067016602,0.25
