TanmayH/CS269-RL-project-code/MetaDrive-testbn4/td3/progress.csv
,log_dir,frame_per_second,episode_reward,total_steps,total_episodes,total_time,actor_loss,critic_loss,target_q,success_rate
0,MetaDrive-testbn4,189,2.9750168045268968,1049,2,5.52324104309082,0.06544334441423416,1.5260813236236572,-0.2069644331932068,0.0
1,MetaDrive-testbn4,110,-1.9838853860341688,2636,22,23.751521587371826,,0.012299783527851105,-0.08414902538061142,0.0
2,MetaDrive-testbn4,107,-2.122729388486846,3363,23,31.42756223678589,0.049117639660835266,0.7482714653015137,-0.1619592010974884,0.0
3,MetaDrive-testbn4,106,-2.054394282744704,4364,24,40.870261430740356,,0.006628392729908228,-0.08348720520734787,0.0
4,MetaDrive-testbn4,106,-2.2876245296491606,5773,27,54.01585245132446,0.08158078789710999,0.019447047263383865,-0.11735018342733383,0.0
5,MetaDrive-testbn4,104,-2.495167500181759,6116,29,58.29093885421753,,0.6325601935386658,-0.20378214120864868,0.0
6,MetaDrive-testbn4,102,-2.2927565033262285,7117,30,69.6369001865387,0.1984187662601471,0.004825711250305176,-0.17811396718025208,0.0
7,MetaDrive-testbn4,102,-2.405873214115043,8083,31,78.53975749015808,0.1780654489994049,0.006926074158400297,-0.17588955163955688,0.0
8,MetaDrive-testbn4,103,-2.6258713596214522,9151,33,88.22718095779419,0.17117084562778473,0.3095465302467346,-0.25073960423469543,0.0
9,MetaDrive-testbn4,103,-2.439819348194515,10152,34,97.95808100700378,,0.02262037992477417,-0.20046870410442352,0.0
10,MetaDrive-testbn4,104,-2.4885676365910876,11686,36,111.96093606948853,,0.003435350488871336,-0.23072436451911926,0.0
11,MetaDrive-testbn4,104,-2.3601752304799164,12687,37,121.34127402305603,0.220319926738739,0.01094448659569025,-0.22663849592208862,0.0
12,MetaDrive-testbn4,104,-2.2033948685184814,13688,38,130.94527125358582,,0.00947672501206398,-0.2185783088207245,0.0
13,MetaDrive-testbn4,104,-2.050910600845723,14689,39,140.4469382762909,0.2414645552635193,0.001563457539305091,-0.23016327619552612,0.0
14,MetaDrive-testbn4,104,-2.155260648870931,15277,40,146.08483266830444,0.23968571424484253,0.0021723825484514236,-0.22751158475875854,0.0
15,MetaDrive-testbn4,103,-2.0313544553104,16647,42,160.5482428073883,0.23990489542484283,0.7032386660575867,-0.30340123176574707,0.0
16,MetaDrive-testbn4,102,-1.6735437055226292,17856,44,173.50301551818848,,0.00017756168381311,-0.23241673409938812,0.0
17,MetaDrive-testbn4,103,-1.6154135693815752,18857,45,182.28498315811157,0.24064169824123383,0.005818716250360012,-0.22068282961845398,0.0
18,MetaDrive-testbn4,103,-1.540722124847487,19308,46,186.43990445137024,,0.003455398604273796,-0.2239556610584259,0.0
19,MetaDrive-testbn4,102,-0.20487900683241042,20022,53,194.71900510787964,,0.0038131808396428823,-0.20350758731365204,0.0
20,MetaDrive-testbn4,100,2.502755300214887,21044,77,208.79029154777527,,0.012609551660716534,-0.09663201868534088,0.0
21,MetaDrive-testbn4,98,4.245408817352665,22038,102,222.94016075134277,,0.007310014218091965,0.16549688577651978,0.0
22,MetaDrive-testbn4,96,6.692504621352813,23016,129,239.74754667282104,,0.018155355006456375,0.47145333886146545,0.0
23,MetaDrive-testbn4,94,8.730321633160791,24019,153,253.11943006515503,-1.0886867046356201,1.215138554573059,0.7829984426498413,0.0
24,MetaDrive-testbn4,93,9.668728975528008,25021,176,267.2714431285858,-1.3814163208007812,2.2137818336486816,1.0251193046569824,0.0
25,MetaDrive-testbn4,92,12.781102479967329,26037,194,279.98879170417786,-1.7659329175949097,0.10577766597270966,1.614391565322876,0.0
26,MetaDrive-testbn4,92,15.275674683916385,27050,215,293.5784978866577,,0.13704073429107666,2.170541286468506,0.0
27,MetaDrive-testbn4,91,18.53480326696933,28059,232,306.5265772342682,-2.937857151031494,0.10173217207193375,2.5236072540283203,0.0
28,MetaDrive-testbn4,91,20.103445796476695,29056,251,319.18109822273254,,0.24165862798690796,2.9813995361328125,0.0
29,MetaDrive-testbn4,90,20.07121014429069,30034,272,331.43562507629395,,2.459505081176758,3.1298906803131104,0.0
30,MetaDrive-testbn4,90,20.960415088169015,31036,290,343.6165351867676,,0.17915982007980347,4.1562933921813965,0.0
31,MetaDrive-testbn4,89,24.354070927711692,32003,302,355.87522864341736,-5.027668476104736,4.935104846954346,4.794252395629883,0.0
32,MetaDrive-testbn4,89,30.756313201375264,33104,314,369.4970283508301,,3.164487600326538,5.575063705444336,0.0
33,MetaDrive-testbn4,89,34.59764788784525,34020,324,380.70702147483826,,0.27957868576049805,6.663266658782959,0.0
34,MetaDrive-testbn4,88,38.83083713230309,35033,334,394.1634042263031,-7.007721900939941,8.8809232711792,6.71872615814209,0.0
35,MetaDrive-testbn4,87,43.44484171283807,36050,345,409.9672200679779,,5.917299747467041,8.208573341369629,0.0
36,MetaDrive-testbn4,87,48.429123303200704,37021,355,422.3547508716583,-8.967774391174316,9.75545883178711,8.523538589477539,0.0
37,MetaDrive-testbn4,87,53.895527294623434,38012,365,434.0384843349457,,18.86484146118164,9.810986518859863,0.0
38,MetaDrive-testbn4,87,61.98229388966216,39135,374,448.40376901626587,-10.949260711669922,8.446508407592773,10.603145599365234,0.0
39,MetaDrive-testbn4,87,68.41604282371824,40108,382,460.70492792129517,,1.3190277814865112,12.224364280700684,0.0
40,MetaDrive-testbn4,87,73.04826426804765,41068,389,471.77066683769226,,0.9981874823570251,12.678499221801758,0.0
41,MetaDrive-testbn4,86,76.42520108745154,42003,397,483.3670675754547,-15.02609634399414,12.407072067260742,14.130986213684082,0.0
42,MetaDrive-testbn4,86,79.95875713059017,43097,406,495.53428196907043,-14.3580322265625,4.027054309844971,14.995223045349121,0.0
43,MetaDrive-testbn4,86,81.61807478349661,44035,414,508.8698971271515,-15.456778526306152,19.19318389892578,15.244453430175781,0.0
44,MetaDrive-testbn4,86,85.73192592115646,45063,421,521.2855517864227,-16.641536712646484,13.972835540771484,16.276342391967773,0.0
45,MetaDrive-testbn4,86,87.45625083512624,46011,429,532.7527220249176,-18.260536193847656,5.900998592376709,17.36600112915039,0.0
46,MetaDrive-testbn4,86,89.09608845872508,47043,438,545.790328502655,-19.108749389648438,34.8526611328125,17.868932723999023,0.0
47,MetaDrive-testbn4,86,90.88517979139438,48100,448,557.4866032600403,,6.185763835906982,17.954303741455078,0.0
48,MetaDrive-testbn4,86,89.4388536715283,49070,458,569.5378317832947,,2.9328560829162598,19.778711318969727,0.0
49,MetaDrive-testbn4,86,88.98722083252913,50069,469,581.5828375816345,-20.532062530517578,4.161857604980469,20.79619598388672,0.0
50,MetaDrive-testbn4,86,87.08804556479323,51124,479,593.0687875747681,,32.601036071777344,20.931241989135742,0.0
51,MetaDrive-testbn4,86,83.1729114235307,52078,489,604.5288670063019,,21.98163604736328,20.25058937072754,0.0
52,MetaDrive-testbn4,86,84.07349500913,53055,497,616.7215914726257,-22.42422866821289,2.2939229011535645,22.191410064697266,0.01
53,MetaDrive-testbn4,85,83.39375906400272,54065,506,628.7551553249359,-22.303443908691406,25.909034729003906,21.153217315673828,0.01
54,MetaDrive-testbn4,85,81.80830526824136,55090,516,641.0314865112305,,3.6744463443756104,22.788305282592773,0.01
55,MetaDrive-testbn4,85,79.2455898594136,56041,525,651.7242920398712,-24.017086029052734,1.9387385845184326,23.23418426513672,0.01
56,MetaDrive-testbn4,86,79.47949276706123,57054,534,662.4161174297333,,16.38031005859375,23.55661964416504,0.01
57,MetaDrive-testbn4,86,79.18144671086158,58055,543,673.850260257721,-26.188980102539062,6.567631721496582,25.42858123779297,0.01
58,MetaDrive-testbn4,86,79.91236451145662,59011,552,684.4456851482391,-25.970176696777344,11.351773262023926,24.564016342163086,0.01
59,MetaDrive-testbn4,86,81.93808353987734,60007,561,696.2384924888611,-26.912559509277344,4.083334922790527,26.6864013671875,0.01
60,MetaDrive-testbn4,86,84.86161414695118,61056,570,708.5235140323639,,4.802903175354004,27.871156692504883,0.01
61,MetaDrive-testbn4,86,84.67022861332583,62085,580,719.7307426929474,-29.602142333984375,5.767834663391113,29.20026969909668,0.01
62,MetaDrive-testbn4,86,87.38754910607811,63130,589,732.9611239433289,,3.4633708000183105,30.570650100708008,0.01
63,MetaDrive-testbn4,85,85.08861297277322,64071,598,746.5415830612183,-24.739643096923828,40.269771575927734,24.522640228271484,0.0
64,MetaDrive-testbn4,85,84.94517978219456,65045,607,758.0321662425995,-30.902313232421875,5.302386283874512,30.33144760131836,0.0
65,MetaDrive-testbn4,85,86.45616437145853,66090,616,770.4857409000397,,7.160580158233643,27.29289436340332,0.0
66,MetaDrive-testbn4,85,85.80871717140025,67016,625,782.2490224838257,,4.756994724273682,29.54315757751465,0.0
67,MetaDrive-testbn4,85,87.86776158847104,68074,633,795.7100381851196,,6.376239776611328,30.41301727294922,0.0
68,MetaDrive-testbn4,85,87.69574474814107,69087,642,807.4654278755188,-29.835859298706055,10.473764419555664,28.815526962280273,0.0
69,MetaDrive-testbn4,85,86.75614722553566,70086,652,819.1562478542328,,7.486235618591309,27.978778839111328,0.0
70,MetaDrive-testbn4,85,84.10226859041308,71051,662,829.9768974781036,-30.21245002746582,5.771426677703857,29.718427658081055,0.0
71,MetaDrive-testbn4,85,84.11292535925712,72154,672,843.0681641101837,,6.249576568603516,34.55750274658203,0.0
72,MetaDrive-testbn4,85,86.20548561289672,73075,679,855.4801983833313,-33.4770622253418,8.585128784179688,33.15672302246094,0.0
73,MetaDrive-testbn4,85,84.88634098432347,74016,688,866.7712044715881,,6.03912353515625,34.49938201904297,0.0
74,MetaDrive-testbn4,85,85.6565727801531,75062,697,881.4916586875916,,4.193807601928711,30.657445907592773,0.0
75,MetaDrive-testbn4,85,87.0450367926716,76045,705,893.6041676998138,-28.326383590698242,52.83818054199219,28.57001495361328,0.0
76,MetaDrive-testbn4,85,85.49155006069599,77012,714,904.2391929626465,,4.241833686828613,35.90882873535156,0.0
77,MetaDrive-testbn4,85,86.4634603630994,78103,724,918.2433259487152,-31.946285247802734,7.495615005493164,31.63695526123047,0.0
78,MetaDrive-testbn4,85,84.01328784036441,79069,733,928.769198179245,-33.12486267089844,58.14143753051758,32.51900100708008,0.0
79,MetaDrive-testbn4,84,84.97007156674532,80054,740,942.2106113433838,,27.598411560058594,35.5713996887207,0.0
80,MetaDrive-testbn4,84,85.63396855629209,81016,749,953.4537143707275,,12.784189224243164,32.95094299316406,0.0
81,MetaDrive-testbn4,85,90.59599604775862,82077,755,965.528537273407,-34.95417404174805,8.587236404418945,34.24187469482422,0.01
82,MetaDrive-testbn4,85,90.64401085331028,83052,764,976.565845489502,,4.374359130859375,31.668437957763672,0.01
83,MetaDrive-testbn4,84,93.00429890524,84003,771,988.9936485290527,-31.819438934326172,36.051124572753906,31.385053634643555,0.01
84,MetaDrive-testbn4,84,90.62067579683773,85026,780,1000.3129732608795,,4.890551567077637,33.86558151245117,0.01
85,MetaDrive-testbn4,84,95.84514412168444,86195,786,1015.8136322498322,-30.75156593322754,13.210172653198242,30.576255798339844,0.02
86,MetaDrive-testbn4,84,97.41764728919972,87046,793,1026.2077662944794,,22.098812103271484,34.73564147949219,0.02
87,MetaDrive-testbn4,84,92.72899594067322,88094,803,1038.979749917984,,32.30065155029297,34.39527893066406,0.02
88,MetaDrive-testbn4,84,93.00411272660276,89055,811,1051.146168231964,-33.846046447753906,4.414523601531982,32.881874084472656,0.02
89,MetaDrive-testbn4,84,93.40062326024,90086,820,1062.6491513252258,,5.209744453430176,35.76824188232422,0.02
90,MetaDrive-testbn4,84,94.08924122677472,91005,827,1073.9401602745056,-31.19384765625,13.078375816345215,31.870670318603516,0.02
91,MetaDrive-testbn4,84,93.63745879293447,92172,836,1089.2100422382355,,22.42676544189453,28.915966033935547,0.02
92,MetaDrive-testbn4,84,95.8155997817918,93069,841,1100.6703035831451,-35.62157440185547,31.3955078125,35.588584899902344,0.02
93,MetaDrive-testbn4,84,99.5811138772596,94550,844,1123.6884815692902,,7.708990573883057,31.07904052734375,0.02
94,MetaDrive-testbn4,84,101.77669962463455,95329,847,1133.2942638397217,-35.45088195800781,10.73269271850586,34.204437255859375,0.03
95,MetaDrive-testbn4,83,102.24618695161814,96840,853,1154.7731938362122,,3.5798425674438477,33.43792724609375,0.03
96,MetaDrive-testbn4,83,104.25878430133385,97211,854,1158.4349129199982,-35.28150939941406,5.077242374420166,35.28083038330078,0.04
97,MetaDrive-testbn4,83,106.27068351994438,98095,856,1168.7646992206573,-32.07376480102539,8.34737491607666,31.964025497436523,0.05
98,MetaDrive-testbn4,84,106.99344602001109,99096,857,1178.5382962226868,,3.4246232509613037,36.40657043457031,0.05
99,MetaDrive-testbn4,84,105.6640313555324,100093,865,1190.9127202033997,-36.26155090332031,6.178430557250977,35.8873291015625,0.05
100,MetaDrive-testbn4,83,110.67285554542424,101694,868,1211.016099691391,,31.197805404663086,34.9571533203125,0.07
101,MetaDrive-testbn4,83,112.12921442679828,102539,870,1221.03489112854,-35.386661529541016,6.472141265869141,36.1463737487793,0.08
102,MetaDrive-testbn4,83,113.13144579916553,103690,873,1236.4606692790985,,11.142602920532227,33.812904357910156,0.09
103,MetaDrive-testbn4,83,114.93455390127683,104277,874,1243.926880121231,-36.57844543457031,6.2539238929748535,35.643714904785156,0.09
104,MetaDrive-testbn4,83,115.98945678909527,105071,876,1255.4865760803223,-36.23527145385742,5.619168281555176,35.99823760986328,0.09
105,MetaDrive-testbn4,83,120.70221979770828,106413,879,1274.4952819347382,-35.32879638671875,26.23674774169922,33.61027145385742,0.1
106,MetaDrive-testbn4,83,122.980110258902,107043,881,1281.8011164665222,-36.690895080566406,5.165096282958984,37.602012634277344,0.11
107,MetaDrive-testbn4,83,120.97841685606953,108080,886,1295.2118453979492,,8.463943481445312,35.4922981262207,0.11
108,MetaDrive-testbn4,83,123.14578433616914,109469,889,1314.311684846878,-35.81375503540039,4.963341236114502,35.481407165527344,0.11
109,MetaDrive-testbn4,83,124.5046098779444,110565,891,1330.7223823070526,-34.07138442993164,6.378523826599121,33.53443145751953,0.11
110,MetaDrive-testbn4,82,129.40624550245875,111752,894,1349.1139442920685,,6.660160064697266,37.622337341308594,0.12
111,MetaDrive-testbn4,82,129.37220235141527,112160,896,1354.0535533428192,,9.968385696411133,39.176387786865234,0.12
112,MetaDrive-testbn4,82,129.6040138213603,113044,899,1366.0160825252533,,4.303876876831055,38.029052734375,0.12
113,MetaDrive-testbn4,82,129.6282684802079,114045,900,1379.145370721817,-35.451969146728516,5.783618450164795,34.642608642578125,0.12
114,MetaDrive-testbn4,82,130.92108060921444,115046,901,1396.3540089130402,,8.75381088256836,34.337745666503906,0.12
115,MetaDrive-testbn4,82,135.15317804336624,116510,904,1414.2023289203644,,4.110198974609375,35.16515350341797,0.13
116,MetaDrive-testbn4,82,138.4107989477029,117291,906,1425.0758121013641,-30.502899169921875,9.540422439575195,31.406070709228516,0.13
117,MetaDrive-testbn4,82,141.47207622639615,118102,908,1439.7707324028015,,27.64452362060547,37.14726638793945,0.13
118,MetaDrive-testbn4,82,142.1384871031691,119412,914,1454.605117559433,,5.315160274505615,35.609928131103516,0.14
119,MetaDrive-testbn4,82,145.59862397082642,120010,915,1461.5154979228973,,30.275293350219727,34.857295989990234,0.15
120,MetaDrive-testbn4,82,149.6495064016454,121244,919,1476.8483107089996,,6.249993324279785,35.96385955810547,0.17
121,MetaDrive-testbn4,82,149.7616208284512,122609,923,1494.8057153224945,-38.89873504638672,11.734994888305664,38.35710906982422,0.17
122,MetaDrive-testbn4,82,150.68289879944308,123186,926,1500.5597290992737,,9.09017562866211,37.86463165283203,0.18
123,MetaDrive-testbn4,82,153.8761881092955,124088,929,1510.3703887462616,,7.196669101715088,35.68470001220703,0.19
124,MetaDrive-testbn4,82,157.9999879561738,125235,933,1524.9282245635986,-41.310054779052734,4.097809314727783,40.75261688232422,0.2
125,MetaDrive-testbn4,82,157.51278901173745,126184,938,1537.5433077812195,,6.880344390869141,38.15679168701172,0.2
126,MetaDrive-testbn4,81,159.03625433702152,127491,942,1554.918113231659,-38.63054656982422,8.607797622680664,38.674678802490234,0.21
127,MetaDrive-testbn4,81,162.46582454962808,128258,943,1567.0548701286316,,3.3454508781433105,36.11564636230469,0.22
128,MetaDrive-testbn4,81,163.32816185391775,129104,945,1575.7431409358978,,8.402719497680664,35.80835723876953,0.23
129,MetaDrive-testbn4,81,166.42090114718064,130226,947,1592.8352797031403,,7.654129981994629,38.560142517089844,0.23
130,MetaDrive-testbn4,81,170.7573462528314,131158,951,1604.1110379695892,,3.8097522258758545,39.994102478027344,0.25
131,MetaDrive-testbn4,81,170.1876788183177,132101,954,1614.7625889778137,-35.74567794799805,4.007181644439697,35.499778747558594,0.26
132,MetaDrive-testbn4,81,169.76487805459962,133313,959,1628.136316537857,-38.816925048828125,61.15586853027344,37.51009750366211,0.25
133,MetaDrive-testbn4,81,170.22865066747102,134176,966,1638.6999118328094,,21.249460220336914,36.45518493652344,0.25
134,MetaDrive-testbn4,81,168.96222110198605,135189,969,1650.3408687114716,-37.830322265625,7.293164253234863,37.817604064941406,0.24
135,MetaDrive-testbn4,81,168.73448376195054,136105,971,1661.3613729476929,-35.65161895751953,9.274528503417969,36.31780242919922,0.24
136,MetaDrive-testbn4,81,171.18501862896872,137366,973,1681.95685505867,,6.216636657714844,39.380191802978516,0.24
137,MetaDrive-testbn4,81,172.1913523747116,138075,975,1691.253762960434,-40.72142028808594,5.660181999206543,40.58207321166992,0.25
138,MetaDrive-testbn4,81,175.51184413064945,139015,977,1703.0917115211487,-36.50830841064453,9.231123924255371,36.789390563964844,0.26
139,MetaDrive-testbn4,81,172.7622617407125,140551,982,1719.5138666629791,-36.906494140625,13.49002456665039,37.02846145629883,0.25
140,MetaDrive-testbn4,81,174.68499060661426,141324,984,1726.4470641613007,,6.56518030166626,41.949302673339844,0.26
141,MetaDrive-testbn4,81,178.20756559222147,142028,986,1734.2295570373535,,6.858957290649414,38.70147705078125,0.27
142,MetaDrive-testbn4,81,179.61700402487605,143292,990,1750.4855167865753,,7.97109317779541,40.62714385986328,0.28
143,MetaDrive-testbn4,81,182.41450835349298,144328,993,1761.713053226471,,13.641944885253906,43.56053161621094,0.3
144,MetaDrive-testbn4,81,180.16575574215486,145118,995,1773.464347600937,,9.22542953491211,42.47300720214844,0.3
145,MetaDrive-testbn4,81,182.78425633277882,146119,996,1785.485903263092,-41.1567268371582,4.29701566696167,41.056671142578125,0.3
146,MetaDrive-testbn4,81,186.78063410705178,147070,999,1796.2337374687195,,4.8495073318481445,42.377685546875,0.31
147,MetaDrive-testbn4,81,188.65181787621208,148093,1002,1807.533375263214,-40.98167419433594,10.670186996459961,41.712249755859375,0.32
148,MetaDrive-testbn4,81,189.36724033646104,149251,1004,1822.7813022136688,-40.96183395385742,6.464412689208984,40.948158264160156,0.32
149,MetaDrive-testbn4,81,191.26187732146215,150254,1006,1838.0170347690582,,5.454337120056152,40.39429473876953,0.33
150,MetaDrive-testbn4,81,192.85951254933553,151213,1009,1848.139765739441,-43.383331298828125,6.467442512512207,43.30146789550781,0.35
151,MetaDrive-testbn4,81,198.13590704506677,152337,1011,1861.4600970745087,-40.342811584472656,5.517362594604492,40.08405685424805,0.37
152,MetaDrive-testbn4,81,201.19780339057812,153102,1013,1870.1066992282867,,6.81900691986084,42.075904846191406,0.38
153,MetaDrive-testbn4,81,201.64691979899274,154366,1015,1885.799514055252,,4.31878662109375,39.6945686340332,0.38
154,MetaDrive-testbn4,81,200.69435376515645,155084,1017,1895.5100500583649,,7.002739906311035,38.407318115234375,0.37
155,MetaDrive-testbn4,81,198.32540891411162,156215,1019,1909.7454071044922,-44.208641052246094,4.837103843688965,43.71371078491211,0.36
156,MetaDrive-testbn4,81,203.8566583635098,157697,1021,1931.4859855175018,-42.369529724121094,5.709811687469482,41.72267150878906,0.37
157,MetaDrive-testbn4,81,205.54735158377053,158739,1023,1949.936324596405,-40.00030517578125,7.516120910644531,39.65734100341797,0.38
158,MetaDrive-testbn4,81,206.36174242333797,159212,1025,1955.1948244571686,,7.398296356201172,42.631065368652344,0.38
159,MetaDrive-testbn4,81,209.04815919887938,160743,1027,1978.3230509757996,-38.26335144042969,7.262994766235352,38.420989990234375,0.37
160,MetaDrive-testbn4,81,212.400066546168,161579,1029,1986.0786907672882,-43.04932403564453,7.53047513961792,41.87696838378906,0.38
161,MetaDrive-testbn4,81,214.7004792819729,162114,1030,1991.738238811493,,4.322301864624023,38.63758087158203,0.39
162,MetaDrive-testbn4,81,216.1642709451773,163266,1032,2006.1002695560455,,5.666560173034668,37.50270462036133,0.39
163,MetaDrive-testbn4,81,218.2835276242483,164517,1035,2022.7593235969543,-39.80207824707031,25.518367767333984,39.139556884765625,0.4
164,MetaDrive-testbn4,81,220.8525213250476,165038,1036,2029.0065689086914,,5.324159622192383,42.15792465209961,0.41
165,MetaDrive-testbn4,81,222.26884042137863,166079,1038,2041.2504415512085,-41.13059997558594,17.191997528076172,41.18768310546875,0.42
166,MetaDrive-testbn4,81,223.86079156922244,167341,1040,2055.466440677643,-41.947837829589844,7.379426956176758,42.451011657714844,0.42
167,MetaDrive-testbn4,81,225.3191628634683,168342,1041,2068.0543961524963,,79.61402893066406,42.75477600097656,0.42
168,MetaDrive-testbn4,81,219.9378428552175,169653,1044,2089.9653239250183,-45.69530487060547,10.213512420654297,44.76313781738281,0.4
169,MetaDrive-testbn4,81,222.104739012885,170654,1045,2105.866641521454,,35.65884780883789,43.504722595214844,0.4
170,MetaDrive-testbn4,81,223.45752592070764,171425,1046,2114.3284599781036,-42.241180419921875,5.12345027923584,41.65272521972656,0.41
171,MetaDrive-testbn4,81,222.0571386915483,172398,1047,2128.3197762966156,,7.0358195304870605,39.188560485839844,0.41
172,MetaDrive-testbn4,81,222.7248079446321,173105,1049,2135.7392365932465,-41.6844367980957,7.512261867523193,41.43287658691406,0.41
173,MetaDrive-testbn4,81,223.5987251321338,174067,1051,2146.68493103981,-42.540321350097656,10.893165588378906,42.86300277709961,0.41
174,MetaDrive-testbn4,81,227.28109667002346,175433,1053,2161.0302691459656,-40.188682556152344,11.665733337402344,39.67100524902344,0.42
175,MetaDrive-testbn4,81,228.26786542954025,176530,1056,2173.7853376865387,,12.78230094909668,42.93592071533203,0.42
176,MetaDrive-testbn4,81,230.9353996755433,177870,1058,2189.9735317230225,,8.534586906433105,38.190147399902344,0.43
177,MetaDrive-testbn4,81,230.9477306034601,178709,1059,2200.5599484443665,-45.18257141113281,15.211494445800781,44.211830139160156,0.43
178,MetaDrive-testbn4,81,231.12272706172334,179052,1060,2204.771337747574,,12.882036209106445,43.157737731933594,0.43
179,MetaDrive-testbn4,81,236.0746837564861,180783,1062,2225.920655965805,-43.86272430419922,20.575618743896484,42.32830047607422,0.44
180,MetaDrive-testbn4,81,236.1235990562266,181070,1063,2228.440868616104,,31.705930709838867,45.27521896362305,0.44
181,MetaDrive-testbn4,81,239.08833876419894,182031,1064,2238.432478904724,-42.58579635620117,5.5464911460876465,42.90174102783203,0.45
182,MetaDrive-testbn4,81,242.96217257594148,183240,1066,2249.926612854004,,6.80159330368042,42.26604461669922,0.47
183,MetaDrive-testbn4,81,243.69575813916043,184493,1068,2264.2859876155853,-44.80984878540039,4.379613399505615,44.630104064941406,0.47
184,MetaDrive-testbn4,81,245.56649356350783,185486,1069,2277.418847322464,,12.659418106079102,39.62046432495117,0.48
185,MetaDrive-testbn4,81,248.94787079144186,186227,1070,2288.4109840393066,-41.620235443115234,10.635953903198242,40.816123962402344,0.49
186,MetaDrive-testbn4,81,245.9067946648776,187087,1072,2303.839097738266,-43.23479461669922,10.431047439575195,41.564117431640625,0.48
187,MetaDrive-testbn4,81,245.49801770664112,188467,1074,2322.481557369232,-41.57762145996094,8.352764129638672,41.24259948730469,0.47
188,MetaDrive-testbn4,81,248.10509627094223,189232,1075,2330.390021800995,,8.3633451461792,43.407203674316406,0.48
189,MetaDrive-testbn4,81,245.6213612680461,190026,1077,2338.406589984894,,22.75060272216797,41.815093994140625,0.48
190,MetaDrive-testbn4,81,246.7263275888477,191077,1079,2351.403284072876,-46.79741668701172,4.651186466217041,46.443443298339844,0.48
191,MetaDrive-testbn4,81,250.75520092707268,192782,1081,2372.261944770813,,8.279542922973633,41.67539596557617,0.5
192,MetaDrive-testbn4,81,251.44919903354105,193459,1082,2380.112494468689,-42.360801696777344,10.530312538146973,41.958473205566406,0.5
193,MetaDrive-testbn4,81,252.42626797661876,194322,1083,2397.41495013237,,9.487829208374023,40.7871208190918,0.49
194,MetaDrive-testbn4,81,249.43928382005507,195091,1085,2406.134468317032,-41.19493865966797,6.821683883666992,41.01853942871094,0.47
195,MetaDrive-testbn4,81,255.24766090830946,196896,1087,2429.53564953804,,8.799980163574219,37.53450012207031,0.48
196,MetaDrive-testbn4,81,257.94811010396563,197848,1088,2441.4057796001434,,7.02742862701416,41.7631950378418,0.49
197,MetaDrive-testbn4,81,261.2083257095661,198788,1089,2454.014184474945,,18.177927017211914,43.60456085205078,0.5
198,MetaDrive-testbn4,80,261.63581523898927,199668,1090,2467.0031793117523,,4.240433692932129,45.82447052001953,0.5
199,MetaDrive-testbn4,80,262.6303993426638,200144,1091,2473.2490153312683,,7.452706813812256,44.659481048583984,0.5
200,MetaDrive-testbn4,80,262.30728357860926,201227,1093,2486.614737510681,-42.455833435058594,4.5572662353515625,42.4138069152832,0.49
201,MetaDrive-testbn4,81,262.7810240940708,202198,1095,2496.1928844451904,,6.782382011413574,43.405731201171875,0.49
202,MetaDrive-testbn4,80,262.25825693918983,203386,1097,2512.2384099960327,,21.108139038085938,43.053253173828125,0.5
203,MetaDrive-testbn4,80,262.14143031254565,204206,1098,2521.1261973381042,,8.874503135681152,42.12030029296875,0.5
204,MetaDrive-testbn4,80,264.80461542954987,205001,1099,2535.2943489551544,-41.03748321533203,23.398006439208984,41.78074645996094,0.5
205,MetaDrive-testbn4,80,265.7270232337894,206096,1102,2546.881204843521,,8.913676261901855,47.67965316772461,0.51
206,MetaDrive-testbn4,80,262.67012235459475,207569,1105,2563.7594249248505,-42.01961135864258,7.928050518035889,41.7015495300293,0.5
207,MetaDrive-testbn4,81,262.4295503021859,208159,1106,2569.3091073036194,-42.16364669799805,10.569271087646484,42.43524169921875,0.51
208,MetaDrive-testbn4,81,266.05225598173666,209160,1107,2579.6954505443573,,32.8885383605957,41.731040954589844,0.51
209,MetaDrive-testbn4,81,265.65106599156695,210231,1109,2590.014712572098,-44.74269104003906,6.9365739822387695,44.41401672363281,0.5
210,MetaDrive-testbn4,81,257.7623211115943,211064,1113,2599.1038682460785,,5.773819923400879,46.74578857421875,0.48
211,MetaDrive-testbn4,81,255.28162252691723,212391,1116,2614.9070806503296,-46.721473693847656,22.722183227539062,46.092674255371094,0.47
212,MetaDrive-testbn4,81,255.95942753130424,213148,1117,2627.2980749607086,,10.191343307495117,45.557193756103516,0.47
213,MetaDrive-testbn4,81,259.5934075187909,214350,1119,2644.71591591835,,13.605210304260254,43.669525146484375,0.48
214,MetaDrive-testbn4,81,257.72589159385427,215621,1122,2661.795928478241,-42.40928268432617,16.041685104370117,42.771385192871094,0.48
215,MetaDrive-testbn4,81,256.1545093963907,216211,1124,2667.5801858901978,-44.124176025390625,7.19513463973999,45.23051452636719,0.47
216,MetaDrive-testbn4,81,258.28214459611,217039,1125,2678.4114847183228,-44.152923583984375,6.061258792877197,43.744728088378906,0.47
217,MetaDrive-testbn4,81,255.6789538199769,218144,1127,2690.3022520542145,,8.689481735229492,47.25592803955078,0.47
218,MetaDrive-testbn4,81,255.1597030488383,219668,1130,2711.231132745743,,7.467425346374512,45.052005767822266,0.46
219,MetaDrive-testbn4,80,250.28769846155217,220737,1133,2727.45401096344,-46.09328842163086,5.047482013702393,45.47888946533203,0.44
220,MetaDrive-testbn4,80,251.92562677728304,221251,1134,2733.6417734622955,-45.4384651184082,29.07003402709961,44.86781311035156,0.44
221,MetaDrive-testbn4,80,252.76351503283323,222456,1136,2747.78772687912,,8.319350242614746,45.129913330078125,0.44
222,MetaDrive-testbn4,80,253.57466931692895,223574,1138,2761.2449221611023,,5.281496047973633,41.55940246582031,0.44
223,MetaDrive-testbn4,80,250.2737571902891,224029,1140,2766.154180765152,-45.45238494873047,4.901525497436523,44.69452667236328,0.43
224,MetaDrive-testbn4,81,252.7214456473791,225051,1142,2778.211450099945,-42.96657943725586,16.962182998657227,42.32841491699219,0.44
225,MetaDrive-testbn4,81,253.1673983574341,226012,1144,2787.1346287727356,,17.611083984375,46.06897735595703,0.46
226,MetaDrive-testbn4,80,254.52505887066008,227635,1146,2813.840887069702,-44.92188262939453,8.425897598266602,45.105812072753906,0.47
227,MetaDrive-testbn4,80,253.9332708753681,228693,1148,2826.5044026374817,-45.697059631347656,9.387194633483887,45.55876159667969,0.46
228,MetaDrive-testbn4,80,255.31055256843356,229212,1149,2831.919490814209,,10.131665229797363,44.007652282714844,0.47
229,MetaDrive-testbn4,80,256.89508678426716,230295,1151,2844.235352039337,-41.847801208496094,21.285255432128906,42.306732177734375,0.47
230,MetaDrive-testbn4,80,254.8646954936455,231250,1153,2855.7131197452545,,9.914188385009766,44.54889678955078,0.47
231,MetaDrive-testbn4,81,259.38880473258337,232288,1155,2865.833639383316,,6.010976791381836,46.083431243896484,0.49
232,MetaDrive-testbn4,81,260.0776042283036,233263,1157,2877.4108426570892,-47.0509033203125,7.1230363845825195,46.23088836669922,0.49
233,MetaDrive-testbn4,81,257.17904404064643,234245,1159,2890.619332551956,-47.48214340209961,7.899126052856445,47.28289031982422,0.48
234,MetaDrive-testbn4,81,259.9260606347729,235185,1161,2900.890280485153,-45.75035095214844,23.310895919799805,46.0321044921875,0.48
235,MetaDrive-testbn4,81,261.0361414338784,236325,1163,2914.7336061000824,-50.27215576171875,7.502511978149414,49.127723693847656,0.49
236,MetaDrive-testbn4,81,257.56288698092567,237122,1165,2924.7616169452667,,8.796188354492188,44.43949890136719,0.47
237,MetaDrive-testbn4,81,256.04479893123,238410,1168,2940.232261657715,,17.76588249206543,46.909576416015625,0.46
238,MetaDrive-testbn4,81,253.58551649114455,239389,1170,2950.1906526088715,-47.560970306396484,12.950507164001465,47.757408142089844,0.46
239,MetaDrive-testbn4,81,253.15276623822086,240506,1173,2962.9151639938354,,11.251718521118164,42.71870422363281,0.47
240,MetaDrive-testbn4,81,253.16183318551322,241173,1174,2970.3648381233215,-46.763893127441406,10.748571395874023,46.026329040527344,0.47
241,MetaDrive-testbn4,81,256.22298139432957,242507,1176,2988.7478671073914,-45.45039749145508,9.643392562866211,45.49591064453125,0.48
242,MetaDrive-testbn4,81,258.9387973491254,243927,1178,3009.422486782074,-49.24406051635742,4.664388656616211,48.92833709716797,0.49
243,MetaDrive-testbn4,80,258.6343515153622,244301,1179,3016.120948076248,-48.61167526245117,4.331410884857178,47.84369659423828,0.49
244,MetaDrive-testbn4,81,257.9971001054289,245336,1181,3028.2823011875153,,10.440391540527344,44.417274475097656,0.49
245,MetaDrive-testbn4,81,255.55345390392475,246189,1183,3038.866957426071,-46.10295867919922,11.06489372253418,45.702919006347656,0.49
246,MetaDrive-testbn4,81,258.2606957887269,247174,1185,3050.3253037929535,,8.059279441833496,48.047760009765625,0.5
247,MetaDrive-testbn4,80,259.54824892461727,248054,1186,3063.439245700836,,16.87629508972168,46.744712829589844,0.5
248,MetaDrive-testbn4,81,253.35787398903176,249293,1189,3076.329567670822,-43.951271057128906,39.97745132446289,43.33086395263672,0.5
249,MetaDrive-testbn4,80,249.84815901364829,250139,1192,3088.4490859508514,-49.935020446777344,121.63423156738281,49.89030075073242,0.49
250,MetaDrive-testbn4,80,248.6566443148497,251458,1195,3105.889559030533,,13.031533241271973,45.03750228881836,0.48
251,MetaDrive-testbn4,80,251.44631277132183,252151,1196,3114.8185291290283,-48.278114318847656,77.9024429321289,47.66011047363281,0.49
252,MetaDrive-testbn4,80,247.9388458416154,253091,1198,3127.3164019584656,-46.031044006347656,12.833099365234375,46.104305267333984,0.47
253,MetaDrive-testbn4,80,243.4929076548426,254150,1202,3139.1677198410034,,8.038641929626465,49.23102569580078,0.46
254,MetaDrive-testbn4,80,244.3523858532648,255374,1205,3152.8304283618927,,9.915836334228516,48.52066421508789,0.47
255,MetaDrive-testbn4,80,245.24227522023546,256090,1206,3162.26766204834,,9.790255546569824,50.028079986572266,0.47
256,MetaDrive-testbn4,81,244.0550744600789,257161,1208,3173.9021492004395,-44.67525100708008,18.065521240234375,44.041812896728516,0.48
257,MetaDrive-testbn4,81,246.96658947675493,258459,1211,3187.058911085129,-47.20203399658203,29.779542922973633,47.26984405517578,0.48
258,MetaDrive-testbn4,81,250.5567212838853,259206,1213,3195.0877351760864,,129.9888458251953,54.07349395751953,0.49
259,MetaDrive-testbn4,81,250.13011419595324,260008,1215,3206.1063990592957,,8.591320037841797,46.393096923828125,0.48
260,MetaDrive-testbn4,81,254.8242529511096,261609,1217,3229.479037284851,-48.87084197998047,5.016910076141357,48.339447021484375,0.5
261,MetaDrive-testbn4,81,254.8237556091686,262291,1218,3237.5405175685883,-48.0577392578125,9.849641799926758,46.926109313964844,0.5
262,MetaDrive-testbn4,81,257.3059913880214,263298,1220,3248.796856403351,,10.786792755126953,49.95912170410156,0.5
263,MetaDrive-testbn4,81,258.1602063354258,264371,1222,3263.2154972553253,-44.970027923583984,6.855277061462402,44.172157287597656,0.5
264,MetaDrive-testbn4,80,261.1904192524983,265416,1224,3279.8032808303833,,9.140262603759766,46.986759185791016,0.51
265,MetaDrive-testbn4,80,254.77478345983423,266289,1228,3289.9015853405,-49.2325439453125,19.253618240356445,48.63450622558594,0.5
266,MetaDrive-testbn4,80,252.30544690003765,267047,1230,3297.9952113628387,-46.85849380493164,9.606521606445312,46.990806579589844,0.5
267,MetaDrive-testbn4,81,256.16543850525426,268369,1233,3311.5565886497498,-52.318702697753906,5.037206649780273,52.63621139526367,0.51
268,MetaDrive-testbn4,81,258.4372984007759,269242,1235,3320.6438879966736,,5.023133754730225,47.63774108886719,0.52
269,MetaDrive-testbn4,81,255.71272243411212,270199,1237,3333.4244990348816,-50.1290168762207,30.476659774780273,48.9169921875,0.51
270,MetaDrive-testbn4,80,258.33114375912334,271459,1239,3352.0350892543793,-54.91746520996094,9.950361251831055,54.40514373779297,0.52
271,MetaDrive-testbn4,80,256.7621918495392,272566,1242,3366.063688993454,,6.912346363067627,49.156517028808594,0.52
272,MetaDrive-testbn4,80,254.7638533919894,273170,1244,3372.5492734909058,,90.75810241699219,44.99109649658203,0.5
273,MetaDrive-testbn4,80,251.11322095944607,274342,1247,3389.782768011093,,14.428364753723145,49.47225570678711,0.48
274,MetaDrive-testbn4,80,246.39890532727813,275116,1249,3399.188243865967,,24.96849822998047,53.57904052734375,0.46
275,MetaDrive-testbn4,80,245.60084172906994,276073,1251,3409.077211856842,-47.22285461425781,6.774654388427734,47.234588623046875,0.47
276,MetaDrive-testbn4,80,243.41826682002625,277298,1254,3428.553186416626,,4.793980598449707,51.58639144897461,0.44
277,MetaDrive-testbn4,80,243.35465773225172,278429,1256,3442.3146753311157,-46.884586334228516,24.613731384277344,46.204811096191406,0.44
278,MetaDrive-testbn4,80,239.65753508504338,279106,1258,3450.9972083568573,,10.68918228149414,50.75018310546875,0.43
279,MetaDrive-testbn4,80,241.43415962379967,280077,1260,3461.617734193802,-45.05620574951172,131.77481079101562,44.76648712158203,0.43
280,MetaDrive-testbn4,80,242.91016256204588,281078,1261,3481.320247411728,,12.674844741821289,50.36532211303711,0.43
281,MetaDrive-testbn4,80,241.5704692430197,282035,1263,3493.843685388565,-51.63211441040039,179.80160522460938,50.34353256225586,0.43
282,MetaDrive-testbn4,80,242.45473535656774,283036,1264,3503.572208404541,,17.086538314819336,52.058349609375,0.43
283,MetaDrive-testbn4,80,242.36027514139815,284074,1266,3516.737609386444,,17.198745727539062,55.569278717041016,0.43
284,MetaDrive-testbn4,80,243.1744670700464,285136,1268,3529.125537633896,,9.233896255493164,50.50837707519531,0.43
285,MetaDrive-testbn4,80,242.6282713345062,286142,1270,3541.4388406276703,,15.653308868408203,48.67505645751953,0.42
286,MetaDrive-testbn4,80,246.90736277596065,287377,1272,3553.408975839615,-49.37273406982422,10.844196319580078,49.461700439453125,0.44
287,MetaDrive-testbn4,80,247.74280763711104,288185,1273,3565.849414587021,-50.33644104003906,17.754480361938477,50.90776062011719,0.44
288,MetaDrive-testbn4,80,244.56196737545403,289363,1276,3579.428181886673,-50.613746643066406,10.149269104003906,50.24933624267578,0.42
289,MetaDrive-testbn4,80,247.11336898582428,290364,1277,3595.5849270820618,,9.204014778137207,51.51637649536133,0.41
290,MetaDrive-testbn4,80,244.06719918529134,291296,1279,3606.5748965740204,,69.42314910888672,49.970054626464844,0.4
291,MetaDrive-testbn4,80,244.6444578444025,292516,1281,3620.69127035141,,10.522602081298828,50.88997268676758,0.4
292,MetaDrive-testbn4,80,244.47152430219856,293155,1282,3627.129581928253,-49.10782241821289,19.05864715576172,48.567222595214844,0.4
293,MetaDrive-testbn4,80,246.9133909509683,294071,1284,3636.086685180664,-51.19087219238281,10.62293529510498,50.787200927734375,0.41
294,MetaDrive-testbn4,80,242.79383203515044,295959,1288,3658.054790019989,-54.52166748046875,32.59696960449219,55.47461700439453,0.39
295,MetaDrive-testbn4,80,240.99333201971254,296160,1289,3660.091418027878,,6.23622989654541,46.37392044067383,0.38
296,MetaDrive-testbn4,80,243.79601634289375,297431,1291,3674.8751950263977,-50.40037536621094,29.41579818725586,49.256290435791016,0.39
297,MetaDrive-testbn4,80,245.11865100165528,298377,1293,3686.8621718883514,-48.75191116333008,22.159847259521484,48.6727294921875,0.4
298,MetaDrive-testbn4,80,241.83049885877543,299357,1296,3697.811143398285,-52.14683532714844,11.768365859985352,51.100555419921875,0.39
299,MetaDrive-testbn4,80,242.0579055122655,300319,1298,3710.274429321289,-58.41623306274414,7.5980329513549805,58.14002990722656,0.39
300,MetaDrive-testbn4,80,244.70671922292414,301741,1300,3729.165871858597,-49.153541564941406,8.014888763427734,49.66306686401367,0.4
301,MetaDrive-testbn4,80,245.58405100867662,302092,1302,3732.933444261551,,5.667726993560791,52.17863845825195,0.4
302,MetaDrive-testbn4,80,244.5299336290145,303313,1304,3748.3891456127167,-47.38459777832031,10.875866889953613,47.72633743286133,0.39
303,MetaDrive-testbn4,80,243.56013906130545,304257,1306,3759.0887925624847,-48.64672088623047,56.08038330078125,47.89906311035156,0.38
304,MetaDrive-testbn4,80,242.91011156538633,305608,1309,3775.438889503479,,8.76904296875,52.59044647216797,0.37
305,MetaDrive-testbn4,80,241.5052492136435,306540,1311,3786.2498366832733,,8.82969856262207,52.223114013671875,0.37
306,MetaDrive-testbn4,80,242.9232609559541,307117,1312,3792.05748295784,-48.213802337646484,9.68673324584961,47.90277099609375,0.38
307,MetaDrive-testbn4,81,244.67090549072591,308207,1314,3804.2823338508606,-54.09233856201172,13.78750228881836,53.563453674316406,0.39
308,MetaDrive-testbn4,80,244.04891021773048,309687,1316,3824.670925617218,-53.025794982910156,7.536432266235352,52.01301574707031,0.39
309,MetaDrive-testbn4,80,242.1113596091581,310007,1317,3828.772042989731,-50.371978759765625,11.478076934814453,49.61363983154297,0.38
310,MetaDrive-testbn4,80,240.807814800729,311203,1319,3842.806494951248,-42.386962890625,23.628873825073242,41.571834564208984,0.38
311,MetaDrive-testbn4,80,242.30225543137783,312741,1321,3866.10582947731,-51.94280242919922,121.74663543701172,51.523956298828125,0.4
312,MetaDrive-testbn4,80,242.04808634479738,313179,1322,3870.080185174942,-49.21641159057617,12.017242431640625,49.41402816772461,0.4
313,MetaDrive-testbn4,80,241.70806249575855,314716,1324,3890.480894088745,,11.671245574951172,50.50848388671875,0.4
314,MetaDrive-testbn4,80,245.1796170527937,315451,1325,3898.2152276039124,-48.941650390625,10.502020835876465,48.59666442871094,0.41
315,MetaDrive-testbn4,80,247.96051551868956,316120,1326,3906.5758163928986,,10.975359916687012,52.776939392089844,0.42
316,MetaDrive-testbn4,80,250.8751809585561,317020,1328,3914.8544025421143,,12.368207931518555,46.598567962646484,0.43
317,MetaDrive-testbn4,80,251.12354716333903,318169,1331,3928.464174747467,-46.591400146484375,20.566776275634766,45.31324768066406,0.42
318,MetaDrive-testbn4,80,250.59945197548302,319184,1333,3940.949826478958,,11.375772476196289,54.98047637939453,0.42
319,MetaDrive-testbn4,81,251.75603699174678,320391,1335,3954.303701400757,-48.41785430908203,88.12651062011719,47.23822021484375,0.42
320,MetaDrive-testbn4,81,250.34940079442225,321101,1337,3963.467997789383,-50.576011657714844,27.25684356689453,50.41926574707031,0.41
321,MetaDrive-testbn4,81,249.53571694353312,322302,1339,3978.890918493271,,294.89019775390625,52.69139862060547,0.41
322,MetaDrive-testbn4,80,252.34447779295294,323177,1340,3991.2116606235504,-53.65118408203125,8.372627258300781,53.097618103027344,0.41
323,MetaDrive-testbn4,80,253.05170285416486,324423,1342,4005.984315633774,-52.76032257080078,7.116157531738281,53.187042236328125,0.41
324,MetaDrive-testbn4,81,254.42347703238323,325437,1344,4017.3423800468445,-54.55271911621094,13.291902542114258,54.887874603271484,0.41
325,MetaDrive-testbn4,80,258.12111597339407,326360,1345,4034.3030784130096,,7.453795433044434,49.0103759765625,0.42
326,MetaDrive-testbn4,80,258.0197340994118,327854,1347,4050.7418076992035,,25.03055191040039,52.60423278808594,0.43
327,MetaDrive-testbn4,80,260.3862349796498,328967,1349,4064.324154615402,-42.48367691040039,14.420022964477539,42.4026985168457,0.43
328,MetaDrive-testbn4,80,261.8017947272298,329592,1350,4070.897241830826,,13.076108932495117,50.41582489013672,0.43
329,MetaDrive-testbn4,80,263.4191254340585,330269,1351,4078.660885334015,-46.302520751953125,18.335302352905273,46.54187774658203,0.43
330,MetaDrive-testbn4,80,261.11953991331984,331045,1353,4089.435277223587,-53.73199462890625,14.265756607055664,52.31394958496094,0.43
331,MetaDrive-testbn4,80,263.71991478230944,332743,1356,4110.710719347,-50.71100616455078,26.33897590637207,50.49967956542969,0.43
332,MetaDrive-testbn4,80,266.49152197590115,333294,1357,4115.936760663986,,12.914812088012695,56.67522048950195,0.44
333,MetaDrive-testbn4,80,267.6086683513964,334209,1358,4128.20566368103,-47.238975524902344,27.65024185180664,47.35011291503906,0.44
334,MetaDrive-testbn4,80,263.60517161867386,335644,1361,4145.620708227158,,15.858221054077148,58.22499084472656,0.44
335,MetaDrive-testbn4,80,264.7043176972053,336332,1362,4153.626304626465,,10.73863697052002,53.13884735107422,0.44
336,MetaDrive-testbn4,80,263.9334201779912,337448,1365,4166.326865911484,,11.388862609863281,49.94019317626953,0.45
337,MetaDrive-testbn4,81,264.53288254915884,338036,1366,4173.110290765762,,97.7349624633789,48.69316101074219,0.45
338,MetaDrive-testbn4,81,265.19045067177854,339132,1368,4185.327692985535,,20.80868911743164,49.071617126464844,0.46
339,MetaDrive-testbn4,81,261.4871344832862,340008,1371,4194.720314025879,,11.45600700378418,56.77832794189453,0.45
340,MetaDrive-testbn4,81,258.28692044993454,341002,1373,4204.253467082977,,13.76309585571289,51.59854507446289,0.45
341,MetaDrive-testbn4,81,260.96934444945987,342332,1375,4221.75835442543,,15.730695724487305,48.842159271240234,0.46
342,MetaDrive-testbn4,81,258.14332590403603,343326,1377,4233.859795808792,,10.340559005737305,53.73863983154297,0.46
343,MetaDrive-testbn4,81,256.9214100520416,344008,1379,4242.971178293228,,21.359989166259766,50.737850189208984,0.46
344,MetaDrive-testbn4,80,258.4313273302991,345857,1381,4270.879893541336,-53.96756362915039,65.75941467285156,52.48182678222656,0.45
345,MetaDrive-testbn4,80,259.5373839150866,346817,1382,4285.295872211456,-49.44120407104492,29.643144607543945,47.7838134765625,0.45
346,MetaDrive-testbn4,80,260.86922868391497,347818,1383,4303.423966169357,,7.563135623931885,52.06427001953125,0.45
347,MetaDrive-testbn4,80,260.7825953545561,348328,1384,4308.566945314407,,13.390796661376953,54.85171890258789,0.45
348,MetaDrive-testbn4,80,266.1560800102107,349650,1386,4322.027054309845,,33.44430160522461,51.927452087402344,0.47
349,MetaDrive-testbn4,80,264.2694268801537,350120,1387,4326.56067276001,,21.151443481445312,46.08039093017578,0.46
350,MetaDrive-testbn4,80,264.35576331575203,351219,1389,4338.972784757614,-53.56816864013672,15.408740043640137,53.781307220458984,0.47
351,MetaDrive-testbn4,81,264.07813175887327,352307,1391,4348.594525098801,-51.69050216674805,33.65177917480469,51.51631546020508,0.47
352,MetaDrive-testbn4,81,263.4181002130392,353353,1393,4361.169842004776,-51.43983459472656,12.683372497558594,52.67655563354492,0.47
353,MetaDrive-testbn4,81,268.7856492320388,354957,1395,4381.018400192261,-51.69976043701172,19.030527114868164,51.9727783203125,0.49
354,MetaDrive-testbn4,81,268.017304662274,355517,1396,4387.532986879349,-52.17866516113281,17.289264678955078,50.948307037353516,0.49
355,MetaDrive-testbn4,81,269.62758162183235,356373,1397,4397.543736219406,-53.56321716308594,14.271705627441406,50.86170196533203,0.49
356,MetaDrive-testbn4,80,271.7708099335943,357354,1398,4412.728727340698,,292.7364501953125,52.27947235107422,0.49
357,MetaDrive-testbn4,81,268.83525586490117,358355,1400,4424.083699226379,-50.770103454589844,14.554279327392578,49.9259033203125,0.48
358,MetaDrive-testbn4,80,273.1370114044475,359276,1401,4435.890226840973,,63.3571662902832,52.69218444824219,0.49
359,MetaDrive-testbn4,80,276.3016219477782,360277,1402,4451.224279880524,-48.70692825317383,13.45622730255127,49.06050109863281,0.49
360,MetaDrive-testbn4,80,277.6246532460595,361036,1404,4459.300220489502,,24.345409393310547,52.38684844970703,0.5
361,MetaDrive-testbn4,81,276.0621682122547,362526,1408,4475.381346464157,,15.21718978881836,49.61323547363281,0.51
362,MetaDrive-testbn4,81,276.01236272144456,363221,1409,4482.029305458069,-48.439414978027344,9.974397659301758,48.145606994628906,0.51
363,MetaDrive-testbn4,81,275.9367230183591,364761,1411,4498.821214437485,-55.389400482177734,11.954497337341309,55.376914978027344,0.51
364,MetaDrive-testbn4,81,276.6847597055099,365334,1412,4504.248366594315,,14.578670501708984,55.46126174926758,0.51
365,MetaDrive-testbn4,81,274.80663895720664,366208,1414,4513.401271820068,,14.024070739746094,52.2297248840332,0.5
366,MetaDrive-testbn4,81,273.7797054803571,367348,1416,4526.488255977631,,29.746095657348633,54.936492919921875,0.5
367,MetaDrive-testbn4,81,276.29032092657815,368167,1417,4536.88388133049,-48.09836959838867,14.730875015258789,47.8444938659668,0.51
368,MetaDrive-testbn4,81,279.16421649522806,369604,1419,4552.76020359993,,9.731809616088867,49.5993766784668,0.52
369,MetaDrive-testbn4,81,277.3495349846819,370013,1420,4557.381024122238,-54.05331802368164,12.68077278137207,53.026817321777344,0.51
370,MetaDrive-testbn4,81,277.07080323693935,371293,1422,4573.421259641647,-50.17051696777344,17.369304656982422,49.46556854248047,0.51
371,MetaDrive-testbn4,81,277.5759361345032,372808,1424,4590.593877792358,,17.31476402282715,51.390167236328125,0.52
372,MetaDrive-testbn4,81,277.80680864588584,373538,1425,4598.279180288315,,8.62368392944336,53.37727737426758,0.51
373,MetaDrive-testbn4,81,276.2956666632753,374142,1426,4603.7775638103485,,13.17978572845459,49.795631408691406,0.51
374,MetaDrive-testbn4,81,275.41936761116125,375190,1428,4614.285262823105,,8.565067291259766,55.208396911621094,0.51
375,MetaDrive-testbn4,81,277.71171984546777,376664,1430,4633.751437664032,,12.704938888549805,52.5937614440918,0.53
376,MetaDrive-testbn4,81,277.1595899649524,377489,1432,4642.813306570053,-46.29588317871094,8.685544967651367,46.781898498535156,0.53
377,MetaDrive-testbn4,81,277.6614725095908,378490,1433,4658.425438404083,,15.618607521057129,47.9391975402832,0.53
378,MetaDrive-testbn4,81,275.9845061343812,379818,1435,4675.338591575623,,13.201532363891602,50.049373626708984,0.53
379,MetaDrive-testbn4,81,276.74363701246637,380432,1436,4681.979204177856,,9.802481651306152,58.2931022644043,0.54
380,MetaDrive-testbn4,81,277.49381184978176,381770,1438,4696.932569265366,,13.159526824951172,45.25116729736328,0.54
381,MetaDrive-testbn4,81,279.573760893349,382531,1439,4705.312138795853,-48.344970703125,6.784250259399414,48.42127990722656,0.54
382,MetaDrive-testbn4,81,278.8499158685265,383196,1440,4711.894545555115,,12.295380592346191,48.92495346069336,0.55
383,MetaDrive-testbn4,81,275.9911143137235,384941,1443,4736.998545885086,-53.99168014526367,34.28282928466797,52.86103057861328,0.54
384,MetaDrive-testbn4,81,276.5326089498658,385433,1444,4741.983804702759,-47.43180847167969,68.53242492675781,45.70830535888672,0.55
385,MetaDrive-testbn4,81,274.34856541745995,386406,1446,4753.739551305771,,12.768265724182129,46.89583969116211,0.54
386,MetaDrive-testbn4,81,274.5625934109084,387055,1447,4760.077334880829,-47.837066650390625,14.3025484085083,47.30628204345703,0.55
387,MetaDrive-testbn4,81,270.62075372594967,388399,1450,4775.340482950211,-51.988704681396484,16.76030158996582,51.88139724731445,0.54
388,MetaDrive-testbn4,81,268.11557201849865,389400,1452,4788.865776538849,,31.056344985961914,44.14783477783203,0.53
389,MetaDrive-testbn4,81,271.33227302494555,390401,1453,4802.94039607048,-50.183990478515625,22.269325256347656,50.628326416015625,0.53
390,MetaDrive-testbn4,81,272.1397132032621,391402,1454,4814.037126779556,,19.595731735229492,43.525001525878906,0.53
391,MetaDrive-testbn4,81,267.5656463350509,392104,1456,4822.130965709686,,31.39334487915039,49.504547119140625,0.53
392,MetaDrive-testbn4,81,267.1079676890522,393869,1458,4842.348927974701,-52.79388427734375,27.207115173339844,52.038795471191406,0.52
393,MetaDrive-testbn4,81,267.6877629511432,394340,1459,4848.3490698337555,,17.538272857666016,49.528236389160156,0.52
394,MetaDrive-testbn4,81,268.977860860563,395001,1460,4854.15701174736,-45.078941345214844,20.49956512451172,44.671363830566406,0.52
395,MetaDrive-testbn4,81,269.0284317582267,396760,1462,4872.040904045105,,16.583152770996094,50.250308990478516,0.53
396,MetaDrive-testbn4,81,269.0043343411426,397403,1463,4880.8061101436615,-54.38371276855469,13.85270881652832,54.247554779052734,0.52
397,MetaDrive-testbn4,81,269.89637559065375,398260,1465,4890.826731204987,,14.851062774658203,51.13777542114258,0.52
398,MetaDrive-testbn4,81,268.27623311600104,399389,1467,4904.066067457199,-49.45539093017578,9.060641288757324,49.20564270019531,0.51
399,MetaDrive-testbn4,81,267.25423009076223,400217,1469,4915.2227573394775,-52.09709167480469,12.01698112487793,52.94717025756836,0.5
400,MetaDrive-testbn4,81,270.2189153456791,401169,1471,4926.34530043602,-56.300209045410156,12.1646728515625,54.926727294921875,0.51
401,MetaDrive-testbn4,81,269.02839310993926,402109,1473,4937.968313932419,-49.58574676513672,7.838187217712402,49.11035919189453,0.5
402,MetaDrive-testbn4,81,265.4356614161011,403465,1476,4951.595780849457,-50.439231872558594,223.58831787109375,48.103050231933594,0.49
403,MetaDrive-testbn4,81,266.7990758412123,404238,1477,4960.008163690567,,101.033447265625,47.94129180908203,0.5
404,MetaDrive-testbn4,81,269.08978450406454,405035,1478,4967.28777718544,-50.52436828613281,14.763555526733398,50.38947677612305,0.51
405,MetaDrive-testbn4,81,270.632427377231,406036,1479,4986.633752584457,,11.856710433959961,53.21620178222656,0.51
406,MetaDrive-testbn4,81,264.3611517947267,407253,1481,5001.093617200851,-51.16368865966797,16.616918563842773,50.5362548828125,0.5
407,MetaDrive-testbn4,81,261.10518816312856,408425,1483,5017.821744918823,-55.915802001953125,10.487728118896484,55.321685791015625,0.5
408,MetaDrive-testbn4,81,261.60130370613757,409171,1484,5025.238473892212,-49.56074142456055,15.332932472229004,49.56693649291992,0.5
409,MetaDrive-testbn4,81,259.6527427905769,410997,1486,5050.805732488632,-56.25233840942383,17.086200714111328,54.54077911376953,0.48
410,MetaDrive-testbn4,81,258.8737118646805,411347,1487,5055.172957420349,-46.538658142089844,11.186565399169922,46.70051574707031,0.48
411,MetaDrive-testbn4,81,257.23715655272446,412235,1489,5065.614839076996,-44.790645599365234,18.083023071289062,46.37980651855469,0.48
412,MetaDrive-testbn4,81,259.08719916888566,413148,1490,5079.374002695084,,15.3257474899292,51.004150390625,0.48
413,MetaDrive-testbn4,81,259.98137162550154,414149,1491,5094.538817644119,-52.10361862182617,26.967527389526367,51.58568572998047,0.48
414,MetaDrive-testbn4,81,259.8246143515891,415150,1492,5102.379328966141,,12.236621856689453,49.823394775390625,0.48
415,MetaDrive-testbn4,81,260.37321769112657,416070,1493,5115.032421588898,,14.415651321411133,49.12437438964844,0.47
416,MetaDrive-testbn4,81,260.3193483418318,417071,1494,5130.294380426407,-50.89454650878906,12.460356712341309,51.282928466796875,0.46
417,MetaDrive-testbn4,81,259.83651412207325,418267,1496,5141.924892663956,-48.793975830078125,8.660184860229492,47.300987243652344,0.45
418,MetaDrive-testbn4,81,259.9418698417274,419236,1497,5152.6205315589905,,9.629095077514648,53.47541809082031,0.46
419,MetaDrive-testbn4,81,258.0575750757975,420950,1499,5171.814455270767,,24.157970428466797,54.429168701171875,0.46
420,MetaDrive-testbn4,81,257.3669967388487,421193,1500,5174.5160892009735,-50.969886779785156,15.700278282165527,50.936241149902344,0.46
421,MetaDrive-testbn4,81,256.8436374042639,422194,1501,5186.558921813965,,7.838613986968994,50.388145446777344,0.45
422,MetaDrive-testbn4,81,255.90607762964453,423195,1502,5200.293967485428,-53.092674255371094,13.281780242919922,51.621883392333984,0.45
423,MetaDrive-testbn4,81,255.69137644686427,424196,1503,5210.015743494034,,11.158929824829102,45.14177322387695,0.44
424,MetaDrive-testbn4,81,256.84122753364596,425209,1505,5220.781514406204,-51.775169372558594,44.11725997924805,49.707557678222656,0.43
425,MetaDrive-testbn4,81,258.89073907206716,426130,1506,5233.0258247852325,,52.601112365722656,46.98922348022461,0.43
426,MetaDrive-testbn4,81,256.127211964284,427605,1509,5247.904001951218,-55.3286247253418,9.605422973632812,54.81250762939453,0.41
427,MetaDrive-testbn4,81,255.57237965796187,428553,1510,5258.103392124176,-53.21320724487305,9.230240821838379,52.594261169433594,0.41
428,MetaDrive-testbn4,81,256.9200674433087,429066,1511,5263.235335111618,,17.895362854003906,48.43272399902344,0.42
429,MetaDrive-testbn4,81,254.43236385027978,430281,1514,5277.0192193984985,-50.544700622558594,16.36178970336914,51.39469528198242,0.41
430,MetaDrive-testbn4,81,246.94328218547685,431621,1518,5296.287048816681,-54.36378860473633,22.30069351196289,53.05683135986328,0.38
431,MetaDrive-testbn4,81,245.82976366197178,432215,1519,5302.0575268268585,-44.15062713623047,15.559988021850586,44.873355865478516,0.37
432,MetaDrive-testbn4,81,247.99942673736794,433147,1520,5312.421617507935,-47.040199279785156,8.080087661743164,46.83710861206055,0.38
433,MetaDrive-testbn4,81,247.47142856868703,434435,1522,5328.411170721054,-46.658226013183594,11.722450256347656,47.56855010986328,0.37
434,MetaDrive-testbn4,81,245.1629450841482,435210,1524,5339.920471906662,,9.829280853271484,51.42150115966797,0.35
435,MetaDrive-testbn4,81,244.83921122181948,436736,1526,5356.439689874649,,8.123058319091797,48.12519836425781,0.34
436,MetaDrive-testbn4,81,242.2482638293749,437029,1528,5360.1390998363495,-51.405357360839844,28.93155288696289,51.472450256347656,0.33
437,MetaDrive-testbn4,81,242.4148753014524,438030,1529,5372.009047031403,,65.66133117675781,43.15631866455078,0.32
438,MetaDrive-testbn4,81,241.0324973387047,439319,1532,5388.591774940491,-47.00773239135742,14.805436134338379,47.40086364746094,0.31
439,MetaDrive-testbn4,81,240.67284455707642,440158,1534,5398.224188089371,,60.60173797607422,47.79100799560547,0.31
440,MetaDrive-testbn4,81,238.24968449759982,441515,1537,5414.9446675777435,-48.36701965332031,8.270004272460938,46.786624908447266,0.3
441,MetaDrive-testbn4,81,235.76066825085343,442621,1539,5431.693338632584,-40.56261444091797,11.175179481506348,39.87076950073242,0.29
442,MetaDrive-testbn4,81,235.72151258092018,443014,1540,5435.280878305435,,10.638930320739746,47.04721450805664,0.29
443,MetaDrive-testbn4,81,238.21948560723834,444622,1543,5453.6610770225525,,7.965283393859863,46.46723937988281,0.3
444,MetaDrive-testbn4,81,238.18980705452893,445335,1544,5463.720766067505,-45.431297302246094,29.966230392456055,45.77541732788086,0.29
445,MetaDrive-testbn4,81,241.26365359024805,446336,1545,5482.662137031555,,8.507858276367188,46.75450134277344,0.29
446,MetaDrive-testbn4,81,240.90374891888462,447337,1546,5497.46059012413,-48.50380325317383,7.773516654968262,47.458499908447266,0.28
447,MetaDrive-testbn4,81,242.44422789508877,448821,1548,5516.458610534668,-49.981719970703125,12.158583641052246,50.402496337890625,0.29
448,MetaDrive-testbn4,81,245.33994836005942,449372,1549,5521.312072753906,,7.149426460266113,46.02723693847656,0.3
449,MetaDrive-testbn4,81,245.95243157573606,450566,1552,5535.331857919693,,10.13172721862793,44.41032791137695,0.31
450,MetaDrive-testbn4,81,242.8987267725045,451087,1554,5541.720538377762,-52.415374755859375,14.549415588378906,51.98838806152344,0.31
451,MetaDrive-testbn4,81,241.65202527115758,452037,1557,5554.912354469299,-42.035682678222656,9.823455810546875,41.69204330444336,0.29
452,MetaDrive-testbn4,81,242.85866383393434,453179,1559,5566.249683380127,-50.244041442871094,27.60382843017578,49.89063262939453,0.3
453,MetaDrive-testbn4,81,242.36117090220404,454219,1561,5577.879190921783,-44.16062927246094,36.9493408203125,44.06769943237305,0.3
454,MetaDrive-testbn4,81,240.55906774130403,455335,1563,5589.112574338913,-43.334320068359375,32.71888732910156,41.59274673461914,0.3
455,MetaDrive-testbn4,81,241.91739988695082,456864,1565,5605.158298254013,,12.822928428649902,47.01411056518555,0.31
456,MetaDrive-testbn4,81,243.04627087618053,457687,1566,5613.3155999183655,-42.21959686279297,8.730098724365234,41.12800598144531,0.32
457,MetaDrive-testbn4,81,242.68913835198993,458441,1567,5621.096601724625,-46.810176849365234,7.891134262084961,46.969139099121094,0.32
458,MetaDrive-testbn4,81,246.48322007559355,459638,1569,5636.08437037468,,7.645186424255371,46.247352600097656,0.32
459,MetaDrive-testbn4,81,247.45346474044135,460264,1570,5643.575917959213,,11.678398132324219,48.97346115112305,0.33
460,MetaDrive-testbn4,81,249.46076340205892,461648,1572,5658.136050462723,,20.513286590576172,48.56517028808594,0.32
461,MetaDrive-testbn4,81,251.6756472511078,462533,1573,5673.295037269592,-42.1958122253418,30.148635864257812,41.99418258666992,0.32
462,MetaDrive-testbn4,81,253.40876125254164,463534,1574,5688.5616092681885,,4.711244583129883,44.54964065551758,0.32
463,MetaDrive-testbn4,81,256.5379258089108,464510,1575,5702.7538912296295,,14.011356353759766,48.91632080078125,0.33
464,MetaDrive-testbn4,81,254.87853074239095,465298,1577,5712.189355373383,,10.278236389160156,46.66573715209961,0.32
465,MetaDrive-testbn4,81,252.28923203588246,466125,1579,5720.771710634232,-45.0859260559082,24.21950340270996,44.787742614746094,0.32
466,MetaDrive-testbn4,81,256.27964628646487,467458,1581,5739.2396285533905,,4.732604026794434,46.13086700439453,0.32
467,MetaDrive-testbn4,81,252.83442302450285,468482,1584,5751.280159235001,,10.994461059570312,44.166561126708984,0.3
468,MetaDrive-testbn4,81,253.6534727752695,469223,1585,5760.127027750015,-46.739654541015625,11.400350570678711,46.291831970214844,0.3
469,MetaDrive-testbn4,81,256.01552624517774,470434,1588,5773.232581377029,,9.915056228637695,47.61789321899414,0.3
470,MetaDrive-testbn4,81,256.3055426869903,471435,1589,5794.009911060333,-44.52101135253906,11.85879898071289,44.67976379394531,0.29
471,MetaDrive-testbn4,81,256.10825431005117,472335,1590,5806.9380486011505,-46.417152404785156,55.433998107910156,45.297996520996094,0.29
472,MetaDrive-testbn4,81,256.9815738106256,473073,1591,5814.231956481934,-41.795501708984375,19.207136154174805,42.88418197631836,0.3
473,MetaDrive-testbn4,81,254.0933717091226,474392,1594,5829.969074010849,,32.45595932006836,38.31932830810547,0.31
474,MetaDrive-testbn4,81,253.72217789767365,475376,1596,5840.265130519867,,14.058931350708008,41.36427307128906,0.32
475,MetaDrive-testbn4,81,250.6236629547159,476254,1598,5854.310500383377,,137.9557342529297,45.139007568359375,0.31
476,MetaDrive-testbn4,81,254.41622716480492,477541,1600,5868.90519618988,-38.52420425415039,13.356027603149414,38.860626220703125,0.32
477,MetaDrive-testbn4,81,253.561306143798,478542,1601,5880.724713563919,,20.977691650390625,45.59225845336914,0.32
478,MetaDrive-testbn4,81,253.15280083584486,479148,1602,5886.607567310333,,9.446479797363281,42.78185272216797,0.33
479,MetaDrive-testbn4,81,252.23840720934524,480545,1605,5904.736540079117,-42.9182243347168,10.127574920654297,42.524349212646484,0.34
480,MetaDrive-testbn4,81,252.74382427355172,481307,1607,5913.085936307907,-39.45433044433594,7.032294273376465,38.2671012878418,0.34
481,MetaDrive-testbn4,81,252.03167573252355,482098,1609,5925.473722457886,,8.093250274658203,44.10629653930664,0.34
482,MetaDrive-testbn4,81,253.45697026675052,483099,1610,5942.118478775024,-48.7519645690918,9.974172592163086,49.46705627441406,0.33
483,MetaDrive-testbn4,81,253.72961577975803,484078,1612,5954.149790763855,,9.957412719726562,43.63926696777344,0.33
484,MetaDrive-testbn4,81,256.117186173098,485079,1613,5975.038181066513,-41.661155700683594,7.7312164306640625,41.057708740234375,0.33
485,MetaDrive-testbn4,81,256.8334855264747,486323,1616,5989.124893665314,-43.50596618652344,5.483136177062988,42.2924919128418,0.32
486,MetaDrive-testbn4,81,258.4179697133186,487438,1618,6004.101193189621,,18.960119247436523,39.55687713623047,0.33
487,MetaDrive-testbn4,81,257.29576271559966,488334,1620,6015.917130231857,,8.666253089904785,43.4300537109375,0.32
488,MetaDrive-testbn4,81,257.0593637094555,489276,1622,6024.943491697311,,7.941568374633789,42.74384307861328,0.33
489,MetaDrive-testbn4,81,256.74489027582445,490106,1624,6037.184812068939,,6.77564811706543,47.20819854736328,0.34
490,MetaDrive-testbn4,81,257.3918627737869,491408,1627,6052.890993595123,,23.498870849609375,44.6376953125,0.35
491,MetaDrive-testbn4,81,256.06660423395476,492138,1629,6062.3217697143555,,6.361722469329834,39.74726104736328,0.35
492,MetaDrive-testbn4,81,254.9173029302049,493013,1632,6072.236097574234,-44.40203857421875,6.883117198944092,43.740501403808594,0.35
493,MetaDrive-testbn4,81,255.51776011842702,494734,1635,6091.166662931442,,10.593615531921387,37.014976501464844,0.37
494,MetaDrive-testbn4,81,256.50385710293835,495187,1636,6096.023585319519,-47.2493896484375,127.22352600097656,46.978515625,0.37
495,MetaDrive-testbn4,81,255.67620357194312,496209,1638,6111.836280345917,-42.41387176513672,5.719089984893799,41.57766342163086,0.36
496,MetaDrive-testbn4,81,259.02294042236883,497649,1640,6132.436447620392,-43.00932312011719,19.946813583374023,41.60515594482422,0.36
497,MetaDrive-testbn4,81,260.06140722161626,498125,1641,6138.650515556335,-41.543540954589844,14.169511795043945,39.702850341796875,0.36
498,MetaDrive-testbn4,81,261.79151306245456,499048,1642,6152.949903011322,,21.12856674194336,39.08724594116211,0.36
499,MetaDrive-testbn4,81,261.11440261264926,500135,1644,6165.763913393021,-43.06587219238281,11.40781307220459,42.691654205322266,0.36
500,MetaDrive-testbn4,81,260.76575452436265,501069,1645,6180.691132307053,-41.92578125,13.457832336425781,41.2209358215332,0.37
501,MetaDrive-testbn4,81,263.20780763084787,502657,1647,6201.618779420853,-42.33390426635742,13.501448631286621,42.3482780456543,0.37
502,MetaDrive-testbn4,81,259.5358753385548,503404,1649,6209.761937618256,,7.941493988037109,41.073280334472656,0.35
503,MetaDrive-testbn4,81,260.2786169796387,504036,1651,6218.57573723793,,8.531189918518066,40.536651611328125,0.35
504,MetaDrive-testbn4,81,261.56172354559465,505523,1654,6238.042173624039,-41.67953109741211,16.298381805419922,40.97967529296875,0.35
505,MetaDrive-testbn4,81,263.3599454777929,506079,1655,6244.147848367691,-42.74658203125,16.135337829589844,43.62448501586914,0.36
506,MetaDrive-testbn4,81,263.1325761327144,507269,1658,6257.685208082199,-41.10793685913086,7.363564491271973,41.722412109375,0.38
507,MetaDrive-testbn4,81,262.9256308582372,508678,1660,6277.975633144379,,10.23885440826416,38.14231872558594,0.37
508,MetaDrive-testbn4,80,264.9562015579596,509602,1661,6292.944984674454,,14.504523277282715,40.08355712890625,0.38
509,MetaDrive-testbn4,80,263.5652257582033,510178,1663,6299.132209062576,,22.485801696777344,42.18299102783203,0.37
510,MetaDrive-testbn4,80,260.824107896621,511222,1666,6312.202454090118,,58.09446716308594,39.185325622558594,0.35
511,MetaDrive-testbn4,80,256.5064916955352,512182,1669,6324.446495056152,,6.700837135314941,41.50786590576172,0.35
512,MetaDrive-testbn4,80,248.2311489259234,513077,1673,6336.258242845535,-41.87804412841797,6.092007637023926,42.37571716308594,0.33
513,MetaDrive-testbn4,80,248.18778296568857,514503,1675,6355.455411195755,-40.5350341796875,11.706331253051758,40.67051696777344,0.34
514,MetaDrive-testbn4,80,246.9501810893891,515121,1677,6361.965929985046,-36.543853759765625,6.593033790588379,36.60038757324219,0.33
515,MetaDrive-testbn4,80,247.99589196249602,516391,1680,6375.579067468643,-39.36819839477539,19.326290130615234,40.257789611816406,0.34
516,MetaDrive-testbn4,81,245.0777981934854,517274,1684,6383.825075626373,,8.952220916748047,42.59967041015625,0.35
517,MetaDrive-testbn4,81,248.7480750691909,518558,1686,6396.954684257507,,8.378251075744629,39.68334197998047,0.37
518,MetaDrive-testbn4,81,250.725001973489,519252,1687,6406.935322999954,,17.847599029541016,43.882286071777344,0.38
519,MetaDrive-testbn4,81,249.93290189542782,520236,1689,6417.958047151566,,22.615427017211914,43.9871826171875,0.39
520,MetaDrive-testbn4,81,248.94910050412224,521072,1690,6430.729197025299,,15.532608032226562,43.725852966308594,0.39
521,MetaDrive-testbn4,81,252.00344560486042,522406,1692,6446.355605125427,,12.616806983947754,35.91791534423828,0.39
522,MetaDrive-testbn4,81,248.81618962259313,523459,1695,6457.095872402191,-38.97314453125,7.319610118865967,39.353172302246094,0.37
523,MetaDrive-testbn4,81,249.19559833659113,524046,1697,6464.947573661804,,16.089378356933594,43.955509185791016,0.36
524,MetaDrive-testbn4,81,248.2100592216476,525067,1699,6476.546020746231,-38.756797790527344,15.249909400939941,39.23252868652344,0.36
525,MetaDrive-testbn4,80,247.1614069487038,526366,1701,6500.718125581741,,8.89560317993164,36.37089538574219,0.36
526,MetaDrive-testbn4,80,247.10771782660956,527570,1703,6516.812267780304,,20.713130950927734,39.727752685546875,0.36
527,MetaDrive-testbn4,80,249.4597928384859,528079,1704,6522.255764245987,-38.38347244262695,7.735284805297852,38.05787658691406,0.36
528,MetaDrive-testbn4,80,250.83014526273976,529412,1707,6538.843435049057,,3.4529054164886475,43.0579719543457,0.37
529,MetaDrive-testbn4,80,248.09176713425612,530572,1710,6553.2899622917175,,13.29951286315918,36.962337493896484,0.38
530,MetaDrive-testbn4,80,247.0126323026989,531159,1712,6559.4738557338715,-37.490936279296875,11.821921348571777,37.439781188964844,0.37
531,MetaDrive-testbn4,80,247.351120293343,532346,1715,6573.517165660858,,15.5805025100708,43.22175598144531,0.39
532,MetaDrive-testbn4,80,247.3358286872106,533115,1717,6583.081913471222,-37.8975715637207,10.801706314086914,37.32499313354492,0.4
533,MetaDrive-testbn4,80,245.10395426240302,534001,1719,6592.834832668304,-42.99494934082031,12.59327507019043,43.396217346191406,0.39
534,MetaDrive-testbn4,81,242.44884489746264,535048,1722,6604.54735994339,,24.01645278930664,43.056434631347656,0.38
535,MetaDrive-testbn4,80,247.2320131940291,536865,1725,6630.4328327178955,-39.813133239746094,6.333919525146484,39.6722412109375,0.4
536,MetaDrive-testbn4,80,248.44107586559042,537461,1726,6636.605584144592,-46.355262756347656,12.972984313964844,45.394412994384766,0.41
537,MetaDrive-testbn4,80,248.63152144615108,538182,1728,6644.520176887512,,10.715770721435547,41.01702117919922,0.41
538,MetaDrive-testbn4,81,252.1804081206045,539339,1730,6657.054667711258,-41.9781494140625,7.617289066314697,42.35418701171875,0.43
539,MetaDrive-testbn4,81,252.8054654445436,540011,1731,6664.56263256073,-43.19353103637695,6.561614036560059,43.15269470214844,0.43
540,MetaDrive-testbn4,81,254.36974575556104,541060,1733,6676.4489159584045,,11.05789566040039,35.469825744628906,0.44
541,MetaDrive-testbn4,81,255.10287012346532,542203,1735,6690.21355009079,-38.641639709472656,18.38139533996582,38.622222900390625,0.43
542,MetaDrive-testbn4,81,257.0768520250887,543100,1737,6700.893814325333,,8.079863548278809,38.73554229736328,0.43
543,MetaDrive-testbn4,81,252.3270595862557,544618,1740,6723.398122549057,,13.547025680541992,38.9234619140625,0.42
544,MetaDrive-testbn4,81,252.89987430110753,545133,1741,6729.21852350235,-39.159950256347656,20.6274471282959,38.805397033691406,0.43
545,MetaDrive-testbn4,81,251.6054759987409,546185,1743,6741.307251691818,-39.354759216308594,10.706653594970703,38.52143478393555,0.44
546,MetaDrive-testbn4,80,249.77967302272944,547186,1744,6756.048883676529,,13.201454162597656,38.638145446777344,0.43
547,MetaDrive-testbn4,81,246.36122848947656,548137,1746,6765.898850917816,-41.4937629699707,14.593568801879883,41.59525680541992,0.44
548,MetaDrive-testbn4,81,247.1382414615286,549550,1748,6782.20604300499,,3.8358242511749268,42.85933303833008,0.44
549,MetaDrive-testbn4,81,247.48136895233876,550376,1750,6793.438260555267,,15.1948823928833,40.472007751464844,0.45
550,MetaDrive-testbn4,81,248.182340112784,551122,1752,6800.711468696594,,8.676553726196289,37.938720703125,0.46
551,MetaDrive-testbn4,81,249.5350607200442,552214,1754,6814.546735525131,,10.782238960266113,35.11046600341797,0.46
552,MetaDrive-testbn4,81,249.97830160510213,553517,1757,6829.034062862396,-41.847068786621094,6.931597709655762,41.41070556640625,0.46
553,MetaDrive-testbn4,81,247.82034739399597,554288,1759,6842.060453414917,,5.684648036956787,44.110870361328125,0.44
554,MetaDrive-testbn4,81,247.49014346898883,555596,1761,6856.6216106414795,,21.95364761352539,37.59847640991211,0.44
555,MetaDrive-testbn4,81,246.16897176813646,556070,1763,6861.488535404205,,9.702299118041992,40.348838806152344,0.44
556,MetaDrive-testbn4,81,250.59516582659128,557560,1765,6882.119968414307,,9.375418663024902,37.21855926513672,0.44
557,MetaDrive-testbn4,81,253.22578303678162,558454,1767,6892.701668977737,,12.738938331604004,35.51677703857422,0.45
558,MetaDrive-testbn4,80,253.85609398253243,559455,1768,6913.600996732712,-43.86433410644531,11.514627456665039,43.854373931884766,0.44
559,MetaDrive-testbn4,80,255.70963349652283,560015,1770,6919.3640604019165,-39.41262435913086,5.338490962982178,38.98944854736328,0.45
560,MetaDrive-testbn4,80,258.7503110962592,561701,1773,6942.7088668346405,-45.76103973388672,7.1334075927734375,46.48284912109375,0.45
561,MetaDrive-testbn4,80,258.997462101281,562410,1774,6952.222141265869,,6.25310754776001,37.65468978881836,0.45
562,MetaDrive-testbn4,80,257.53595155342396,563074,1775,6960.702246189117,,8.597684860229492,40.150306701660156,0.45
563,MetaDrive-testbn4,80,257.28838503206674,564074,1778,6971.580701112747,,7.917655944824219,36.50230407714844,0.45
564,MetaDrive-testbn4,80,259.2235318837666,565515,1781,6990.96404671669,-40.84819412231445,11.656942367553711,40.71007537841797,0.44
565,MetaDrive-testbn4,80,262.00789895457547,566174,1782,6998.722729921341,,7.5569634437561035,38.33523941040039,0.44
566,MetaDrive-testbn4,80,266.2083514242373,567010,1783,7009.427610874176,,110.56614685058594,36.147682189941406,0.45
567,MetaDrive-testbn4,80,260.8856644284427,568133,1786,7024.495834112167,-44.73893737792969,5.402304172515869,43.35391616821289,0.43
568,MetaDrive-testbn4,80,260.71859059065065,569328,1788,7037.76330447197,,13.87728500366211,40.828426361083984,0.42
569,MetaDrive-testbn4,80,261.3322926328394,570570,1790,7053.62920331955,,4.641563415527344,38.00170135498047,0.42
570,MetaDrive-testbn4,80,259.5649968985213,571496,1793,7063.4396188259125,,5.8840532302856445,42.13954162597656,0.42
571,MetaDrive-testbn4,80,261.1127138810621,572602,1795,7079.454524517059,,93.826416015625,43.55714416503906,0.42
572,MetaDrive-testbn4,80,261.34429315546186,573118,1796,7086.780056715012,,5.257451057434082,40.591514587402344,0.42
573,MetaDrive-testbn4,80,263.3412357864539,574516,1798,7104.355672597885,,8.10885238647461,37.35737609863281,0.41
574,MetaDrive-testbn4,80,263.49954097363155,575065,1799,7111.185730457306,-36.07441329956055,7.125534534454346,36.67058563232422,0.4
575,MetaDrive-testbn4,80,266.39960511364023,576400,1801,7129.720317363739,,8.219630241394043,39.877525329589844,0.42
576,MetaDrive-testbn4,80,264.66608905662093,577128,1803,7137.241743564606,,11.894238471984863,39.91302490234375,0.42
577,MetaDrive-testbn4,80,264.1135844583656,578049,1805,7149.82275390625,-40.426246643066406,7.565237045288086,39.61113739013672,0.42
578,MetaDrive-testbn4,80,264.2461322354731,579094,1807,7162.300677776337,,6.990373134613037,33.258323669433594,0.42
579,MetaDrive-testbn4,80,267.14534213473746,580095,1808,7176.968253135681,-39.51093292236328,7.504664421081543,40.3310546875,0.42
580,MetaDrive-testbn4,80,270.1404919006681,581096,1809,7192.184113025665,,8.526082992553711,42.6240234375,0.42
581,MetaDrive-testbn4,80,271.0842668399315,582235,1811,7210.0691068172455,-42.10432052612305,6.084843635559082,42.08243942260742,0.41
582,MetaDrive-testbn4,80,273.27909846482765,583442,1814,7227.290246009827,,4.619681358337402,36.946556091308594,0.4
583,MetaDrive-testbn4,80,271.4694646641528,584156,1816,7235.748534202576,,13.300108909606934,38.939544677734375,0.4
584,MetaDrive-testbn4,80,273.9898285736531,585705,1818,7258.7909898757935,-42.85462951660156,5.324953556060791,43.010276794433594,0.41
585,MetaDrive-testbn4,80,276.61565495894166,586416,1819,7267.310870409012,,7.752979278564453,40.153812408447266,0.42
586,MetaDrive-testbn4,80,276.831570685463,587512,1822,7282.397684335709,,5.351824760437012,47.03435516357422,0.42
587,MetaDrive-testbn4,80,278.4807352210779,588364,1823,7294.797617435455,,10.920491218566895,42.22970962524414,0.42
588,MetaDrive-testbn4,80,274.6386632975892,589061,1825,7303.680091142654,-40.46699905395508,7.131409645080566,40.219505310058594,0.4
589,MetaDrive-testbn4,80,275.67005778728776,590143,1827,7321.502520799637,-45.91865539550781,6.2751874923706055,45.51744079589844,0.39
590,MetaDrive-testbn4,80,273.6493218255198,591032,1829,7334.709723234177,,22.869749069213867,40.91608810424805,0.37
591,MetaDrive-testbn4,80,269.92024397850093,592159,1832,7347.373876333237,-36.399505615234375,7.806492805480957,36.25896453857422,0.36
592,MetaDrive-testbn4,80,271.46361512593904,593146,1834,7358.167429685593,,4.4023308753967285,38.351505279541016,0.36
593,MetaDrive-testbn4,80,269.0384206071145,594367,1837,7376.374362230301,-42.93566131591797,10.653159141540527,43.00770568847656,0.37
594,MetaDrive-testbn4,80,270.7882263574653,595206,1839,7386.497538566589,,7.397173881530762,34.64696502685547,0.38
595,MetaDrive-testbn4,80,269.52020115212014,596139,1841,7398.413347482681,-38.99240493774414,8.296476364135742,39.49845886230469,0.38
596,MetaDrive-testbn4,80,272.4561865348617,597012,1842,7410.388318061829,,10.271774291992188,41.931175231933594,0.39
597,MetaDrive-testbn4,80,270.05469974591836,598557,1846,7426.842013120651,-41.337432861328125,24.35723114013672,40.35071563720703,0.37
598,MetaDrive-testbn4,80,264.67728314943446,599400,1850,7436.822223186493,,5.619265556335449,41.45832443237305,0.35
599,MetaDrive-testbn4,80,264.38891262964586,600066,1852,7443.559545755386,,19.59478759765625,40.19082260131836,0.35
600,MetaDrive-testbn4,80,264.0754997709613,601088,1854,7454.101296901703,,8.457436561584473,35.80454635620117,0.35
601,MetaDrive-testbn4,80,264.1319977037753,602399,1857,7473.450278520584,-38.452880859375,7.717090606689453,38.406402587890625,0.34
602,MetaDrive-testbn4,80,260.53300365130764,603154,1860,7481.927126169205,,9.34144401550293,43.23783874511719,0.34
603,MetaDrive-testbn4,80,263.23541201093246,604252,1862,7497.2445430755615,,8.678783416748047,39.524131774902344,0.35
604,MetaDrive-testbn4,80,264.5148901755795,605513,1864,7516.3234050273895,-40.396141052246094,10.283287048339844,40.2149658203125,0.35
605,MetaDrive-testbn4,80,262.47743147812366,606402,1866,7525.380522727966,,7.3859052658081055,39.60395812988281,0.37
606,MetaDrive-testbn4,80,261.5281198506078,607282,1868,7534.425497055054,,8.430730819702148,36.85163116455078,0.38
607,MetaDrive-testbn4,80,263.1257007017622,608512,1871,7549.796507120132,,8.117195129394531,38.24445343017578,0.38
608,MetaDrive-testbn4,80,262.40059589203616,609383,1873,7561.176886558533,-39.9943733215332,9.647086143493652,39.898170471191406,0.39
609,MetaDrive-testbn4,80,259.56144259397155,610165,1875,7570.259882211685,-41.36693572998047,12.035358428955078,42.352256774902344,0.38
610,MetaDrive-testbn4,80,259.16932330878217,611159,1878,7583.168018341064,-40.048255920410156,67.7138671875,39.500999450683594,0.38
611,MetaDrive-testbn4,80,261.20885958964084,612439,1880,7598.98829126358,-41.147552490234375,14.533099174499512,40.3736457824707,0.4
612,MetaDrive-testbn4,80,253.7588155376768,613335,1883,7610.531220197678,-40.49540710449219,10.591915130615234,39.63671112060547,0.39
613,MetaDrive-testbn4,80,256.3657585529677,614140,1885,7619.261984586716,,6.6490068435668945,40.539764404296875,0.4
614,MetaDrive-testbn4,80,251.5428529900194,615263,1888,7632.905230760574,-35.286136627197266,3.883492946624756,34.74856948852539,0.38
615,MetaDrive-testbn4,80,249.7282793150551,616127,1890,7644.639454603195,-39.55146026611328,7.947479248046875,38.614681243896484,0.38
616,MetaDrive-testbn4,80,255.78499702035958,617218,1892,7655.986332893372,,8.71274185180664,38.089324951171875,0.4
617,MetaDrive-testbn4,80,253.6849450971062,618279,1895,7667.135040998459,-40.73936462402344,9.105506896972656,39.63648223876953,0.41
618,MetaDrive-testbn4,80,250.24893891761224,619384,1898,7682.710270881653,,14.545656204223633,37.421180725097656,0.42
619,MetaDrive-testbn4,80,243.23938340550114,620234,1902,7692.788207530975,,6.286900520324707,40.55589294433594,0.4
620,MetaDrive-testbn4,80,244.23108383131108,621609,1904,7713.8758907318115,-38.501129150390625,3.8306221961975098,38.5885124206543,0.39
621,MetaDrive-testbn4,80,242.87136020905615,622569,1906,7724.765079498291,-37.033203125,6.054683208465576,36.97771453857422,0.39
622,MetaDrive-testbn4,80,237.23816509018107,623017,1908,7731.953456163406,-38.42095947265625,8.44676685333252,37.461753845214844,0.38
623,MetaDrive-testbn4,80,235.96747291854805,624144,1910,7744.560223817825,,12.337165832519531,41.3170166015625,0.39
624,MetaDrive-testbn4,80,235.20505604237871,625184,1912,7757.876291513443,,6.368505477905273,37.94871520996094,0.4
625,MetaDrive-testbn4,80,238.73308410689492,626013,1913,7769.720764160156,-35.76215362548828,112.466064453125,35.128089904785156,0.41
626,MetaDrive-testbn4,80,241.2774215170197,627202,1915,7786.037162065506,,7.216984748840332,42.822898864746094,0.42
627,MetaDrive-testbn4,80,242.35726308993125,628203,1916,7801.765212059021,-43.048866271972656,13.9650297164917,43.628501892089844,0.41
628,MetaDrive-testbn4,80,238.90988014053673,629001,1918,7812.458526134491,-34.22093200683594,3.8357720375061035,33.90979766845703,0.4
629,MetaDrive-testbn4,80,241.22884102417433,630404,1921,7827.492129564285,,12.957863807678223,36.56681442260742,0.41
630,MetaDrive-testbn4,80,237.55899335340146,631318,1923,7837.490890741348,,6.211291313171387,41.58867645263672,0.4
631,MetaDrive-testbn4,80,239.38696055066427,632317,1925,7848.63622546196,-41.912742614746094,10.106996536254883,40.91300964355469,0.41
632,MetaDrive-testbn4,80,239.66302917445435,633177,1927,7857.817077636719,-32.86248016357422,26.041545867919922,32.51641082763672,0.42
633,MetaDrive-testbn4,80,240.6525238153876,634445,1930,7875.817101478577,-43.526023864746094,3.7548913955688477,42.578163146972656,0.42
634,MetaDrive-testbn4,80,238.60909879980534,635294,1932,7885.4208879470825,,116.27810668945312,43.40697479248047,0.4
635,MetaDrive-testbn4,80,238.18766460232433,636244,1934,7897.611973285675,,5.894341468811035,40.74882507324219,0.41
636,MetaDrive-testbn4,80,237.2876984478658,637176,1937,7907.093439102173,,19.708065032958984,38.34133529663086,0.42
637,MetaDrive-testbn4,80,237.37003729948975,638048,1939,7917.313007593155,,16.397274017333984,37.343685150146484,0.42
638,MetaDrive-testbn4,80,231.27858987756318,639147,1944,7928.5932648181915,-39.98619842529297,13.025768280029297,39.85836410522461,0.41
639,MetaDrive-testbn4,80,233.7108640917475,640148,1945,7947.524501085281,,4.53478479385376,36.099647521972656,0.41
640,MetaDrive-testbn4,80,235.09186028927294,641289,1948,7959.7886526584625,-36.90818405151367,9.782989501953125,37.00931930541992,0.41
641,MetaDrive-testbn4,80,235.7246899650911,642060,1950,7967.171880245209,,24.696903228759766,38.553253173828125,0.41
642,MetaDrive-testbn4,80,234.1130155299163,643224,1953,7979.564498662949,,9.147791862487793,39.86320114135742,0.4
643,MetaDrive-testbn4,80,232.40067612506627,644021,1956,7989.029257059097,-44.4741325378418,11.258670806884766,43.37297821044922,0.39
644,MetaDrive-testbn4,80,231.7309825468294,645001,1959,8000.841125488281,-37.846946716308594,5.991069793701172,37.546302795410156,0.38
645,MetaDrive-testbn4,80,229.63555192917175,646222,1962,8017.149659872055,,7.735397815704346,35.97431945800781,0.37
646,MetaDrive-testbn4,80,231.0354834507534,647528,1964,8033.057980537415,,6.062929630279541,43.375755310058594,0.38
647,MetaDrive-testbn4,80,231.46193282486746,648528,1966,8046.243000268936,,4.83590841293335,38.98500061035156,0.37
648,MetaDrive-testbn4,80,230.02752918514668,649057,1968,8055.327309131622,-34.90520477294922,11.348756790161133,34.75719451904297,0.35
649,MetaDrive-testbn4,80,230.27209526447703,650387,1971,8069.885694742203,-46.51123046875,8.511273384094238,46.31121826171875,0.36
650,MetaDrive-testbn4,80,230.69912361599236,651295,1973,8079.799461603165,-40.657562255859375,9.648311614990234,40.1501350402832,0.37
651,MetaDrive-testbn4,80,231.78999026711747,652216,1975,8090.202524662018,,44.66014099121094,41.76219177246094,0.37
652,MetaDrive-testbn4,80,234.8425841182008,653086,1977,8099.023027896881,,10.570219039916992,39.16754913330078,0.38
653,MetaDrive-testbn4,80,230.4480573525537,654325,1980,8118.341688871384,-43.34705352783203,13.141860961914062,42.75127410888672,0.35
654,MetaDrive-testbn4,80,232.7928823244799,655313,1983,8133.069047927856,-37.47772979736328,4.773719787597656,37.02696990966797,0.36
655,MetaDrive-testbn4,80,232.11292533750992,656012,1985,8142.001323699951,,8.68345832824707,35.79393768310547,0.36
656,MetaDrive-testbn4,80,232.55825584373096,657120,1988,8154.69909954071,,10.3369722366333,44.42202377319336,0.37
657,MetaDrive-testbn4,80,234.2816746899334,658095,1990,8164.829361915588,-40.66100311279297,79.21603393554688,39.41343307495117,0.38
658,MetaDrive-testbn4,80,227.8281610024464,659308,1994,8177.955759525299,,28.89181900024414,43.95637512207031,0.36
659,MetaDrive-testbn4,80,227.23815709349645,660162,1997,8187.603724002838,,9.196395874023438,39.26432800292969,0.34
660,MetaDrive-testbn4,80,228.34072872965538,661213,2000,8199.165004253387,-37.99475860595703,12.372748374938965,37.589027404785156,0.35
661,MetaDrive-testbn4,80,228.05281398435446,662228,2003,8210.205192565918,,6.9516448974609375,37.44225311279297,0.36
662,MetaDrive-testbn4,80,227.76320400697517,663032,2005,8219.398360490799,,17.804616928100586,40.67762756347656,0.36
663,MetaDrive-testbn4,80,230.51514937191297,664267,2008,8235.028682947159,-44.951255798339844,41.74601745605469,44.1403923034668,0.36
664,MetaDrive-testbn4,80,228.0853207963777,665495,2011,8250.570073604584,-37.194557189941406,33.498783111572266,37.27583694458008,0.34
665,MetaDrive-testbn4,80,230.1008498860092,666048,2012,8257.58139181137,,5.866325855255127,37.39662170410156,0.35
666,MetaDrive-testbn4,80,226.9594781771948,667092,2014,8270.672100305557,,9.867677688598633,36.049049377441406,0.33
667,MetaDrive-testbn4,80,226.53651011743855,668066,2016,8281.84950017929,,10.588325500488281,43.69997787475586,0.34
668,MetaDrive-testbn4,80,224.93277392615215,669366,2020,8296.710513353348,,7.584700107574463,36.068641662597656,0.33
669,MetaDrive-testbn4,80,220.8852733781287,670396,2024,8308.653397321701,,173.31301879882812,40.627960205078125,0.32
670,MetaDrive-testbn4,80,218.6294804965411,671782,2028,8328.297213554382,,5.8700079917907715,40.80726623535156,0.31
671,MetaDrive-testbn4,80,215.27899972789135,672082,2030,8331.651903152466,,5.766138076782227,38.24060821533203,0.31
672,MetaDrive-testbn4,80,214.33939827878345,673288,2033,8344.306933641434,,64.69268798828125,37.45263671875,0.31
673,MetaDrive-testbn4,80,213.09440957346544,674752,2036,8363.70754313469,,12.457326889038086,40.180885314941406,0.29
674,MetaDrive-testbn4,80,209.0758381692757,675015,2038,8366.70453953743,-39.759315490722656,13.405847549438477,39.19133758544922,0.27
675,MetaDrive-testbn4,80,211.56492115454992,676057,2041,8379.467903137207,-38.316162109375,11.1271390914917,38.20915222167969,0.27
676,MetaDrive-testbn4,80,213.33187725197448,677518,2044,8396.846277236938,,5.3075971603393555,46.64795684814453,0.28
677,MetaDrive-testbn4,80,212.7545130709345,678386,2046,8409.207923412323,,16.64059066772461,44.33094787597656,0.29
678,MetaDrive-testbn4,80,214.06511690837328,679319,2048,8425.207599401474,-40.96738052368164,16.276592254638672,41.1767463684082,0.28
679,MetaDrive-testbn4,80,213.1894326821425,680017,2050,8435.10437655449,-38.53830337524414,8.617870330810547,37.594451904296875,0.28
680,MetaDrive-testbn4,80,208.4811330023947,681163,2055,8448.739743947983,-33.79705810546875,12.090629577636719,33.68695068359375,0.27
681,MetaDrive-testbn4,80,209.4134093941513,682090,2057,8458.824316978455,,11.411458969116211,41.33330535888672,0.28
682,MetaDrive-testbn4,80,213.4102384975144,683275,2059,8477.4771194458,-40.1564826965332,61.576560974121094,39.18767166137695,0.28
683,MetaDrive-testbn4,80,214.88480122820337,684097,2061,8487.736772537231,-38.11781692504883,6.60336971282959,37.609107971191406,0.29
684,MetaDrive-testbn4,80,207.81568817711596,685981,2066,8513.515019416809,-37.10865020751953,10.106898307800293,36.484947204589844,0.26
685,MetaDrive-testbn4,80,208.78567322078837,686659,2067,8522.073944568634,-40.01776123046875,26.630359649658203,39.07862854003906,0.26
686,MetaDrive-testbn4,80,207.95017465649147,687086,2069,8526.30298113823,,9.939043998718262,33.357521057128906,0.27
687,MetaDrive-testbn4,80,204.198346612689,688328,2072,8547.150236606598,,19.11981964111328,39.83625793457031,0.24
688,MetaDrive-testbn4,80,203.18922648532316,689526,2075,8561.145152807236,,13.049817085266113,41.64101791381836,0.23
689,MetaDrive-testbn4,80,202.21666072869283,690368,2078,8571.637750864029,,10.307703018188477,40.355159759521484,0.23
690,MetaDrive-testbn4,80,204.2414820081844,691027,2079,8579.936391353607,-35.1459846496582,11.012711524963379,34.155792236328125,0.24
691,MetaDrive-testbn4,80,206.61272835142046,692164,2081,8591.216703891754,,4.8642473220825195,39.99360656738281,0.26
692,MetaDrive-testbn4,80,206.58951410744876,693183,2083,8606.094471931458,-42.070899963378906,21.996803283691406,41.01256561279297,0.26
693,MetaDrive-testbn4,80,208.80665987645486,694088,2085,8619.455538034439,,6.7680134773254395,38.170989990234375,0.25
694,MetaDrive-testbn4,80,209.32918922150003,695298,2088,8633.82517838478,,42.0466194152832,41.91533660888672,0.25
695,MetaDrive-testbn4,80,208.27544706859325,696190,2091,8644.312925338745,,9.61592960357666,37.173133850097656,0.24
696,MetaDrive-testbn4,80,208.42113533012434,697195,2094,8656.389677524567,-45.1614990234375,13.610815048217773,45.718711853027344,0.24
697,MetaDrive-testbn4,80,211.87732597527483,698067,2096,8668.48454618454,-37.83675003051758,14.493034362792969,37.55309295654297,0.24
698,MetaDrive-testbn4,80,209.7005767529772,699241,2099,8682.531971216202,-41.920265197753906,10.15809440612793,41.826332092285156,0.24
699,MetaDrive-testbn4,80,213.19199508837679,700272,2101,8698.826268434525,,4.411620140075684,37.473419189453125,0.24
700,MetaDrive-testbn4,80,213.45129792764445,701256,2103,8712.16990160942,,7.056499004364014,32.70330047607422,0.24
701,MetaDrive-testbn4,80,213.11691327443444,702041,2106,8720.995139360428,-36.46587371826172,16.2690372467041,35.35696029663086,0.24
702,MetaDrive-testbn4,80,208.00249123076637,703117,2110,8733.48816728592,-34.88834762573242,7.737270355224609,34.70954132080078,0.23
703,MetaDrive-testbn4,80,205.00244357849846,704301,2113,8753.173127174377,-37.722476959228516,6.916175365447998,37.269107818603516,0.22
704,MetaDrive-testbn4,80,201.70745591069888,705038,2116,8762.568529367447,,7.244285583496094,36.813819885253906,0.21
705,MetaDrive-testbn4,80,200.6867452876691,706484,2121,8779.507184028625,,18.767974853515625,39.054054260253906,0.2
706,MetaDrive-testbn4,80,203.8229384375822,707159,2123,8789.197103500366,-41.19861602783203,8.315488815307617,41.1807861328125,0.21
707,MetaDrive-testbn4,80,206.38056925212788,708554,2127,8805.873859405518,,8.18325424194336,37.32781219482422,0.21
708,MetaDrive-testbn4,80,205.89260906847846,709067,2128,8811.094033002853,-35.001182556152344,91.23799133300781,33.27192687988281,0.21
709,MetaDrive-testbn4,80,207.54526564816786,710098,2132,8821.937133789062,,35.964962005615234,34.526084899902344,0.21
710,MetaDrive-testbn4,80,205.20979295927606,711095,2136,8836.017078876495,-33.26425552368164,11.323981285095215,33.287269592285156,0.2
711,MetaDrive-testbn4,80,207.650840858062,712128,2139,8848.811378955841,,7.262875556945801,36.436344146728516,0.2
712,MetaDrive-testbn4,80,209.4330733110775,713101,2141,8858.7664437294,-39.06056594848633,6.935118675231934,38.5532341003418,0.22
713,MetaDrive-testbn4,80,202.30951657350735,714427,2146,8875.45803308487,-38.899871826171875,5.120904922485352,39.1740608215332,0.19
714,MetaDrive-testbn4,80,199.00419065549235,715053,2149,8881.905574321747,-43.87814712524414,25.363018035888672,43.38762664794922,0.19
715,MetaDrive-testbn4,80,201.8602068157653,716222,2152,8894.638273239136,,8.396075248718262,34.63365173339844,0.21
716,MetaDrive-testbn4,80,204.31376023318245,717074,2154,8904.738656282425,,9.037698745727539,36.27727508544922,0.22
717,MetaDrive-testbn4,80,207.7866660038083,718878,2156,8929.900202035904,,9.319090843200684,36.71869659423828,0.23
718,MetaDrive-testbn4,80,206.27179123224064,719111,2157,8932.397669315338,-42.4019660949707,16.77304458618164,41.40004348754883,0.22
719,MetaDrive-testbn4,80,206.0913917738929,720504,2160,8948.039108037949,,50.589210510253906,37.897525787353516,0.24
720,MetaDrive-testbn4,80,207.86784289590284,721416,2162,8957.220541715622,,138.31668090820312,38.23631286621094,0.24
721,MetaDrive-testbn4,80,210.11266332435196,722103,2164,8964.760148525238,-36.77778244018555,7.748639106750488,35.93270492553711,0.24
722,MetaDrive-testbn4,80,207.90790892188537,723093,2167,8978.561944961548,-40.4640998840332,7.9187421798706055,40.50104522705078,0.24
723,MetaDrive-testbn4,80,210.6648640626913,724244,2169,8992.474622964859,,14.189288139343262,41.19995880126953,0.24
724,MetaDrive-testbn4,80,214.33169924494777,725256,2171,9002.684181213379,,9.3206205368042,36.75605010986328,0.26
725,MetaDrive-testbn4,80,217.46907323628915,726188,2173,9014.20645737648,,11.37154769897461,35.89506912231445,0.28
726,MetaDrive-testbn4,80,219.22414520887094,727687,2175,9035.455214977264,-36.67083740234375,8.199910163879395,37.028045654296875,0.28
727,MetaDrive-testbn4,80,221.33295485388834,728287,2176,9043.165112733841,-40.647762298583984,5.006309986114502,40.20611572265625,0.29
728,MetaDrive-testbn4,80,217.62713077134256,729346,2180,9057.19760131836,,6.956810474395752,34.98223114013672,0.27
729,MetaDrive-testbn4,80,216.4046847939045,730367,2183,9068.688160419464,-40.239742279052734,6.025154113769531,40.25409698486328,0.26
730,MetaDrive-testbn4,80,216.4213547380514,731571,2185,9088.849900722504,-39.496307373046875,8.446629524230957,39.04292297363281,0.26
731,MetaDrive-testbn4,80,213.9767602466893,732114,2187,9095.728049993515,,4.769365310668945,40.01280212402344,0.25
732,MetaDrive-testbn4,80,210.44896509686166,733244,2193,9109.264073848724,,10.268539428710938,39.32781219482422,0.24
733,MetaDrive-testbn4,80,212.24083709712284,734399,2195,9123.629293441772,-44.43718338012695,6.333255767822266,44.584449768066406,0.25
734,MetaDrive-testbn4,80,215.71188938954086,735351,2197,9133.757620573044,-34.146148681640625,7.1106462478637695,34.14781188964844,0.26
735,MetaDrive-testbn4,80,215.04168210155683,736196,2199,9143.161369085312,,27.009384155273438,38.05370330810547,0.27
736,MetaDrive-testbn4,80,212.27683267225441,737108,2202,9153.861131429672,,15.302692413330078,38.96426773071289,0.26
737,MetaDrive-testbn4,80,214.11674549546035,738401,2205,9168.198235988617,-38.839935302734375,11.762819290161133,38.87715148925781,0.27
738,MetaDrive-testbn4,80,215.77944019372003,739080,2206,9181.180976629257,,17.386043548583984,40.11836624145508,0.27
739,MetaDrive-testbn4,80,216.79905634120328,740118,2209,9193.122140407562,,11.036381721496582,39.31557083129883,0.28
740,MetaDrive-testbn4,80,216.07496758148162,741096,2213,9207.579649209976,,8.550923347473145,36.75115203857422,0.29
741,MetaDrive-testbn4,80,216.4668063168037,742137,2216,9219.415178537369,-39.33245086669922,8.939926147460938,39.118770599365234,0.3
742,MetaDrive-testbn4,80,218.56746705209738,743251,2218,9232.304865121841,-42.8295783996582,6.560107707977295,42.82521438598633,0.31
743,MetaDrive-testbn4,80,221.47984170466864,744126,2220,9244.727541208267,,125.25904846191406,41.70948028564453,0.31
744,MetaDrive-testbn4,80,217.76294042007495,745179,2224,9256.311444997787,-44.48323440551758,24.155513763427734,43.91490936279297,0.31
745,MetaDrive-testbn4,80,217.9569363067663,746191,2227,9267.777091503143,-42.77252197265625,20.56955909729004,41.818603515625,0.31
746,MetaDrive-testbn4,80,216.91517892071477,747296,2230,9280.81140756607,,8.349649429321289,44.250762939453125,0.31
747,MetaDrive-testbn4,80,219.74653629769537,748229,2232,9295.888984203339,-38.34425735473633,27.938785552978516,37.89426803588867,0.31
748,MetaDrive-testbn4,80,223.61572845297806,749131,2235,9306.960686683655,-39.471763610839844,12.335078239440918,40.38996887207031,0.31
749,MetaDrive-testbn4,80,222.5532747209259,750118,2238,9319.470581769943,,5.778681755065918,37.11917495727539,0.32
750,MetaDrive-testbn4,80,223.36558841535134,751045,2240,9331.264412403107,-41.252986907958984,4.186731815338135,40.68008804321289,0.32
751,MetaDrive-testbn4,80,227.4868886586137,752165,2242,9345.749548435211,-39.727989196777344,6.996684551239014,39.28493118286133,0.32
752,MetaDrive-testbn4,80,230.40648903933183,753222,2245,9358.612024784088,,12.175498008728027,37.15119934082031,0.34
753,MetaDrive-testbn4,80,232.45047884937517,754117,2247,9369.219491958618,-40.952613830566406,8.885519027709961,41.438201904296875,0.35
754,MetaDrive-testbn4,80,237.24626964551945,755309,2249,9381.858865261078,-39.86106872558594,9.49471664428711,39.211524963378906,0.37
755,MetaDrive-testbn4,80,236.67246351213686,756177,2252,9391.597584724426,-41.6942138671875,9.274245262145996,41.318687438964844,0.35
756,MetaDrive-testbn4,80,232.6209327350467,757141,2255,9403.508985996246,-39.91537857055664,11.669855117797852,39.89928436279297,0.34
757,MetaDrive-testbn4,80,230.62733033621356,758258,2259,9416.887385606766,,14.770577430725098,34.88357925415039,0.32
758,MetaDrive-testbn4,80,229.64564540352774,759162,2261,9430.80630159378,,5.701498985290527,39.95252227783203,0.33
759,MetaDrive-testbn4,80,227.4465672122099,760180,2264,9442.050775527954,,8.833261489868164,38.267696380615234,0.32
760,MetaDrive-testbn4,80,229.1374979105185,761199,2266,9452.852348804474,-39.049888610839844,16.887680053710938,40.87469482421875,0.34
761,MetaDrive-testbn4,80,228.32466105094736,762336,2269,9463.908876657486,,13.51473331451416,37.67735290527344,0.34
762,MetaDrive-testbn4,80,226.35722453643575,763088,2271,9473.505182743073,,6.591952800750732,36.79370880126953,0.32
763,MetaDrive-testbn4,80,225.79564369226497,764079,2273,9484.603416442871,-39.10687255859375,7.37288236618042,39.423240661621094,0.32
764,MetaDrive-testbn4,80,223.56758000390434,765160,2275,9497.38122344017,,9.616461753845215,41.06465148925781,0.32
765,MetaDrive-testbn4,80,223.21488618744405,766129,2279,9507.342195987701,-39.187278747558594,12.707012176513672,39.24381637573242,0.32
766,MetaDrive-testbn4,80,218.3677947885132,767227,2283,9519.631961345673,-39.25763702392578,4.558530807495117,38.85887908935547,0.3
767,MetaDrive-testbn4,80,218.66270328819854,768183,2285,9533.076036214828,-39.0379638671875,9.324481964111328,38.85657501220703,0.31
768,MetaDrive-testbn4,80,219.82191772943938,769052,2288,9543.273782014847,,7.7094221115112305,36.095741271972656,0.32
769,MetaDrive-testbn4,80,223.51912702182494,770054,2290,9555.704781293869,,6.904681205749512,40.936092376708984,0.33
770,MetaDrive-testbn4,80,227.21372703676406,771856,2293,9586.108346223831,,8.569440841674805,35.00305938720703,0.33
771,MetaDrive-testbn4,80,227.64218558527347,772495,2294,9594.484785556793,-39.493255615234375,140.53753662109375,38.120574951171875,0.33
772,MetaDrive-testbn4,80,223.63979329126116,773012,2296,9599.988887310028,,27.41596221923828,39.338340759277344,0.32
773,MetaDrive-testbn4,80,222.11076670046185,774041,2299,9612.499750614166,-43.681922912597656,6.766057968139648,43.13298797607422,0.31
774,MetaDrive-testbn4,80,222.99899342872143,775372,2302,9627.369457244873,,20.725093841552734,40.915225982666016,0.32
775,MetaDrive-testbn4,80,221.47864997980065,776065,2304,9635.33712220192,-41.04636001586914,26.22589111328125,40.17886734008789,0.33
776,MetaDrive-testbn4,80,215.48769099406738,777103,2310,9649.665623188019,-41.363121032714844,26.316579818725586,41.253509521484375,0.31
777,MetaDrive-testbn4,80,212.08063033871508,778320,2314,9664.849906682968,,5.951997756958008,39.132164001464844,0.29
778,MetaDrive-testbn4,80,216.37598046373975,779423,2316,9681.06625676155,-39.49900817871094,6.984174728393555,39.66594696044922,0.3
779,MetaDrive-testbn4,80,213.737812712204,780198,2319,9689.997214078903,,6.695420265197754,39.6090087890625,0.3
780,MetaDrive-testbn4,80,213.55025527211296,781085,2322,9700.095290660858,-34.306053161621094,8.327675819396973,34.379493713378906,0.3
781,MetaDrive-testbn4,80,215.45867268364987,782029,2324,9709.932017564774,-36.32801818847656,7.806305885314941,36.179508209228516,0.3
782,MetaDrive-testbn4,80,215.11229043179955,783027,2327,9722.737514734268,-39.91797637939453,6.602581977844238,39.60419464111328,0.3
783,MetaDrive-testbn4,80,214.1520339354877,784018,2330,9734.143286466599,,14.684398651123047,33.522254943847656,0.29
784,MetaDrive-testbn4,80,216.88405815690732,785342,2332,9750.244168996811,,22.768505096435547,42.624755859375,0.31
785,MetaDrive-testbn4,80,217.7658483759672,786135,2334,9759.892966508865,-37.98154067993164,11.72491455078125,38.11463928222656,0.32
786,MetaDrive-testbn4,80,218.02460790773418,787095,2337,9770.41381597519,-38.916236877441406,9.26803970336914,38.76616668701172,0.33
787,MetaDrive-testbn4,80,215.67614480561988,788028,2340,9782.365686655045,,11.831695556640625,37.60621643066406,0.31
788,MetaDrive-testbn4,80,215.64721415956194,789202,2343,9797.596553325653,,8.453191757202148,36.17045593261719,0.31
789,MetaDrive-testbn4,80,209.94465273650493,790016,2347,9805.816730260849,,10.00754451751709,39.84777069091797,0.28
790,MetaDrive-testbn4,80,207.3371006376281,791067,2350,9816.92761850357,-37.800697326660156,11.677846908569336,37.19822692871094,0.27
791,MetaDrive-testbn4,80,207.4993651837236,792195,2354,9829.761778116226,-40.241233825683594,23.759998321533203,39.68653869628906,0.28
792,MetaDrive-testbn4,80,207.17972444965912,793115,2357,9840.40865111351,-36.24671173095703,7.772997856140137,36.370235443115234,0.29
793,MetaDrive-testbn4,80,205.77527166533557,794170,2360,9853.955095529556,,8.505245208740234,40.36457824707031,0.28
794,MetaDrive-testbn4,80,208.12950302425975,795171,2361,9874.427396535873,-39.111572265625,16.34162139892578,39.270530700683594,0.28
795,MetaDrive-testbn4,80,209.0975774384275,796280,2364,9885.206049442291,,6.240411758422852,36.98615264892578,0.28
796,MetaDrive-testbn4,80,209.84445275668855,797397,2367,9899.680572748184,-38.634544372558594,8.57901668548584,38.395233154296875,0.26
797,MetaDrive-testbn4,80,209.10953071229233,798398,2368,9916.926221847534,,5.886545181274414,34.38606262207031,0.25
798,MetaDrive-testbn4,80,206.71952941766523,799154,2370,9925.307750701904,,6.627240180969238,43.1591682434082,0.26
799,MetaDrive-testbn4,80,203.95299619915176,800194,2373,9937.826779603958,,53.75946044921875,39.492149353027344,0.24
800,MetaDrive-testbn4,80,205.53059728198815,801482,2375,9954.368255615234,,6.282214164733887,38.12493133544922,0.25
