TanmayH/CS269-RL-project-code/MetaDrive-test-noise-reduction-0_6-td3_weighted_ignore/td3/progress.csv
,log_dir,frame_per_second,episode_reward,total_steps,total_episodes,total_time,actor_loss,critic_loss,target_q,success_rate
0,MetaDrive-test-noise-reduction-0_6-td3,442,6.487540229612265,1034,2,2.3370361328125,,0.007059591356664896,0.047338154166936874,0.0
1,MetaDrive-test-noise-reduction-0_6-td3,150,-1.7937267209918697,2340,16,15.503252029418945,,0.010944291949272156,0.05337442830204964,0.0
2,MetaDrive-test-noise-reduction-0_6-td3,129,-1.9167952142864597,3868,19,29.93922519683838,,2.3535099029541016,-0.1695900410413742,0.0
3,MetaDrive-test-noise-reduction-0_6-td3,124,-1.911550575447745,4869,20,39.034687995910645,-0.04404142498970032,0.02704363875091076,0.05214795470237732,0.0
4,MetaDrive-test-noise-reduction-0_6-td3,124,-2.082067756713602,5148,21,41.495502948760986,,0.008538099005818367,0.04700306057929993,0.0
5,MetaDrive-test-noise-reduction-0_6-td3,121,-2.198487370227161,6233,23,51.36601400375366,-0.03787386789917946,0.0002008716546697542,0.03148815035820007,0.0
6,MetaDrive-test-noise-reduction-0_6-td3,120,-2.295379227860635,7405,25,61.2640540599823,-0.01915881223976612,0.7861810922622681,-0.0559673011302948,0.0
7,MetaDrive-test-noise-reduction-0_6-td3,120,-2.1062002277493663,8406,26,69.78845810890198,,0.0010396807920187712,0.011841324158012867,0.0
8,MetaDrive-test-noise-reduction-0_6-td3,119,-1.9013917254153878,9407,27,78.74930214881897,0.002261652611196041,0.003112826030701399,0.008054899051785469,0.0
9,MetaDrive-test-noise-reduction-0_6-td3,117,-2.1338091596744944,10888,32,92.30686593055725,,0.7797461748123169,-0.08525663614273071,0.0
10,MetaDrive-test-noise-reduction-0_6-td3,117,-2.3042881934174844,11058,34,94.06392502784729,,0.06811562180519104,-0.00765015697106719,0.0
11,MetaDrive-test-noise-reduction-0_6-td3,117,-2.393107538687108,12427,38,106.02952408790588,0.05813823267817497,0.0008652335964143276,-0.03868062049150467,0.0
12,MetaDrive-test-noise-reduction-0_6-td3,116,-2.381632588695005,13428,39,115.15245008468628,,0.05662073567509651,-0.054643720388412476,0.0
13,MetaDrive-test-noise-reduction-0_6-td3,116,-2.2899596611108364,14429,40,123.76416206359863,0.0648093968629837,0.0006227812264114618,-0.06897535920143127,0.0
14,MetaDrive-test-noise-reduction-0_6-td3,115,-2.5568092275022876,15103,44,130.2460880279541,0.10875804722309113,0.0014216559939086437,-0.08127827197313309,0.0
15,MetaDrive-test-noise-reduction-0_6-td3,115,-2.4395841610977804,16104,45,139.25349521636963,,1.4436736106872559,-0.24528321623802185,0.0
16,MetaDrive-test-noise-reduction-0_6-td3,115,-2.3119272355772433,17105,46,147.6593201160431,0.10932298749685287,0.004465536214411259,-0.10348934680223465,0.0
17,MetaDrive-test-noise-reduction-0_6-td3,116,-2.196366012862057,18106,47,156.03949809074402,,0.0003235886979382485,-0.11860913038253784,0.0
18,MetaDrive-test-noise-reduction-0_6-td3,115,-2.1198774363365493,19107,48,164.85623407363892,0.13020260632038116,0.0003400574205443263,-0.1335030496120453,0.0
19,MetaDrive-test-noise-reduction-0_6-td3,115,-2.1302962424123946,20607,50,178.3174750804901,0.12505954504013062,0.007982049137353897,-0.13029076159000397,0.0
20,MetaDrive-test-noise-reduction-0_6-td3,115,-2.0268486463276427,21608,51,187.3197820186615,,0.011462578549981117,-0.14431944489479065,0.0
21,MetaDrive-test-noise-reduction-0_6-td3,114,-2.1026874236328608,22062,52,192.0127990245819,,0.0005391467711888254,-0.1506085991859436,0.0
22,MetaDrive-test-noise-reduction-0_6-td3,114,-2.004195783109856,23063,53,200.9886770248413,0.17916521430015564,0.0003841075231321156,-0.16459092497825623,0.0
23,MetaDrive-test-noise-reduction-0_6-td3,114,-1.9465518506376194,24064,54,209.77223825454712,,0.0019135992042720318,-0.1840069591999054,0.0
24,MetaDrive-test-noise-reduction-0_6-td3,114,-2.0239283185306083,25660,56,224.33028888702393,,0.11151339113712311,-0.26302897930145264,0.0
25,MetaDrive-test-noise-reduction-0_6-td3,113,-2.35457537593936,26010,72,229.48269510269165,,0.0024442689027637243,-0.16636452078819275,0.0
26,MetaDrive-test-noise-reduction-0_6-td3,110,-2.760651437452741,27011,113,243.95010590553284,0.16356615722179413,0.0002600662992335856,-0.16130633652210236,0.0
27,MetaDrive-test-noise-reduction-0_6-td3,108,-3.2322577828224777,28018,157,257.382719039917,,0.002543653827160597,-0.17955932021141052,0.0
28,MetaDrive-test-noise-reduction-0_6-td3,107,-3.1682277705120243,29003,201,270.06308698654175,0.20733600854873657,0.009814893826842308,-0.2212633341550827,0.0
29,MetaDrive-test-noise-reduction-0_6-td3,105,-3.2808105569858292,30014,245,283.2736451625824,,0.018534116446971893,-0.34857410192489624,0.0
30,MetaDrive-test-noise-reduction-0_6-td3,104,-3.2753034813911888,31013,285,296.57559299468994,0.8120009899139404,1.0054250955581665,-0.7653177380561829,0.0
31,MetaDrive-test-noise-reduction-0_6-td3,103,-3.3704284368863755,32002,329,309.88300704956055,,0.6991357803344727,-0.8938350677490234,0.0
32,MetaDrive-test-noise-reduction-0_6-td3,102,-3.2595788296609913,33019,371,322.6632421016693,0.8953281044960022,0.443362295627594,-0.9357621073722839,0.0
33,MetaDrive-test-noise-reduction-0_6-td3,101,-3.1841190201687355,34014,410,334.46300292015076,,0.0270962193608284,-0.8968457579612732,0.0
34,MetaDrive-test-noise-reduction-0_6-td3,100,-3.1489973112426,35023,456,347.39594292640686,0.8981682062149048,0.01730835810303688,-0.9389790892601013,0.0
35,MetaDrive-test-noise-reduction-0_6-td3,100,-3.3144665831398044,36017,497,359.55066204071045,1.157082438468933,0.01947614923119545,-1.0995893478393555,0.0
36,MetaDrive-test-noise-reduction-0_6-td3,99,-3.2530585864083914,37003,538,371.8758180141449,1.1155829429626465,0.011584577150642872,-1.0914528369903564,0.0
37,MetaDrive-test-noise-reduction-0_6-td3,99,-3.015579886774908,38013,577,383.8348391056061,1.4341946840286255,0.019173461943864822,-1.4868035316467285,0.0
38,MetaDrive-test-noise-reduction-0_6-td3,98,-3.107529411320935,39015,619,397.02035307884216,1.3622323274612427,0.00910853035748005,-1.386606216430664,0.0
39,MetaDrive-test-noise-reduction-0_6-td3,97,-3.274318706032986,40016,660,408.59098720550537,,0.10164493322372437,-1.783936619758606,0.0
40,MetaDrive-test-noise-reduction-0_6-td3,97,-3.245864816671733,41034,703,420.80933904647827,,0.015443805605173111,-1.807876706123352,0.0
41,MetaDrive-test-noise-reduction-0_6-td3,97,-3.1530151654749967,42009,742,432.56447100639343,1.4417946338653564,0.015699364244937897,-1.4548304080963135,0.0
42,MetaDrive-test-noise-reduction-0_6-td3,96,-3.0289224460753577,43013,781,444.9760980606079,2.231179714202881,0.06761139631271362,-2.251953363418579,0.0
43,MetaDrive-test-noise-reduction-0_6-td3,96,-3.07663610109221,44007,822,456.21456694602966,2.133817434310913,0.06634189933538437,-2.132556915283203,0.0
44,MetaDrive-test-noise-reduction-0_6-td3,96,-3.0236509743710305,45020,862,468.55404806137085,,0.029082536697387695,-2.036353826522827,0.0
45,MetaDrive-test-noise-reduction-0_6-td3,95,-3.095013675998831,46026,904,480.1323981285095,,0.007859027944505215,-1.9479615688323975,0.0
46,MetaDrive-test-noise-reduction-0_6-td3,95,-3.19552246336668,47013,946,492.4387540817261,2.5973856449127197,0.020502496510744095,-2.572225570678711,0.0
47,MetaDrive-test-noise-reduction-0_6-td3,95,-3.304617730028886,48009,984,503.7578408718109,2.4116666316986084,0.013600950129330158,-2.4329490661621094,0.0
48,MetaDrive-test-noise-reduction-0_6-td3,95,-3.2362823570131387,49004,1028,514.7246642112732,,0.009568599984049797,-2.192293643951416,0.0
49,MetaDrive-test-noise-reduction-0_6-td3,95,-3.249419942024742,50015,1068,525.781702041626,2.715909004211426,0.05643581226468086,-2.7208926677703857,0.0
50,MetaDrive-test-noise-reduction-0_6-td3,95,-3.177772003713665,51019,1111,536.8021519184113,2.5454235076904297,0.02494114451110363,-2.5033514499664307,0.0
51,MetaDrive-test-noise-reduction-0_6-td3,94,-3.2764607267331325,52018,1152,547.8269882202148,,0.05425426736474037,-2.3191514015197754,0.0
52,MetaDrive-test-noise-reduction-0_6-td3,94,-3.1821682893338066,53003,1192,558.5620200634003,2.6411118507385254,0.01643219217658043,-2.625074863433838,0.0
53,MetaDrive-test-noise-reduction-0_6-td3,94,-3.0725371859499,54026,1235,569.5529491901398,,0.026488903909921646,-2.4861373901367188,0.0
54,MetaDrive-test-noise-reduction-0_6-td3,94,-3.3073550115231463,55016,1276,580.1905591487885,,0.27266788482666016,-2.6839065551757812,0.0
55,MetaDrive-test-noise-reduction-0_6-td3,94,-3.270048280290664,56014,1315,591.0341441631317,,0.04055915027856827,-2.6664187908172607,0.0
56,MetaDrive-test-noise-reduction-0_6-td3,94,-3.2242969579583907,57009,1357,601.8355300426483,2.7316136360168457,0.015320372767746449,-2.704768180847168,0.0
57,MetaDrive-test-noise-reduction-0_6-td3,94,-3.1355037670236645,58007,1399,612.3641300201416,2.4122166633605957,0.13631606101989746,-2.392590045928955,0.0
58,MetaDrive-test-noise-reduction-0_6-td3,94,-3.150519572352376,59008,1442,623.598571062088,,0.04011407867074013,-2.484616756439209,0.0
59,MetaDrive-test-noise-reduction-0_6-td3,94,-3.2220674304359136,60004,1482,634.5547962188721,,0.17382314801216125,-2.7838048934936523,0.0
60,MetaDrive-test-noise-reduction-0_6-td3,94,-3.32254062077819,61019,1524,646.1346390247345,2.8428757190704346,0.06810050457715988,-2.809232711791992,0.0
61,MetaDrive-test-noise-reduction-0_6-td3,94,-3.2278781106460106,62014,1566,656.9874830245972,,0.017551876604557037,-2.5040833950042725,0.0
62,MetaDrive-test-noise-reduction-0_6-td3,94,-3.086208271670007,63023,1607,667.8698031902313,2.808945417404175,0.07588900625705719,-2.788189649581909,0.0
63,MetaDrive-test-noise-reduction-0_6-td3,94,-3.075560242079204,64027,1652,678.7223551273346,2.6797752380371094,0.008466420695185661,-2.674868583679199,0.0
64,MetaDrive-test-noise-reduction-0_6-td3,94,-3.25840752906675,65010,1695,689.6595189571381,,0.03691995143890381,-2.5824780464172363,0.0
65,MetaDrive-test-noise-reduction-0_6-td3,94,-3.2814084011776457,66015,1736,700.469868183136,2.8322033882141113,0.00865459255874157,-2.811077833175659,0.0
66,MetaDrive-test-noise-reduction-0_6-td3,94,-3.17071120521257,67001,1776,710.7520320415497,2.604015827178955,0.025379862636327744,-2.600419282913208,0.0
67,MetaDrive-test-noise-reduction-0_6-td3,94,-3.290518353451949,68020,1824,722.1805109977722,,0.06949120759963989,-2.8013036251068115,0.0
68,MetaDrive-test-noise-reduction-0_6-td3,94,-3.4101603886975242,69010,1867,733.0309519767761,,0.006865582428872585,-2.615433931350708,0.0
69,MetaDrive-test-noise-reduction-0_6-td3,94,-3.277577751076259,70007,1909,743.9158689975739,2.884798288345337,0.021444328129291534,-2.8443291187286377,0.0
70,MetaDrive-test-noise-reduction-0_6-td3,94,-3.0030400944006383,71005,1948,754.2890601158142,2.8996896743774414,0.021497536450624466,-2.8944811820983887,0.0
71,MetaDrive-test-noise-reduction-0_6-td3,94,-3.121780541755835,72005,1990,764.9900748729706,2.7419347763061523,0.02264298126101494,-2.7397258281707764,0.0
72,MetaDrive-test-noise-reduction-0_6-td3,94,-3.1557306548019106,73049,2032,776.0801980495453,2.9922168254852295,0.027603168040513992,-2.9753599166870117,0.0
73,MetaDrive-test-noise-reduction-0_6-td3,94,-3.1813518234938876,74020,2072,786.7381660938263,,0.041088446974754333,-3.133373737335205,0.0
74,MetaDrive-test-noise-reduction-0_6-td3,94,-3.1502867200535176,75021,2115,797.3566842079163,2.719996213912964,0.014053897932171822,-2.67879581451416,0.0
75,MetaDrive-test-noise-reduction-0_6-td3,94,-3.2118205499164403,76012,2157,808.0647931098938,,0.038313426077365875,-2.9915599822998047,0.0
76,MetaDrive-test-noise-reduction-0_6-td3,94,-3.155577198595935,77001,2198,819.1132581233978,2.8448634147644043,0.01544411201030016,-2.827357053756714,0.0
77,MetaDrive-test-noise-reduction-0_6-td3,93,-3.163558114354396,78009,2239,829.9410650730133,2.895465850830078,0.015338879078626633,-2.8775925636291504,0.0
78,MetaDrive-test-noise-reduction-0_6-td3,93,-3.1313796906792293,79013,2281,840.6645350456238,2.962740182876587,0.03942647576332092,-2.9477791786193848,0.0
79,MetaDrive-test-noise-reduction-0_6-td3,93,-3.072415372855169,80005,2321,851.419554233551,2.962296962738037,0.17080259323120117,-2.9329967498779297,0.0
80,MetaDrive-test-noise-reduction-0_6-td3,93,-3.0714548541817153,81009,2366,862.0511009693146,3.1947617530822754,0.03399574011564255,-3.173389434814453,0.0
81,MetaDrive-test-noise-reduction-0_6-td3,93,-3.1900623342962757,82033,2409,872.8614130020142,2.829939126968384,0.11915218085050583,-2.828645706176758,0.0
82,MetaDrive-test-noise-reduction-0_6-td3,93,-3.2606398729249664,83001,2450,883.6345610618591,2.791248083114624,0.18916058540344238,-2.749844789505005,0.0
83,MetaDrive-test-noise-reduction-0_6-td3,93,-3.375439912378084,84003,2493,894.3336451053619,3.182814598083496,0.01437736302614212,-3.117990493774414,0.0
84,MetaDrive-test-noise-reduction-0_6-td3,93,-3.2998351777432813,85017,2533,905.1399319171906,2.94203782081604,0.010250790044665337,-2.9251017570495605,0.0
85,MetaDrive-test-noise-reduction-0_6-td3,93,-3.1847823807946596,86014,2575,915.5990030765533,,0.02129606530070305,-3.072096824645996,0.0
86,MetaDrive-test-noise-reduction-0_6-td3,93,-3.034110270518706,87023,2611,926.0332350730896,3.1434426307678223,0.031513512134552,-3.177316904067993,0.0
87,MetaDrive-test-noise-reduction-0_6-td3,93,-3.084643105405949,88016,2652,936.7973508834839,,0.04424380883574486,-3.049452066421509,0.0
88,MetaDrive-test-noise-reduction-0_6-td3,93,-3.1558787047639485,89020,2694,948.0561270713806,,0.01499038003385067,-3.068465232849121,0.0
89,MetaDrive-test-noise-reduction-0_6-td3,93,-3.1569831627419482,90008,2738,958.6110610961914,,0.022194169461727142,-3.044724464416504,0.0
90,MetaDrive-test-noise-reduction-0_6-td3,93,-3.1192510227697663,91027,2780,969.1465270519257,3.2501676082611084,0.026327364146709442,-3.235334634780884,0.0
91,MetaDrive-test-noise-reduction-0_6-td3,93,-2.984570922402286,92015,2821,979.6172780990601,3.1704792976379395,0.05334574356675148,-3.149519443511963,0.0
92,MetaDrive-test-noise-reduction-0_6-td3,93,-3.1588838297678454,93047,2864,991.281907081604,3.370657205581665,0.015207367949187756,-3.3531012535095215,0.0
93,MetaDrive-test-noise-reduction-0_6-td3,93,-3.300486116710177,94007,2906,1001.5600311756134,3.06376051902771,0.014676016755402088,-3.0516953468322754,0.0
94,MetaDrive-test-noise-reduction-0_6-td3,93,-3.1153854340355154,95030,2945,1012.508162021637,,0.021526381373405457,-2.964708089828491,0.0
95,MetaDrive-test-noise-reduction-0_6-td3,93,-3.0732702941447205,96016,2990,1023.5071220397949,,0.05384223908185959,-3.1609277725219727,0.0
96,MetaDrive-test-noise-reduction-0_6-td3,93,-3.3725264563073103,97004,3033,1033.8567230701447,,0.02544623240828514,-3.0579421520233154,0.0
97,MetaDrive-test-noise-reduction-0_6-td3,93,-3.309481776379746,98011,3074,1044.1804060935974,3.5222959518432617,0.025012830272316933,-3.5357189178466797,0.0
98,MetaDrive-test-noise-reduction-0_6-td3,93,-3.1932615167561607,99005,3117,1055.621336221695,3.374983787536621,0.041061289608478546,-3.330033302307129,0.0
99,MetaDrive-test-noise-reduction-0_6-td3,93,-3.4089604794954043,100013,3165,1066.5574071407318,3.2422988414764404,0.01604732684791088,-3.216261863708496,0.0
100,MetaDrive-test-noise-reduction-0_6-td3,93,-3.2707117858660393,101005,3206,1077.4168012142181,3.3577914237976074,0.03360709547996521,-3.3220701217651367,0.0
101,MetaDrive-test-noise-reduction-0_6-td3,93,-3.162148167765302,102003,3247,1088.330019235611,3.5020878314971924,0.0250125490128994,-3.4697721004486084,0.0
102,MetaDrive-test-noise-reduction-0_6-td3,93,-3.004089538252435,103008,3286,1099.2103481292725,,0.021716861054301262,-3.162287712097168,0.0
103,MetaDrive-test-noise-reduction-0_6-td3,93,-3.1204765580509273,104006,3327,1109.6244349479675,,0.043693624436855316,-3.118906021118164,0.0
104,MetaDrive-test-noise-reduction-0_6-td3,93,-3.1922568998170515,105014,3371,1121.1092710494995,,0.01805291697382927,-3.058830976486206,0.0
105,MetaDrive-test-noise-reduction-0_6-td3,93,-3.2037808102099827,106027,3411,1131.8492181301117,3.718104839324951,0.08139034360647202,-3.663562297821045,0.0
106,MetaDrive-test-noise-reduction-0_6-td3,93,-3.005883461977658,107021,3452,1142.3318889141083,3.038905620574951,0.04239289090037346,-2.96852445602417,0.0
107,MetaDrive-test-noise-reduction-0_6-td3,93,-3.034881413180188,108013,3493,1152.6625669002533,3.3798601627349854,0.017662396654486656,-3.3218579292297363,0.0
108,MetaDrive-test-noise-reduction-0_6-td3,93,-3.107659679261721,109005,3534,1163.360394001007,3.0265605449676514,0.0110422782599926,-3.0228095054626465,0.0
109,MetaDrive-test-noise-reduction-0_6-td3,93,-3.1159634918984938,110005,3574,1173.6947441101074,3.2855021953582764,0.029162757098674774,-3.286163568496704,0.0
110,MetaDrive-test-noise-reduction-0_6-td3,93,-3.141015077513253,111028,3617,1185.1454410552979,,0.036384858191013336,-3.509366989135742,0.0
111,MetaDrive-test-noise-reduction-0_6-td3,93,-3.1825875236144134,112003,3658,1195.5891420841217,3.233609199523926,0.09949979186058044,-3.235090494155884,0.0
112,MetaDrive-test-noise-reduction-0_6-td3,93,-3.324124893631098,113001,3699,1206.259842157364,3.255086898803711,0.025693204253911972,-3.2106220722198486,0.0
113,MetaDrive-test-noise-reduction-0_6-td3,93,-3.2385469480240334,114014,3743,1217.4338450431824,,0.025897134095430374,-3.280836820602417,0.0
114,MetaDrive-test-noise-reduction-0_6-td3,93,-3.1155284930397293,115014,3783,1228.2340009212494,,0.027248386293649673,-3.3549699783325195,0.0
115,MetaDrive-test-noise-reduction-0_6-td3,93,-3.0566160507053723,116008,3823,1238.9351329803467,,0.008892696350812912,-3.262624979019165,0.0
116,MetaDrive-test-noise-reduction-0_6-td3,93,-3.1815178699870224,117028,3869,1250.7750811576843,,0.022227808833122253,-3.1109209060668945,0.0
117,MetaDrive-test-noise-reduction-0_6-td3,93,-3.332191043598698,118009,3912,1261.1748640537262,3.0929577350616455,0.026881279423832893,-3.1101367473602295,0.0
118,MetaDrive-test-noise-reduction-0_6-td3,93,-3.2109968474156028,119007,3950,1271.6164259910583,3.3377513885498047,0.016832130029797554,-3.3089818954467773,0.0
119,MetaDrive-test-noise-reduction-0_6-td3,93,-3.078234973562342,120026,3991,1282.4222030639648,,0.015705808997154236,-3.289762020111084,0.0
120,MetaDrive-test-noise-reduction-0_6-td3,93,-3.170078900916534,121002,4034,1293.9511408805847,,0.09812350571155548,-3.1892123222351074,0.0
121,MetaDrive-test-noise-reduction-0_6-td3,93,-3.171610560310646,122012,4075,1304.7108459472656,,0.14685922861099243,-3.3198835849761963,0.0
122,MetaDrive-test-noise-reduction-0_6-td3,93,-3.1709505645895306,123021,4121,1315.3522300720215,3.12280535697937,0.125090554356575,-3.1758031845092773,0.0
123,MetaDrive-test-noise-reduction-0_6-td3,93,-3.2063965296598855,124011,4164,1325.8586449623108,3.1645445823669434,0.012720238417387009,-3.117027759552002,0.0
124,MetaDrive-test-noise-reduction-0_6-td3,93,-3.317682647385585,125012,4209,1336.3808252811432,,0.030344000086188316,-3.271596670150757,0.0
125,MetaDrive-test-noise-reduction-0_6-td3,93,-3.4426957081962617,126026,4255,1347.0823781490326,,0.03145451843738556,-3.419534921646118,0.0
126,MetaDrive-test-noise-reduction-0_6-td3,93,-3.373761090604526,127025,4299,1358.687310218811,3.3466336727142334,0.039947669953107834,-3.2954936027526855,0.0
127,MetaDrive-test-noise-reduction-0_6-td3,93,-3.407092104999596,128030,4342,1369.3427600860596,,0.01586306467652321,-2.7491133213043213,0.0
128,MetaDrive-test-noise-reduction-0_6-td3,93,-3.2136451962377226,129021,4380,1379.7514770030975,2.9904849529266357,0.02117772400379181,-2.9809696674346924,0.0
129,MetaDrive-test-noise-reduction-0_6-td3,93,-3.1263825658514577,130018,4420,1390.2415721416473,,0.03565751016139984,-3.1212949752807617,0.0
130,MetaDrive-test-noise-reduction-0_6-td3,93,-3.200162271366996,131015,4463,1400.7671282291412,3.0939407348632812,0.019319184124469757,-3.054725170135498,0.0
131,MetaDrive-test-noise-reduction-0_6-td3,93,-3.139415358553078,132013,4505,1411.0526530742645,3.420567512512207,0.02466179057955742,-3.3523993492126465,0.0
132,MetaDrive-test-noise-reduction-0_6-td3,93,-3.0528880024812697,133008,4545,1422.1615061759949,,0.013440825045108795,-3.147414207458496,0.0
133,MetaDrive-test-noise-reduction-0_6-td3,93,-3.042855225793109,134013,4585,1432.6638779640198,3.0245158672332764,0.1313447803258896,-3.0208523273468018,0.0
134,MetaDrive-test-noise-reduction-0_6-td3,93,-2.8700123824623534,135029,4626,1443.2316801548004,3.184542655944824,0.04598051309585571,-3.191284656524658,0.0
135,MetaDrive-test-noise-reduction-0_6-td3,93,-2.9486269920780206,136005,4667,1453.6651191711426,3.185037851333618,0.03832649439573288,-3.1507458686828613,0.0
136,MetaDrive-test-noise-reduction-0_6-td3,93,-3.0816026986804537,137012,4711,1464.5306429862976,,0.040949746966362,-3.1786489486694336,0.0
137,MetaDrive-test-noise-reduction-0_6-td3,93,-3.113223181266433,138016,4751,1475.1124420166016,,0.04066857323050499,-3.2348859310150146,0.0
138,MetaDrive-test-noise-reduction-0_6-td3,93,-3.1092453108330047,139012,4792,1486.5758941173553,,0.02158259227871895,-3.1223299503326416,0.0
139,MetaDrive-test-noise-reduction-0_6-td3,93,-3.1642548654431066,140014,4834,1497.5827851295471,,0.017832662910223007,-2.967885732650757,0.0
140,MetaDrive-test-noise-reduction-0_6-td3,93,-3.032401461417422,141009,4875,1508.3285610675812,3.1916284561157227,0.013791846111416817,-3.2056827545166016,0.0
141,MetaDrive-test-noise-reduction-0_6-td3,93,-3.11807664122808,142034,4916,1519.3898429870605,,0.09179458767175674,-3.435046911239624,0.0
142,MetaDrive-test-noise-reduction-0_6-td3,93,-3.102082902739111,143006,4953,1530.1652932167053,,0.026733772829174995,-3.224926471710205,0.0
143,MetaDrive-test-noise-reduction-0_6-td3,93,-3.2054930375265087,144005,4996,1540.3710339069366,3.4059762954711914,0.13808952271938324,-3.37742018699646,0.0
144,MetaDrive-test-noise-reduction-0_6-td3,93,-3.223592870156827,145001,5036,1551.3681869506836,3.422548532485962,0.034407176077365875,-3.371933937072754,0.0
145,MetaDrive-test-noise-reduction-0_6-td3,93,-3.2035437444125083,146006,5079,1562.188546180725,,0.01893651857972145,-3.3172783851623535,0.0
146,MetaDrive-test-noise-reduction-0_6-td3,93,-3.1952016726375314,147033,5119,1573.339996099472,3.1959965229034424,0.20286032557487488,-3.1222379207611084,0.0
147,MetaDrive-test-noise-reduction-0_6-td3,93,-3.237734605531752,148048,5162,1584.1356270313263,,0.03414195775985718,-3.4536898136138916,0.0
148,MetaDrive-test-noise-reduction-0_6-td3,93,-3.0363136244301465,149023,5200,1595.2035729885101,3.601940631866455,0.04786907136440277,-3.5217623710632324,0.0
149,MetaDrive-test-noise-reduction-0_6-td3,93,-3.1538617419050627,150004,5240,1605.4433641433716,,0.04565391689538956,-3.1131842136383057,0.0
150,MetaDrive-test-noise-reduction-0_6-td3,93,-3.2715908865044354,151018,5287,1616.6640059947968,,0.012714710086584091,-3.2812321186065674,0.0
151,MetaDrive-test-noise-reduction-0_6-td3,93,-3.4180328817030943,152007,5327,1627.0873069763184,2.90157413482666,0.019371068105101585,-2.8696117401123047,0.0
152,MetaDrive-test-noise-reduction-0_6-td3,93,-3.3424022577604053,153013,5368,1637.865689277649,3.0091822147369385,0.011304948478937149,-2.979724168777466,0.0
153,MetaDrive-test-noise-reduction-0_6-td3,93,-3.275495090295402,154012,5412,1648.5888550281525,,0.009119839407503605,-3.142421245574951,0.0
154,MetaDrive-test-noise-reduction-0_6-td3,93,-3.137873671102546,155008,5455,1659.7113480567932,,0.012861107476055622,-3.2908859252929688,0.0
155,MetaDrive-test-noise-reduction-0_6-td3,93,-3.1732301364404947,156011,5498,1670.4434370994568,3.2424769401550293,0.015598421916365623,-3.1601946353912354,0.0
156,MetaDrive-test-noise-reduction-0_6-td3,93,-3.151719111742356,157003,5539,1681.0242960453033,3.079935312271118,0.03077125921845436,-3.122272491455078,0.0
157,MetaDrive-test-noise-reduction-0_6-td3,93,-3.3018366189199977,158033,5586,1692.5614750385284,2.995056629180908,0.010237131267786026,-2.972592830657959,0.0
158,MetaDrive-test-noise-reduction-0_6-td3,93,-3.3310864672002523,159002,5629,1702.9357261657715,,0.02133500948548317,-3.244799852371216,0.0
159,MetaDrive-test-noise-reduction-0_6-td3,93,-3.282639689200808,160018,5670,1713.5422222614288,,0.014683946967124939,-3.094038486480713,0.0
160,MetaDrive-test-noise-reduction-0_6-td3,93,-3.098566606408891,161015,5712,1724.5472321510315,2.9578943252563477,0.016990596428513527,-2.9796345233917236,0.0
161,MetaDrive-test-noise-reduction-0_6-td3,93,-3.012409913329584,162010,5749,1734.974979877472,,0.00901358388364315,-3.0543506145477295,0.0
162,MetaDrive-test-noise-reduction-0_6-td3,93,-2.9390024870595592,163002,5788,1745.5818288326263,,0.044495947659015656,-3.4998488426208496,0.0
163,MetaDrive-test-noise-reduction-0_6-td3,93,-3.0168964818936583,164023,5829,1756.1769170761108,3.227219343185425,0.024230416864156723,-3.2623977661132812,0.0
164,MetaDrive-test-noise-reduction-0_6-td3,93,-2.8815384758072082,165013,5868,1766.5927939414978,3.2770462036132812,0.04865404963493347,-3.2891035079956055,0.0
165,MetaDrive-test-noise-reduction-0_6-td3,93,-2.991553862178714,166010,5912,1777.4412350654602,,0.021834367886185646,-3.2988739013671875,0.0
166,MetaDrive-test-noise-reduction-0_6-td3,93,-3.1979993000659444,167019,5956,1788.7002918720245,3.0297868251800537,0.023559361696243286,-3.0009407997131348,0.0
167,MetaDrive-test-noise-reduction-0_6-td3,93,-3.243472682692677,168005,5998,1799.1457102298737,3.2927165031433105,0.024649519473314285,-3.312502145767212,0.0
168,MetaDrive-test-noise-reduction-0_6-td3,93,-3.2531016412861997,169020,6037,1809.7338771820068,,0.011101835407316685,-3.1057381629943848,0.0
169,MetaDrive-test-noise-reduction-0_6-td3,93,-3.1078375040869535,170028,6076,1820.4613289833069,,0.016798000782728195,-3.332310914993286,0.0
170,MetaDrive-test-noise-reduction-0_6-td3,93,-2.91709755850791,171007,6113,1830.9432158470154,3.0960946083068848,0.03368159383535385,-3.09525728225708,0.0
171,MetaDrive-test-noise-reduction-0_6-td3,93,-3.0783675821397223,172017,6157,1841.6925950050354,3.094974994659424,0.024193966761231422,-3.1393847465515137,0.0
172,MetaDrive-test-noise-reduction-0_6-td3,93,-3.1649018579939194,173003,6198,1852.6876611709595,3.2212166786193848,0.04824335128068924,-3.218588352203369,0.0
173,MetaDrive-test-noise-reduction-0_6-td3,93,-3.1207258146194783,174012,6239,1863.2716481685638,,0.02860412746667862,-3.2591848373413086,0.0
174,MetaDrive-test-noise-reduction-0_6-td3,93,-2.9622894067498184,175012,6278,1873.8383440971375,,0.10641183704137802,-3.592864990234375,0.0
175,MetaDrive-test-noise-reduction-0_6-td3,93,-2.930090290042658,176008,6318,1884.6266739368439,,0.015416212379932404,-3.1475987434387207,0.0
176,MetaDrive-test-noise-reduction-0_6-td3,93,-2.9725548637441714,177028,6359,1896.009831905365,,0.013371373526751995,-3.1909031867980957,0.0
177,MetaDrive-test-noise-reduction-0_6-td3,93,-3.2060776855350066,178007,6400,1906.4535610675812,3.270097017288208,0.03636399656534195,-3.308032274246216,0.0
178,MetaDrive-test-noise-reduction-0_6-td3,93,-3.1729926339381076,179014,6442,1917.144888162613,,0.018475612625479698,-3.1079580783843994,0.0
179,MetaDrive-test-noise-reduction-0_6-td3,93,-3.118154136484545,180015,6483,1928.1010761260986,3.507720470428467,0.03812655061483383,-3.488879919052124,0.0
180,MetaDrive-test-noise-reduction-0_6-td3,93,-3.1584558984566633,181011,6529,1938.8894321918488,3.1476893424987793,0.01482781209051609,-3.107381820678711,0.0
181,MetaDrive-test-noise-reduction-0_6-td3,93,-3.2362399665252717,182003,6569,1949.5702579021454,3.4030373096466064,0.1535191684961319,-3.3737001419067383,0.0
182,MetaDrive-test-noise-reduction-0_6-td3,93,-3.155764272167798,183019,6611,1960.9482760429382,3.17142915725708,0.06704071164131165,-3.1262075901031494,0.0
183,MetaDrive-test-noise-reduction-0_6-td3,93,-3.17795009914487,184011,6652,1971.9073340892792,3.198310136795044,0.010396180674433708,-3.188410520553589,0.0
184,MetaDrive-test-noise-reduction-0_6-td3,93,-3.19552884228106,185010,6691,1982.3676381111145,,0.07793308794498444,-3.2757132053375244,0.0
185,MetaDrive-test-noise-reduction-0_6-td3,93,-3.283885685828817,186015,6732,1993.2955100536346,3.105412721633911,0.05593671649694443,-3.1334280967712402,0.0
186,MetaDrive-test-noise-reduction-0_6-td3,93,-3.1338149027434645,187030,6776,2003.8729989528656,,0.07771533727645874,-3.2501940727233887,0.0
187,MetaDrive-test-noise-reduction-0_6-td3,93,-3.3423422615632377,188002,6820,2014.3275651931763,,0.014934031292796135,-3.2726030349731445,0.0
188,MetaDrive-test-noise-reduction-0_6-td3,93,-3.2390941880943602,189024,6865,2025.5576450824738,,0.04086199402809143,-3.20878267288208,0.0
189,MetaDrive-test-noise-reduction-0_6-td3,93,-3.119732299086502,190002,6904,2035.9730970859528,,0.009574082680046558,-3.175478458404541,0.0
190,MetaDrive-test-noise-reduction-0_6-td3,93,-2.9959111665747455,191022,6948,2047.2489428520203,,0.3283255100250244,-3.247805118560791,0.0
191,MetaDrive-test-noise-reduction-0_6-td3,93,-3.2540297197580714,192019,6992,2058.108361005783,3.5561718940734863,0.01369614526629448,-3.575406551361084,0.0
192,MetaDrive-test-noise-reduction-0_6-td3,93,-3.2313318228487993,193008,7035,2068.665113210678,,0.023878032341599464,-3.2791013717651367,0.0
193,MetaDrive-test-noise-reduction-0_6-td3,93,-3.29313126387389,194008,7077,2079.822459936142,,0.0758349746465683,-3.128391742706299,0.0
194,MetaDrive-test-noise-reduction-0_6-td3,93,-3.355004389361111,195012,7122,2091.173175096512,,0.022440584376454353,-3.0684752464294434,0.0
195,MetaDrive-test-noise-reduction-0_6-td3,93,-3.2060896695586045,196018,7162,2101.7451651096344,,0.01435355469584465,-3.3419013023376465,0.0
196,MetaDrive-test-noise-reduction-0_6-td3,93,-3.139344228592705,197006,7205,2112.138144016266,,0.023971285670995712,-3.295424461364746,0.0
197,MetaDrive-test-noise-reduction-0_6-td3,93,-3.2755301436492545,198003,7246,2122.732579231262,3.1198549270629883,0.014874698594212532,-3.135732412338257,0.0
198,MetaDrive-test-noise-reduction-0_6-td3,93,-3.245323949624209,199020,7288,2134.192925930023,,0.15388339757919312,-3.439126968383789,0.0
199,MetaDrive-test-noise-reduction-0_6-td3,93,-3.2074265826665127,200024,7329,2144.97510099411,,0.022709975019097328,-3.1954734325408936,0.0
200,MetaDrive-test-noise-reduction-0_6-td3,93,-3.169970436956553,201010,7369,2155.548397064209,,0.028408870100975037,-3.370788097381592,0.0
201,MetaDrive-test-noise-reduction-0_6-td3,93,-3.232907673033613,202018,7411,2166.183897972107,,0.007972579449415207,-3.2488207817077637,0.0
202,MetaDrive-test-noise-reduction-0_6-td3,93,-3.2881415901478426,203022,7452,2176.7694549560547,,0.030094202607870102,-3.1347761154174805,0.0
203,MetaDrive-test-noise-reduction-0_6-td3,93,-3.3687205247098264,204023,7499,2187.6341440677643,3.1727235317230225,0.07442483305931091,-3.1965548992156982,0.0
204,MetaDrive-test-noise-reduction-0_6-td3,93,-3.501671368088735,205005,7543,2198.795627117157,3.3256995677948,0.01483023352921009,-3.2947094440460205,0.0
205,MetaDrive-test-noise-reduction-0_6-td3,93,-3.413998451893753,206010,7583,2209.7585411071777,,0.020851965993642807,-3.524327516555786,0.0
206,MetaDrive-test-noise-reduction-0_6-td3,93,-3.3181386020230494,207002,7628,2220.4548280239105,,0.029574958607554436,-3.449267625808716,0.0
207,MetaDrive-test-noise-reduction-0_6-td3,93,-3.2178149622619943,208021,7669,2231.3203332424164,3.4339895248413086,0.06743982434272766,-3.386491298675537,0.0
208,MetaDrive-test-noise-reduction-0_6-td3,93,-3.1846549721730018,209022,7709,2241.8380959033966,,0.053492605686187744,-3.556197166442871,0.0
209,MetaDrive-test-noise-reduction-0_6-td3,93,-3.187574572344003,210006,7751,2252.602087020874,,0.03790358453989029,-3.539954662322998,0.0
210,MetaDrive-test-noise-reduction-0_6-td3,93,-3.3522313468200484,211005,7794,2263.9884181022644,3.6457905769348145,0.07489040493965149,-3.5324583053588867,0.0
211,MetaDrive-test-noise-reduction-0_6-td3,93,-3.254240967731259,212007,7837,2274.6048572063446,3.4416894912719727,0.04672257602214813,-3.4155023097991943,0.0
212,MetaDrive-test-noise-reduction-0_6-td3,93,-3.2323541324802854,213022,7881,2285.5192489624023,,0.02169145829975605,-3.1893551349639893,0.0
213,MetaDrive-test-noise-reduction-0_6-td3,93,-3.291107148355354,214011,7922,2296.1117780208588,3.4269368648529053,0.018727831542491913,-3.4044365882873535,0.0
214,MetaDrive-test-noise-reduction-0_6-td3,93,-3.2104157524060826,215014,7964,2306.7853350639343,,0.026415735483169556,-3.625833749771118,0.0
215,MetaDrive-test-noise-reduction-0_6-td3,93,-2.9929568980101235,216003,8004,2317.3776440620422,3.336352825164795,0.014089749194681644,-3.327517509460449,0.0
216,MetaDrive-test-noise-reduction-0_6-td3,93,-3.090798784800843,217025,8045,2328.9191811084747,3.2436280250549316,0.031679049134254456,-3.242204189300537,0.0
217,MetaDrive-test-noise-reduction-0_6-td3,93,-3.1669451066955667,218023,8087,2339.099380016327,3.448939800262451,0.04870859533548355,-3.3796966075897217,0.0
218,MetaDrive-test-noise-reduction-0_6-td3,93,-3.115007046756268,219024,8128,2349.699917078018,,0.028478678315877914,-3.5580859184265137,0.0
219,MetaDrive-test-noise-reduction-0_6-td3,93,-3.2864759137933284,220004,8169,2360.3859379291534,,0.021938685327768326,-3.4354782104492188,0.0
220,MetaDrive-test-noise-reduction-0_6-td3,93,-3.352920904813215,221019,8213,2371.9013550281525,3.47123122215271,0.017865896224975586,-3.5107250213623047,0.0
221,MetaDrive-test-noise-reduction-0_6-td3,93,-3.3905987039568277,222021,8258,2382.544018983841,3.535388231277466,0.04358459636569023,-3.596475124359131,0.0
222,MetaDrive-test-noise-reduction-0_6-td3,93,-3.343446205938828,223006,8301,2393.282175064087,,0.0484803281724453,-3.406965732574463,0.0
223,MetaDrive-test-noise-reduction-0_6-td3,93,-3.346451618808292,224021,8345,2403.995882987976,3.2567076683044434,0.03464645519852638,-3.3159191608428955,0.0
224,MetaDrive-test-noise-reduction-0_6-td3,93,-3.349140012255182,225003,8387,2414.2731699943542,3.3994734287261963,0.03588984161615372,-3.4805703163146973,0.0
225,MetaDrive-test-noise-reduction-0_6-td3,93,-3.2507380102619443,226002,8432,2425.5006260871887,,0.03731482848525047,-3.086977005004883,0.0
226,MetaDrive-test-noise-reduction-0_6-td3,93,-3.3906029886018714,227017,8474,2436.5918560028076,3.1544435024261475,0.062234144657850266,-3.1915080547332764,0.0
227,MetaDrive-test-noise-reduction-0_6-td3,93,-3.404029175220414,228017,8517,2447.634617090225,3.4646477699279785,0.0310838520526886,-3.4344184398651123,0.0
228,MetaDrive-test-noise-reduction-0_6-td3,93,-3.182128733902635,229012,8560,2458.414841890335,,0.011762559413909912,-3.241011381149292,0.0
229,MetaDrive-test-noise-reduction-0_6-td3,93,-3.241833189024395,230016,8605,2469.1462399959564,,0.02221124805510044,-3.466989517211914,0.0
230,MetaDrive-test-noise-reduction-0_6-td3,93,-3.2458480466126503,231010,8648,2479.8891808986664,,0.17670710384845734,-3.431110382080078,0.0
231,MetaDrive-test-noise-reduction-0_6-td3,93,-3.3089909619281865,232010,8691,2490.5823690891266,,0.014014658518135548,-3.2128829956054688,0.0
232,MetaDrive-test-noise-reduction-0_6-td3,93,-3.199811356156555,233011,8732,2501.7772738933563,3.2248055934906006,0.011444084346294403,-3.183077812194824,0.0
233,MetaDrive-test-noise-reduction-0_6-td3,93,-3.2075755227004343,234012,8773,2512.1216671466827,,0.029674353078007698,-3.203975200653076,0.0
234,MetaDrive-test-noise-reduction-0_6-td3,93,-3.2305293025705315,235009,8819,2522.885663986206,3.361468553543091,0.027035042643547058,-3.36177659034729,0.0
235,MetaDrive-test-noise-reduction-0_6-td3,93,-3.2227225325319178,236013,8864,2533.3891451358795,3.489351749420166,0.02072642743587494,-3.483931541442871,0.0
236,MetaDrive-test-noise-reduction-0_6-td3,93,-3.127964369914365,237001,8905,2543.9356858730316,3.474611759185791,0.03059474006295204,-3.4699058532714844,0.0
237,MetaDrive-test-noise-reduction-0_6-td3,93,-3.0799733416626123,238007,8946,2554.4652659893036,3.392655849456787,0.017025552690029144,-3.3201024532318115,0.0
238,MetaDrive-test-noise-reduction-0_6-td3,93,-3.239086465993488,239014,8991,2566.3363761901855,,0.024508437141776085,-3.4389469623565674,0.0
239,MetaDrive-test-noise-reduction-0_6-td3,93,-3.262680525761212,240004,9033,2576.629506111145,,0.02740807831287384,-3.5326132774353027,0.0
240,MetaDrive-test-noise-reduction-0_6-td3,93,-3.2149616035409316,241011,9077,2587.4489300251007,3.370969533920288,0.015528558753430843,-3.3785183429718018,0.0
241,MetaDrive-test-noise-reduction-0_6-td3,93,-3.3661993887183725,242010,9122,2598.775901079178,,0.03888865187764168,-3.091785192489624,0.0
242,MetaDrive-test-noise-reduction-0_6-td3,93,-3.28006153925481,243020,9165,2609.322511911392,,0.00880872830748558,-3.2427635192871094,0.0
243,MetaDrive-test-noise-reduction-0_6-td3,93,-3.305231513565559,244019,9212,2620.0926129817963,3.552013635635376,0.01711641624569893,-3.5862605571746826,0.0
244,MetaDrive-test-noise-reduction-0_6-td3,93,-3.2868737521496194,245016,9254,2631.0211532115936,,0.010812796652317047,-3.515453577041626,0.0
245,MetaDrive-test-noise-reduction-0_6-td3,93,-3.1659471674522615,246016,9299,2641.7123260498047,,0.02098359540104866,-3.4947028160095215,0.0
246,MetaDrive-test-noise-reduction-0_6-td3,93,-3.187081710840914,247016,9343,2652.6258239746094,,0.007444125134497881,-3.1960275173187256,0.0
247,MetaDrive-test-noise-reduction-0_6-td3,93,-3.153270238223905,248014,9384,2663.1310851573944,,0.04795800521969795,-3.7314231395721436,0.0
248,MetaDrive-test-noise-reduction-0_6-td3,93,-3.047252359193566,249019,9425,2673.8656980991364,3.492076873779297,0.030760344117879868,-3.453495502471924,0.0
249,MetaDrive-test-noise-reduction-0_6-td3,93,-3.1515098221988205,250006,9472,2684.424190044403,,0.016318000853061676,-3.1657209396362305,0.0
250,MetaDrive-test-noise-reduction-0_6-td3,93,-3.306968864029544,251017,9515,2695.2953979969025,3.260354995727539,0.21261070668697357,-3.287710189819336,0.0
251,MetaDrive-test-noise-reduction-0_6-td3,93,-3.4147337780361413,252005,9559,2705.822198152542,3.2850310802459717,0.01430797390639782,-3.2334206104278564,0.0
252,MetaDrive-test-noise-reduction-0_6-td3,93,-3.44321507486441,253007,9599,2716.285177230835,3.8074402809143066,0.014234783127903938,-3.8102517127990723,0.0
253,MetaDrive-test-noise-reduction-0_6-td3,93,-3.3006780307344923,254008,9640,2727.0383172035217,,0.016148744150996208,-3.45290470123291,0.0
254,MetaDrive-test-noise-reduction-0_6-td3,93,-3.084678443526025,255026,9684,2737.845330953598,,0.027868550270795822,-3.0883095264434814,0.0
255,MetaDrive-test-noise-reduction-0_6-td3,93,-3.023102933755756,256013,9723,2748.4727380275726,3.2808799743652344,0.08085191249847412,-3.2550668716430664,0.0
256,MetaDrive-test-noise-reduction-0_6-td3,93,-2.9809191899724805,257002,9761,2758.898437023163,,0.0586974062025547,-3.3899054527282715,0.0
257,MetaDrive-test-noise-reduction-0_6-td3,93,-3.159141996391699,258012,9805,2769.9309000968933,,0.01554492861032486,-3.3138225078582764,0.0
258,MetaDrive-test-noise-reduction-0_6-td3,93,-3.277073288486419,259013,9847,2780.8115878105164,3.4386839866638184,0.01930377259850502,-3.4366228580474854,0.0
259,MetaDrive-test-noise-reduction-0_6-td3,93,-3.3522602416623433,260005,9890,2791.1152362823486,3.603224754333496,0.0442107692360878,-3.5903759002685547,0.0
260,MetaDrive-test-noise-reduction-0_6-td3,93,-3.2640328356788917,261006,9928,2801.6437389850616,,0.020775102078914642,-3.538585901260376,0.0
261,MetaDrive-test-noise-reduction-0_6-td3,93,-3.088472109637039,262025,9969,2812.2037189006805,3.2295589447021484,0.021208664402365685,-3.257507562637329,0.0
262,MetaDrive-test-noise-reduction-0_6-td3,93,-3.0953570371440033,263021,10011,2822.6754262447357,3.402127504348755,0.02400771528482437,-3.473114490509033,0.0
263,MetaDrive-test-noise-reduction-0_6-td3,93,-2.9610450456511863,264025,10051,2833.256721973419,3.2834315299987793,0.011672105640172958,-3.296626567840576,0.0
264,MetaDrive-test-noise-reduction-0_6-td3,93,-3.1489620556597613,265017,10097,2844.3073539733887,3.6073384284973145,0.01779853366315365,-3.626720905303955,0.0
265,MetaDrive-test-noise-reduction-0_6-td3,93,-3.2104748282730298,266012,10140,2854.9887330532074,,0.04591434821486473,-3.3078298568725586,0.0
266,MetaDrive-test-noise-reduction-0_6-td3,93,-3.1071783453940096,267015,10179,2865.535527944565,3.257322311401367,0.015085134655237198,-3.2988319396972656,0.0
267,MetaDrive-test-noise-reduction-0_6-td3,93,-3.085319788992487,268006,10221,2876.351175069809,,0.1478859931230545,-3.5400924682617188,0.0
268,MetaDrive-test-noise-reduction-0_6-td3,93,-3.1277047619223852,269021,10265,2887.326950073242,3.3168435096740723,0.03308037668466568,-3.301027297973633,0.0
269,MetaDrive-test-noise-reduction-0_6-td3,93,-3.200717831946879,270015,10309,2898.1391830444336,3.5351603031158447,0.06754173338413239,-3.453622341156006,0.0
270,MetaDrive-test-noise-reduction-0_6-td3,93,-3.285646275555466,271012,10352,2908.833480119705,,0.04088585823774338,-3.638965368270874,0.0
271,MetaDrive-test-noise-reduction-0_6-td3,93,-3.2736797315142643,272004,10395,2919.367236852646,,0.04092216491699219,-3.5191125869750977,0.0
272,MetaDrive-test-noise-reduction-0_6-td3,93,-3.1128746458401686,273006,10438,2930.0414690971375,,0.03563240170478821,-3.3829073905944824,0.0
273,MetaDrive-test-noise-reduction-0_6-td3,93,-3.039036669376509,274022,10480,2940.9865181446075,,0.019898738712072372,-3.365729331970215,0.0
274,MetaDrive-test-noise-reduction-0_6-td3,93,-3.0122026761242826,275005,10522,2951.370575904846,3.613659381866455,0.016870278865098953,-3.6091175079345703,0.0
275,MetaDrive-test-noise-reduction-0_6-td3,93,-3.091202512071224,276001,10562,2961.9085409641266,3.5810353755950928,0.03217852860689163,-3.5773019790649414,0.0
276,MetaDrive-test-noise-reduction-0_6-td3,93,-3.0671671421830404,277029,10604,2973.382349252701,3.481574773788452,0.07560575753450394,-3.430253028869629,0.0
277,MetaDrive-test-noise-reduction-0_6-td3,93,-3.1970329796007912,278014,10647,2983.8691070079803,,0.015641523525118828,-3.2536396980285645,0.0
278,MetaDrive-test-noise-reduction-0_6-td3,93,-3.2041736601425455,279012,10690,2994.5851349830627,,0.01567666046321392,-3.3861751556396484,0.0
279,MetaDrive-test-noise-reduction-0_6-td3,93,-3.2169100214926774,280005,10734,3005.604593038559,3.6988399028778076,0.048013605177402496,-3.7028467655181885,0.0
280,MetaDrive-test-noise-reduction-0_6-td3,93,-3.182903462169874,281010,10773,3016.3099970817566,,0.023098904639482498,-3.134032726287842,0.0
281,MetaDrive-test-noise-reduction-0_6-td3,93,-3.2272426246382584,282014,10812,3027.1010801792145,,0.010220560245215893,-3.3051671981811523,0.0
282,MetaDrive-test-noise-reduction-0_6-td3,93,-3.211871515302186,283002,10854,3038.4847869873047,,0.01634412258863449,-3.319028615951538,0.0
283,MetaDrive-test-noise-reduction-0_6-td3,93,-3.288780954072445,284025,10900,3049.456840991974,3.521611452102661,0.008857648819684982,-3.530078649520874,0.0
284,MetaDrive-test-noise-reduction-0_6-td3,93,-3.3100040682182477,285015,10940,3059.85328912735,3.620643138885498,0.012068016454577446,-3.5886037349700928,0.0
285,MetaDrive-test-noise-reduction-0_6-td3,93,-3.1638705812405306,286023,10981,3070.824206829071,3.271286964416504,0.01714063435792923,-3.2439305782318115,0.0
286,MetaDrive-test-noise-reduction-0_6-td3,93,-2.858181175007485,287016,11018,3081.2357771396637,,0.013984501361846924,-3.4811220169067383,0.0
287,MetaDrive-test-noise-reduction-0_6-td3,93,-3.0039139192860285,288025,11058,3091.4859330654144,3.885481834411621,0.046150121837854385,-3.8886640071868896,0.0
288,MetaDrive-test-noise-reduction-0_6-td3,93,-3.233644705588593,289025,11104,3102.9688799381256,3.3095481395721436,0.007457331288605928,-3.2883970737457275,0.0
289,MetaDrive-test-noise-reduction-0_6-td3,93,-3.3294100347126756,290007,11150,3113.7672290802,3.6021668910980225,0.01983940415084362,-3.5614750385284424,0.0
290,MetaDrive-test-noise-reduction-0_6-td3,93,-3.2170116537855034,291020,11189,3124.6076290607452,,0.021235693246126175,-3.3424978256225586,0.0
291,MetaDrive-test-noise-reduction-0_6-td3,93,-3.06929216471154,292009,11228,3134.947540998459,3.4328417778015137,0.021336674690246582,-3.447927236557007,0.0
292,MetaDrive-test-noise-reduction-0_6-td3,93,-3.1419406609872476,293008,11269,3145.2299480438232,,0.020118115469813347,-3.3599233627319336,0.0
293,MetaDrive-test-noise-reduction-0_6-td3,93,-3.1795410158904547,294004,11312,3155.6362261772156,,0.022693971171975136,-3.5810742378234863,0.0
294,MetaDrive-test-noise-reduction-0_6-td3,93,-3.1311625054634624,295016,11354,3166.881454229355,,0.029949281364679337,-3.4503602981567383,0.0
295,MetaDrive-test-noise-reduction-0_6-td3,93,-3.2360477788615367,296004,11400,3177.2566640377045,,0.02550727128982544,-3.566760778427124,0.0
296,MetaDrive-test-noise-reduction-0_6-td3,93,-3.1964702900950694,297015,11440,3187.8371081352234,3.594172477722168,0.08497291803359985,-3.6117429733276367,0.0
297,MetaDrive-test-noise-reduction-0_6-td3,93,-3.2035324131261875,298007,11480,3198.4773099422455,3.3073203563690186,0.009965594857931137,-3.345463275909424,0.0
298,MetaDrive-test-noise-reduction-0_6-td3,93,-3.1197311260238005,299018,11523,3208.9876658916473,,0.04002201557159424,-3.5641674995422363,0.0
299,MetaDrive-test-noise-reduction-0_6-td3,93,-3.1822558256577596,300015,11568,3219.5490498542786,3.246582508087158,0.04768352955579758,-3.230724811553955,0.0
300,MetaDrive-test-noise-reduction-0_6-td3,93,-3.261557905170499,301024,11611,3231.171993970871,,0.02787894755601883,-3.6801650524139404,0.0
301,MetaDrive-test-noise-reduction-0_6-td3,93,-3.33664273257172,302003,11654,3242.097983121872,3.307765245437622,0.031889189034700394,-3.3554515838623047,0.0
302,MetaDrive-test-noise-reduction-0_6-td3,93,-3.268501529933454,303006,11694,3252.7775750160217,,0.051545191556215286,-3.390613555908203,0.0
303,MetaDrive-test-noise-reduction-0_6-td3,93,-3.079873182812408,304007,11735,3263.576950073242,3.2544147968292236,0.014060680754482746,-3.2857375144958496,0.0
304,MetaDrive-test-noise-reduction-0_6-td3,93,-3.016179865796523,305021,11776,3275.1192829608917,3.7116079330444336,0.03297075629234314,-3.636060953140259,0.0
305,MetaDrive-test-noise-reduction-0_6-td3,93,-3.120858597524846,306020,11818,3285.779940843582,,0.013625012710690498,-3.3912558555603027,0.0
306,MetaDrive-test-noise-reduction-0_6-td3,93,-3.0940098569733907,307016,11858,3296.4527509212494,,0.028027113527059555,-3.1753649711608887,0.0
307,MetaDrive-test-noise-reduction-0_6-td3,93,-3.085808333688086,308005,11896,3306.7729671001434,3.4577553272247314,0.019311819225549698,-3.391900062561035,0.0
308,MetaDrive-test-noise-reduction-0_6-td3,93,-3.111142494881558,309012,11938,3317.3758499622345,,0.08533772826194763,-3.6473281383514404,0.0
309,MetaDrive-test-noise-reduction-0_6-td3,93,-3.37302125106396,310008,11984,3328.087427139282,,0.02881023660302162,-3.5353260040283203,0.0
310,MetaDrive-test-noise-reduction-0_6-td3,93,-3.269114841764029,311007,12025,3339.148950099945,3.443533420562744,0.02136058546602726,-3.4420571327209473,0.0
311,MetaDrive-test-noise-reduction-0_6-td3,93,-3.2678789564014754,312026,12066,3350.304538011551,,0.025637757033109665,-3.5703423023223877,0.0
312,MetaDrive-test-noise-reduction-0_6-td3,93,-3.1455342810996827,313010,12105,3360.6704399585724,,0.016641071066260338,-3.5309014320373535,0.0
313,MetaDrive-test-noise-reduction-0_6-td3,93,-3.1051540764757486,314020,12143,3371.3353962898254,,0.006799418479204178,-3.232059955596924,0.0
314,MetaDrive-test-noise-reduction-0_6-td3,93,-3.06857174215462,315014,12184,3382.043233156204,,0.030950292944908142,-3.3255112171173096,0.0
315,MetaDrive-test-noise-reduction-0_6-td3,93,-3.161816862714966,316005,12229,3392.7003099918365,3.5823845863342285,0.02987259067595005,-3.540576219558716,0.0
316,MetaDrive-test-noise-reduction-0_6-td3,93,-3.2518649800453123,317014,12274,3403.9888200759888,,0.019597770646214485,-3.7536911964416504,0.0
317,MetaDrive-test-noise-reduction-0_6-td3,93,-3.2824822956485162,318007,12319,3414.8439502716064,3.529456853866577,0.011905883438885212,-3.500685930252075,0.0
318,MetaDrive-test-noise-reduction-0_6-td3,93,-3.237038223887824,319016,12362,3425.5959391593933,,0.07095929980278015,-3.464768171310425,0.0
319,MetaDrive-test-noise-reduction-0_6-td3,93,-3.298719383494909,320011,12404,3436.2513201236725,3.224027633666992,0.006598643027245998,-3.184323787689209,0.0
320,MetaDrive-test-noise-reduction-0_6-td3,93,-3.307224684728999,321029,12448,3447.107691049576,3.776881694793701,0.022314734756946564,-3.7364630699157715,0.0
321,MetaDrive-test-noise-reduction-0_6-td3,93,-3.2379610703755684,322020,12490,3457.866527080536,,0.018374599516391754,-3.769357681274414,0.0
322,MetaDrive-test-noise-reduction-0_6-td3,93,-3.1277225112441425,323014,12531,3469.0466361045837,,0.020272085443139076,-3.656808376312256,0.0
323,MetaDrive-test-noise-reduction-0_6-td3,93,-3.0563611606698737,324005,12572,3479.719117164612,3.711299419403076,0.10221952199935913,-3.6562986373901367,0.0
324,MetaDrive-test-noise-reduction-0_6-td3,93,-3.0662522770845864,325010,12611,3490.1970131397247,,0.014606308192014694,-3.5486583709716797,0.0
325,MetaDrive-test-noise-reduction-0_6-td3,93,-3.084682918557895,326003,12653,3500.9426810741425,3.606870412826538,0.009813915938138962,-3.5968079566955566,0.0
326,MetaDrive-test-noise-reduction-0_6-td3,93,-3.1804893307887054,327034,12697,3512.4424080848694,,0.008969753049314022,-3.4417901039123535,0.0
327,MetaDrive-test-noise-reduction-0_6-td3,93,-3.155553583444492,328001,12740,3522.7653720378876,3.5740554332733154,0.022174298763275146,-3.541321039199829,0.0
328,MetaDrive-test-noise-reduction-0_6-td3,93,-3.296799128295416,329003,12787,3533.6745522022247,3.7155308723449707,0.009120192378759384,-3.704847812652588,0.0
329,MetaDrive-test-noise-reduction-0_6-td3,93,-3.2636355046706944,330005,12832,3544.7541241645813,3.717712879180908,0.01767224818468094,-3.688102960586548,0.0
330,MetaDrive-test-noise-reduction-0_6-td3,93,-3.1738083451397845,331033,12875,3555.7463240623474,3.537382125854492,0.04501030966639519,-3.53488826751709,0.0
331,MetaDrive-test-noise-reduction-0_6-td3,93,-3.2056050907278872,332001,12915,3565.908210039139,3.7531259059906006,0.029151741415262222,-3.7451531887054443,0.0
332,MetaDrive-test-noise-reduction-0_6-td3,93,-3.1543861436224137,333007,12956,3577.0018639564514,3.0357775688171387,0.011854782700538635,-3.0230188369750977,0.0
333,MetaDrive-test-noise-reduction-0_6-td3,93,-3.1683060936840475,334001,12999,3587.458295106888,3.4552321434020996,0.04471055418252945,-3.4551751613616943,0.0
334,MetaDrive-test-noise-reduction-0_6-td3,93,-3.1189177454370833,335023,13041,3598.0637261867523,3.6258182525634766,0.022392062470316887,-3.640322208404541,0.0
335,MetaDrive-test-noise-reduction-0_6-td3,93,-3.299782347847045,336026,13084,3609.06857919693,,0.02946898713707924,-3.5739574432373047,0.0
336,MetaDrive-test-noise-reduction-0_6-td3,93,-3.2071861379371382,337004,13121,3619.5091149806976,,0.120765820145607,-3.4859979152679443,0.0
337,MetaDrive-test-noise-reduction-0_6-td3,93,-3.284097774470199,338017,13163,3630.273497104645,3.482180595397949,0.01920803263783455,-3.4839367866516113,0.0
338,MetaDrive-test-noise-reduction-0_6-td3,93,-3.3891331211860933,339021,13204,3641.8240389823914,3.929287910461426,0.037199392914772034,-3.917569398880005,0.0
339,MetaDrive-test-noise-reduction-0_6-td3,93,-3.465838539697546,340005,13244,3652.3715550899506,3.5654778480529785,0.025414399802684784,-3.5822627544403076,0.0
340,MetaDrive-test-noise-reduction-0_6-td3,93,-3.4241754665435167,341019,13287,3663.8079812526703,3.5925073623657227,0.047022685408592224,-3.5481090545654297,0.0
341,MetaDrive-test-noise-reduction-0_6-td3,93,-3.3682424114047245,342019,13328,3674.468362092972,3.5487241744995117,0.03759739175438881,-3.539358139038086,0.0
342,MetaDrive-test-noise-reduction-0_6-td3,93,-3.425124737030986,343007,13374,3685.6283841133118,3.7003934383392334,0.2902544438838959,-3.6240832805633545,0.0
343,MetaDrive-test-noise-reduction-0_6-td3,93,-3.4188592899988635,344029,13416,3696.211823940277,3.848939895629883,0.06563831120729446,-3.821388006210327,0.0
344,MetaDrive-test-noise-reduction-0_6-td3,93,-3.355368307095062,345012,13459,3707.2967100143433,,0.07363861799240112,-3.4810142517089844,0.0
345,MetaDrive-test-noise-reduction-0_6-td3,93,-3.330877482168067,346015,13499,3717.7251579761505,3.7634994983673096,0.034337423741817474,-3.7505710124969482,0.0
346,MetaDrive-test-noise-reduction-0_6-td3,93,-3.258547271480411,347001,13542,3727.969941139221,3.496633768081665,0.03762385994195938,-3.502877712249756,0.0
347,MetaDrive-test-noise-reduction-0_6-td3,93,-3.0452351793661863,348002,13581,3738.543615102768,,0.01355404406785965,-3.423682451248169,0.0
348,MetaDrive-test-noise-reduction-0_6-td3,93,-3.0397202083824704,349007,13624,3749.3820190429688,3.4967002868652344,0.07220271974802017,-3.519130229949951,0.0
349,MetaDrive-test-noise-reduction-0_6-td3,93,-3.1419749480829156,350004,13666,3760.247109889984,,0.02489328570663929,-3.4990453720092773,0.0
350,MetaDrive-test-noise-reduction-0_6-td3,93,-3.2082230166412056,351001,13707,3771.6381990909576,3.4630417823791504,0.03895818069577217,-3.41121768951416,0.0
351,MetaDrive-test-noise-reduction-0_6-td3,93,-3.0642033712575327,352011,13748,3782.271327972412,3.3908755779266357,0.012630082666873932,-3.3752858638763428,0.0
352,MetaDrive-test-noise-reduction-0_6-td3,93,-2.923157632925371,353020,13788,3793.370521068573,,0.012550005689263344,-3.5147807598114014,0.0
353,MetaDrive-test-noise-reduction-0_6-td3,93,-3.1095449162790305,354004,13830,3803.8456041812897,,0.01590871997177601,-3.463223457336426,0.0
354,MetaDrive-test-noise-reduction-0_6-td3,93,-3.1003877734184715,355029,13873,3815.4561669826508,3.482816219329834,0.017358433455228806,-3.4568729400634766,0.0
355,MetaDrive-test-noise-reduction-0_6-td3,93,-3.003977519261204,356023,13913,3826.365433216095,3.666823148727417,0.018819302320480347,-3.648714303970337,0.0
356,MetaDrive-test-noise-reduction-0_6-td3,93,-2.971894204664926,357019,13955,3836.4034190177917,3.585376739501953,0.06741251051425934,-3.5606229305267334,0.0
357,MetaDrive-test-noise-reduction-0_6-td3,93,-3.172962923277139,358010,13995,3846.8070940971375,,0.03180759400129318,-3.7903056144714355,0.0
358,MetaDrive-test-noise-reduction-0_6-td3,93,-3.302995990267976,359015,14040,3857.501271009445,3.5532517433166504,0.01196681335568428,-3.5276987552642822,0.0
359,MetaDrive-test-noise-reduction-0_6-td3,93,-3.1818563643338367,360039,14084,3868.495367050171,3.4885876178741455,0.013500082306563854,-3.4847638607025146,0.0
360,MetaDrive-test-noise-reduction-0_6-td3,93,-3.2433304558905793,361010,14125,3879.293079137802,,0.011570289731025696,-3.2669873237609863,0.0
361,MetaDrive-test-noise-reduction-0_6-td3,93,-3.1992208589344306,362029,14170,3889.6744542121887,3.5596020221710205,0.023585297167301178,-3.5546674728393555,0.0
362,MetaDrive-test-noise-reduction-0_6-td3,93,-3.215416785560245,363006,14212,3900.0938189029694,,0.006652018055319786,-3.496147632598877,0.0
363,MetaDrive-test-noise-reduction-0_6-td3,93,-3.3591293590755504,364016,14254,3910.7423729896545,,0.017167843878269196,-3.6355528831481934,0.0
364,MetaDrive-test-noise-reduction-0_6-td3,93,-3.280444383420646,365013,14296,3921.3178560733795,3.6100823879241943,0.04859009385108948,-3.549271583557129,0.0
365,MetaDrive-test-noise-reduction-0_6-td3,93,-3.184287434514208,366027,14336,3931.9664871692657,3.5984907150268555,0.07072440534830093,-3.598822593688965,0.0
366,MetaDrive-test-noise-reduction-0_6-td3,93,-2.9688079064153827,367029,14375,3943.109116077423,3.4290106296539307,0.026982996612787247,-3.40352201461792,0.0
367,MetaDrive-test-noise-reduction-0_6-td3,93,-3.0103131203408338,368025,14416,3953.7770850658417,3.4757962226867676,0.025637228041887283,-3.4767212867736816,0.0
368,MetaDrive-test-noise-reduction-0_6-td3,93,-3.16666932835311,369015,14459,3964.4323410987854,3.6520817279815674,0.02107991650700569,-3.6096324920654297,0.0
369,MetaDrive-test-noise-reduction-0_6-td3,93,-3.282730323988291,370010,14503,3975.1157550811768,,0.007684747688472271,-3.5788464546203613,0.0
370,MetaDrive-test-noise-reduction-0_6-td3,93,-3.220110887291629,371011,14541,3986.153466939926,3.6684350967407227,0.010595335625112057,-3.6512868404388428,0.0
371,MetaDrive-test-noise-reduction-0_6-td3,93,-3.116349086276915,372030,14582,3997.195342063904,,0.05471628159284592,-3.472040891647339,0.0
372,MetaDrive-test-noise-reduction-0_6-td3,93,-3.300773757082803,373006,14624,4008.2710909843445,,0.008024332113564014,-3.5744235515594482,0.0
373,MetaDrive-test-noise-reduction-0_6-td3,93,-3.4338028835050345,374002,14666,4018.66583108902,,0.04967203736305237,-3.549222230911255,0.0
374,MetaDrive-test-noise-reduction-0_6-td3,93,-3.223038760903461,375020,14706,4029.2678730487823,,0.05981113761663437,-3.319801092147827,0.0
375,MetaDrive-test-noise-reduction-0_6-td3,93,-3.2452778182259054,376013,14751,4040.074998140335,3.305481433868408,0.013178959488868713,-3.3148484230041504,0.0
376,MetaDrive-test-noise-reduction-0_6-td3,93,-3.30851721844995,377010,14796,4051.337471008301,,0.016764577478170395,-3.461419105529785,0.0
377,MetaDrive-test-noise-reduction-0_6-td3,93,-3.3197546411251735,378002,14842,4061.7217469215393,,0.015814339742064476,-3.3948397636413574,0.0
378,MetaDrive-test-noise-reduction-0_6-td3,93,-3.292314734192034,379015,14885,4072.6704609394073,3.344871997833252,0.013727828860282898,-3.3253798484802246,0.0
379,MetaDrive-test-noise-reduction-0_6-td3,93,-3.214228289123796,380014,14928,4083.6467220783234,,0.07521265745162964,-3.346526622772217,0.0
380,MetaDrive-test-noise-reduction-0_6-td3,93,-3.09769130822628,381012,14972,4094.421639919281,,0.017832783982157707,-3.595820188522339,0.0
381,MetaDrive-test-noise-reduction-0_6-td3,93,-3.1514154743971856,382013,15016,4105.3194880485535,3.3773386478424072,0.01181749440729618,-3.332017421722412,0.0
382,MetaDrive-test-noise-reduction-0_6-td3,93,-3.257075328775125,383023,15059,4116.688296079636,3.59208345413208,0.01021471805870533,-3.581151247024536,0.0
383,MetaDrive-test-noise-reduction-0_6-td3,93,-3.2183559947477307,384016,15101,4127.123642921448,,0.015960976481437683,-3.1203789710998535,0.0
384,MetaDrive-test-noise-reduction-0_6-td3,93,-3.0653414708868696,385012,15142,4138.197571992874,,0.04901748523116112,-3.6714160442352295,0.0
385,MetaDrive-test-noise-reduction-0_6-td3,93,-3.1654911756577335,386027,15186,4149.103516101837,3.70466685295105,0.025289462879300117,-3.687349319458008,0.0
386,MetaDrive-test-noise-reduction-0_6-td3,93,-3.027730954491969,387026,15227,4159.809792041779,,0.1133611649274826,-3.623809576034546,0.0
387,MetaDrive-test-noise-reduction-0_6-td3,93,-3.038430601893736,388008,15268,4170.2872149944305,,0.14522497355937958,-3.6162660121917725,0.0
388,MetaDrive-test-noise-reduction-0_6-td3,93,-3.1536624370797868,389013,15311,4181.637306928635,3.46905517578125,0.017256826162338257,-3.439085006713867,0.0
389,MetaDrive-test-noise-reduction-0_6-td3,93,-3.3323101217064264,390008,15355,4192.401219844818,,0.07383601367473602,-3.3305373191833496,0.0
390,MetaDrive-test-noise-reduction-0_6-td3,93,-3.2437360010151597,391003,15396,4203.20600605011,3.163954257965088,0.00851635355502367,-3.1366069316864014,0.0
391,MetaDrive-test-noise-reduction-0_6-td3,93,-3.16708718824683,392011,15438,4213.746213912964,3.4293437004089355,0.008919253014028072,-3.423788547515869,0.0
392,MetaDrive-test-noise-reduction-0_6-td3,93,-3.138250151262147,393013,15477,4224.34495306015,3.4845004081726074,0.004567823372781277,-3.492490530014038,0.0
393,MetaDrive-test-noise-reduction-0_6-td3,93,-3.244944414966182,394004,15520,4234.895859003067,,0.015010719187557697,-3.187448740005493,0.0
394,MetaDrive-test-noise-reduction-0_6-td3,93,-3.2128625635503614,395014,15562,4246.4070291519165,,0.016725657507777214,-3.838243246078491,0.0
395,MetaDrive-test-noise-reduction-0_6-td3,93,-3.229683368338264,396022,15609,4257.226105213165,,0.016928566619753838,-3.5063257217407227,0.0
396,MetaDrive-test-noise-reduction-0_6-td3,93,-3.194613655919322,397001,15647,4267.721586942673,3.4057459831237793,0.01040247455239296,-3.4080121517181396,0.0
397,MetaDrive-test-noise-reduction-0_6-td3,93,-3.1588689927883733,398002,15686,4278.270542144775,,0.025345545262098312,-3.579383134841919,0.0
398,MetaDrive-test-noise-reduction-0_6-td3,93,-3.1874370921408945,399002,15725,4289.060104131699,,0.03762342035770416,-3.4752755165100098,0.0
399,MetaDrive-test-noise-reduction-0_6-td3,93,-3.388281852924806,400022,15767,4300.026400089264,,0.018409080803394318,-3.351367950439453,0.0
400,MetaDrive-test-noise-reduction-0_6-td3,93,-3.1925441730182813,401003,15808,4310.937427997589,3.6044678688049316,0.04451955109834671,-3.6301093101501465,0.0
401,MetaDrive-test-noise-reduction-0_6-td3,93,-3.151047750834628,402002,15850,4321.4360609054565,,0.05336683616042137,-3.5168910026550293,0.0
402,MetaDrive-test-noise-reduction-0_6-td3,93,-3.189913695367069,403008,15891,4332.70631814003,,0.015084890648722649,-3.4930033683776855,0.0
403,MetaDrive-test-noise-reduction-0_6-td3,93,-3.1353568183098623,404009,15932,4343.031541109085,3.7889585494995117,0.03379080444574356,-3.7720370292663574,0.0
404,MetaDrive-test-noise-reduction-0_6-td3,93,-3.2377608263570736,405015,15977,4354.531949043274,3.5726587772369385,0.01131879910826683,-3.546480655670166,0.0
405,MetaDrive-test-noise-reduction-0_6-td3,93,-3.1223225556136036,406013,16017,4365.409956932068,3.4638590812683105,0.022496379911899567,-3.4850916862487793,0.0
406,MetaDrive-test-noise-reduction-0_6-td3,93,-3.1355862029373083,407022,16061,4376.003911972046,,0.008148550987243652,-3.572086811065674,0.0
407,MetaDrive-test-noise-reduction-0_6-td3,93,-3.271221694333105,408013,16103,4386.489248991013,3.612603187561035,0.01053676288574934,-3.596101760864258,0.0
408,MetaDrive-test-noise-reduction-0_6-td3,93,-3.1347209513088514,409017,16146,4397.1608510017395,3.2593045234680176,0.022207941859960556,-3.2429420948028564,0.0
409,MetaDrive-test-noise-reduction-0_6-td3,93,-3.3599158598993877,410002,16190,4407.495579957962,,0.03582125902175903,-3.628199815750122,0.0
410,MetaDrive-test-noise-reduction-0_6-td3,93,-3.315517481121117,411006,16231,4418.758409023285,,0.008647190406918526,-3.232611656188965,0.0
411,MetaDrive-test-noise-reduction-0_6-td3,93,-3.097382435283641,412006,16270,4429.098142147064,,0.011232439428567886,-3.404421806335449,0.0
412,MetaDrive-test-noise-reduction-0_6-td3,93,-3.3064793043832936,413002,16316,4439.564378023148,,0.040601544082164764,-3.633640766143799,0.0
413,MetaDrive-test-noise-reduction-0_6-td3,93,-3.2884699953244096,414016,16359,4450.418405056,,0.01987677812576294,-3.613750696182251,0.0
414,MetaDrive-test-noise-reduction-0_6-td3,93,-3.1011364658988736,415011,16398,4461.1104781627655,3.5571749210357666,0.007283135782927275,-3.558116912841797,0.0
415,MetaDrive-test-noise-reduction-0_6-td3,93,-3.052420139800098,416014,16439,4471.913740158081,,0.04100865125656128,-3.286097764968872,0.0
416,MetaDrive-test-noise-reduction-0_6-td3,93,-3.052948537875326,417015,16479,4483.086488246918,3.4501407146453857,0.016087565571069717,-3.445777416229248,0.0
417,MetaDrive-test-noise-reduction-0_6-td3,93,-3.0678061208157565,418007,16520,4493.871491909027,3.216641902923584,0.009763050824403763,-3.272334575653076,0.0
418,MetaDrive-test-noise-reduction-0_6-td3,93,-3.0868803595718193,419013,16561,4504.813780069351,3.415532112121582,0.024448104202747345,-3.3817548751831055,0.0
419,MetaDrive-test-noise-reduction-0_6-td3,93,-3.1248716122247866,420009,16605,4515.081577062607,3.43856143951416,0.006411276292055845,-3.4020183086395264,0.0
420,MetaDrive-test-noise-reduction-0_6-td3,93,-3.115881556359276,421001,16648,4525.418118953705,3.449313163757324,0.030094793066382408,-3.457003593444824,0.0
421,MetaDrive-test-noise-reduction-0_6-td3,93,-3.283645069697087,422012,16694,4536.559303998947,,0.02386651188135147,-3.7031116485595703,0.0
422,MetaDrive-test-noise-reduction-0_6-td3,93,-3.3451909016014527,423009,16738,4547.62314915657,3.4050252437591553,0.010883105918765068,-3.396103858947754,0.0
423,MetaDrive-test-noise-reduction-0_6-td3,93,-3.2421731960893374,424017,16781,4558.3344049453735,3.7433903217315674,0.08571480214595795,-3.7471067905426025,0.0
424,MetaDrive-test-noise-reduction-0_6-td3,93,-3.1415597446264254,425025,16821,4568.832489967346,3.529222011566162,0.02382298931479454,-3.5668110847473145,0.0
425,MetaDrive-test-noise-reduction-0_6-td3,93,-3.2161024708512476,426021,16862,4579.699221134186,3.3672852516174316,0.07201525568962097,-3.3768503665924072,0.0
426,MetaDrive-test-noise-reduction-0_6-td3,93,-3.24874141582478,427019,16903,4591.26348400116,3.6982269287109375,0.03809438273310661,-3.6774473190307617,0.0
427,MetaDrive-test-noise-reduction-0_6-td3,93,-3.3062188809386766,428007,16944,4601.971718072891,3.6439003944396973,0.011732297949492931,-3.646242618560791,0.0
428,MetaDrive-test-noise-reduction-0_6-td3,93,-3.1866679156521025,429014,16982,4612.296742916107,,0.030117947608232498,-3.596479654312134,0.0
429,MetaDrive-test-noise-reduction-0_6-td3,93,-3.144762465970602,430006,17020,4622.692816019058,,0.11393062770366669,-3.378077745437622,0.0
430,MetaDrive-test-noise-reduction-0_6-td3,93,-3.123613109773058,431005,17063,4633.365804195404,3.646873712539673,0.012415006756782532,-3.622775077819824,0.0
431,MetaDrive-test-noise-reduction-0_6-td3,93,-3.1128701635499283,432003,17103,4643.94939494133,3.4121999740600586,0.008946403861045837,-3.437004327774048,0.0
432,MetaDrive-test-noise-reduction-0_6-td3,93,-3.1941718412932403,433004,17145,4655.43678021431,,0.06813976168632507,-3.570619821548462,0.0
433,MetaDrive-test-noise-reduction-0_6-td3,93,-3.206890244870054,434013,17189,4666.265983104706,3.2807109355926514,0.009495066478848457,-3.2816174030303955,0.0
434,MetaDrive-test-noise-reduction-0_6-td3,93,-3.1893390577516914,435012,17232,4676.809337854385,,0.014473987743258476,-3.371952533721924,0.0
435,MetaDrive-test-noise-reduction-0_6-td3,93,-3.09363460077686,436004,17272,4687.518091201782,,0.021747959777712822,-3.3011789321899414,0.0
436,MetaDrive-test-noise-reduction-0_6-td3,93,-3.087993458919099,437025,17310,4698.277720212936,3.5035464763641357,0.04394655302166939,-3.4696097373962402,0.0
437,MetaDrive-test-noise-reduction-0_6-td3,93,-3.094903268957113,438015,17351,4708.697951078415,3.4961042404174805,0.02476450987160206,-3.5049915313720703,0.0
438,MetaDrive-test-noise-reduction-0_6-td3,93,-3.3089871315734563,439014,17398,4719.831633090973,,0.015690669417381287,-3.274528741836548,0.0
439,MetaDrive-test-noise-reduction-0_6-td3,93,-3.4164776059123643,440007,17443,4730.458051919937,3.3454082012176514,0.010370790958404541,-3.3136842250823975,0.0
440,MetaDrive-test-noise-reduction-0_6-td3,93,-3.3120012216752066,441011,17486,4741.080761909485,3.536327362060547,0.0972687155008316,-3.5575485229492188,0.0
441,MetaDrive-test-noise-reduction-0_6-td3,93,-3.2552364926812345,442013,17530,4751.971739053726,3.296623706817627,0.03287068009376526,-3.2814736366271973,0.0
442,MetaDrive-test-noise-reduction-0_6-td3,93,-3.175539786241387,443016,17573,4762.590631008148,,0.018814243376255035,-3.3231704235076904,0.0
443,MetaDrive-test-noise-reduction-0_6-td3,93,-3.216069905649204,444006,17615,4772.806638240814,,0.04521850496530533,-3.8325631618499756,0.0
444,MetaDrive-test-noise-reduction-0_6-td3,93,-3.382710845985228,445003,17659,4784.209948062897,3.194974660873413,0.011712757870554924,-3.198269844055176,0.0
445,MetaDrive-test-noise-reduction-0_6-td3,93,-3.3228472119294463,446011,17700,4794.810111999512,3.2570841312408447,0.01016274094581604,-3.243206024169922,0.0
446,MetaDrive-test-noise-reduction-0_6-td3,93,-3.0990580039687887,447019,17739,4805.479433059692,3.4021873474121094,0.008852357044816017,-3.369778871536255,0.0
447,MetaDrive-test-noise-reduction-0_6-td3,93,-2.957637461413654,448012,17778,4815.83939409256,,0.03245203569531441,-3.3554606437683105,0.0
448,MetaDrive-test-noise-reduction-0_6-td3,93,-3.0582392031734043,449002,17820,4826.627832174301,,0.008167354390025139,-3.6010193824768066,0.0
449,MetaDrive-test-noise-reduction-0_6-td3,93,-3.3667028003843082,450019,17866,4837.276433944702,3.488678455352783,0.006578853353857994,-3.4860715866088867,0.0
450,MetaDrive-test-noise-reduction-0_6-td3,93,-3.3747013893538695,451012,17911,4848.699791908264,,0.019824065268039703,-3.4369988441467285,0.0
451,MetaDrive-test-noise-reduction-0_6-td3,93,-3.2271811971555304,452027,17956,4859.425283908844,3.494980812072754,0.03681870549917221,-3.5410525798797607,0.0
452,MetaDrive-test-noise-reduction-0_6-td3,93,-3.1439389004134353,453031,17993,4869.960715055466,3.5992941856384277,0.03383564203977585,-3.594139575958252,0.0
453,MetaDrive-test-noise-reduction-0_6-td3,93,-2.9932346534599077,454006,18030,4880.377074956894,,0.15682899951934814,-3.5298163890838623,0.0
454,MetaDrive-test-noise-reduction-0_6-td3,93,-3.1624455703122982,455032,18072,4891.832914113998,,0.01242774911224842,-3.5923912525177,0.0
455,MetaDrive-test-noise-reduction-0_6-td3,93,-3.216681203112916,456001,18115,4902.245375156403,3.525249481201172,0.05258888751268387,-3.5285801887512207,0.0
456,MetaDrive-test-noise-reduction-0_6-td3,93,-3.1471291849963223,457010,18154,4912.807610988617,,0.019841618835926056,-3.559385299682617,0.0
457,MetaDrive-test-noise-reduction-0_6-td3,93,-3.146576721183428,458001,18195,4922.945105075836,3.727759838104248,0.015251502394676208,-3.7094221115112305,0.0
458,MetaDrive-test-noise-reduction-0_6-td3,93,-3.3342511614952968,459021,18240,4933.9861850738525,3.5813801288604736,0.016424935311079025,-3.5590734481811523,0.0
459,MetaDrive-test-noise-reduction-0_6-td3,93,-3.307476038038663,460019,18278,4944.296050071716,3.52372670173645,0.023769045248627663,-3.473519802093506,0.0
460,MetaDrive-test-noise-reduction-0_6-td3,93,-3.3179968547096506,461007,18319,4955.641011953354,3.729196548461914,0.013873410411179066,-3.6729302406311035,0.0
461,MetaDrive-test-noise-reduction-0_6-td3,93,-3.3611113614675117,462015,18363,4966.197548151016,3.599242925643921,0.023186329752206802,-3.5618767738342285,0.0
462,MetaDrive-test-noise-reduction-0_6-td3,93,-3.290205603230788,463015,18404,4976.799526929855,3.729221820831299,0.028256112709641457,-3.7249181270599365,0.0
463,MetaDrive-test-noise-reduction-0_6-td3,93,-3.1253929240268974,464013,18444,4987.760593891144,3.871312379837036,0.13167333602905273,-3.8793323040008545,0.0
464,MetaDrive-test-noise-reduction-0_6-td3,93,-3.239746620761883,465005,18486,4998.39367890358,3.4003798961639404,0.008749724365770817,-3.392960548400879,0.0
465,MetaDrive-test-noise-reduction-0_6-td3,93,-3.365043755985374,466003,18528,5009.233315229416,3.7163805961608887,0.012192508205771446,-3.6868410110473633,0.0
466,MetaDrive-test-noise-reduction-0_6-td3,93,-3.3174270362463547,467025,18571,5021.157092094421,3.6176350116729736,0.057161249220371246,-3.599856376647949,0.0
467,MetaDrive-test-noise-reduction-0_6-td3,92,-3.234307612948078,468003,18612,5032.5037751197815,3.5626978874206543,0.03450028598308563,-3.5519583225250244,0.0
468,MetaDrive-test-noise-reduction-0_6-td3,92,-3.2282722945345537,469029,18652,5043.739144086838,3.421140670776367,0.0712103620171547,-3.4234120845794678,0.0
469,MetaDrive-test-noise-reduction-0_6-td3,92,-3.240266142167451,470007,18692,5053.990794181824,3.938342571258545,0.02037489414215088,-3.9396607875823975,0.0
470,MetaDrive-test-noise-reduction-0_6-td3,92,-3.102278402546867,471012,18733,5064.688682079315,,0.03297055885195732,-3.473088264465332,0.0
471,MetaDrive-test-noise-reduction-0_6-td3,92,-3.0732119318606466,472006,18774,5075.541785240173,,0.01143743097782135,-3.5596039295196533,0.0
472,MetaDrive-test-noise-reduction-0_6-td3,92,-3.0652522586459803,473019,18816,5086.611407995224,3.3671603202819824,0.01219962164759636,-3.41208553314209,0.0
473,MetaDrive-test-noise-reduction-0_6-td3,92,-3.0517715309812052,474009,18855,5096.956229925156,3.7881553173065186,0.060689352452754974,-3.7463481426239014,0.0
474,MetaDrive-test-noise-reduction-0_6-td3,92,-3.099200842576548,475008,18898,5107.714079141617,,0.008368038572371006,-3.5819709300994873,0.0
475,MetaDrive-test-noise-reduction-0_6-td3,92,-3.140155014009264,476020,18942,5118.589868068695,,0.018339725211262703,-3.635490894317627,0.0
476,MetaDrive-test-noise-reduction-0_6-td3,92,-3.1602271093224705,477020,18984,5129.831393003464,,0.02336009591817856,-3.3538239002227783,0.0
477,MetaDrive-test-noise-reduction-0_6-td3,92,-3.2082505469340883,478044,19023,5140.567997932434,,0.008898359723389149,-3.687648296356201,0.0
478,MetaDrive-test-noise-reduction-0_6-td3,92,-3.3010150214004246,479027,19066,5151.278223991394,3.5069527626037598,0.008945297449827194,-3.5000994205474854,0.0
479,MetaDrive-test-noise-reduction-0_6-td3,92,-3.217838146957646,480024,19106,5161.797652006149,,0.013365826569497585,-3.384521007537842,0.0
480,MetaDrive-test-noise-reduction-0_6-td3,92,-3.1318646550591125,481004,19148,5172.544812202454,,0.02598322182893753,-3.695797920227051,0.0
481,MetaDrive-test-noise-reduction-0_6-td3,92,-3.2288046422183636,482012,19190,5183.386537075043,,0.16828793287277222,-3.409480094909668,0.0
482,MetaDrive-test-noise-reduction-0_6-td3,92,-3.330434330247385,483014,19230,5194.46443605423,,0.01077633909881115,-3.237809658050537,0.0
483,MetaDrive-test-noise-reduction-0_6-td3,92,-3.3388307775045423,484015,19271,5205.360178947449,3.5146572589874268,0.052452120929956436,-3.552023410797119,0.0
484,MetaDrive-test-noise-reduction-0_6-td3,92,-3.385502969971965,485003,19314,5216.154411077499,3.3914620876312256,0.010080398991703987,-3.3919427394866943,0.0
485,MetaDrive-test-noise-reduction-0_6-td3,92,-3.2928201311195084,486029,19359,5227.204457998276,3.666987895965576,0.0864344984292984,-3.642272472381592,0.0
486,MetaDrive-test-noise-reduction-0_6-td3,92,-3.1262581600819805,487006,19400,5237.656347990036,,0.02981850877404213,-3.2847847938537598,0.0
487,MetaDrive-test-noise-reduction-0_6-td3,92,-3.297774036267863,488004,19448,5248.775717973709,,0.008033393882215023,-3.131814956665039,0.0
488,MetaDrive-test-noise-reduction-0_6-td3,92,-3.2850525813089475,489026,19483,5260.247609138489,,0.03636961430311203,-3.6717638969421387,0.0
489,MetaDrive-test-noise-reduction-0_6-td3,92,-3.209572634132956,490025,19525,5270.89311504364,3.5298826694488525,0.011599946767091751,-3.5018792152404785,0.0
490,MetaDrive-test-noise-reduction-0_6-td3,92,-3.1449370487442123,491022,19569,5281.289420127869,,0.0094944778829813,-3.512296199798584,0.0
491,MetaDrive-test-noise-reduction-0_6-td3,92,-3.2113232161088776,492001,19611,5291.512132883072,3.563133716583252,0.008517906069755554,-3.5608866214752197,0.0
492,MetaDrive-test-noise-reduction-0_6-td3,92,-3.3158743184031136,493007,19653,5302.413112163544,3.982196807861328,0.03951665759086609,-3.910325050354004,0.0
493,MetaDrive-test-noise-reduction-0_6-td3,92,-3.340915625143602,494007,19695,5313.647349119186,3.507138729095459,0.008612234145402908,-3.5246217250823975,0.0
494,MetaDrive-test-noise-reduction-0_6-td3,92,-3.1214102144652047,495005,19732,5324.896071910858,3.729546546936035,0.06404584646224976,-3.6153948307037354,0.0
495,MetaDrive-test-noise-reduction-0_6-td3,92,-3.0197087518445813,496021,19772,5335.721970081329,3.6087865829467773,0.041745804250240326,-3.582951068878174,0.0
496,MetaDrive-test-noise-reduction-0_6-td3,92,-3.1049919231477117,497023,19815,5346.355997085571,3.6716041564941406,0.07087716460227966,-3.6851813793182373,0.0
497,MetaDrive-test-noise-reduction-0_6-td3,92,-2.988555514576473,498007,19856,5356.820470094681,3.7829928398132324,0.01371442899107933,-3.7765259742736816,0.0
498,MetaDrive-test-noise-reduction-0_6-td3,92,-3.137026610153542,499014,19898,5367.174498081207,,0.012567450292408466,-3.479092836380005,0.0
