TanmayH/CS269-RL-project-code/MetaDrive-test-conv2-colab/td3/progress.csv
,log_dir,frame_per_second,episode_reward,total_steps,total_episodes,total_time,actor_loss,critic_loss,target_q,success_rate
0,MetaDrive-test-conv2-colab,176,5.91955930205441,1116,2,6.313003301620483,,0.0012721269158646464,-0.04618813842535019,0.0
1,MetaDrive-test-conv2-colab,101,-0.9738409696878814,2579,17,25.48095989227295,0.06234514340758324,0.7076061964035034,-0.12994636595249176,0.0
2,MetaDrive-test-conv2-colab,93,-1.3204607171000509,3849,21,41.16001629829407,0.10447670519351959,0.008539890870451927,-0.06899793446063995,0.0
3,MetaDrive-test-conv2-colab,92,-1.0930765213607543,4850,22,52.56541848182678,,0.021664727479219437,-0.06563946604728699,0.0
4,MetaDrive-test-conv2-colab,92,-0.8949681982309423,5851,23,63.124863147735596,0.059419725090265274,0.0028205884154886007,-0.09661003947257996,0.0
5,MetaDrive-test-conv2-colab,90,-0.9476984142865007,6852,24,75.43873882293701,,0.01339814718812704,-0.10090313106775284,0.0
6,MetaDrive-test-conv2-colab,92,-0.7627333239260934,7853,25,85.17749786376953,0.1438695639371872,0.0029497467912733555,-0.11232290416955948,0.0
7,MetaDrive-test-conv2-colab,91,-0.5995145510333233,8854,26,96.46802854537964,,0.0018622245406731963,-0.11711590737104416,0.0
8,MetaDrive-test-conv2-colab,90,-0.44390958562949007,9855,27,108.38527226448059,0.13677352666854858,0.004813618026673794,-0.11148259788751602,0.0
9,MetaDrive-test-conv2-colab,90,-0.6267392123110709,10075,28,110.97274613380432,0.10127997398376465,0.0015461435541510582,-0.11477400362491608,0.0
10,MetaDrive-test-conv2-colab,90,-0.517367606944904,11076,29,122.82653021812439,,0.0031345724128186703,-0.11288435757160187,0.0
11,MetaDrive-test-conv2-colab,90,-0.39700537819314125,12077,30,133.4659595489502,0.12977293133735657,0.00841887854039669,-0.11544802039861679,0.0
12,MetaDrive-test-conv2-colab,90,-0.2637322262450697,13078,31,144.793315410614,,0.0007029417320154607,-0.11125444620847702,0.0
13,MetaDrive-test-conv2-colab,89,-0.1817006024653495,14079,32,157.22506546974182,0.08540947735309601,0.005513702053576708,-0.09423018991947174,0.0
14,MetaDrive-test-conv2-colab,89,-0.06776830537649994,15080,33,167.708233833313,,0.0017450277227908373,-0.09491824358701706,0.0
15,MetaDrive-test-conv2-colab,89,0.03357065699503526,16081,34,179.03686594963074,0.10370369255542755,0.006288551259785891,-0.08696629106998444,0.0
16,MetaDrive-test-conv2-colab,90,0.13765792109637368,17082,35,189.2444508075714,,0.0002383520914008841,-0.08081616461277008,0.0
17,MetaDrive-test-conv2-colab,90,0.2277167730497325,18083,36,199.21110033988953,0.078199602663517,0.0006682422244921327,-0.08882620930671692,0.0
18,MetaDrive-test-conv2-colab,90,0.189372967157812,19084,37,210.3620584011078,,0.0019268360920250416,-0.07893224060535431,0.0
19,MetaDrive-test-conv2-colab,90,0.12624147076142067,20085,38,221.18539571762085,0.10753963887691498,0.6650834083557129,-0.15017609298229218,0.0
20,MetaDrive-test-conv2-colab,90,0.0737377599286545,21086,39,232.1359987258911,,0.00031852093525230885,-0.07489839196205139,0.0
21,MetaDrive-test-conv2-colab,90,0.1189657304820774,22087,40,242.84957909584045,0.06433826684951782,7.960399670992047e-05,-0.06685611605644226,0.0
22,MetaDrive-test-conv2-colab,90,-0.044395650310534336,23179,42,255.1518678665161,0.0442260205745697,0.0007094090105965734,-0.06139134615659714,0.0
23,MetaDrive-test-conv2-colab,90,0.040907608458560354,24180,43,265.9376940727234,,0.024801842868328094,-0.056252848356962204,0.0
24,MetaDrive-test-conv2-colab,90,0.10269767722703317,25181,44,277.21113753318787,0.04170149564743042,0.00010731529619079083,-0.03865989297628403,0.0
25,MetaDrive-test-conv2-colab,91,-0.05219096086777743,26254,46,288.2509334087372,,0.008513305336236954,-0.021061919629573822,0.0
26,MetaDrive-test-conv2-colab,90,0.02709933113530892,27255,47,299.6408667564392,0.026210259646177292,0.0002683972707018256,-0.0331181064248085,0.0
27,MetaDrive-test-conv2-colab,90,-0.0089445220621613,28334,49,311.88944697380066,,0.00010971311712637544,-0.021956251934170723,0.0
28,MetaDrive-test-conv2-colab,90,0.06525411198394257,29335,50,322.6230216026306,0.014684164896607399,6.430901703424752e-05,-0.007089879363775253,0.0
29,MetaDrive-test-conv2-colab,91,0.024054595669391672,30336,51,333.0425124168396,,0.0002536574029363692,-0.007141239009797573,0.0
30,MetaDrive-test-conv2-colab,91,-0.1906766017571944,31159,53,341.3603858947754,0.0392642542719841,0.0018405711743980646,-0.008931465446949005,0.0
31,MetaDrive-test-conv2-colab,91,-0.12046749943152697,32160,54,352.753294467926,,6.959161692066118e-05,-0.0013654525391757488,0.0
32,MetaDrive-test-conv2-colab,90,-0.24105193945599862,33789,57,371.5614905357361,-0.0028035081923007965,0.0007396224536933005,-0.012826444581151009,0.0
33,MetaDrive-test-conv2-colab,90,-0.4301496916610756,34956,60,385.879478931427,,0.0014444065745919943,-0.0032446281984448433,0.0
34,MetaDrive-test-conv2-colab,90,-0.4908467001763074,35860,61,394.9014632701874,,0.00031927769305184484,-0.0028648998122662306,0.0
35,MetaDrive-test-conv2-colab,90,-0.43345598677398295,36861,62,406.11732006073,-0.0026648864150047302,0.0014536322560161352,-0.021658368408679962,0.0
36,MetaDrive-test-conv2-colab,90,-0.5113387609651352,37052,63,408.2913272380829,,0.0037874593399465084,-0.02093527466058731,0.0
37,MetaDrive-test-conv2-colab,90,-0.44661165049258106,38053,64,419.62451338768005,0.004296007566154003,0.000321037950925529,-0.002528056036680937,0.0
38,MetaDrive-test-conv2-colab,90,-0.3825923672273316,39054,65,430.64149236679077,,0.0006452198722399771,0.005279066972434521,0.0
39,MetaDrive-test-conv2-colab,90,-0.3683440090277341,40055,66,441.9195261001587,-0.005719339475035667,0.0003693065373227,0.006693771108984947,0.0
40,MetaDrive-test-conv2-colab,90,-0.37797324881314154,41124,68,453.2280948162079,,0.00038127496372908354,0.00335890706628561,0.0
41,MetaDrive-test-conv2-colab,90,-0.40252738704304464,42125,69,463.9126160144806,0.0052702841348946095,0.0012776912190020084,0.011716441251337528,0.0
42,MetaDrive-test-conv2-colab,90,-0.4304917890472592,43695,71,481.7396924495697,0.03647150099277496,0.0008741873316466808,-0.02347525581717491,0.0
43,MetaDrive-test-conv2-colab,90,-0.3788298704351523,44696,72,492.31871008872986,,0.00018520055164117366,0.02009160816669464,0.0
44,MetaDrive-test-conv2-colab,90,-0.3988795997104652,45697,73,503.574515581131,0.023392431437969208,0.006120928563177586,0.014894812367856503,0.0
45,MetaDrive-test-conv2-colab,90,-0.4214524997829756,46698,74,514.834725856781,,0.0008448815206065774,-0.016984017565846443,0.0
46,MetaDrive-test-conv2-colab,90,-0.41672788582451814,47699,75,524.821596622467,-0.015942484140396118,0.0015598044265061617,-0.005479868501424789,0.0
47,MetaDrive-test-conv2-colab,90,-0.3640689487319004,48700,76,535.1692802906036,,0.0007322449237108231,-0.011254427023231983,0.0
48,MetaDrive-test-conv2-colab,91,-0.4983887977441543,49379,78,541.9689855575562,-0.011518300510942936,0.00032353567075915635,0.009831471368670464,0.0
49,MetaDrive-test-conv2-colab,91,-0.5434932637217061,50306,79,551.3417930603027,,0.5744547843933105,-0.12108324468135834,0.0
50,MetaDrive-test-conv2-colab,90,-0.605395122521732,51561,82,567.0170862674713,0.027539974078536034,0.00032099863165058196,-0.027350785210728645,0.0
51,MetaDrive-test-conv2-colab,90,-0.5545260041160086,52562,83,578.434223651886,,0.00014427522546611726,-0.03529111668467522,0.0
52,MetaDrive-test-conv2-colab,90,-0.5068624244642221,53563,84,589.33376288414,0.014218650758266449,0.017452094703912735,-0.00614306703209877,0.0
53,MetaDrive-test-conv2-colab,90,-0.4839158827776087,54564,85,601.0113368034363,,0.00011671044194372371,0.017562158405780792,0.0
54,MetaDrive-test-conv2-colab,90,-0.44125512117519966,55565,86,612.7432155609131,0.05141429603099823,9.109254460781813e-05,-0.05015645921230316,0.0
55,MetaDrive-test-conv2-colab,90,-0.4445814230103391,56692,88,625.7650859355927,,0.0030932107474654913,-0.03090021014213562,0.0
56,MetaDrive-test-conv2-colab,90,-0.5640629458298705,57543,90,635.333842754364,0.08417090028524399,0.017774216830730438,-0.04052707552909851,0.0
57,MetaDrive-test-conv2-colab,90,-0.5773441077957608,58643,92,646.453010559082,0.01160084456205368,0.0006111569819040596,-0.015514754690229893,0.0
58,MetaDrive-test-conv2-colab,90,-0.7269468859907445,59139,95,652.4771530628204,0.0824892446398735,0.0010438751196488738,-0.046405088156461716,0.0
59,MetaDrive-test-conv2-colab,90,-0.7399709742576309,60140,96,663.3619167804718,,0.0017146633472293615,-0.02083439752459526,0.0
60,MetaDrive-test-conv2-colab,90,-0.7532591000727297,61141,97,674.2408185005188,0.0624348521232605,0.000616368604823947,-0.05877477675676346,0.0
61,MetaDrive-test-conv2-colab,90,-0.8098190730561802,62246,99,685.5068883895874,,0.006230985280126333,0.021616391837596893,0.0
62,MetaDrive-test-conv2-colab,90,-0.821180276178087,63247,100,696.5303390026093,-0.01752733439207077,0.0010640003019943833,0.006356142461299896,0.0
63,MetaDrive-test-conv2-colab,90,-0.9522445452295216,64377,102,709.4693291187286,0.04624437168240547,0.0011177826672792435,-0.03574203699827194,0.0
64,MetaDrive-test-conv2-colab,90,-0.8933039390739286,65378,103,721.6366860866547,,0.00023544178111478686,-0.02326038107275963,0.0
65,MetaDrive-test-conv2-colab,90,-0.8738952255082445,66379,104,733.9394955635071,0.09502347558736801,0.0005205438937991858,-0.08536534756422043,0.0
66,MetaDrive-test-conv2-colab,90,-0.8879214147449335,67171,105,743.9345052242279,0.02686380408704281,0.0010137655772268772,-0.0016920939087867737,0.0
67,MetaDrive-test-conv2-colab,90,-0.8087294585126524,68172,106,755.7215430736542,,0.0001368022640235722,-0.0541413351893425,0.0
68,MetaDrive-test-conv2-colab,90,-0.7274057964232621,69173,107,767.3600714206696,0.08919960260391235,0.004000674933195114,-0.07565279304981232,0.0
69,MetaDrive-test-conv2-colab,90,-0.69437040670935,70174,108,777.9373672008514,,0.000721143907867372,-0.08501816540956497,0.0
70,MetaDrive-test-conv2-colab,89,-0.6857958102904369,71959,111,800.2440795898438,0.11785876750946045,0.0014154174132272601,-0.09258538484573364,0.0
71,MetaDrive-test-conv2-colab,89,-0.7631141531794366,72960,112,811.4664754867554,,0.00010532191663514823,-0.03814180940389633,0.0
72,MetaDrive-test-conv2-colab,89,-0.7159449180537404,73961,113,822.7921662330627,0.07377206534147263,0.00021391944028437138,-0.08469481766223907,0.0
73,MetaDrive-test-conv2-colab,89,-0.7468624669430145,74076,114,824.1771025657654,,0.000608186237514019,-0.12979404628276825,0.0
74,MetaDrive-test-conv2-colab,89,-0.6933662717409337,75445,116,839.4290182590485,0.1451786607503891,0.0038050864823162556,-0.12225794792175293,0.0
75,MetaDrive-test-conv2-colab,89,-0.7114614986637596,76723,118,854.8855037689209,0.11912763118743896,0.5759521126747131,-0.20092438161373138,0.0
76,MetaDrive-test-conv2-colab,89,-0.7188985823618487,77105,120,858.856294631958,0.10763091593980789,0.0007842841441743076,-0.11734113842248917,0.0
77,MetaDrive-test-conv2-colab,89,-0.938410460390654,78420,123,874.0343055725098,,0.3365001678466797,-0.11755147576332092,0.0
78,MetaDrive-test-conv2-colab,89,-0.9367939696069866,79421,124,885.060882806778,0.07907964289188385,0.0007518032798543572,-0.06927836686372757,0.0
79,MetaDrive-test-conv2-colab,89,-1.0297132029616867,80521,126,896.743979215622,0.19029119610786438,0.006217444781213999,-0.14271333813667297,0.0
80,MetaDrive-test-conv2-colab,89,-1.073982599437696,81522,127,907.974532365799,,0.002703591249883175,-0.06061992794275284,0.0
81,MetaDrive-test-conv2-colab,89,-0.982122235574797,82523,128,919.4575505256653,0.10576825588941574,0.00014715921133756638,-0.11223319172859192,0.0
82,MetaDrive-test-conv2-colab,89,-1.148858157307108,83102,130,926.3152244091034,,0.003817296354100108,-0.05721597000956535,0.0
83,MetaDrive-test-conv2-colab,89,-1.2852469824334134,84264,132,940.3882784843445,,0.001013612374663353,-0.04733564332127571,0.0
84,MetaDrive-test-conv2-colab,89,-1.3408003891509717,85265,133,950.7292928695679,0.0959685891866684,0.00021145478240214288,-0.09540059417486191,0.0
85,MetaDrive-test-conv2-colab,89,-1.3937308891042295,86266,134,961.340131521225,,0.000498747976962477,-0.15088143944740295,0.0
86,MetaDrive-test-conv2-colab,89,-1.403028287347438,87267,135,973.606433391571,0.04966966062784195,0.00015219516353681684,-0.05301845073699951,0.0
87,MetaDrive-test-conv2-colab,89,-1.4573608331118229,88268,136,984.7661302089691,,0.0012940461747348309,-0.05200798436999321,0.0
88,MetaDrive-test-conv2-colab,89,-1.46539386463707,89269,137,997.1128480434418,0.1673167198896408,0.00013384260819293559,-0.16573581099510193,0.0
89,MetaDrive-test-conv2-colab,89,-1.4642951300895686,90270,138,1008.1020789146423,,0.0010828732047230005,-0.06118396297097206,0.0
90,MetaDrive-test-conv2-colab,89,-1.4164989208455279,91271,139,1018.2198491096497,0.13868515193462372,0.004277573898434639,-0.11013908684253693,0.0
91,MetaDrive-test-conv2-colab,89,-1.4330671590662067,92272,140,1030.3687181472778,,0.0021279954817146063,-0.028392275795340538,0.0
92,MetaDrive-test-conv2-colab,89,-1.3457813513062415,93273,141,1043.9689362049103,-0.001399267464876175,0.00034330153721384704,-0.005416720174252987,0.0
93,MetaDrive-test-conv2-colab,89,-1.2928530072116446,94274,142,1054.6901633739471,,0.0005219797603785992,-0.012957518920302391,0.0
94,MetaDrive-test-conv2-colab,89,-1.29205726120873,95275,143,1066.3404850959778,0.13195528090000153,0.0004799604066647589,-0.12984149158000946,0.0
95,MetaDrive-test-conv2-colab,89,-1.283856500009449,96276,144,1077.1368746757507,,0.0005332656437531114,-0.2058962881565094,0.0
96,MetaDrive-test-conv2-colab,89,-1.1965077430192685,97277,145,1090.954336643219,0.14591850340366364,0.002606375142931938,-0.13072335720062256,0.0
97,MetaDrive-test-conv2-colab,89,-1.1987223649702008,98278,146,1102.9820220470428,,0.0009218910709023476,-0.14759030938148499,0.0
98,MetaDrive-test-conv2-colab,89,-1.205222625088084,99279,147,1113.9934282302856,0.020640186965465546,0.0011843639658764005,-0.010576203465461731,0.0
99,MetaDrive-test-conv2-colab,89,-1.259129488380106,100369,149,1125.9484505653381,0.07724127918481827,0.00016323954332619905,-0.07716459780931473,0.0
100,MetaDrive-test-conv2-colab,89,-1.3171976610256126,101370,150,1136.6945152282715,,0.0014405312249436975,-0.054056182503700256,0.0
101,MetaDrive-test-conv2-colab,89,-1.260264962671223,102371,151,1148.2456073760986,0.034888461232185364,0.00043352943612262607,-0.04704611748456955,0.0
102,MetaDrive-test-conv2-colab,89,-1.1638690157982696,103536,153,1161.203190088272,,0.0004646203888114542,-0.06192877143621445,0.0
103,MetaDrive-test-conv2-colab,89,-1.1550396168570896,104603,155,1173.1821613311768,0.03809177875518799,0.0005477208760567009,-0.030291039496660233,0.0
104,MetaDrive-test-conv2-colab,89,-1.1671573740864065,105698,157,1185.160038948059,,0.0017727356171235442,-0.04296933859586716,0.0
105,MetaDrive-test-conv2-colab,89,-1.1778119089404273,106296,158,1192.499338388443,,0.00013242100249044597,-0.10033471137285233,0.0
106,MetaDrive-test-conv2-colab,89,-1.136408244506258,107774,161,1208.2335414886475,,0.0006877039559185505,-0.058251384645700455,0.0
107,MetaDrive-test-conv2-colab,89,-1.228335780788941,108276,162,1213.6916172504425,,0.0013018811587244272,-0.1418706774711609,0.0
108,MetaDrive-test-conv2-colab,89,-1.1960178057251591,109277,163,1225.631637096405,0.1546243578195572,0.001095389947295189,-0.13613766431808472,0.0
109,MetaDrive-test-conv2-colab,89,-1.3815270877289323,110286,165,1237.6457805633545,,0.0022984996903687716,-0.07864987850189209,0.0
110,MetaDrive-test-conv2-colab,89,-1.4665284569964816,111535,169,1252.5692975521088,0.10189589858055115,0.001574310939759016,-0.12383361160755157,0.0
111,MetaDrive-test-conv2-colab,89,-1.4585877476999756,112780,171,1265.0514588356018,,0.4180496633052826,-0.09610332548618317,0.0
112,MetaDrive-test-conv2-colab,89,-1.548997886125567,113075,172,1268.600746870041,0.19240379333496094,0.002480332739651203,-0.17930053174495697,0.0
113,MetaDrive-test-conv2-colab,88,-1.551357073615975,114076,173,1282.2608499526978,,0.0005055126384831965,-0.08885487169027328,0.0
114,MetaDrive-test-conv2-colab,89,-1.549698515408791,115077,174,1292.5556290149689,0.062241896986961365,0.23991337418556213,-0.08863770961761475,0.0
115,MetaDrive-test-conv2-colab,88,-1.6109254757120812,116737,176,1312.378443479538,0.142556294798851,0.0012025893665850163,-0.16285814344882965,0.0
116,MetaDrive-test-conv2-colab,88,-1.5231049936559111,117738,177,1325.021559715271,,0.0014992335345596075,-0.08962085098028183,0.0
117,MetaDrive-test-conv2-colab,88,-1.4246226849192223,118739,178,1336.8543429374695,0.11257044970989227,0.02675759047269821,-0.11556508392095566,0.0
118,MetaDrive-test-conv2-colab,88,-1.4415340973847643,119117,180,1341.0229358673096,0.14203861355781555,0.00040455040289089084,-0.13728521764278412,0.0
119,MetaDrive-test-conv2-colab,88,-1.6933584391764511,120606,184,1359.0199468135834,,0.002248796634376049,-0.18098142743110657,0.0
120,MetaDrive-test-conv2-colab,88,-1.6728028338290917,121607,185,1370.6763200759888,0.180156871676445,0.00013144584954716265,-0.18023940920829773,0.0
121,MetaDrive-test-conv2-colab,88,-1.7026451552260093,122608,186,1381.3494505882263,,0.0009066049242392182,-0.11389406025409698,0.0
122,MetaDrive-test-conv2-colab,88,-1.6744097830997444,123609,187,1391.951488018036,0.25633472204208374,0.0022872728295624256,-0.26896363496780396,0.0
123,MetaDrive-test-conv2-colab,88,-1.701142003493926,124875,189,1406.2296991348267,0.02728983573615551,0.0004216140368953347,-0.03194495663046837,0.0
124,MetaDrive-test-conv2-colab,88,-1.6614183703166217,125876,190,1418.6066420078278,,0.0016492342110723257,-0.003465598449110985,0.0
125,MetaDrive-test-conv2-colab,88,-1.5865067079909345,126877,191,1428.9993052482605,0.06313659995794296,0.00027884182054549456,-0.0615621954202652,0.0
126,MetaDrive-test-conv2-colab,88,-1.576596141185593,127961,193,1441.8861963748932,0.03045204095542431,0.00011143428855575621,-0.032100044190883636,0.0
127,MetaDrive-test-conv2-colab,88,-1.534932557341701,128962,194,1451.9549362659454,,0.00010896768071688712,-0.10420286655426025,0.0
128,MetaDrive-test-conv2-colab,88,-1.4952556464673408,129963,195,1463.1158730983734,0.26741135120391846,0.00043128544348292053,-0.26611030101776123,0.0
129,MetaDrive-test-conv2-colab,88,-1.5320832988457456,130233,196,1466.6448285579681,0.007166612893342972,0.0014148312620818615,-0.026231827214360237,0.0
130,MetaDrive-test-conv2-colab,88,-1.5330787710266427,131234,197,1479.1812946796417,,0.0007720827125012875,-0.11188691109418869,0.0
131,MetaDrive-test-conv2-colab,88,-1.604198334328071,132089,200,1490.5513651371002,0.2306341826915741,0.010653583332896233,-0.1892700344324112,0.0
132,MetaDrive-test-conv2-colab,88,-1.5632180369711863,133090,201,1501.906240940094,,0.0006902175373397768,-0.059120673686265945,0.0
133,MetaDrive-test-conv2-colab,88,-1.563039318171377,134091,202,1512.8993170261383,0.303304523229599,0.00034970248816534877,-0.3043921887874603,0.0
134,MetaDrive-test-conv2-colab,88,-1.6686597901241447,135172,204,1526.3723850250244,,0.000257892650552094,-0.06302398443222046,0.0
135,MetaDrive-test-conv2-colab,88,-1.729434995080268,136455,206,1541.447033405304,0.20227590203285217,0.0006926435162313282,-0.19942143559455872,0.0
136,MetaDrive-test-conv2-colab,88,-1.7870764148992127,137456,207,1552.4510345458984,,0.0007810400566086173,0.015752587467432022,0.0
137,MetaDrive-test-conv2-colab,88,-1.8024577746972803,138457,208,1565.3638553619385,0.11446930468082428,0.0003092222905252129,-0.12946683168411255,0.0
138,MetaDrive-test-conv2-colab,88,-1.7164974932937667,139458,209,1575.4272513389587,,0.0001608751917956397,-0.040230147540569305,0.0
139,MetaDrive-test-conv2-colab,88,-1.6202779417589699,140459,210,1587.0332260131836,0.14881634712219238,0.0008604443282820284,-0.16726811230182648,0.0
140,MetaDrive-test-conv2-colab,88,-1.7212639624117565,141301,211,1595.7503070831299,0.1485026627779007,0.0006517791771329939,-0.1509583741426468,0.0
141,MetaDrive-test-conv2-colab,88,-1.4299621072551303,142062,213,1604.8571238517761,,0.0015573943965137005,-0.031233450397849083,0.0
142,MetaDrive-test-conv2-colab,88,-0.2515427954315407,143029,235,1619.7539293766022,0.06920403987169266,0.0015989751555025578,-0.09868010133504868,0.0
143,MetaDrive-test-conv2-colab,88,0.5402812149420351,144014,264,1636.0052258968353,,0.014517365023493767,0.1131637692451477,0.0
144,MetaDrive-test-conv2-colab,87,2.9896426281442556,145019,292,1651.513468503952,-0.6613343954086304,0.0032344430219382048,0.4937838315963745,0.0
145,MetaDrive-test-conv2-colab,87,4.404393894116954,146072,322,1668.7530636787415,,0.13510656356811523,0.6769102215766907,0.0
146,MetaDrive-test-conv2-colab,87,6.015611495016138,147028,346,1683.0297927856445,,0.08389320969581604,1.0191614627838135,0.0
147,MetaDrive-test-conv2-colab,87,6.4987979169743415,148016,375,1697.7433350086212,,0.035010531544685364,1.455743670463562,0.0
148,MetaDrive-test-conv2-colab,86,7.098413016173033,149005,402,1713.720639705658,-1.8290133476257324,0.014960423111915588,1.6792595386505127,0.0
149,MetaDrive-test-conv2-colab,86,9.76531204810014,150044,423,1728.749118566513,,0.9850755333900452,1.8408098220825195,0.0
150,MetaDrive-test-conv2-colab,86,13.582619769951009,151015,434,1743.3400583267212,-2.9002294540405273,0.02981691062450409,2.649383306503296,0.0
151,MetaDrive-test-conv2-colab,86,17.848391584132944,152038,448,1758.0489251613617,,0.020726189017295837,2.8524386882781982,0.0
152,MetaDrive-test-conv2-colab,86,23.349015901862053,153003,457,1772.5695941448212,-3.858488082885742,0.016950299963355064,3.4775619506835938,0.0
153,MetaDrive-test-conv2-colab,86,29.680119987303623,154151,467,1788.3569178581238,-4.383001804351807,0.031621016561985016,4.078790187835693,0.0
154,MetaDrive-test-conv2-colab,86,35.23068555135577,155043,474,1801.256318807602,-4.9222211837768555,0.0728883296251297,4.7850446701049805,0.0
155,MetaDrive-test-conv2-colab,85,42.07550689947288,156105,482,1818.398255109787,-5.917126655578613,0.026031406596302986,5.572925567626953,0.0
156,MetaDrive-test-conv2-colab,85,48.8507391510383,157145,490,1833.1210432052612,-6.24387264251709,0.20903053879737854,5.934982776641846,0.0
157,MetaDrive-test-conv2-colab,85,53.9426302767752,158047,498,1845.9505417346954,-7.121703147888184,0.18422800302505493,6.661664962768555,0.0
158,MetaDrive-test-conv2-colab,85,60.24773613613304,159088,507,1860.535086631775,,0.07087284326553345,7.155651092529297,0.0
159,MetaDrive-test-conv2-colab,85,65.73479863519647,160099,516,1873.6755979061127,-8.456128120422363,6.119011878967285,7.875153064727783,0.0
160,MetaDrive-test-conv2-colab,85,68.86294176444487,161096,525,1887.975165605545,,0.3188815116882324,8.969720840454102,0.0
161,MetaDrive-test-conv2-colab,85,71.95369355009638,162011,532,1900.1054437160492,-10.352248191833496,0.03095514141023159,9.883975982666016,0.0
162,MetaDrive-test-conv2-colab,85,78.3610254141234,163068,539,1915.7570669651031,,4.820779800415039,10.40052604675293,0.0
163,MetaDrive-test-conv2-colab,85,81.33533523007657,164053,547,1929.446833372116,-11.766118049621582,0.2000851333141327,11.324260711669922,0.0
164,MetaDrive-test-conv2-colab,84,85.54653647934387,165049,553,1943.9122562408447,-12.348556518554688,0.18160411715507507,11.998945236206055,0.0
165,MetaDrive-test-conv2-colab,84,88.3835219327004,166173,562,1961.0870122909546,-13.136092185974121,0.10154964029788971,12.623573303222656,0.0
166,MetaDrive-test-conv2-colab,84,89.00150976226105,167116,570,1974.9929838180542,,3.6756317615509033,13.334695816040039,0.0
167,MetaDrive-test-conv2-colab,84,90.07397371981783,168017,577,1986.8545689582825,-14.751081466674805,0.14065980911254883,14.193029403686523,0.01
168,MetaDrive-test-conv2-colab,84,90.27095852849587,169076,585,2002.279170036316,,0.4445885419845581,15.090402603149414,0.01
169,MetaDrive-test-conv2-colab,84,89.54481337893874,170100,594,2019.552864074707,,0.4517975151538849,15.289802551269531,0.01
170,MetaDrive-test-conv2-colab,84,90.14226719452931,171058,602,2032.9559421539307,,0.7860250473022461,15.6717529296875,0.01
171,MetaDrive-test-conv2-colab,84,92.02458851655179,172073,610,2047.7552144527435,-16.926023483276367,9.944653511047363,16.659847259521484,0.01
172,MetaDrive-test-conv2-colab,83,92.73464951887622,173042,618,2062.8891978263855,,0.43527156114578247,17.02196502685547,0.01
173,MetaDrive-test-conv2-colab,83,94.1140809531079,174057,626,2077.5029900074005,-18.00191879272461,0.39168500900268555,17.5906982421875,0.01
174,MetaDrive-test-conv2-colab,83,92.96729345977727,175046,634,2091.6917009353638,,0.3914111852645874,17.04621696472168,0.01
175,MetaDrive-test-conv2-colab,83,92.85589126042528,176079,642,2107.029726743698,-19.153121948242188,0.2906588017940521,18.4117431640625,0.01
176,MetaDrive-test-conv2-colab,83,92.20225565679358,177072,650,2120.8086276054382,,0.24040965735912323,19.745323181152344,0.01
177,MetaDrive-test-conv2-colab,83,92.12384920701602,178059,657,2134.5581414699554,-20.481853485107422,0.6189326047897339,20.092378616333008,0.01
178,MetaDrive-test-conv2-colab,83,92.37394292685916,179048,664,2148.3819358348846,,0.35039812326431274,20.913103103637695,0.01
179,MetaDrive-test-conv2-colab,83,89.77320634223432,180049,673,2162.74471282959,-20.479267120361328,0.8391691446304321,20.398056030273438,0.0
180,MetaDrive-test-conv2-colab,83,90.56931270778425,181014,680,2177.681845664978,,0.3552277982234955,20.62033462524414,0.0
181,MetaDrive-test-conv2-colab,82,93.25843337808719,182133,687,2195.0637636184692,-22.299137115478516,0.306307315826416,22.01564598083496,0.0
182,MetaDrive-test-conv2-colab,82,93.81028764903945,183115,695,2209.240109682083,-22.78158950805664,0.23856942355632782,22.288318634033203,0.0
183,MetaDrive-test-conv2-colab,82,94.51511117098414,184088,703,2222.0870537757874,,0.653834342956543,23.020986557006836,0.0
184,MetaDrive-test-conv2-colab,82,94.68553257242645,185002,710,2235.607345342636,,11.794350624084473,22.767410278320312,0.0
185,MetaDrive-test-conv2-colab,82,96.53865050024298,186081,718,2251.480499982834,-23.84329605102539,0.8681179285049438,23.537376403808594,0.0
186,MetaDrive-test-conv2-colab,82,98.46169040789842,187150,725,2267.108225107193,,2.4945240020751953,21.867692947387695,0.0
187,MetaDrive-test-conv2-colab,82,100.97272821462957,188445,730,2288.1557281017303,-24.615581512451172,0.3883056044578552,24.121408462524414,0.01
188,MetaDrive-test-conv2-colab,82,104.2443479501906,189332,733,2301.6469762325287,,0.4326900839805603,23.856943130493164,0.02
189,MetaDrive-test-conv2-colab,82,106.73147422217674,190126,734,2312.443353176117,,1.2470866441726685,24.668161392211914,0.03
190,MetaDrive-test-conv2-colab,82,111.38783473050484,191788,737,2336.597661972046,,0.755353569984436,26.431842803955078,0.04
191,MetaDrive-test-conv2-colab,81,115.74909973381719,192795,739,2355.432230949402,-26.236949920654297,31.46817398071289,25.397008895874023,0.05
192,MetaDrive-test-conv2-colab,81,117.49971784598586,193114,740,2359.27330827713,,19.830535888671875,25.983566284179688,0.06
193,MetaDrive-test-conv2-colab,81,120.43835022530207,194011,743,2372.2316098213196,-26.533370971679688,1.072298288345337,26.269235610961914,0.06
194,MetaDrive-test-conv2-colab,81,123.16881369960323,195627,745,2396.795079946518,-26.704620361328125,1.1171467304229736,26.241504669189453,0.07
195,MetaDrive-test-conv2-colab,81,124.61425648838875,196156,747,2403.9296329021454,,20.051422119140625,26.97330665588379,0.07
196,MetaDrive-test-conv2-colab,81,127.0172670912572,197061,749,2417.7936401367188,-28.42015838623047,2.999508857727051,28.073488235473633,0.08
197,MetaDrive-test-conv2-colab,81,129.81862940073756,198968,754,2448.0254113674164,,1.090207815170288,28.435758590698242,0.08
198,MetaDrive-test-conv2-colab,81,131.1683798946825,199969,755,2467.1991453170776,-28.196239471435547,1.1376817226409912,27.50068473815918,0.08
199,MetaDrive-test-conv2-colab,81,133.25813317557055,200282,756,2471.6222655773163,,0.8355227112770081,26.480884552001953,0.08
200,MetaDrive-test-conv2-colab,80,136.3681791009007,201277,758,2488.3110435009003,-28.69442367553711,63.00401306152344,27.456357955932617,0.1
201,MetaDrive-test-conv2-colab,80,138.05261077749924,202099,763,2499.980988264084,-26.40625,0.6485201120376587,25.962787628173828,0.1
202,MetaDrive-test-conv2-colab,80,140.26666956196883,203404,765,2523.70569729805,,1.868215799331665,30.293603897094727,0.1
203,MetaDrive-test-conv2-colab,80,140.6354107502902,204063,769,2532.9270865917206,-29.79519271850586,1.1470377445220947,29.38153839111328,0.1
204,MetaDrive-test-conv2-colab,80,144.06305942892564,205240,772,2554.486286878586,,1.5306693315505981,29.696048736572266,0.11
205,MetaDrive-test-conv2-colab,80,149.61805474526736,206226,774,2568.848651409149,,34.82976531982422,30.5264835357666,0.13
206,MetaDrive-test-conv2-colab,80,154.3436883448429,207341,778,2585.7477724552155,-29.82051658630371,1.8209657669067383,29.18659210205078,0.13
207,MetaDrive-test-conv2-colab,80,154.567896463988,208130,782,2598.2355542182922,,0.8192935585975647,31.808359146118164,0.13
208,MetaDrive-test-conv2-colab,79,158.36968962916154,209363,786,2617.117526292801,-30.404052734375,5.291248321533203,30.076400756835938,0.14
209,MetaDrive-test-conv2-colab,79,159.35398867343866,210048,790,2626.862508535385,,2.142810821533203,32.111568450927734,0.15
210,MetaDrive-test-conv2-colab,79,164.7927296814894,211012,793,2641.9539444446564,,2.0258662700653076,34.17706298828125,0.16
211,MetaDrive-test-conv2-colab,79,168.25068854757708,212127,798,2660.863953113556,-32.39997863769531,33.63622283935547,31.514366149902344,0.16
212,MetaDrive-test-conv2-colab,79,170.13557269013248,213057,802,2672.906625032425,-30.931079864501953,0.9882630109786987,30.29912567138672,0.17
213,MetaDrive-test-conv2-colab,79,174.6322087401561,214024,805,2687.1113753318787,,0.8710862398147583,34.801666259765625,0.18
214,MetaDrive-test-conv2-colab,79,174.8611222595859,215668,811,2711.681658744812,,1.7288329601287842,31.692054748535156,0.18
215,MetaDrive-test-conv2-colab,79,173.9081651774907,216191,813,2719.2148978710175,-30.308639526367188,3.299706220626831,29.593748092651367,0.18
216,MetaDrive-test-conv2-colab,79,176.62635054290106,217218,817,2736.0039999485016,,44.132659912109375,32.85908508300781,0.18
217,MetaDrive-test-conv2-colab,79,180.37920713396358,218330,821,2754.2044892311096,,3.2969818115234375,35.69366455078125,0.19
218,MetaDrive-test-conv2-colab,79,184.5836830365899,219989,823,2779.983416557312,-33.085018157958984,3.6681790351867676,32.8087043762207,0.2
219,MetaDrive-test-conv2-colab,79,186.37406811643115,220444,824,2785.057727575302,,2.5876450538635254,34.56251525878906,0.21
220,MetaDrive-test-conv2-colab,79,190.9063689931302,221702,826,2804.91002202034,,2.8787670135498047,35.188995361328125,0.23
221,MetaDrive-test-conv2-colab,78,193.03754387709185,222324,827,2816.4942314624786,,3.0994982719421387,35.688232421875,0.23
222,MetaDrive-test-conv2-colab,78,195.09198643432487,223587,829,2833.5297026634216,-32.41433334350586,2.40598201751709,31.82602882385254,0.24
223,MetaDrive-test-conv2-colab,78,193.9435686729248,224117,830,2840.5772516727448,-38.054874420166016,6.539628028869629,37.18775939941406,0.23
224,MetaDrive-test-conv2-colab,78,192.8344637636119,225312,834,2857.558790922165,,3.0021581649780273,35.6385498046875,0.22
225,MetaDrive-test-conv2-colab,78,192.41472244113217,226040,835,2867.591693162918,,1.7084418535232544,35.47437286376953,0.22
226,MetaDrive-test-conv2-colab,78,193.55550822308683,227451,837,2892.4214959144592,-38.579200744628906,3.318263053894043,38.92823791503906,0.23
227,MetaDrive-test-conv2-colab,78,192.07853135612214,228049,839,2899.9708433151245,-37.32197570800781,24.385025024414062,36.62025833129883,0.23
228,MetaDrive-test-conv2-colab,78,191.77289603432527,229094,842,2915.882528066635,,2.4098060131073,38.87846755981445,0.23
229,MetaDrive-test-conv2-colab,78,190.62261151142536,230053,845,2928.5959491729736,-35.761451721191406,53.15915298461914,34.909481048583984,0.23
230,MetaDrive-test-conv2-colab,78,190.6729292845672,231447,849,2947.663825035095,-37.531837463378906,1.5295252799987793,37.30352020263672,0.24
231,MetaDrive-test-conv2-colab,78,192.68772096011043,232191,851,2960.057639360428,-36.304908752441406,2.8195130825042725,36.748451232910156,0.24
232,MetaDrive-test-conv2-colab,78,194.99747716144464,233761,854,2984.4810104370117,-38.29307556152344,3.1824724674224854,37.689353942871094,0.26
233,MetaDrive-test-conv2-colab,78,195.41072627654506,234594,856,2997.6509308815002,,3.121645450592041,38.43392562866211,0.27
234,MetaDrive-test-conv2-colab,78,190.9228331185894,235168,859,3007.2587084770203,,2.070988178253174,39.43507766723633,0.25
235,MetaDrive-test-conv2-colab,78,194.14925597090522,236163,861,3021.3515853881836,-39.297523498535156,3.472620964050293,39.009063720703125,0.26
236,MetaDrive-test-conv2-colab,78,195.98432497377738,237158,864,3035.0283663272858,,30.177295684814453,34.42189025878906,0.27
237,MetaDrive-test-conv2-colab,78,199.5043600738576,238403,866,3052.0981006622314,-39.7561149597168,5.450064659118652,39.064537048339844,0.28
238,MetaDrive-test-conv2-colab,78,203.59246667795992,239491,868,3066.087120294571,-39.364540100097656,4.194521903991699,38.78192138671875,0.29
239,MetaDrive-test-conv2-colab,78,205.15186472969992,240492,869,3080.105725288391,,2.440098762512207,39.698509216308594,0.29
240,MetaDrive-test-conv2-colab,77,209.9236386148762,241238,870,3093.501173734665,,3.9650278091430664,39.625858306884766,0.3
241,MetaDrive-test-conv2-colab,77,211.14150421942261,242349,872,3107.554653406143,-40.3343620300293,93.5938491821289,38.97880554199219,0.31
242,MetaDrive-test-conv2-colab,77,206.16048871815633,243468,875,3122.6137676239014,,3.0370259284973145,41.19474792480469,0.3
243,MetaDrive-test-conv2-colab,77,209.44526728571574,244027,876,3130.188580274582,-38.44141387939453,2.2636263370513916,38.336692810058594,0.31
244,MetaDrive-test-conv2-colab,77,213.063672545199,245254,879,3148.1264157295227,,2.0824666023254395,38.11200714111328,0.33
245,MetaDrive-test-conv2-colab,77,216.33304153879806,246122,880,3160.6690878868103,,3.151737928390503,38.65376663208008,0.34
246,MetaDrive-test-conv2-colab,77,219.1029746651831,247078,882,3174.3334727287292,,1.6272079944610596,39.18947982788086,0.35
247,MetaDrive-test-conv2-colab,77,219.89244638018783,248079,883,3188.2817454338074,-38.14363098144531,25.322368621826172,38.922420501708984,0.35
248,MetaDrive-test-conv2-colab,77,220.18062283180868,249080,885,3200.6533677577972,,40.06484603881836,39.33564758300781,0.36
249,MetaDrive-test-conv2-colab,77,223.24138283641912,250272,887,3220.243228197098,,11.597187995910645,41.38661193847656,0.38
250,MetaDrive-test-conv2-colab,77,228.4135502575301,251500,889,3239.1555478572845,,4.372641563415527,42.884742736816406,0.4
251,MetaDrive-test-conv2-colab,77,223.79658242217772,252244,892,3248.858903646469,,2.0482006072998047,36.858009338378906,0.39
252,MetaDrive-test-conv2-colab,77,223.67447593885313,253328,894,3262.536698818207,,2.3276190757751465,40.2574462890625,0.39
253,MetaDrive-test-conv2-colab,77,223.03091638979444,254329,895,3280.1949305534363,-40.91851043701172,2.8000078201293945,41.43989562988281,0.39
254,MetaDrive-test-conv2-colab,77,225.0475024080384,255429,897,3300.2504966259003,-42.12831115722656,2.290168046951294,42.577392578125,0.39
255,MetaDrive-test-conv2-colab,77,227.97573614143246,256547,900,3316.7418401241302,-40.62937545776367,2.748596668243408,39.707122802734375,0.4
256,MetaDrive-test-conv2-colab,77,229.37246334609938,257096,901,3324.8537566661835,,2.9510796070098877,39.775177001953125,0.4
257,MetaDrive-test-conv2-colab,77,228.86204907841912,258086,904,3339.096202135086,,3.3606956005096436,40.16175079345703,0.4
258,MetaDrive-test-conv2-colab,77,231.57864788858737,259253,906,3354.589508295059,-40.977760314941406,1.6635762453079224,40.478538513183594,0.41
259,MetaDrive-test-conv2-colab,77,238.46792267665379,260453,908,3371.5174872875214,-41.640743255615234,4.139106750488281,40.95922088623047,0.43
260,MetaDrive-test-conv2-colab,77,240.92705106501384,261454,909,3387.4365854263306,,2.9772887229919434,39.421939849853516,0.43
261,MetaDrive-test-conv2-colab,77,243.49729160878363,262322,912,3397.6959178447723,,4.234311103820801,41.692222595214844,0.45
262,MetaDrive-test-conv2-colab,77,244.1695503685943,263020,913,3407.365700006485,,3.8651368618011475,42.18030548095703,0.45
263,MetaDrive-test-conv2-colab,76,246.8232874329578,264021,914,3429.094549179077,-44.27598190307617,3.2518537044525146,43.82881546020508,0.45
264,MetaDrive-test-conv2-colab,76,249.13048896126477,265102,916,3447.768082141876,,2.745041847229004,42.75932312011719,0.46
265,MetaDrive-test-conv2-colab,76,244.5413308225491,266006,921,3459.6079342365265,,2.11395263671875,44.36308670043945,0.46
266,MetaDrive-test-conv2-colab,76,245.12450795713758,267411,923,3486.297808408737,-43.26329803466797,2.2568211555480957,42.843414306640625,0.46
267,MetaDrive-test-conv2-colab,76,246.53935417667478,268319,924,3498.6562781333923,-40.53125762939453,1.8186767101287842,39.836669921875,0.46
268,MetaDrive-test-conv2-colab,76,243.77563530602805,269086,926,3509.4408690929413,,1.5683319568634033,42.55891418457031,0.45
269,MetaDrive-test-conv2-colab,76,242.11350662609425,270947,929,3538.3716945648193,-45.08460998535156,3.5545449256896973,44.968719482421875,0.45
270,MetaDrive-test-conv2-colab,76,242.83333993226742,271187,930,3541.4773914813995,-42.60410690307617,2.241938591003418,41.9814453125,0.46
271,MetaDrive-test-conv2-colab,76,236.5537367216638,272094,935,3553.9128568172455,,2.7048590183258057,41.69648742675781,0.44
272,MetaDrive-test-conv2-colab,76,234.82970630696724,273048,938,3570.0817716121674,,2.9210143089294434,42.79130935668945,0.43
273,MetaDrive-test-conv2-colab,76,234.25218695644037,274170,942,3584.79576086998,,3.6882033348083496,47.557533264160156,0.43
274,MetaDrive-test-conv2-colab,76,238.17314493302015,275161,944,3597.8541283607483,-44.442222595214844,3.4913620948791504,43.93233871459961,0.45
275,MetaDrive-test-conv2-colab,76,239.57223298084477,276005,946,3610.1633615493774,-43.051265716552734,1.8911991119384766,42.666107177734375,0.45
276,MetaDrive-test-conv2-colab,76,241.8349911848272,277166,948,3626.355062484741,,3.2362685203552246,40.836036682128906,0.46
277,MetaDrive-test-conv2-colab,76,241.91315322279522,278491,951,3645.086251974106,-44.461822509765625,81.20852661132812,43.177696228027344,0.47
278,MetaDrive-test-conv2-colab,76,242.63131144141659,279358,952,3659.218522310257,,120.294189453125,39.89222717285156,0.47
279,MetaDrive-test-conv2-colab,76,243.17560784511457,280079,954,3670.3402996063232,-45.15394973754883,1.8554277420043945,44.52771759033203,0.47
280,MetaDrive-test-conv2-colab,76,242.4464885972996,281178,956,3690.6406626701355,,4.384397506713867,44.36285400390625,0.46
281,MetaDrive-test-conv2-colab,76,247.89066808097806,282377,958,3711.5033230781555,-40.827186584472656,3.7138900756835938,41.3509521484375,0.47
282,MetaDrive-test-conv2-colab,76,249.6803204570599,283014,959,3720.0610616207123,,3.4613595008850098,41.669761657714844,0.48
283,MetaDrive-test-conv2-colab,75,252.84986036131085,284404,961,3745.2278089523315,,3.577439308166504,42.75354766845703,0.49
284,MetaDrive-test-conv2-colab,75,255.72348787598654,285455,963,3761.601536512375,-46.42231750488281,2.4327590465545654,46.30734634399414,0.5
285,MetaDrive-test-conv2-colab,75,255.43383556801658,286468,965,3777.527447462082,,2.3649840354919434,44.16752624511719,0.5
286,MetaDrive-test-conv2-colab,75,253.74391664031958,287223,966,3788.000011920929,-46.82732391357422,1.5245325565338135,46.24199676513672,0.49
287,MetaDrive-test-conv2-colab,75,252.46319605851488,288549,969,3807.531986951828,-44.5419807434082,3.3718647956848145,43.70386505126953,0.5
288,MetaDrive-test-conv2-colab,75,250.70051631271045,289228,970,3816.0587844848633,,3.129880428314209,42.884029388427734,0.5
289,MetaDrive-test-conv2-colab,75,251.01576747085545,290168,972,3828.400601863861,,6.2376885414123535,42.95846176147461,0.5
290,MetaDrive-test-conv2-colab,75,255.84906701763563,291190,974,3842.335352420807,,2.495133399963379,46.095088958740234,0.52
291,MetaDrive-test-conv2-colab,75,256.45122213462906,292191,975,3863.9777410030365,-45.70246887207031,3.3955366611480713,45.29438781738281,0.51
292,MetaDrive-test-conv2-colab,75,255.95822028723606,293415,977,3881.989381790161,-45.7745361328125,4.945770263671875,44.831050872802734,0.5
293,MetaDrive-test-conv2-colab,75,256.9464153842384,294416,978,3901.9386143684387,,2.709110736846924,45.731544494628906,0.49
294,MetaDrive-test-conv2-colab,75,256.80337761839,295338,980,3914.5530366897583,,3.6277425289154053,43.48851013183594,0.5
295,MetaDrive-test-conv2-colab,75,257.0136387647988,296467,982,3928.7019572257996,-42.812862396240234,115.51913452148438,41.309539794921875,0.5
296,MetaDrive-test-conv2-colab,75,255.30354627611905,297018,984,3936.770714044571,,58.571590423583984,40.517494201660156,0.49
297,MetaDrive-test-conv2-colab,75,255.08500691032725,298896,987,3971.410840511322,,95.70570373535156,40.4296875,0.47
298,MetaDrive-test-conv2-colab,75,255.01133344708404,299488,988,3979.731324672699,,2.2628591060638428,44.63416290283203,0.47
299,MetaDrive-test-conv2-colab,75,254.12208080458683,300072,990,3988.8402671813965,,78.05084991455078,45.91660690307617,0.46
300,MetaDrive-test-conv2-colab,75,254.24502087494682,301517,993,4011.5019857883453,-37.85597610473633,3.839548110961914,38.43981170654297,0.45
301,MetaDrive-test-conv2-colab,75,255.93530055021031,302010,994,4018.4740352630615,,7.549121856689453,45.12970733642578,0.46
302,MetaDrive-test-conv2-colab,75,261.15963499349846,303811,996,4044.634020805359,-47.359344482421875,122.18791198730469,45.13862609863281,0.47
303,MetaDrive-test-conv2-colab,75,260.10664295889023,304271,997,4050.3425781726837,-48.235294342041016,6.107590675354004,47.65795135498047,0.48
304,MetaDrive-test-conv2-colab,75,260.01812133989597,305520,1000,4067.27422952652,,117.66639709472656,42.57015609741211,0.48
305,MetaDrive-test-conv2-colab,75,259.8333028426027,306348,1002,4081.2356173992157,,3.130610466003418,49.15396499633789,0.48
306,MetaDrive-test-conv2-colab,75,258.60497068954027,307472,1005,4096.6561551094055,,4.012123107910156,44.02485275268555,0.48
307,MetaDrive-test-conv2-colab,75,259.2709429225086,308104,1006,4104.620006561279,,7.743703842163086,44.05833435058594,0.48
308,MetaDrive-test-conv2-colab,75,258.4811163641409,309100,1008,4118.377298593521,,3.292417049407959,42.09745788574219,0.48
309,MetaDrive-test-conv2-colab,75,258.67163772228633,310120,1010,4133.729766845703,,5.748743057250977,40.91571807861328,0.48
310,MetaDrive-test-conv2-colab,74,256.4522191217626,311045,1013,4147.45165848732,-44.76234436035156,4.859556198120117,44.476318359375,0.47
311,MetaDrive-test-conv2-colab,74,257.4369325422306,312365,1015,4168.858026266098,-43.335487365722656,2.2270119190216064,43.05042266845703,0.49
312,MetaDrive-test-conv2-colab,74,259.282656177246,313192,1017,4178.94202375412,,3.1217048168182373,45.91724395751953,0.5
313,MetaDrive-test-conv2-colab,74,263.2512214651758,314062,1018,4190.425647974014,,5.482748985290527,41.0369873046875,0.51
314,MetaDrive-test-conv2-colab,74,264.97242257449193,315502,1021,4211.269019365311,,4.093493461608887,43.75662612915039,0.51
315,MetaDrive-test-conv2-colab,74,263.8424364497189,316445,1023,4228.4854073524475,-46.692832946777344,6.708545207977295,46.10376739501953,0.51
316,MetaDrive-test-conv2-colab,74,260.57811172381747,317595,1025,4249.438622951508,-44.98448944091797,7.248321056365967,45.01605224609375,0.49
317,MetaDrive-test-conv2-colab,74,263.99459075777736,318144,1026,4257.61962556839,,3.092120885848999,45.63841247558594,0.5
318,MetaDrive-test-conv2-colab,74,262.35993235151176,319563,1029,4277.39124250412,-50.70872497558594,9.497291564941406,49.59027862548828,0.5
319,MetaDrive-test-conv2-colab,74,261.738820672206,320121,1031,4284.777567863464,-46.3745002746582,3.8272809982299805,45.47743225097656,0.5
320,MetaDrive-test-conv2-colab,74,261.96992300194586,321122,1032,4300.11261177063,,3.4501872062683105,45.7532958984375,0.5
321,MetaDrive-test-conv2-colab,74,263.9688422683124,322245,1034,4322.169853925705,-45.16630554199219,4.695914268493652,44.85978317260742,0.5
322,MetaDrive-test-conv2-colab,74,264.8267031432272,323189,1036,4337.286616802216,-47.963775634765625,38.699005126953125,46.283756256103516,0.51
323,MetaDrive-test-conv2-colab,74,266.93636018409916,324017,1038,4349.828928470612,-44.39007568359375,2.7324538230895996,44.686771392822266,0.51
324,MetaDrive-test-conv2-colab,74,269.04320260847237,325421,1041,4372.111211538315,-41.250099182128906,6.614837646484375,40.13395690917969,0.52
325,MetaDrive-test-conv2-colab,74,269.07131246955,326644,1044,4390.715798377991,,3.6682369709014893,45.89842224121094,0.51
326,MetaDrive-test-conv2-colab,74,269.9550575414875,327270,1045,4399.150758266449,,4.411224365234375,43.459747314453125,0.51
327,MetaDrive-test-conv2-colab,74,271.0400670047707,328086,1047,4408.584951162338,,1.5456428527832031,46.243446350097656,0.52
328,MetaDrive-test-conv2-colab,74,272.63835366268427,329477,1050,4428.344769716263,-44.48248291015625,5.165534973144531,44.107357025146484,0.52
329,MetaDrive-test-conv2-colab,74,271.8496420258952,330117,1051,4438.501009225845,-45.866371154785156,58.25346374511719,45.36444091796875,0.52
330,MetaDrive-test-conv2-colab,74,275.2926408761705,331420,1053,4456.753755807877,,2.779526472091675,47.28546905517578,0.53
331,MetaDrive-test-conv2-colab,74,277.1085113521541,332704,1055,4477.4927434921265,,9.489404678344727,46.838253021240234,0.53
332,MetaDrive-test-conv2-colab,74,274.0414847320368,333293,1057,4487.165374755859,-44.04583740234375,9.120044708251953,43.48451232910156,0.54
333,MetaDrive-test-conv2-colab,74,271.06662736025316,334169,1059,4499.099090337753,-45.4737548828125,4.694602966308594,45.281063079833984,0.53
334,MetaDrive-test-conv2-colab,74,266.50036789195593,335051,1062,4511.774277448654,-44.273162841796875,5.028172492980957,43.79343795776367,0.52
335,MetaDrive-test-conv2-colab,74,267.73743601496625,336085,1064,4525.24470949173,-45.012901306152344,4.581532955169678,45.46745681762695,0.53
336,MetaDrive-test-conv2-colab,74,264.2059059554842,337898,1067,4549.091621398926,,4.623781204223633,44.858089447021484,0.53
337,MetaDrive-test-conv2-colab,74,267.1065694839485,338566,1068,4559.608156919479,,3.693596601486206,48.672752380371094,0.54
338,MetaDrive-test-conv2-colab,74,267.1953727605985,339282,1069,4568.981146097183,,3.317220687866211,44.7409782409668,0.54
339,MetaDrive-test-conv2-colab,74,264.9772740704422,340153,1071,4582.125481128693,-49.75572967529297,2.3536996841430664,48.34091567993164,0.53
340,MetaDrive-test-conv2-colab,74,263.60170416760155,341095,1073,4594.125616312027,-46.929176330566406,3.7072248458862305,46.2803955078125,0.53
341,MetaDrive-test-conv2-colab,74,262.2017200169675,342658,1076,4614.411830186844,,84.35623168945312,46.298248291015625,0.54
342,MetaDrive-test-conv2-colab,74,262.7002173245763,343238,1077,4622.136231422424,,4.188239574432373,43.50862121582031,0.54
343,MetaDrive-test-conv2-colab,74,259.2045684600171,344887,1080,4649.826110601425,-44.156124114990234,3.5069241523742676,43.64809036254883,0.53
344,MetaDrive-test-conv2-colab,74,259.47782115341965,345888,1081,4670.623028755188,,4.346480369567871,40.36756896972656,0.53
345,MetaDrive-test-conv2-colab,74,258.08780543854823,346307,1082,4676.041160821915,-42.97359848022461,2.5077834129333496,42.831085205078125,0.52
346,MetaDrive-test-conv2-colab,74,257.7153393631169,347004,1085,4686.710809230804,,3.803149461746216,47.03049087524414,0.52
347,MetaDrive-test-conv2-colab,73,257.16993973585875,348777,1089,4716.426957607269,-45.42855453491211,40.31663513183594,45.08857727050781,0.52
348,MetaDrive-test-conv2-colab,73,256.93072190501994,349108,1090,4720.666728973389,,158.63272094726562,43.606536865234375,0.53
349,MetaDrive-test-conv2-colab,73,261.6593749151946,350173,1092,4738.51832318306,-45.271827697753906,4.676836013793945,43.819576263427734,0.55
350,MetaDrive-test-conv2-colab,73,263.4514450977305,351174,1093,4754.653829574585,,6.134293556213379,45.036705017089844,0.55
351,MetaDrive-test-conv2-colab,73,260.80728169935776,352542,1096,4772.91669178009,,4.378159523010254,44.585411071777344,0.55
352,MetaDrive-test-conv2-colab,73,261.7321712743177,353695,1098,4794.156452894211,-47.48755645751953,2.4157161712646484,46.69247055053711,0.54
353,MetaDrive-test-conv2-colab,73,261.84000955999915,354063,1099,4799.939654111862,-44.35493087768555,2.8199992179870605,44.382301330566406,0.54
354,MetaDrive-test-conv2-colab,73,262.6135988425816,355251,1101,4820.980325222015,-44.12673568725586,7.26997184753418,43.64072799682617,0.54
355,MetaDrive-test-conv2-colab,73,257.3280550483572,356034,1105,4831.894146203995,,3.025627374649048,41.96041488647461,0.53
356,MetaDrive-test-conv2-colab,73,255.2456258313216,357549,1108,4852.859149217606,-45.66075897216797,2.8910255432128906,44.97802734375,0.52
357,MetaDrive-test-conv2-colab,73,255.41475518986755,358122,1109,4860.921987295151,,2.753760576248169,44.21485900878906,0.52
358,MetaDrive-test-conv2-colab,73,255.35553713570005,359144,1112,4876.494908094406,,2.982985019683838,44.46946716308594,0.52
359,MetaDrive-test-conv2-colab,73,257.41690325747027,360220,1114,4893.276304721832,,1.4369257688522339,44.35106658935547,0.53
360,MetaDrive-test-conv2-colab,73,255.8034217800288,361472,1117,4909.681784391403,,5.013341903686523,43.459537506103516,0.52
361,MetaDrive-test-conv2-colab,73,255.1242023350543,362473,1118,4931.31537270546,-48.91986846923828,3.958984375,49.11001968383789,0.51
362,MetaDrive-test-conv2-colab,73,255.88309139135396,363474,1119,4955.790608406067,,18.592369079589844,44.98701477050781,0.5
363,MetaDrive-test-conv2-colab,73,256.77308170883845,364029,1121,4963.589780330658,-43.310760498046875,3.0210330486297607,43.192657470703125,0.51
364,MetaDrive-test-conv2-colab,73,258.1271543175732,365030,1122,4975.205990314484,,5.996026039123535,43.14302062988281,0.51
365,MetaDrive-test-conv2-colab,73,252.00519023038237,366236,1126,4991.85233092308,,4.118271827697754,43.173892974853516,0.5
366,MetaDrive-test-conv2-colab,73,256.9280013956126,367464,1128,5009.206343173981,,3.780162811279297,44.9405632019043,0.51
367,MetaDrive-test-conv2-colab,73,257.7427484697284,368363,1131,5021.0747945308685,-49.10778045654297,4.086348056793213,47.812408447265625,0.51
368,MetaDrive-test-conv2-colab,73,258.9600425471208,369281,1132,5035.063708305359,-44.33679962158203,3.45143985748291,44.444175720214844,0.52
369,MetaDrive-test-conv2-colab,73,262.27329352138366,370559,1134,5052.860713481903,-46.560829162597656,2.1297760009765625,45.940834045410156,0.54
370,MetaDrive-test-conv2-colab,73,263.6894701064917,371534,1136,5066.181762218475,,4.258481025695801,43.24681854248047,0.55
371,MetaDrive-test-conv2-colab,73,263.41251984037126,372284,1138,5074.0699825286865,,142.7621307373047,44.74755859375,0.56
372,MetaDrive-test-conv2-colab,73,263.4369767723909,373623,1141,5090.173986673355,-46.792640686035156,3.981281280517578,45.909149169921875,0.56
373,MetaDrive-test-conv2-colab,73,264.4512673504181,374157,1142,5097.86861371994,-45.266178131103516,2.1808056831359863,44.96969223022461,0.57
374,MetaDrive-test-conv2-colab,73,266.983145564219,375672,1144,5125.44219493866,,3.988908290863037,44.7269287109375,0.56
375,MetaDrive-test-conv2-colab,73,261.7554155359358,376940,1146,5148.488141775131,,3.7789926528930664,45.85110855102539,0.54
376,MetaDrive-test-conv2-colab,73,260.16629449405104,377143,1147,5150.941259384155,-43.92524719238281,5.115896224975586,43.714324951171875,0.53
377,MetaDrive-test-conv2-colab,73,260.0289163014638,378665,1150,5171.399779319763,-48.298736572265625,5.624910354614258,48.23828125,0.53
378,MetaDrive-test-conv2-colab,73,259.7524552523588,379273,1151,5180.7275013923645,-45.28584671020508,30.839359283447266,43.721214294433594,0.52
379,MetaDrive-test-conv2-colab,73,258.1155638788448,380170,1153,5193.192899465561,,3.9811458587646484,45.43006896972656,0.51
380,MetaDrive-test-conv2-colab,73,257.82916410159606,381237,1155,5209.423179864883,-40.82706832885742,2.250723123550415,39.853416442871094,0.52
381,MetaDrive-test-conv2-colab,73,260.9568333170789,382392,1157,5228.006454944611,,34.22395324707031,43.55398941040039,0.53
382,MetaDrive-test-conv2-colab,73,260.46919595104123,383377,1159,5242.059156179428,-45.02140426635742,3.7733817100524902,44.26168441772461,0.53
383,MetaDrive-test-conv2-colab,73,264.9276376134612,384317,1161,5255.366720676422,-42.42544174194336,3.9551773071289062,42.11821746826172,0.54
384,MetaDrive-test-conv2-colab,73,258.4220781632164,385338,1165,5270.19038939476,,2.8055896759033203,47.50129699707031,0.51
385,MetaDrive-test-conv2-colab,73,260.7906581029995,386483,1167,5289.167268037796,-44.339351654052734,4.058938026428223,43.57916259765625,0.51
386,MetaDrive-test-conv2-colab,73,260.70474678946795,387104,1168,5297.727048158646,,4.36784029006958,47.552974700927734,0.51
387,MetaDrive-test-conv2-colab,73,260.4485666266965,388085,1170,5309.845873832703,-47.58191680908203,34.161598205566406,46.76892852783203,0.51
388,MetaDrive-test-conv2-colab,73,260.20874089190767,389011,1172,5324.248997449875,-45.33460235595703,7.9841814041137695,44.046051025390625,0.51
389,MetaDrive-test-conv2-colab,73,261.3513355097064,390056,1174,5341.347705602646,,3.942542552947998,42.199371337890625,0.51
390,MetaDrive-test-conv2-colab,73,254.9717050869076,391047,1178,5354.046979188919,-44.72819519042969,6.379097938537598,44.71278381347656,0.48
391,MetaDrive-test-conv2-colab,73,252.60601163745235,392237,1181,5371.818881034851,-45.36091613769531,7.083585739135742,46.27330017089844,0.48
392,MetaDrive-test-conv2-colab,72,254.84941280051683,393084,1183,5384.920076370239,,37.25627136230469,39.94515609741211,0.49
393,MetaDrive-test-conv2-colab,72,256.6683522019932,394478,1186,5407.170548200607,,1.975121021270752,39.11134338378906,0.5
394,MetaDrive-test-conv2-colab,72,257.5392785446925,395178,1187,5418.339421033859,,3.3216300010681152,45.536781311035156,0.51
395,MetaDrive-test-conv2-colab,72,256.84518549158093,396911,1190,5447.591468572617,-46.451942443847656,6.073108673095703,45.8972282409668,0.5
396,MetaDrive-test-conv2-colab,72,255.81533705226883,397339,1191,5455.213640213013,-43.56230926513672,5.330931186676025,42.27714538574219,0.49
397,MetaDrive-test-conv2-colab,72,252.34086678153753,398330,1193,5466.9791831970215,,5.224686622619629,41.09096908569336,0.5
398,MetaDrive-test-conv2-colab,72,248.99872048016385,399278,1196,5483.852934122086,,2.7958626747131348,43.50297546386719,0.48
399,MetaDrive-test-conv2-colab,72,249.4380178833891,400190,1198,5496.439876794815,,6.932210922241211,43.38041305541992,0.48
400,MetaDrive-test-conv2-colab,72,251.8316193187816,401390,1200,5511.800810098648,,14.865619659423828,45.41952896118164,0.5
401,MetaDrive-test-conv2-colab,72,253.93613006034658,402920,1202,5532.742863893509,,5.925435543060303,43.08594512939453,0.5
402,MetaDrive-test-conv2-colab,72,256.19689990939713,403270,1203,5536.488080263138,,4.201350212097168,46.98077392578125,0.51
403,MetaDrive-test-conv2-colab,72,257.14570129878996,404131,1204,5549.623651266098,-44.94470977783203,8.932999610900879,44.5364990234375,0.51
404,MetaDrive-test-conv2-colab,72,260.10168009994976,405343,1206,5566.226125240326,-44.36735534667969,3.9133660793304443,43.49802017211914,0.52
405,MetaDrive-test-conv2-colab,72,261.0297698677594,406179,1208,5576.314777851105,-39.250179290771484,159.7137908935547,37.941104888916016,0.53
406,MetaDrive-test-conv2-colab,72,258.9631800940429,407597,1211,5597.726914405823,-45.31640625,41.98838806152344,44.61063766479492,0.53
407,MetaDrive-test-conv2-colab,72,260.81685907344024,408246,1212,5608.4929893016815,,2.756058931350708,40.858333587646484,0.53
408,MetaDrive-test-conv2-colab,72,254.91768127662826,409252,1216,5620.4882872104645,,16.251819610595703,39.05101776123047,0.51
409,MetaDrive-test-conv2-colab,72,254.41839560939113,410488,1218,5641.8094692230225,,5.536886692047119,42.73529052734375,0.51
410,MetaDrive-test-conv2-colab,72,252.73975588951257,411154,1220,5649.682550191879,,12.211268424987793,43.217628479003906,0.51
411,MetaDrive-test-conv2-colab,72,253.51570263053486,412155,1221,5663.173828840256,-40.785484313964844,6.693483352661133,40.412410736083984,0.51
412,MetaDrive-test-conv2-colab,72,255.7503473024403,413803,1223,5692.524877786636,-42.429412841796875,4.979518890380859,41.8090934753418,0.52
413,MetaDrive-test-conv2-colab,72,253.96418793917036,414080,1225,5696.1902112960815,,3.372138261795044,45.55321502685547,0.51
414,MetaDrive-test-conv2-colab,72,257.0403314828923,415004,1226,5714.961713314056,,3.6022510528564453,43.02437973022461,0.52
415,MetaDrive-test-conv2-colab,72,256.9449174661459,416903,1229,5752.396553277969,-44.41424560546875,3.3141496181488037,43.850547790527344,0.51
416,MetaDrive-test-conv2-colab,72,260.58188402375424,417895,1230,5768.875627994537,-47.599937438964844,4.445708751678467,47.02018356323242,0.52
417,MetaDrive-test-conv2-colab,72,259.0132198066383,418574,1231,5779.913709640503,,1.6199955940246582,43.39363098144531,0.51
418,MetaDrive-test-conv2-colab,72,257.524392817666,419518,1233,5792.933614253998,,4.900290489196777,42.98793029785156,0.5
419,MetaDrive-test-conv2-colab,72,256.1702243978288,420460,1235,5806.075453281403,,5.683243274688721,42.125282287597656,0.49
420,MetaDrive-test-conv2-colab,72,256.987410569476,421377,1236,5819.645331144333,-47.984947204589844,2.0996012687683105,47.30609130859375,0.49
421,MetaDrive-test-conv2-colab,72,257.4840819895244,422378,1237,5837.27069401741,,84.87554168701172,41.71954345703125,0.48
422,MetaDrive-test-conv2-colab,72,260.46578288570134,423428,1239,5850.609324216843,,7.804659843444824,45.93920135498047,0.49
423,MetaDrive-test-conv2-colab,72,260.7193567555281,424353,1241,5861.267850399017,-39.22837829589844,3.531243324279785,39.00244903564453,0.49
424,MetaDrive-test-conv2-colab,72,259.9712336990603,425582,1243,5876.697162866592,,15.975410461425781,43.49199676513672,0.5
425,MetaDrive-test-conv2-colab,72,258.45374539047316,426455,1245,5890.080202102661,-44.57835388183594,5.897903919219971,43.902442932128906,0.51
426,MetaDrive-test-conv2-colab,72,259.1649474044314,427667,1247,5905.348879814148,-43.51339340209961,7.771687984466553,44.25874710083008,0.51
427,MetaDrive-test-conv2-colab,72,258.54205980856113,428109,1248,5911.0435111522675,-41.218685150146484,2.768169403076172,41.15611267089844,0.5
428,MetaDrive-test-conv2-colab,72,251.98643217756364,429173,1252,5924.9763276577,-45.450706481933594,2.7883150577545166,44.834083557128906,0.49
429,MetaDrive-test-conv2-colab,72,253.63893204761717,430278,1254,5938.8276624679565,,4.98183536529541,45.09614944458008,0.49
430,MetaDrive-test-conv2-colab,72,254.30463760161808,431279,1255,5960.163370132446,-41.02984619140625,8.267558097839355,40.43041229248047,0.48
431,MetaDrive-test-conv2-colab,72,253.47395368913706,432618,1257,5981.2358956336975,,3.08540678024292,45.11299514770508,0.47
432,MetaDrive-test-conv2-colab,72,253.04914429798274,433192,1258,5989.495019435883,,2.891829013824463,43.35789489746094,0.47
433,MetaDrive-test-conv2-colab,72,257.0988293964924,434126,1259,6008.307538509369,,9.851605415344238,41.89533233642578,0.48
434,MetaDrive-test-conv2-colab,72,255.82821152059879,435584,1261,6030.401700496674,,7.1931610107421875,43.467620849609375,0.48
435,MetaDrive-test-conv2-colab,72,255.98116543532095,436072,1263,6038.555469989777,,8.233489990234375,40.878631591796875,0.48
436,MetaDrive-test-conv2-colab,72,255.19329698552076,437550,1267,6059.391086816788,,3.612170457839966,43.06272506713867,0.47
437,MetaDrive-test-conv2-colab,72,255.27215828705516,438960,1269,6089.059205293655,,6.805376052856445,43.12516784667969,0.45
438,MetaDrive-test-conv2-colab,72,255.31136053149797,439478,1270,6094.757879257202,,5.198749542236328,43.985015869140625,0.45
439,MetaDrive-test-conv2-colab,72,257.58617255387526,440660,1272,6113.076372623444,,3.649580240249634,46.45363998413086,0.45
440,MetaDrive-test-conv2-colab,72,260.03174854932763,441319,1273,6122.02307009697,-41.67353057861328,3.970249652862549,41.370819091796875,0.46
441,MetaDrive-test-conv2-colab,72,260.64677493107354,442074,1274,6135.193891525269,,4.0745062828063965,42.77540588378906,0.46
442,MetaDrive-test-conv2-colab,72,266.1947369300653,443446,1277,6152.442933320999,,5.269797325134277,43.74259567260742,0.48
443,MetaDrive-test-conv2-colab,72,267.72861139763984,444571,1279,6169.425907373428,-43.88917541503906,62.49867248535156,42.83906555175781,0.49
444,MetaDrive-test-conv2-colab,71,269.4308143251827,445370,1280,6186.000646114349,,3.7040576934814453,40.475303649902344,0.49
445,MetaDrive-test-conv2-colab,71,271.6816379107929,446025,1281,6195.685151576996,-45.675071716308594,42.606475830078125,45.91314697265625,0.5
446,MetaDrive-test-conv2-colab,71,274.3697879638121,447547,1283,6220.0366225242615,-40.88401794433594,14.76568603515625,39.79135513305664,0.51
447,MetaDrive-test-conv2-colab,71,279.1119974420263,448375,1284,6236.686181783676,-42.84333419799805,3.720970630645752,42.5324592590332,0.52
448,MetaDrive-test-conv2-colab,71,273.10319620662557,449349,1287,6249.912715911865,-43.28507614135742,3.0038506984710693,43.65571594238281,0.5
449,MetaDrive-test-conv2-colab,71,275.5174693906922,450350,1288,6268.738012313843,,18.246044158935547,41.790435791015625,0.5
450,MetaDrive-test-conv2-colab,71,274.18023476274567,451183,1290,6279.264093160629,-47.657066345214844,5.93719482421875,47.377662658691406,0.5
451,MetaDrive-test-conv2-colab,71,275.5959897919146,452641,1292,6302.006614685059,-42.789398193359375,7.659021377563477,43.14537048339844,0.5
452,MetaDrive-test-conv2-colab,71,275.92535550157885,453075,1293,6308.110246181488,-43.62656784057617,5.795205116271973,43.438438415527344,0.5
453,MetaDrive-test-conv2-colab,71,280.7328864608223,454241,1295,6325.429337501526,-39.20928192138672,12.801472663879395,39.52497100830078,0.52
454,MetaDrive-test-conv2-colab,71,281.3400363193186,455200,1297,6337.03440785408,,5.380536079406738,42.68256378173828,0.52
455,MetaDrive-test-conv2-colab,71,278.4031445828708,456922,1300,6359.677890062332,,5.585775852203369,41.147342681884766,0.51
456,MetaDrive-test-conv2-colab,71,277.7137876976136,457396,1301,6366.027702093124,,3.625990867614746,41.591609954833984,0.51
457,MetaDrive-test-conv2-colab,71,277.202355792264,458210,1303,6377.360878705978,,4.429317951202393,43.28191375732422,0.51
458,MetaDrive-test-conv2-colab,71,276.92249990292146,459428,1305,6392.1412789821625,,25.3853816986084,44.33854675292969,0.51
459,MetaDrive-test-conv2-colab,71,276.81122181977344,460237,1306,6402.566800355911,-42.86809158325195,4.40870475769043,42.819828033447266,0.51
460,MetaDrive-test-conv2-colab,71,274.3616439764226,461345,1310,6418.42729640007,-44.50958251953125,4.677964687347412,44.58056640625,0.5
461,MetaDrive-test-conv2-colab,71,274.0893818981525,462273,1312,6430.8091452121735,-45.06298065185547,6.03019905090332,44.88816452026367,0.51
462,MetaDrive-test-conv2-colab,71,277.54862570367663,463128,1313,6445.177551746368,,7.888235569000244,40.73558044433594,0.52
463,MetaDrive-test-conv2-colab,71,279.5360233292478,464020,1315,6457.905755281448,,8.677624702453613,43.892730712890625,0.53
464,MetaDrive-test-conv2-colab,71,282.24787536051986,465432,1317,6480.584406375885,,2.5573601722717285,38.33142852783203,0.53
465,MetaDrive-test-conv2-colab,71,280.48557696438826,466048,1318,6487.510761022568,,4.585714817047119,41.36700439453125,0.53
466,MetaDrive-test-conv2-colab,71,282.8560986319671,467515,1320,6511.885368824005,-41.935462951660156,3.2994956970214844,41.96878433227539,0.54
467,MetaDrive-test-conv2-colab,71,284.32065686190623,468985,1322,6540.706547260284,-45.936824798583984,2.5978710651397705,45.347042083740234,0.54
468,MetaDrive-test-conv2-colab,71,283.56501609496297,469168,1323,6543.4756371974945,,3.884918689727783,44.34680938720703,0.54
469,MetaDrive-test-conv2-colab,71,286.41705535672196,470169,1324,6560.605939388275,-40.58891296386719,4.489838600158691,40.582698822021484,0.54
470,MetaDrive-test-conv2-colab,71,286.88015715311894,471488,1326,6580.6215035915375,,6.444413185119629,44.459922790527344,0.55
471,MetaDrive-test-conv2-colab,71,286.03187789883896,472343,1327,6594.466584920883,-42.212371826171875,2.05155086517334,42.258689880371094,0.55
472,MetaDrive-test-conv2-colab,71,288.5291689769303,473089,1328,6604.842077732086,-46.976829528808594,9.582317352294922,47.107540130615234,0.56
473,MetaDrive-test-conv2-colab,71,286.5957519088457,474298,1330,6621.227813005447,,7.192324638366699,41.743858337402344,0.56
474,MetaDrive-test-conv2-colab,71,288.84374251519023,475427,1332,6635.255907535553,-45.35627365112305,2.208919048309326,44.82313537597656,0.58
475,MetaDrive-test-conv2-colab,71,288.88480350813353,476428,1333,6651.678507089615,,20.235610961914062,41.85588836669922,0.57
476,MetaDrive-test-conv2-colab,71,284.4062802872142,477201,1336,6661.021544933319,-43.493831634521484,4.350536346435547,42.323272705078125,0.56
477,MetaDrive-test-conv2-colab,71,285.30758403420094,478452,1338,6677.734641075134,,7.297110557556152,39.775352478027344,0.57
478,MetaDrive-test-conv2-colab,71,285.1753399892315,479009,1339,6685.677300453186,-42.76274871826172,5.405862808227539,42.99388122558594,0.57
479,MetaDrive-test-conv2-colab,71,282.188081776417,480155,1342,6701.363699436188,-41.70294189453125,3.988332509994507,41.19286346435547,0.55
480,MetaDrive-test-conv2-colab,71,281.8530374898833,481122,1344,6716.573397874832,,5.092545509338379,42.1119270324707,0.55
481,MetaDrive-test-conv2-colab,71,284.37594765091495,482310,1346,6735.023562669754,,3.510812520980835,42.746395111083984,0.56
482,MetaDrive-test-conv2-colab,71,287.9858847340549,483695,1349,6758.699235200882,-42.70941925048828,3.3446106910705566,42.763999938964844,0.58
483,MetaDrive-test-conv2-colab,71,289.7699743168491,484131,1350,6764.496432065964,-43.0475959777832,4.960387229919434,43.60047149658203,0.59
484,MetaDrive-test-conv2-colab,71,285.578123841395,485052,1354,6776.272531747818,,8.357976913452148,43.53608322143555,0.58
485,MetaDrive-test-conv2-colab,71,282.74386688221756,486520,1356,6798.516979932785,,6.700900554656982,40.22805404663086,0.59
486,MetaDrive-test-conv2-colab,71,280.94767075955957,487458,1358,6810.286306142807,,5.490914821624756,42.68262481689453,0.58
487,MetaDrive-test-conv2-colab,71,279.53810961980713,488432,1359,6823.474152088165,,85.59819793701172,44.63774871826172,0.58
488,MetaDrive-test-conv2-colab,71,280.51477706048684,489181,1360,6834.214846372604,-41.41048049926758,6.674739837646484,41.23128128051758,0.57
489,MetaDrive-test-conv2-colab,71,283.3527927335463,490504,1363,6849.565894126892,,5.637608528137207,41.80541229248047,0.59
490,MetaDrive-test-conv2-colab,71,287.98957341095405,491715,1365,6865.361417531967,-40.381431579589844,2.481462001800537,40.027626037597656,0.61
491,MetaDrive-test-conv2-colab,71,285.68133091890604,492689,1367,6877.116895675659,-39.88514709472656,11.545696258544922,40.467002868652344,0.61
492,MetaDrive-test-conv2-colab,71,283.6251169979048,493737,1369,6894.086296796799,-42.31338119506836,39.508636474609375,41.865516662597656,0.62
493,MetaDrive-test-conv2-colab,71,283.7490316289697,494467,1370,6903.231048822403,-42.95735168457031,5.248788833618164,43.2967529296875,0.62
494,MetaDrive-test-conv2-colab,71,285.53213722682,495233,1371,6913.715629339218,-41.6838493347168,4.761111736297607,41.163997650146484,0.63
495,MetaDrive-test-conv2-colab,71,283.92102078857494,496845,1373,6939.925763607025,-44.02833557128906,7.64171028137207,43.4704704284668,0.61
496,MetaDrive-test-conv2-colab,71,282.4253763968187,497603,1374,6951.455525398254,-43.48957443237305,113.20213317871094,42.89768600463867,0.61
497,MetaDrive-test-conv2-colab,71,282.42287743343195,498047,1375,6957.553729772568,-41.8660888671875,3.074702262878418,41.09296417236328,0.62
498,MetaDrive-test-conv2-colab,71,279.0900329062886,499055,1378,6974.380649805069,-39.94257354736328,4.1842265129089355,40.449562072753906,0.6
