TanmayH/CS269-RL-project-code/MetaDrive-test-conv-dropout-norm-lr-1e5/td3/progress.csv
,log_dir,frame_per_second,episode_reward,total_steps,total_episodes,total_time,target_q,actor_loss,critic_loss,success_rate
0,MetaDrive-test-conv-dropout-norm-lr-1e5,183,11.141510901092431,2001,2,10.917601346969604,,,,0.0
1,MetaDrive-test-conv-dropout-norm-lr-1e5,200,8.636921908271168,3581,4,17.83362078666687,,,,0.0
2,MetaDrive-test-conv-dropout-norm-lr-1e5,208,7.294669286339355,4268,5,20.462559700012207,,,,0.0
3,MetaDrive-test-conv-dropout-norm-lr-1e5,192,8.331777583113817,5164,6,26.883245944976807,-0.12423886358737946,,0.0015574581921100616,0.0
4,MetaDrive-test-conv-dropout-norm-lr-1e5,134,-1.2635829117651904,6016,40,44.81221795082092,-0.12904290854930878,,0.004687048494815826,0.0
5,MetaDrive-test-conv-dropout-norm-lr-1e5,104,-1.4268952670225228,7708,72,73.95986580848694,-0.1650533229112625,,0.7551679611206055,0.0
6,MetaDrive-test-conv-dropout-norm-lr-1e5,99,-1.527339553658746,8751,74,88.36894607543945,-0.2584037780761719,0.1563376486301422,1.4303781986236572,0.0
7,MetaDrive-test-conv-dropout-norm-lr-1e5,95,-1.5304469566055452,9752,75,102.13705945014954,-0.08128996938467026,,0.04813031107187271,0.0
8,MetaDrive-test-conv-dropout-norm-lr-1e5,92,-1.5518399603060726,10975,78,118.20956492424011,-0.10377053916454315,0.14397281408309937,0.015146763995289803,0.0
9,MetaDrive-test-conv-dropout-norm-lr-1e5,92,-1.5944675093960174,11104,79,119.99841976165771,-0.11201018840074539,,0.005381033755838871,0.0
10,MetaDrive-test-conv-dropout-norm-lr-1e5,90,-1.5995730739990428,12105,80,133.54642724990845,-0.11500518023967743,0.15025708079338074,0.027750758454203606,0.0
11,MetaDrive-test-conv-dropout-norm-lr-1e5,89,-1.645327141383924,13175,82,146.6925172805786,-0.14093804359436035,0.16442909836769104,0.009261921979486942,0.0
12,MetaDrive-test-conv-dropout-norm-lr-1e5,88,-1.6491406451290642,14176,83,160.125714302063,-0.14139887690544128,,0.010124964639544487,0.0
13,MetaDrive-test-conv-dropout-norm-lr-1e5,88,-1.6541593747528875,15177,84,171.8149917125702,-0.14121878147125244,0.19098393619060516,0.01850282773375511,0.0
14,MetaDrive-test-conv-dropout-norm-lr-1e5,87,-1.695134506166276,16274,86,186.71438765525818,-0.16096514463424683,,0.007522111292928457,0.0
15,MetaDrive-test-conv-dropout-norm-lr-1e5,86,-1.7483585917738365,17782,88,205.28575921058655,-0.18751661479473114,,0.010731503367424011,0.0
16,MetaDrive-test-conv-dropout-norm-lr-1e5,86,-1.758890875333306,18783,89,218.1080973148346,-0.18055370450019836,0.2036789059638977,0.006915729492902756,0.0
17,MetaDrive-test-conv-dropout-norm-lr-1e5,85,-1.7867277429698893,19696,90,229.37958669662476,-0.18790289759635925,,0.0037088594399392605,0.0
18,MetaDrive-test-conv-dropout-norm-lr-1e5,85,-1.777623338381751,20697,91,242.55529713630676,-0.19033953547477722,0.18943440914154053,0.005354010500013828,0.0
19,MetaDrive-test-conv-dropout-norm-lr-1e5,84,-1.7741177428691999,21698,92,255.49867630004883,-0.17802302539348602,,0.012967195361852646,0.0
20,MetaDrive-test-conv-dropout-norm-lr-1e5,84,-1.758941529000136,22699,93,269.5700647830963,-0.197030708193779,0.19052305817604065,0.00400712201371789,0.0
21,MetaDrive-test-conv-dropout-norm-lr-1e5,84,-1.7526250245812334,23700,94,281.63163566589355,-0.19566741585731506,,0.008959581144154072,0.0
22,MetaDrive-test-conv-dropout-norm-lr-1e5,83,-1.7486597516357796,24701,95,294.53356170654297,-0.20392951369285583,0.23061621189117432,0.006098613142967224,0.0
23,MetaDrive-test-conv-dropout-norm-lr-1e5,83,-1.7406709360599535,25702,96,307.3845992088318,-0.21167151629924774,,0.001828872482292354,0.0
24,MetaDrive-test-conv-dropout-norm-lr-1e5,83,-1.7434596933771598,26703,97,319.7782709598541,-0.19719341397285461,0.19011786580085754,0.006899185013025999,0.0
25,MetaDrive-test-conv-dropout-norm-lr-1e5,83,-1.7237210360150812,27704,98,333.2594313621521,-0.21725550293922424,,0.002464328659698367,0.0
26,MetaDrive-test-conv-dropout-norm-lr-1e5,83,-1.6962754267638775,28705,99,345.64523577690125,-0.2281108796596527,0.253341406583786,0.013389093801379204,0.0
27,MetaDrive-test-conv-dropout-norm-lr-1e5,82,-2.0616092630191867,29393,102,354.2078266143799,-0.2360275387763977,0.234698086977005,0.0021875775419175625,0.0
28,MetaDrive-test-conv-dropout-norm-lr-1e5,82,-2.103178062933745,30394,103,367.1580801010132,-0.21793606877326965,,0.0004398563178256154,0.0
29,MetaDrive-test-conv-dropout-norm-lr-1e5,82,-2.2285378477333504,31395,104,380.0183243751526,-0.22876569628715515,0.21308574080467224,0.0006925041088834405,0.0
30,MetaDrive-test-conv-dropout-norm-lr-1e5,82,-2.4328215758907725,32469,106,393.20546102523804,-0.23875692486763,0.2582426071166992,0.0031442632898688316,0.0
31,MetaDrive-test-conv-dropout-norm-lr-1e5,82,-2.4173255482292793,33470,107,405.6573021411896,-0.24814991652965546,,0.022357214242219925,0.0
32,MetaDrive-test-conv-dropout-norm-lr-1e5,82,-2.419925416269289,34602,109,420.6347117424011,-0.3260563910007477,,0.7287200689315796,0.0
33,MetaDrive-test-conv-dropout-norm-lr-1e5,81,-2.4259910347270335,35603,110,436.55832982063293,-0.2400759756565094,0.25540417432785034,0.0032795448787510395,0.0
34,MetaDrive-test-conv-dropout-norm-lr-1e5,81,-2.378779796854407,36604,111,449.7007327079773,-0.2300078570842743,,0.006264964118599892,0.0
35,MetaDrive-test-conv-dropout-norm-lr-1e5,81,-2.3166980808200215,37909,113,465.6519660949707,-0.24693091213703156,0.2699359059333801,0.008506485261023045,0.0
36,MetaDrive-test-conv-dropout-norm-lr-1e5,81,-2.272948859023816,38910,114,478.51179909706116,-0.18677717447280884,,0.009602077305316925,0.0
37,MetaDrive-test-conv-dropout-norm-lr-1e5,81,-2.2352078902022496,39695,115,489.17907977104187,-0.1981458067893982,0.2108040153980255,0.009551417082548141,0.0
38,MetaDrive-test-conv-dropout-norm-lr-1e5,80,-2.133978765372086,40696,116,502.74736428260803,-0.2126908004283905,,0.7144944667816162,0.0
39,MetaDrive-test-conv-dropout-norm-lr-1e5,80,-1.7908046260492725,41697,117,516.5503466129303,-0.16336098313331604,0.17411966621875763,0.004715815186500549,0.0
40,MetaDrive-test-conv-dropout-norm-lr-1e5,80,-1.7584214672410732,42698,118,528.0396018028259,-0.1455385833978653,,0.007717042695730925,0.0
41,MetaDrive-test-conv-dropout-norm-lr-1e5,80,-1.6723192029158853,43699,119,541.0067231655121,-0.11385269463062286,0.1247253343462944,0.005698717199265957,0.0
42,MetaDrive-test-conv-dropout-norm-lr-1e5,80,-1.1183912256799868,44700,120,558.2514221668243,-0.10370171815156937,,0.00155297527089715,0.0
43,MetaDrive-test-conv-dropout-norm-lr-1e5,79,-0.9426713801782332,45701,121,571.3044583797455,-0.09354306757450104,0.06324957311153412,0.001267458195798099,0.0
44,MetaDrive-test-conv-dropout-norm-lr-1e5,80,-0.5860394510979944,46702,122,583.2543489933014,-0.0809558629989624,,0.00423299940302968,0.0
45,MetaDrive-test-conv-dropout-norm-lr-1e5,80,-0.4854353961849203,47703,123,595.2250468730927,-0.016958752647042274,0.02744394727051258,0.007490311749279499,0.0
46,MetaDrive-test-conv-dropout-norm-lr-1e5,79,-0.006891082977817327,48059,125,601.9354741573334,0.006184265948832035,-0.026270978152751923,0.01076098158955574,0.0
47,MetaDrive-test-conv-dropout-norm-lr-1e5,79,0.504312277633717,49060,126,615.1142978668213,0.046816930174827576,,0.0027339193038642406,0.0
48,MetaDrive-test-conv-dropout-norm-lr-1e5,79,0.9642174697148218,50061,127,629.6986334323883,0.045931532979011536,-0.06026286631822586,0.0017284622881561518,0.0
49,MetaDrive-test-conv-dropout-norm-lr-1e5,79,2.3425061193402,51339,129,648.905609369278,0.09819787740707397,-0.1515904664993286,0.005654124543070793,0.0
50,MetaDrive-test-conv-dropout-norm-lr-1e5,78,4.607437291395045,52751,136,667.7912931442261,0.21807698905467987,-0.2322179675102234,0.0063500539399683475,0.0
51,MetaDrive-test-conv-dropout-norm-lr-1e5,78,5.020600972700871,53010,140,672.0174672603607,0.22651800513267517,,0.004806781653314829,0.0
52,MetaDrive-test-conv-dropout-norm-lr-1e5,78,6.3986477977226,54045,147,686.8203384876251,0.2187889963388443,-0.3366278111934662,0.7207709550857544,0.0
53,MetaDrive-test-conv-dropout-norm-lr-1e5,78,8.966015762358365,55048,153,702.491455078125,0.4185621440410614,,0.05424197018146515,0.0
54,MetaDrive-test-conv-dropout-norm-lr-1e5,78,11.88636273396541,56002,161,716.7560636997223,0.5374007225036621,,0.00482336338609457,0.0
55,MetaDrive-test-conv-dropout-norm-lr-1e5,77,15.725707948375526,57050,174,732.5388886928558,0.7388250827789307,,0.013603250496089458,0.0
56,MetaDrive-test-conv-dropout-norm-lr-1e5,77,19.282251072523117,58032,184,749.160885810852,0.8593631982803345,,0.01356731541454792,0.0
57,MetaDrive-test-conv-dropout-norm-lr-1e5,77,23.31716689277052,59124,201,766.9582211971283,1.1863521337509155,,0.07688069343566895,0.0
58,MetaDrive-test-conv-dropout-norm-lr-1e5,76,25.701218855506017,60006,217,783.8900020122528,1.1720912456512451,,1.1799042224884033,0.0
59,MetaDrive-test-conv-dropout-norm-lr-1e5,76,24.406612120084237,61011,235,800.352602481842,1.5000098943710327,-1.6059484481811523,0.007587722036987543,0.0
60,MetaDrive-test-conv-dropout-norm-lr-1e5,75,22.918995443681226,62014,252,816.7020781040192,1.8816285133361816,,0.05350165069103241,0.0
61,MetaDrive-test-conv-dropout-norm-lr-1e5,75,20.66848594542432,63022,271,833.7417352199554,1.9556533098220825,,2.689377784729004,0.0
62,MetaDrive-test-conv-dropout-norm-lr-1e5,75,21.141792357721602,64046,288,851.0765805244446,2.3080363273620605,,2.5537853240966797,0.0
63,MetaDrive-test-conv-dropout-norm-lr-1e5,74,21.528980272060412,65027,304,867.4393019676208,2.7018585205078125,-2.8846945762634277,0.052462875843048096,0.0
64,MetaDrive-test-conv-dropout-norm-lr-1e5,74,22.713017499262595,66051,324,884.9498028755188,3.164876937866211,-3.3017430305480957,0.052947744727134705,0.0
65,MetaDrive-test-conv-dropout-norm-lr-1e5,74,24.34039799663286,67022,340,900.9589235782623,3.5902915000915527,,0.09211871027946472,0.0
66,MetaDrive-test-conv-dropout-norm-lr-1e5,74,25.46388650982894,68009,356,917.7097020149231,3.819373846054077,-3.851484775543213,0.08679044246673584,0.0
67,MetaDrive-test-conv-dropout-norm-lr-1e5,73,25.843903604153876,69076,373,934.51411652565,4.20089864730835,,3.308291435241699,0.0
68,MetaDrive-test-conv-dropout-norm-lr-1e5,73,25.6949317677358,70036,390,952.4911251068115,4.587862968444824,,0.1223105862736702,0.0
69,MetaDrive-test-conv-dropout-norm-lr-1e5,73,26.496337370639694,71053,406,968.764986038208,4.778689861297607,-5.034377098083496,3.470261573791504,0.0
70,MetaDrive-test-conv-dropout-norm-lr-1e5,73,26.600660298205447,72053,425,985.0774021148682,5.372136116027832,-5.437828540802002,0.17600440979003906,0.0
71,MetaDrive-test-conv-dropout-norm-lr-1e5,72,26.46248476500279,73011,441,1000.3508446216583,5.40728235244751,-5.594432830810547,0.061352748423814774,0.0
72,MetaDrive-test-conv-dropout-norm-lr-1e5,72,26.144580300666313,74040,458,1017.6896953582764,5.95738410949707,,0.40266329050064087,0.0
73,MetaDrive-test-conv-dropout-norm-lr-1e5,72,26.180249063234307,75012,474,1032.7821564674377,6.37453556060791,,0.1131640076637268,0.0
74,MetaDrive-test-conv-dropout-norm-lr-1e5,72,27.341067438090594,76068,490,1049.7643690109253,6.821957588195801,,0.16901278495788574,0.0
75,MetaDrive-test-conv-dropout-norm-lr-1e5,72,31.022760547485944,77048,502,1067.030104637146,6.854028701782227,,4.906929016113281,0.0
76,MetaDrive-test-conv-dropout-norm-lr-1e5,72,33.72141168115096,78046,514,1082.9677674770355,7.49500036239624,,6.0811920166015625,0.0
77,MetaDrive-test-conv-dropout-norm-lr-1e5,71,37.054792927043124,79039,527,1099.1875245571136,7.66279411315918,-7.821864128112793,0.11422658711671829,0.0
78,MetaDrive-test-conv-dropout-norm-lr-1e5,71,40.8316292156471,80089,539,1116.7606840133667,8.213706970214844,-8.394376754760742,0.18893727660179138,0.0
79,MetaDrive-test-conv-dropout-norm-lr-1e5,71,43.94648304148689,81018,551,1133.2680823802948,8.638582229614258,,0.09312573075294495,0.0
80,MetaDrive-test-conv-dropout-norm-lr-1e5,71,45.688409660460984,82068,565,1149.2216246128082,8.810230255126953,,0.13106805086135864,0.0
81,MetaDrive-test-conv-dropout-norm-lr-1e5,71,48.95330168925162,83026,577,1164.2562370300293,9.473424911499023,,0.20994549989700317,0.0
82,MetaDrive-test-conv-dropout-norm-lr-1e5,71,52.11982043019459,84106,590,1180.9583978652954,9.730731964111328,,7.637145042419434,0.0
83,MetaDrive-test-conv-dropout-norm-lr-1e5,71,51.01942177208931,85022,602,1195.0965831279755,10.297658920288086,,0.2741111218929291,0.0
84,MetaDrive-test-conv-dropout-norm-lr-1e5,71,50.26677214913336,86014,615,1210.4912490844727,10.562247276306152,,0.1663825809955597,0.0
85,MetaDrive-test-conv-dropout-norm-lr-1e5,70,51.0830012542229,87015,627,1226.1541123390198,11.174842834472656,-11.288898468017578,0.41038385033607483,0.0
86,MetaDrive-test-conv-dropout-norm-lr-1e5,70,49.82842695844687,88054,640,1241.2578444480896,11.455521583557129,,0.28051143884658813,0.0
87,MetaDrive-test-conv-dropout-norm-lr-1e5,70,49.06353847137532,89007,652,1255.694415807724,11.071161270141602,-11.590566635131836,19.339385986328125,0.0
88,MetaDrive-test-conv-dropout-norm-lr-1e5,70,48.633344200924,90011,666,1271.6706507205963,12.01175308227539,-12.001495361328125,0.3052021265029907,0.0
89,MetaDrive-test-conv-dropout-norm-lr-1e5,70,47.11904120302747,91051,681,1287.5863988399506,12.575010299682617,-12.611753463745117,0.3532215356826782,0.0
90,MetaDrive-test-conv-dropout-norm-lr-1e5,70,45.994797571268045,92037,693,1303.730511188507,12.602012634277344,-12.893295288085938,12.066787719726562,0.0
91,MetaDrive-test-conv-dropout-norm-lr-1e5,70,45.29846728786262,93044,707,1319.562301158905,12.603214263916016,,9.039579391479492,0.0
92,MetaDrive-test-conv-dropout-norm-lr-1e5,70,45.44671039467163,94041,719,1333.8182978630066,13.113737106323242,-13.431478500366211,14.797819137573242,0.0
93,MetaDrive-test-conv-dropout-norm-lr-1e5,70,45.335398225453694,95036,731,1348.2842025756836,13.790989875793457,,0.3794317841529846,0.0
94,MetaDrive-test-conv-dropout-norm-lr-1e5,70,46.07619710989307,96063,743,1363.8180191516876,13.603689193725586,-14.088579177856445,16.840564727783203,0.0
95,MetaDrive-test-conv-dropout-norm-lr-1e5,70,48.279269792924545,97036,754,1378.3349792957306,14.391250610351562,,0.5295364856719971,0.0
96,MetaDrive-test-conv-dropout-norm-lr-1e5,70,48.93842262501472,98057,767,1394.0952241420746,14.465408325195312,-14.779009819030762,0.5585505366325378,0.0
97,MetaDrive-test-conv-dropout-norm-lr-1e5,70,50.58971469215258,99003,779,1409.3550271987915,14.562480926513672,-15.003382682800293,0.3520611822605133,0.0
98,MetaDrive-test-conv-dropout-norm-lr-1e5,70,51.54350329750477,100165,791,1427.7652678489685,15.23486328125,-15.258896827697754,0.6156377792358398,0.0
99,MetaDrive-test-conv-dropout-norm-lr-1e5,70,53.00923060328501,101015,801,1441.2621593475342,14.95012378692627,-15.277578353881836,13.968360900878906,0.0
100,MetaDrive-test-conv-dropout-norm-lr-1e5,70,52.720301378895414,102018,814,1457.2870240211487,16.002147674560547,,0.6663087010383606,0.0
101,MetaDrive-test-conv-dropout-norm-lr-1e5,69,55.38572812816578,103053,825,1474.9459517002106,15.658349990844727,-15.746664047241211,0.2970389723777771,0.0
102,MetaDrive-test-conv-dropout-norm-lr-1e5,69,54.620728363134965,104023,837,1489.214023590088,16.26932144165039,-16.471282958984375,0.1441289484500885,0.0
103,MetaDrive-test-conv-dropout-norm-lr-1e5,69,53.6457875842718,105012,849,1504.896236896515,15.545099258422852,,19.681987762451172,0.0
104,MetaDrive-test-conv-dropout-norm-lr-1e5,69,52.8450106563998,106005,862,1519.6138157844543,16.06989288330078,-16.29510498046875,0.2754589915275574,0.0
105,MetaDrive-test-conv-dropout-norm-lr-1e5,69,52.981852083105004,107015,875,1536.875761270523,16.554824829101562,-16.86113929748535,20.638221740722656,0.0
106,MetaDrive-test-conv-dropout-norm-lr-1e5,69,52.07206699091847,108014,887,1552.0994699001312,16.70179557800293,,12.739921569824219,0.0
107,MetaDrive-test-conv-dropout-norm-lr-1e5,69,53.516044014818156,109044,898,1568.0406115055084,16.865764617919922,,17.365642547607422,0.0
108,MetaDrive-test-conv-dropout-norm-lr-1e5,69,54.088095284953205,110007,910,1583.3435850143433,17.23046112060547,-17.278152465820312,0.7961927056312561,0.0
109,MetaDrive-test-conv-dropout-norm-lr-1e5,69,51.38995447639123,111047,924,1598.0175120830536,17.082225799560547,-17.127899169921875,1.518235206604004,0.0
110,MetaDrive-test-conv-dropout-norm-lr-1e5,69,52.03066302472689,112053,936,1613.6649043560028,17.5476016998291,-17.626453399658203,0.6589807271957397,0.0
111,MetaDrive-test-conv-dropout-norm-lr-1e5,69,53.419744709954536,113015,946,1627.5794713497162,17.4769229888916,-18.21329689025879,21.90381622314453,0.0
112,MetaDrive-test-conv-dropout-norm-lr-1e5,69,53.46586938458549,114044,960,1643.170814037323,18.437519073486328,,11.877302169799805,0.0
113,MetaDrive-test-conv-dropout-norm-lr-1e5,69,55.29933393336727,115032,972,1660.0540900230408,18.81182861328125,,0.8515371084213257,0.0
114,MetaDrive-test-conv-dropout-norm-lr-1e5,69,54.02422812921602,116036,984,1675.5062217712402,18.678508758544922,,0.7432501316070557,0.0
115,MetaDrive-test-conv-dropout-norm-lr-1e5,69,52.74662078817678,117011,996,1690.0973534584045,17.56247901916504,-18.25213050842285,20.442920684814453,0.0
116,MetaDrive-test-conv-dropout-norm-lr-1e5,69,52.59049395680736,118026,1008,1705.561090707779,18.742759704589844,,1.2642675638198853,0.0
117,MetaDrive-test-conv-dropout-norm-lr-1e5,69,53.658329843907104,119048,1019,1720.5730855464935,19.488679885864258,,0.9641634225845337,0.0
118,MetaDrive-test-conv-dropout-norm-lr-1e5,69,54.056654592581516,120078,1031,1736.4097657203674,18.954692840576172,,0.780214786529541,0.0
119,MetaDrive-test-conv-dropout-norm-lr-1e5,69,52.732240050421034,121011,1042,1751.1753516197205,19.73357391357422,-19.780967712402344,0.8731985092163086,0.0
120,MetaDrive-test-conv-dropout-norm-lr-1e5,69,53.10031754135898,122008,1045,1766.5463380813599,18.663589477539062,,15.74893569946289,0.0
121,MetaDrive-test-conv-dropout-norm-lr-1e5,68,53.70586590322405,123037,1055,1783.3449506759644,18.695758819580078,-19.428890228271484,24.50058364868164,0.0
122,MetaDrive-test-conv-dropout-norm-lr-1e5,68,52.817778551900076,124027,1064,1798.5828354358673,19.154315948486328,-19.162689208984375,1.5035557746887207,0.0
123,MetaDrive-test-conv-dropout-norm-lr-1e5,68,53.45060193426999,125057,1073,1813.7861201763153,18.985979080200195,-19.048057556152344,0.9559715986251831,0.0
124,MetaDrive-test-conv-dropout-norm-lr-1e5,68,53.76382300068495,126037,1081,1830.7981252670288,18.97600555419922,-19.46135139465332,24.56233787536621,0.0
125,MetaDrive-test-conv-dropout-norm-lr-1e5,68,55.52154324804766,127039,1090,1845.5238661766052,19.355865478515625,-19.27859115600586,2.163071632385254,0.0
126,MetaDrive-test-conv-dropout-norm-lr-1e5,68,56.701789318382815,128060,1097,1860.824506521225,19.601055145263672,,0.8687078952789307,0.0
127,MetaDrive-test-conv-dropout-norm-lr-1e5,68,60.559067299286255,129176,1102,1877.1414391994476,20.396787643432617,,0.8720651865005493,0.01
128,MetaDrive-test-conv-dropout-norm-lr-1e5,68,60.534200907714414,130404,1112,1896.1642229557037,20.65799331665039,,1.3956533670425415,0.01
129,MetaDrive-test-conv-dropout-norm-lr-1e5,68,60.37039648304658,131423,1116,1909.3454310894012,20.654512405395508,-20.516368865966797,1.3268916606903076,0.01
130,MetaDrive-test-conv-dropout-norm-lr-1e5,68,60.626095993185864,132570,1118,1922.609612941742,20.304988861083984,,20.59148597717285,0.01
131,MetaDrive-test-conv-dropout-norm-lr-1e5,68,60.47095507215776,133091,1121,1929.828784942627,20.50249481201172,-20.79620933532715,27.118942260742188,0.01
132,MetaDrive-test-conv-dropout-norm-lr-1e5,68,61.27438950249727,134092,1122,1946.5023052692413,20.241226196289062,,21.58654022216797,0.01
133,MetaDrive-test-conv-dropout-norm-lr-1e5,68,62.598893873919764,135643,1128,1966.1955144405365,20.37999725341797,-20.423450469970703,0.9758773446083069,0.01
134,MetaDrive-test-conv-dropout-norm-lr-1e5,68,63.614172436899835,136012,1131,1971.9224634170532,19.242671966552734,,9.314096450805664,0.01
135,MetaDrive-test-conv-dropout-norm-lr-1e5,68,63.147445054912204,137122,1142,1988.4716591835022,20.420373916625977,,1.2926452159881592,0.01
136,MetaDrive-test-conv-dropout-norm-lr-1e5,68,63.75407141089492,138102,1146,2007.3885412216187,19.544334411621094,,23.16307258605957,0.01
137,MetaDrive-test-conv-dropout-norm-lr-1e5,68,63.23087733010062,139176,1148,2021.807475566864,20.078134536743164,,2.565883159637451,0.01
138,MetaDrive-test-conv-dropout-norm-lr-1e5,68,63.13170958028347,140434,1152,2037.5140104293823,19.245311737060547,,23.069202423095703,0.01
139,MetaDrive-test-conv-dropout-norm-lr-1e5,68,65.05298201437562,141006,1156,2046.8162016868591,20.9760684967041,,0.4050801396369934,0.01
140,MetaDrive-test-conv-dropout-norm-lr-1e5,68,65.04813986373472,142088,1166,2062.6979439258575,20.537837982177734,,31.376583099365234,0.01
141,MetaDrive-test-conv-dropout-norm-lr-1e5,68,66.54922353591463,143005,1172,2077.1210947036743,20.77383041381836,-20.898906707763672,0.3394145965576172,0.01
142,MetaDrive-test-conv-dropout-norm-lr-1e5,68,66.75878981189804,144001,1182,2091.6385152339935,20.947059631347656,-21.061634063720703,0.7943865060806274,0.01
143,MetaDrive-test-conv-dropout-norm-lr-1e5,68,66.98073513350997,145048,1191,2106.517755508423,19.07681655883789,,3.218398094177246,0.01
144,MetaDrive-test-conv-dropout-norm-lr-1e5,68,66.08736813282476,146218,1194,2121.631881713867,20.54299545288086,,3.4675943851470947,0.01
145,MetaDrive-test-conv-dropout-norm-lr-1e5,68,62.46818358623032,147424,1203,2138.8296015262604,21.11436653137207,,0.9602916836738586,0.0
146,MetaDrive-test-conv-dropout-norm-lr-1e5,68,64.31079949746922,148190,1209,2150.4446783065796,20.335588455200195,,3.2830371856689453,0.0
147,MetaDrive-test-conv-dropout-norm-lr-1e5,68,61.96135458399042,149595,1216,2168.1184957027435,20.546337127685547,-20.924907684326172,0.4510852098464966,0.0
148,MetaDrive-test-conv-dropout-norm-lr-1e5,68,59.3434765256708,150045,1222,2175.614065885544,19.982437133789062,-20.445518493652344,19.85800552368164,0.0
149,MetaDrive-test-conv-dropout-norm-lr-1e5,68,59.56308398396438,151085,1231,2191.9370543956757,20.226999282836914,-20.401470184326172,17.198444366455078,0.0
150,MetaDrive-test-conv-dropout-norm-lr-1e5,68,59.32831972128575,152060,1242,2206.0600435733795,20.202512741088867,,0.8841179013252258,0.0
151,MetaDrive-test-conv-dropout-norm-lr-1e5,68,59.39712021084968,153148,1244,2219.5434980392456,20.14101791381836,,1.0801655054092407,0.0
152,MetaDrive-test-conv-dropout-norm-lr-1e5,69,58.52875655195405,154030,1253,2231.647690296173,21.192441940307617,,7.144850730895996,0.0
153,MetaDrive-test-conv-dropout-norm-lr-1e5,69,61.817689517439256,155950,1262,2257.1044306755066,20.92877960205078,,14.286577224731445,0.0
154,MetaDrive-test-conv-dropout-norm-lr-1e5,69,60.87702610211921,156122,1263,2259.9373619556427,18.8409423828125,,9.36053466796875,0.0
155,MetaDrive-test-conv-dropout-norm-lr-1e5,69,61.20176466501148,157289,1266,2272.9682273864746,20.325294494628906,-20.654052734375,0.6589089632034302,0.0
156,MetaDrive-test-conv-dropout-norm-lr-1e5,69,58.86091178798702,158814,1273,2293.607586145401,20.14715576171875,,1.4447944164276123,0.0
157,MetaDrive-test-conv-dropout-norm-lr-1e5,69,58.83511307325728,159116,1276,2297.6863253116608,22.125,,0.9081981182098389,0.0
158,MetaDrive-test-conv-dropout-norm-lr-1e5,69,58.96002451177748,160117,1277,2309.847292661667,22.53863525390625,-22.138179779052734,2.873533248901367,0.0
159,MetaDrive-test-conv-dropout-norm-lr-1e5,69,57.089302732486345,161985,1288,2335.725264787674,19.441181182861328,-20.027751922607422,16.478282928466797,0.0
160,MetaDrive-test-conv-dropout-norm-lr-1e5,69,57.43762123767896,162070,1289,2337.396472454071,19.015050888061523,,1.3459184169769287,0.0
161,MetaDrive-test-conv-dropout-norm-lr-1e5,69,58.351913532727025,163681,1296,2360.9534533023834,19.88435935974121,-20.303863525390625,15.885744094848633,0.0
162,MetaDrive-test-conv-dropout-norm-lr-1e5,69,58.369101708003306,164017,1300,2365.834216594696,18.539596557617188,-18.688386917114258,1.528944969177246,0.0
163,MetaDrive-test-conv-dropout-norm-lr-1e5,69,56.11611783619887,165180,1304,2380.8171553611755,20.513036727905273,,1.2308053970336914,0.0
164,MetaDrive-test-conv-dropout-norm-lr-1e5,69,55.682556445792706,166064,1315,2392.750340461731,20.234188079833984,,1.971764326095581,0.0
165,MetaDrive-test-conv-dropout-norm-lr-1e5,69,58.00233813210792,167007,1325,2407.1211681365967,21.664743423461914,-21.989398956298828,0.5791481733322144,0.0
166,MetaDrive-test-conv-dropout-norm-lr-1e5,69,57.07651667344945,168069,1335,2422.859479188919,19.284744262695312,-19.78017807006836,1.0385425090789795,0.0
167,MetaDrive-test-conv-dropout-norm-lr-1e5,69,57.26334334545575,169544,1342,2441.4087343215942,20.405969619750977,,3.552985191345215,0.0
168,MetaDrive-test-conv-dropout-norm-lr-1e5,69,60.354876357343265,170243,1346,2452.2894806861877,18.85549545288086,-19.51740264892578,27.557676315307617,0.0
169,MetaDrive-test-conv-dropout-norm-lr-1e5,69,56.527759652963375,171070,1356,2464.1574261188507,20.15054702758789,,2.025801658630371,0.0
170,MetaDrive-test-conv-dropout-norm-lr-1e5,69,55.06143269347421,172750,1366,2485.579682826996,19.414852142333984,,6.18942928314209,0.0
171,MetaDrive-test-conv-dropout-norm-lr-1e5,69,54.9410873147722,173828,1368,2499.0995061397552,17.342451095581055,,42.9134635925293,0.0
172,MetaDrive-test-conv-dropout-norm-lr-1e5,69,55.592261359113785,174019,1370,2501.7902839183807,21.688039779663086,-22.296695709228516,18.772279739379883,0.0
173,MetaDrive-test-conv-dropout-norm-lr-1e5,69,54.039529217312804,175562,1379,2521.7590177059174,19.84441375732422,,3.411137819290161,0.0
174,MetaDrive-test-conv-dropout-norm-lr-1e5,69,55.10933807817991,176028,1384,2528.483334541321,19.210996627807617,,2.143781900405884,0.0
175,MetaDrive-test-conv-dropout-norm-lr-1e5,69,54.00678374486651,177070,1397,2546.501544713974,21.11770248413086,,16.406391143798828,0.0
176,MetaDrive-test-conv-dropout-norm-lr-1e5,69,55.08724815978607,178039,1409,2561.2770807743073,20.918113708496094,-21.538179397583008,22.407678604125977,0.0
177,MetaDrive-test-conv-dropout-norm-lr-1e5,69,56.827605019292875,179056,1418,2576.5881781578064,20.955623626708984,,1.1074997186660767,0.0
178,MetaDrive-test-conv-dropout-norm-lr-1e5,69,56.97653095915247,180017,1428,2591.054492712021,20.47304916381836,-20.75330924987793,1.9242303371429443,0.0
179,MetaDrive-test-conv-dropout-norm-lr-1e5,69,56.93043480836968,181085,1440,2606.812363386154,19.044010162353516,-19.364883422851562,17.074195861816406,0.0
180,MetaDrive-test-conv-dropout-norm-lr-1e5,69,54.63945437822535,182049,1451,2621.3258533477783,19.18999671936035,-19.25151252746582,1.028639316558838,0.0
181,MetaDrive-test-conv-dropout-norm-lr-1e5,69,53.97349034310706,183041,1464,2636.289683818817,18.865833282470703,-18.11306381225586,45.730926513671875,0.0
182,MetaDrive-test-conv-dropout-norm-lr-1e5,69,53.292096609423425,184030,1477,2651.197067975998,20.501693725585938,,1.3180468082427979,0.0
183,MetaDrive-test-conv-dropout-norm-lr-1e5,69,53.32572165291962,185012,1488,2666.2953808307648,20.429664611816406,,0.439974308013916,0.0
184,MetaDrive-test-conv-dropout-norm-lr-1e5,69,55.09323942697096,186018,1499,2681.7193133831024,17.827537536621094,,0.993813157081604,0.0
185,MetaDrive-test-conv-dropout-norm-lr-1e5,69,53.471651120080196,187068,1512,2697.4287552833557,22.263866424560547,,1.1340795755386353,0.0
186,MetaDrive-test-conv-dropout-norm-lr-1e5,69,53.050854241876756,188057,1523,2712.5303349494934,19.961456298828125,-20.233047485351562,29.348255157470703,0.0
187,MetaDrive-test-conv-dropout-norm-lr-1e5,69,51.4020755806529,189053,1536,2728.614205121994,18.412567138671875,-17.939105987548828,2.371318817138672,0.0
188,MetaDrive-test-conv-dropout-norm-lr-1e5,69,50.745568487777525,190018,1548,2743.1724724769592,22.370792388916016,,1.849118709564209,0.0
189,MetaDrive-test-conv-dropout-norm-lr-1e5,69,52.57969777230979,191049,1560,2758.4974417686462,18.62989044189453,-18.799205780029297,10.908909797668457,0.0
190,MetaDrive-test-conv-dropout-norm-lr-1e5,69,55.480676417743545,192084,1570,2773.851733446121,21.351688385009766,,4.84913444519043,0.0
191,MetaDrive-test-conv-dropout-norm-lr-1e5,69,56.91317135357811,193014,1581,2787.803675174713,19.487930297851562,,1.3311245441436768,0.0
192,MetaDrive-test-conv-dropout-norm-lr-1e5,69,55.32420615584506,194057,1593,2802.7423017024994,22.01472282409668,-22.423828125,3.0063579082489014,0.0
193,MetaDrive-test-conv-dropout-norm-lr-1e5,69,55.89801932412199,195228,1596,2818.367586374283,20.359439849853516,,1.9877933263778687,0.0
194,MetaDrive-test-conv-dropout-norm-lr-1e5,69,55.12102841064325,196043,1607,2830.7718250751495,17.145984649658203,-16.925487518310547,3.962538480758667,0.0
195,MetaDrive-test-conv-dropout-norm-lr-1e5,69,53.566111007532875,197061,1620,2845.448696374893,21.121234893798828,-21.254505157470703,2.240633249282837,0.0
196,MetaDrive-test-conv-dropout-norm-lr-1e5,69,54.55768064441454,198005,1630,2858.792655944824,19.086475372314453,-18.93911361694336,1.8850665092468262,0.0
197,MetaDrive-test-conv-dropout-norm-lr-1e5,69,53.19925109266776,199028,1644,2873.928054332733,22.638275146484375,,5.671124458312988,0.0
198,MetaDrive-test-conv-dropout-norm-lr-1e5,69,53.92354022446676,200001,1655,2887.489481449127,21.67303466796875,-21.928176879882812,19.00448989868164,0.0
199,MetaDrive-test-conv-dropout-norm-lr-1e5,69,51.455524998296134,201004,1667,2904.013468027115,19.720874786376953,,1.3610725402832031,0.0
200,MetaDrive-test-conv-dropout-norm-lr-1e5,69,49.201257508998694,202116,1680,2919.742702960968,17.32451820373535,,36.064971923828125,0.0
201,MetaDrive-test-conv-dropout-norm-lr-1e5,69,49.277640384690564,203139,1691,2933.5423152446747,20.520751953125,-20.421977996826172,2.6064634323120117,0.0
202,MetaDrive-test-conv-dropout-norm-lr-1e5,69,48.8915568640723,204080,1703,2947.6246042251587,19.537166595458984,,1.195433497428894,0.0
203,MetaDrive-test-conv-dropout-norm-lr-1e5,69,51.33109629408878,205024,1711,2962.140156984329,20.620887756347656,,19.886260986328125,0.0
204,MetaDrive-test-conv-dropout-norm-lr-1e5,69,51.42553061262376,206030,1722,2976.4114439487457,18.849205017089844,,1.6599076986312866,0.0
205,MetaDrive-test-conv-dropout-norm-lr-1e5,69,50.88455553442139,207003,1734,2991.079518556595,20.90923309326172,-20.80025863647461,2.375927448272705,0.0
206,MetaDrive-test-conv-dropout-norm-lr-1e5,69,54.409754149770215,208091,1745,3007.2478578090668,18.934677124023438,-18.94601058959961,11.292852401733398,0.0
207,MetaDrive-test-conv-dropout-norm-lr-1e5,69,54.31961094761729,209042,1756,3021.6572875976562,20.35450553894043,,4.3828020095825195,0.0
208,MetaDrive-test-conv-dropout-norm-lr-1e5,69,54.522481040414014,210082,1767,3036.159413099289,20.417743682861328,,17.417457580566406,0.0
209,MetaDrive-test-conv-dropout-norm-lr-1e5,69,54.29038826088072,211078,1780,3051.0854465961456,19.22793960571289,,5.436214923858643,0.0
210,MetaDrive-test-conv-dropout-norm-lr-1e5,69,55.19674871316622,212019,1790,3064.413581132889,19.112319946289062,-18.95643424987793,17.857316970825195,0.0
211,MetaDrive-test-conv-dropout-norm-lr-1e5,69,55.26294399881963,213045,1802,3080.3373262882233,18.185626983642578,-19.103113174438477,37.11396026611328,0.0
212,MetaDrive-test-conv-dropout-norm-lr-1e5,69,54.03683808493286,214943,1813,3105.516484260559,20.995868682861328,-21.568452835083008,16.62361717224121,0.0
213,MetaDrive-test-conv-dropout-norm-lr-1e5,69,53.02565617959024,215041,1815,3106.8686530590057,20.85808753967285,-20.90056037902832,3.4192495346069336,0.0
214,MetaDrive-test-conv-dropout-norm-lr-1e5,69,52.598879924007115,216038,1827,3121.3153932094574,22.191951751708984,,2.3610262870788574,0.0
215,MetaDrive-test-conv-dropout-norm-lr-1e5,69,52.54152548898137,217085,1838,3137.0958683490753,22.193260192871094,-22.413368225097656,1.8711535930633545,0.0
216,MetaDrive-test-conv-dropout-norm-lr-1e5,69,50.459221685569,218051,1850,3150.8821222782135,20.776689529418945,-20.82965087890625,4.480756759643555,0.0
217,MetaDrive-test-conv-dropout-norm-lr-1e5,69,49.884942247954456,219375,1859,3169.9881711006165,18.791242599487305,-19.38113784790039,16.293092727661133,0.0
218,MetaDrive-test-conv-dropout-norm-lr-1e5,69,50.29489020128786,220066,1866,3180.1314079761505,19.3040714263916,,3.7688164710998535,0.0
219,MetaDrive-test-conv-dropout-norm-lr-1e5,69,49.25935711519819,221077,1880,3195.267543554306,17.265117645263672,-17.460264205932617,4.497727394104004,0.0
220,MetaDrive-test-conv-dropout-norm-lr-1e5,69,49.03717051802778,222141,1892,3210.9443938732147,19.071422576904297,-19.106704711914062,2.1970856189727783,0.0
221,MetaDrive-test-conv-dropout-norm-lr-1e5,69,47.62469368020181,223064,1904,3224.6465334892273,22.780986785888672,,2.0075550079345703,0.0
222,MetaDrive-test-conv-dropout-norm-lr-1e5,69,46.851408337069245,224065,1905,3237.8583464622498,19.895767211914062,-19.40251922607422,2.134200096130371,0.0
223,MetaDrive-test-conv-dropout-norm-lr-1e5,69,48.85155991955633,225094,1917,3254.599399805069,18.539691925048828,,72.6268539428711,0.0
224,MetaDrive-test-conv-dropout-norm-lr-1e5,69,50.281221046380054,226006,1926,3268.5604498386383,20.263572692871094,,3.214812994003296,0.0
225,MetaDrive-test-conv-dropout-norm-lr-1e5,69,49.387650015661784,227037,1939,3283.780821800232,21.304136276245117,-21.408885955810547,1.532659649848938,0.0
226,MetaDrive-test-conv-dropout-norm-lr-1e5,69,52.226235608233395,228075,1950,3298.447603702545,19.257965087890625,-19.37508773803711,1.786210060119629,0.01
227,MetaDrive-test-conv-dropout-norm-lr-1e5,69,53.82336293732812,229170,1959,3316.1893632411957,20.002849578857422,,2.5697121620178223,0.01
228,MetaDrive-test-conv-dropout-norm-lr-1e5,69,54.71386387199463,230001,1968,3327.387373685837,19.73670196533203,-19.82415771484375,2.5561673641204834,0.01
229,MetaDrive-test-conv-dropout-norm-lr-1e5,69,57.32639184122022,231009,1979,3341.863231420517,17.861289978027344,-17.807636260986328,3.7027382850646973,0.01
230,MetaDrive-test-conv-dropout-norm-lr-1e5,69,58.72933359221519,232020,1988,3355.894507408142,19.821426391601562,,4.030519485473633,0.01
231,MetaDrive-test-conv-dropout-norm-lr-1e5,69,58.49060697465244,233027,2000,3370.4254422187805,19.601701736450195,-19.897066116333008,6.044214248657227,0.01
232,MetaDrive-test-conv-dropout-norm-lr-1e5,69,58.68769923282398,234397,2007,3388.0640807151794,17.93584442138672,-17.810142517089844,9.695409774780273,0.01
233,MetaDrive-test-conv-dropout-norm-lr-1e5,69,59.242796874677126,235110,2014,3398.4988362789154,20.417600631713867,,1.542246699333191,0.01
234,MetaDrive-test-conv-dropout-norm-lr-1e5,69,57.67749295655141,236087,2025,3413.8233942985535,18.804059982299805,-18.978378295898438,1.8350427150726318,0.01
235,MetaDrive-test-conv-dropout-norm-lr-1e5,69,58.575220220407594,237086,2034,3429.2776987552643,19.400054931640625,,2.733935594558716,0.01
236,MetaDrive-test-conv-dropout-norm-lr-1e5,69,58.92922078363656,238075,2044,3446.232001543045,19.708782196044922,-19.991432189941406,2.8353171348571777,0.01
237,MetaDrive-test-conv-dropout-norm-lr-1e5,69,57.211967184574824,239223,2054,3463.41721367836,20.762155532836914,-21.145034790039062,1.4470921754837036,0.0
238,MetaDrive-test-conv-dropout-norm-lr-1e5,69,55.56579287548224,240081,2064,3474.8783569335938,22.180355072021484,-22.337310791015625,2.052493095397949,0.0
239,MetaDrive-test-conv-dropout-norm-lr-1e5,69,56.626439270322365,241023,2074,3488.476584672928,20.36031150817871,-20.40359115600586,2.618591785430908,0.0
240,MetaDrive-test-conv-dropout-norm-lr-1e5,69,55.267453408717344,242846,2084,3514.591567993164,18.859020233154297,,14.829875946044922,0.0
241,MetaDrive-test-conv-dropout-norm-lr-1e5,69,54.156283930284374,243067,2087,3517.8869783878326,19.428180694580078,-19.658493041992188,8.249756813049316,0.0
242,MetaDrive-test-conv-dropout-norm-lr-1e5,69,54.941127422192686,244008,2096,3530.9004034996033,18.10107421875,,17.48198127746582,0.0
243,MetaDrive-test-conv-dropout-norm-lr-1e5,69,55.13737296408578,245019,2108,3545.4198517799377,19.04474639892578,-19.23052978515625,1.3021273612976074,0.0
244,MetaDrive-test-conv-dropout-norm-lr-1e5,69,56.73552509106216,246006,2116,3560.4935381412506,19.401264190673828,,1.5348436832427979,0.0
245,MetaDrive-test-conv-dropout-norm-lr-1e5,69,57.15008500412004,247063,2127,3576.3143668174744,17.647411346435547,-18.078630447387695,12.579790115356445,0.0
246,MetaDrive-test-conv-dropout-norm-lr-1e5,69,58.36665337174,248016,2136,3591.04736328125,19.527610778808594,,1.2405552864074707,0.0
247,MetaDrive-test-conv-dropout-norm-lr-1e5,69,58.071156158974944,249491,2142,3611.0411825180054,20.08271026611328,-20.328113555908203,2.3402881622314453,0.0
248,MetaDrive-test-conv-dropout-norm-lr-1e5,69,58.48679164307989,250492,2143,3627.1610465049744,20.204227447509766,,13.101409912109375,0.0
249,MetaDrive-test-conv-dropout-norm-lr-1e5,69,58.80332323920051,251107,2148,3635.860275745392,20.08289909362793,-20.181732177734375,9.616012573242188,0.0
250,MetaDrive-test-conv-dropout-norm-lr-1e5,69,60.659913952463846,252068,2155,3650.5133123397827,18.03927230834961,,2.689877986907959,0.0
251,MetaDrive-test-conv-dropout-norm-lr-1e5,69,60.76907955057433,253035,2162,3664.2297105789185,20.259334564208984,-20.495975494384766,0.7108442187309265,0.0
252,MetaDrive-test-conv-dropout-norm-lr-1e5,69,61.899683646437936,254858,2171,3688.0219662189484,19.99346160888672,,1.2203240394592285,0.0
253,MetaDrive-test-conv-dropout-norm-lr-1e5,69,61.91108404497501,255061,2173,3691.2122082710266,19.0620174407959,-19.332443237304688,1.3649228811264038,0.0
254,MetaDrive-test-conv-dropout-norm-lr-1e5,69,62.178730602452426,256030,2182,3705.5532944202423,21.793594360351562,,1.202553391456604,0.0
255,MetaDrive-test-conv-dropout-norm-lr-1e5,69,64.45282285204634,257119,2191,3722.4963369369507,17.972469329833984,-18.117599487304688,1.3336949348449707,0.0
256,MetaDrive-test-conv-dropout-norm-lr-1e5,69,65.16277474426283,258093,2201,3736.3865089416504,20.98455238342285,-21.045976638793945,0.6054241061210632,0.0
257,MetaDrive-test-conv-dropout-norm-lr-1e5,69,68.96047977968752,259094,2208,3751.506397485733,20.277023315429688,,2.777884006500244,0.0
258,MetaDrive-test-conv-dropout-norm-lr-1e5,69,69.0115833934119,260095,2209,3766.4057886600494,20.574480056762695,-20.42902374267578,2.7522330284118652,0.0
259,MetaDrive-test-conv-dropout-norm-lr-1e5,69,68.40751668551066,261063,2219,3780.136886358261,19.90774154663086,-20.089784622192383,3.141359806060791,0.0
260,MetaDrive-test-conv-dropout-norm-lr-1e5,69,68.98519959747797,262187,2221,3793.961197376251,19.731290817260742,-20.08908462524414,1.3832118511199951,0.0
261,MetaDrive-test-conv-dropout-norm-lr-1e5,69,70.19306277037913,263024,2228,3807.586891412735,21.12055206298828,,4.97421932220459,0.0
262,MetaDrive-test-conv-dropout-norm-lr-1e5,69,73.42141607948645,264384,2234,3828.365065574646,21.965492248535156,,1.9123752117156982,0.0
263,MetaDrive-test-conv-dropout-norm-lr-1e5,69,73.91225792339772,265016,2240,3837.81946349144,19.295940399169922,,14.620321273803711,0.0
264,MetaDrive-test-conv-dropout-norm-lr-1e5,69,75.81122896827083,266016,2248,3852.86811375618,20.582496643066406,,1.602584958076477,0.0
265,MetaDrive-test-conv-dropout-norm-lr-1e5,69,75.20261093380371,267064,2257,3868.7819335460663,17.828445434570312,,2.374302387237549,0.0
266,MetaDrive-test-conv-dropout-norm-lr-1e5,69,76.79340550860228,268930,2266,3896.4532763957977,20.69674301147461,,3.0160205364227295,0.0
267,MetaDrive-test-conv-dropout-norm-lr-1e5,69,77.19018496758672,269048,2267,3898.598953962326,18.625043869018555,,1.5040098428726196,0.0
268,MetaDrive-test-conv-dropout-norm-lr-1e5,69,78.15343480543595,270108,2272,3914.111729621887,20.006549835205078,,1.8093419075012207,0.0
269,MetaDrive-test-conv-dropout-norm-lr-1e5,68,80.6151571099067,271063,2278,3929.5590512752533,20.670543670654297,-20.79361915588379,2.149301528930664,0.0
270,MetaDrive-test-conv-dropout-norm-lr-1e5,69,79.84626793809163,272748,2286,3951.813581228256,18.069522857666016,,6.441048622131348,0.0
271,MetaDrive-test-conv-dropout-norm-lr-1e5,69,80.77087438593969,273025,2288,3955.883689880371,16.659212112426758,-16.251880645751953,5.55518913269043,0.0
272,MetaDrive-test-conv-dropout-norm-lr-1e5,69,80.9544788523477,274026,2289,3968.5356245040894,18.124969482421875,,1.9460241794586182,0.0
273,MetaDrive-test-conv-dropout-norm-lr-1e5,69,82.16297664015404,275193,2296,3986.670301437378,18.947429656982422,-18.80096435546875,0.5789434909820557,0.0
274,MetaDrive-test-conv-dropout-norm-lr-1e5,69,82.01690035385148,276110,2304,4000.394063472748,17.97580909729004,,19.105195999145508,0.0
275,MetaDrive-test-conv-dropout-norm-lr-1e5,69,81.96141844978034,277171,2308,4016.7329046726227,21.317581176757812,-21.73558807373047,1.3215599060058594,0.0
276,MetaDrive-test-conv-dropout-norm-lr-1e5,69,83.55877212584606,278040,2315,4028.9491996765137,19.682205200195312,,1.6059553623199463,0.0
277,MetaDrive-test-conv-dropout-norm-lr-1e5,69,84.27588301362252,279102,2323,4044.493440389633,20.21535873413086,,9.401498794555664,0.0
278,MetaDrive-test-conv-dropout-norm-lr-1e5,69,83.60151271370516,280013,2331,4057.274968624115,22.55113983154297,-23.054410934448242,2.1796045303344727,0.0
279,MetaDrive-test-conv-dropout-norm-lr-1e5,69,81.1800026008788,281055,2338,4071.6468920707703,22.159927368164062,-22.304811477661133,1.9435813426971436,0.0
280,MetaDrive-test-conv-dropout-norm-lr-1e5,69,81.24336624630863,282376,2341,4089.0174326896667,18.119739532470703,,1.4092974662780762,0.0
281,MetaDrive-test-conv-dropout-norm-lr-1e5,69,81.29460930166967,283092,2345,4099.774970293045,20.250553131103516,,3.310823917388916,0.0
282,MetaDrive-test-conv-dropout-norm-lr-1e5,69,80.76847538385387,284099,2353,4114.526054620743,22.614112854003906,-22.98355484008789,2.0065150260925293,0.0
283,MetaDrive-test-conv-dropout-norm-lr-1e5,69,81.77384392096936,285147,2359,4130.114973306656,20.757165908813477,-21.00356674194336,1.9487906694412231,0.0
284,MetaDrive-test-conv-dropout-norm-lr-1e5,69,82.04211052028569,286027,2365,4142.680595397949,17.179325103759766,-17.308364868164062,2.597414493560791,0.0
285,MetaDrive-test-conv-dropout-norm-lr-1e5,69,80.7575341234009,287171,2372,4161.634858131409,18.40463638305664,-18.528549194335938,1.6422251462936401,0.0
286,MetaDrive-test-conv-dropout-norm-lr-1e5,69,80.26093544108808,288610,2376,4180.0768213272095,20.045246124267578,,1.4936604499816895,0.0
287,MetaDrive-test-conv-dropout-norm-lr-1e5,69,80.93496998254217,289047,2379,4186.694332361221,18.181659698486328,-18.25572967529297,3.782188653945923,0.0
288,MetaDrive-test-conv-dropout-norm-lr-1e5,69,82.31934672652798,290253,2386,4204.6174223423,19.002452850341797,-19.30423927307129,2.131500005722046,0.0
289,MetaDrive-test-conv-dropout-norm-lr-1e5,69,82.09541153934899,291004,2392,4216.5325791835785,17.249027252197266,,26.550682067871094,0.0
290,MetaDrive-test-conv-dropout-norm-lr-1e5,69,84.60303660325302,292203,2399,4234.372702598572,19.650991439819336,-19.745956420898438,1.787787675857544,0.0
291,MetaDrive-test-conv-dropout-norm-lr-1e5,69,85.27603608034755,293011,2404,4245.893559932709,20.372867584228516,-20.84663200378418,1.3313205242156982,0.0
292,MetaDrive-test-conv-dropout-norm-lr-1e5,69,83.52614400439523,294089,2411,4261.926115274429,20.28976058959961,-20.271957397460938,2.710109233856201,0.0
293,MetaDrive-test-conv-dropout-norm-lr-1e5,69,84.47056629203678,295033,2418,4275.283962488174,20.95057487487793,-20.472122192382812,2.2629880905151367,0.0
294,MetaDrive-test-conv-dropout-norm-lr-1e5,68,85.14227077546639,296013,2425,4290.4212810993195,17.985816955566406,-17.87649154663086,3.625248908996582,0.0
295,MetaDrive-test-conv-dropout-norm-lr-1e5,69,84.83159566293853,297014,2426,4302.646070241928,18.820627212524414,,5.161918640136719,0.0
296,MetaDrive-test-conv-dropout-norm-lr-1e5,69,84.61775581910068,298087,2433,4318.499135017395,21.63959503173828,-22.18878173828125,16.20815658569336,0.0
297,MetaDrive-test-conv-dropout-norm-lr-1e5,69,86.00550832801386,299085,2440,4334.172137260437,21.60198974609375,-22.06972885131836,19.77674674987793,0.0
298,MetaDrive-test-conv-dropout-norm-lr-1e5,69,84.4569851009249,300284,2444,4350.924576997757,18.469097137451172,,2.558180332183838,0.0
299,MetaDrive-test-conv-dropout-norm-lr-1e5,69,85.07101189464512,301084,2450,4362.39019370079,19.915294647216797,,1.736154317855835,0.0
300,MetaDrive-test-conv-dropout-norm-lr-1e5,69,85.29550490323813,302085,2451,4374.798372030258,18.083667755126953,-18.61086654663086,21.918649673461914,0.0
301,MetaDrive-test-conv-dropout-norm-lr-1e5,69,84.80416080020301,303040,2456,4387.8486177921295,20.523719787597656,,6.735347747802734,0.0
302,MetaDrive-test-conv-dropout-norm-lr-1e5,69,83.70335663265314,304107,2460,4404.068392276764,18.66128158569336,-18.348133087158203,1.3999069929122925,0.0
303,MetaDrive-test-conv-dropout-norm-lr-1e5,69,85.65259443394665,305049,2464,4420.681376695633,20.78116798400879,-20.562541961669922,4.0097832679748535,0.0
304,MetaDrive-test-conv-dropout-norm-lr-1e5,68,88.6409826757203,306193,2470,4437.754511833191,16.612009048461914,-16.55400848388672,3.7717225551605225,0.0
305,MetaDrive-test-conv-dropout-norm-lr-1e5,68,85.7534244951983,307079,2478,4450.768547296524,16.37669563293457,-16.804285049438477,4.004889965057373,0.0
306,MetaDrive-test-conv-dropout-norm-lr-1e5,69,85.78360984337475,308623,2483,4470.811934709549,18.4892635345459,-18.517648696899414,2.9584412574768066,0.0
307,MetaDrive-test-conv-dropout-norm-lr-1e5,69,85.35823250634454,309066,2486,4477.86368060112,20.930395126342773,,1.719645380973816,0.0
308,MetaDrive-test-conv-dropout-norm-lr-1e5,69,84.12472256559347,310001,2494,4490.789995670319,22.55710220336914,-22.754249572753906,0.8114994764328003,0.0
309,MetaDrive-test-conv-dropout-norm-lr-1e5,69,81.30669247049872,311005,2503,4505.189996242523,20.412616729736328,-20.569759368896484,4.997506141662598,0.0
310,MetaDrive-test-conv-dropout-norm-lr-1e5,69,79.27865560280932,312046,2513,4521.990490913391,20.15329360961914,,2.94063138961792,0.0
311,MetaDrive-test-conv-dropout-norm-lr-1e5,68,79.18010000008582,313814,2521,4549.826614379883,19.03975486755371,,25.915386199951172,0.0
312,MetaDrive-test-conv-dropout-norm-lr-1e5,68,78.52672254594715,314035,2523,4552.837925434113,19.41227912902832,-19.002666473388672,3.141720771789551,0.0
313,MetaDrive-test-conv-dropout-norm-lr-1e5,68,79.58011388672749,315247,2529,4571.364870786667,16.932098388671875,-17.021942138671875,1.9580605030059814,0.0
314,MetaDrive-test-conv-dropout-norm-lr-1e5,68,81.42569123406814,316194,2533,4585.380885601044,18.9119873046875,,1.7899060249328613,0.0
315,MetaDrive-test-conv-dropout-norm-lr-1e5,68,82.97499458033062,317537,2539,4606.074052333832,17.460960388183594,-17.31310272216797,3.0241379737854004,0.01
316,MetaDrive-test-conv-dropout-norm-lr-1e5,68,83.35331755978132,318106,2544,4614.0889439582825,21.255817413330078,,7.827091693878174,0.01
317,MetaDrive-test-conv-dropout-norm-lr-1e5,68,84.12306650127985,319163,2552,4629.45454120636,19.900527954101562,-20.113460540771484,18.734750747680664,0.01
318,MetaDrive-test-conv-dropout-norm-lr-1e5,68,84.15786535296584,320079,2559,4641.476386547089,20.051761627197266,-20.51324462890625,1.1823136806488037,0.01
319,MetaDrive-test-conv-dropout-norm-lr-1e5,68,83.57669641894181,321036,2565,4656.246436595917,19.360401153564453,,2.9827685356140137,0.01
320,MetaDrive-test-conv-dropout-norm-lr-1e5,68,84.15010343638824,322032,2569,4670.229950904846,20.600189208984375,,15.536369323730469,0.01
321,MetaDrive-test-conv-dropout-norm-lr-1e5,68,85.76355974041009,323352,2576,4687.861298084259,19.574913024902344,,24.42584800720215,0.01
322,MetaDrive-test-conv-dropout-norm-lr-1e5,68,86.4226321806166,324072,2579,4701.3717131614685,20.491361618041992,,1.6301825046539307,0.01
323,MetaDrive-test-conv-dropout-norm-lr-1e5,68,85.6035009755981,325898,2586,4727.875334978104,18.510103225708008,,2.127864122390747,0.01
324,MetaDrive-test-conv-dropout-norm-lr-1e5,68,86.83745048168515,326419,2587,4737.443301439285,15.274040222167969,-16.327701568603516,9.417181015014648,0.01
325,MetaDrive-test-conv-dropout-norm-lr-1e5,68,87.4751956116262,327053,2590,4748.015952825546,19.88544464111328,-20.23489761352539,0.947391152381897,0.01
326,MetaDrive-test-conv-dropout-norm-lr-1e5,68,87.839011906336,328108,2597,4763.774661064148,21.066883087158203,,2.8966362476348877,0.01
327,MetaDrive-test-conv-dropout-norm-lr-1e5,68,89.13244875502627,329016,2602,4777.172329187393,20.620742797851562,,26.14967155456543,0.01
328,MetaDrive-test-conv-dropout-norm-lr-1e5,68,91.97577300837041,330020,2607,4792.6286635398865,23.572032928466797,,8.582085609436035,0.01
329,MetaDrive-test-conv-dropout-norm-lr-1e5,68,94.54244052419207,331111,2613,4809.779136419296,21.626514434814453,-22.113250732421875,3.8766770362854004,0.01
330,MetaDrive-test-conv-dropout-norm-lr-1e5,68,96.56198995155765,332008,2618,4823.2590708732605,22.389053344726562,,3.284778594970703,0.01
331,MetaDrive-test-conv-dropout-norm-lr-1e5,68,96.10069497525654,333220,2625,4840.9416680336,23.9300537109375,,5.857902526855469,0.01
332,MetaDrive-test-conv-dropout-norm-lr-1e5,68,97.48938011521099,334045,2628,4853.348429918289,20.743488311767578,-20.992427825927734,2.0380771160125732,0.01
333,MetaDrive-test-conv-dropout-norm-lr-1e5,68,100.40958775511518,335035,2630,4868.812544345856,20.19805145263672,-20.298458099365234,1.310765266418457,0.02
334,MetaDrive-test-conv-dropout-norm-lr-1e5,68,102.737663315635,336230,2636,4888.4239246845245,19.10680389404297,,20.46880340576172,0.03
335,MetaDrive-test-conv-dropout-norm-lr-1e5,68,101.13546107403016,337080,2640,4900.676011323929,21.532772064208984,,3.666738510131836,0.02
336,MetaDrive-test-conv-dropout-norm-lr-1e5,68,101.19437464937211,338014,2646,4912.962674617767,19.992176055908203,,2.280630588531494,0.02
337,MetaDrive-test-conv-dropout-norm-lr-1e5,68,98.54796085181522,339296,2654,4933.0913026332855,20.520587921142578,,1.0329822301864624,0.02
338,MetaDrive-test-conv-dropout-norm-lr-1e5,68,101.30238808427806,340372,2659,4950.1645793914795,20.923847198486328,,1.455899953842163,0.03
339,MetaDrive-test-conv-dropout-norm-lr-1e5,68,100.61209110447308,341063,2663,4959.456681013107,18.8427677154541,-19.484725952148438,4.294092178344727,0.03
340,MetaDrive-test-conv-dropout-norm-lr-1e5,68,99.53106516422544,342023,2668,4974.311866044998,21.32059097290039,-21.35634994506836,1.6694256067276,0.03
341,MetaDrive-test-conv-dropout-norm-lr-1e5,68,102.90550641675254,343223,2671,4995.504922628403,19.814952850341797,-19.99892234802246,3.35483980178833,0.03
342,MetaDrive-test-conv-dropout-norm-lr-1e5,68,103.17821942793306,344289,2677,5011.240250825882,21.3359375,-21.33855438232422,6.198574066162109,0.03
343,MetaDrive-test-conv-dropout-norm-lr-1e5,68,103.46519383281219,345038,2681,5021.979142189026,20.115589141845703,,26.50183868408203,0.03
344,MetaDrive-test-conv-dropout-norm-lr-1e5,68,104.88522619485406,346015,2685,5037.182943105698,20.571212768554688,-20.907018661499023,1.619773030281067,0.03
345,MetaDrive-test-conv-dropout-norm-lr-1e5,68,107.9292699005736,347125,2690,5055.316622018814,20.893653869628906,-21.228239059448242,1.2640284299850464,0.03
346,MetaDrive-test-conv-dropout-norm-lr-1e5,68,111.73901901583946,348048,2693,5070.187779426575,21.17852020263672,,1.0420751571655273,0.04
347,MetaDrive-test-conv-dropout-norm-lr-1e5,68,111.7613888418827,349202,2698,5087.70525765419,19.862281799316406,,14.977294921875,0.04
348,MetaDrive-test-conv-dropout-norm-lr-1e5,68,112.64709426525489,350431,2705,5107.2922604084015,21.331228256225586,-21.929100036621094,6.534290313720703,0.04
349,MetaDrive-test-conv-dropout-norm-lr-1e5,68,112.86822084552114,351104,2707,5116.847420454025,20.366941452026367,,1.418311595916748,0.05
350,MetaDrive-test-conv-dropout-norm-lr-1e5,68,110.55602423102705,352036,2713,5130.348391294479,17.245452880859375,,1.8521239757537842,0.05
351,MetaDrive-test-conv-dropout-norm-lr-1e5,68,108.86531621425218,353001,2720,5145.726769447327,18.9943904876709,-19.43974494934082,1.7952466011047363,0.05
352,MetaDrive-test-conv-dropout-norm-lr-1e5,68,110.41453785490086,354226,2725,5164.021537542343,23.62737274169922,,1.9782077074050903,0.05
353,MetaDrive-test-conv-dropout-norm-lr-1e5,68,110.34708372102237,355212,2728,5177.699048757553,20.301712036132812,,2.908433437347412,0.05
354,MetaDrive-test-conv-dropout-norm-lr-1e5,68,108.38315696382884,356090,2733,5193.854855775833,18.897235870361328,,5.23054313659668,0.04
355,MetaDrive-test-conv-dropout-norm-lr-1e5,68,109.62242127836147,357128,2736,5210.404269218445,18.18146514892578,,1.9847750663757324,0.04
356,MetaDrive-test-conv-dropout-norm-lr-1e5,68,110.61968277540994,358088,2742,5223.942978382111,18.555875778198242,,36.290855407714844,0.04
357,MetaDrive-test-conv-dropout-norm-lr-1e5,68,112.86934927375863,359034,2746,5238.2457666397095,21.633323669433594,,1.8011600971221924,0.04
358,MetaDrive-test-conv-dropout-norm-lr-1e5,68,114.81531605330794,360138,2752,5258.3246965408325,19.416852951049805,,2.2962112426757812,0.04
359,MetaDrive-test-conv-dropout-norm-lr-1e5,68,117.29660617980178,361266,2756,5276.659460067749,22.041677474975586,,0.9830641746520996,0.04
360,MetaDrive-test-conv-dropout-norm-lr-1e5,68,115.64969159250731,362034,2760,5287.765166521072,21.657154083251953,,4.353475570678711,0.03
361,MetaDrive-test-conv-dropout-norm-lr-1e5,68,117.58092776806362,363272,2766,5306.266008377075,21.610610961914062,,8.226320266723633,0.03
362,MetaDrive-test-conv-dropout-norm-lr-1e5,68,116.74572151525359,364192,2770,5320.097147941589,20.903181076049805,,26.95128631591797,0.03
363,MetaDrive-test-conv-dropout-norm-lr-1e5,68,116.60488260826796,365233,2774,5338.1262085437775,22.109100341796875,-21.681644439697266,4.473097324371338,0.03
364,MetaDrive-test-conv-dropout-norm-lr-1e5,68,117.75669942511807,366095,2780,5350.184545278549,17.482223510742188,-17.422258377075195,5.8661088943481445,0.03
365,MetaDrive-test-conv-dropout-norm-lr-1e5,68,119.11523831796504,367197,2782,5366.544532775879,21.66416358947754,-21.411531448364258,3.982036828994751,0.04
366,MetaDrive-test-conv-dropout-norm-lr-1e5,68,118.44866875861355,368257,2787,5381.72284412384,21.403579711914062,-21.47758674621582,3.124171257019043,0.04
367,MetaDrive-test-conv-dropout-norm-lr-1e5,68,118.40383580446397,369011,2790,5393.151233911514,24.67434310913086,-24.976016998291016,6.589475154876709,0.04
368,MetaDrive-test-conv-dropout-norm-lr-1e5,68,116.18493604313412,370097,2795,5407.943507432938,21.92104148864746,-22.004688262939453,2.649982452392578,0.04
369,MetaDrive-test-conv-dropout-norm-lr-1e5,68,115.92186897891362,371041,2802,5421.183723449707,25.215702056884766,-25.713075637817383,2.9419660568237305,0.04
370,MetaDrive-test-conv-dropout-norm-lr-1e5,68,115.78975056329138,372118,2806,5439.740419387817,22.10683822631836,,1.9489455223083496,0.05
371,MetaDrive-test-conv-dropout-norm-lr-1e5,68,118.17279022366765,373415,2809,5458.8868408203125,21.741064071655273,-22.353225708007812,1.819495439529419,0.05
372,MetaDrive-test-conv-dropout-norm-lr-1e5,68,118.95160984606184,374103,2813,5469.079809188843,23.74599266052246,-23.90130615234375,7.7609782218933105,0.05
373,MetaDrive-test-conv-dropout-norm-lr-1e5,68,119.48041521405055,375060,2819,5483.151038885117,22.73107147216797,,25.134342193603516,0.05
374,MetaDrive-test-conv-dropout-norm-lr-1e5,68,120.12569817457046,376093,2825,5497.846966505051,23.38090705871582,-23.471363067626953,1.0943400859832764,0.06
375,MetaDrive-test-conv-dropout-norm-lr-1e5,68,118.91724464577077,377131,2831,5512.6426339149475,19.400192260742188,-19.764739990234375,6.796914100646973,0.06
376,MetaDrive-test-conv-dropout-norm-lr-1e5,68,117.97916489043568,378087,2835,5527.762533187866,22.614879608154297,-22.4987735748291,1.6734530925750732,0.05
377,MetaDrive-test-conv-dropout-norm-lr-1e5,68,118.70574901132372,379113,2840,5542.918075323105,23.285930633544922,-23.144515991210938,1.6664924621582031,0.06
378,MetaDrive-test-conv-dropout-norm-lr-1e5,68,119.12167589348932,380209,2846,5560.015141487122,22.93787384033203,-23.036579132080078,2.1422014236450195,0.06
379,MetaDrive-test-conv-dropout-norm-lr-1e5,68,121.02097465998563,381560,2848,5586.984822511673,23.454790115356445,,3.1262216567993164,0.06
380,MetaDrive-test-conv-dropout-norm-lr-1e5,68,123.96675684607669,382191,2850,5597.955119848251,21.79933738708496,-21.46771240234375,3.607175827026367,0.06
381,MetaDrive-test-conv-dropout-norm-lr-1e5,68,125.84942242590309,383002,2852,5614.275428771973,22.95624351501465,,1.402282476425171,0.06
382,MetaDrive-test-conv-dropout-norm-lr-1e5,68,126.23893277073968,384561,2857,5639.192263126373,23.632831573486328,-23.879791259765625,6.650140285491943,0.06
383,MetaDrive-test-conv-dropout-norm-lr-1e5,68,125.37257397521448,385089,2860,5647.2457439899445,20.06304168701172,-19.846092224121094,2.2843940258026123,0.06
384,MetaDrive-test-conv-dropout-norm-lr-1e5,68,124.3042867648782,386081,2866,5662.137093305588,18.005104064941406,-18.304994583129883,4.988578796386719,0.07
385,MetaDrive-test-conv-dropout-norm-lr-1e5,68,122.99069751059245,387251,2871,5679.288927078247,21.031448364257812,-21.209259033203125,1.808933973312378,0.07
386,MetaDrive-test-conv-dropout-norm-lr-1e5,68,123.58621284317341,388025,2874,5691.75998711586,24.28708267211914,-24.763225555419922,2.2299857139587402,0.07
387,MetaDrive-test-conv-dropout-norm-lr-1e5,68,125.99773558710663,389012,2877,5705.9216504096985,22.496719360351562,,1.8191297054290771,0.08
388,MetaDrive-test-conv-dropout-norm-lr-1e5,68,124.75853968802214,390039,2882,5720.635255813599,23.104522705078125,-23.30713653564453,6.300298690795898,0.07
389,MetaDrive-test-conv-dropout-norm-lr-1e5,68,126.71151546738324,391199,2887,5738.706203699112,26.142303466796875,-26.45368766784668,2.373912811279297,0.07
390,MetaDrive-test-conv-dropout-norm-lr-1e5,68,126.79412179180073,392149,2892,5751.585010528564,22.01470947265625,-22.305591583251953,2.7604379653930664,0.07
391,MetaDrive-test-conv-dropout-norm-lr-1e5,68,126.1919833378674,393167,2897,5765.838373422623,22.87601661682129,-22.771392822265625,4.6279449462890625,0.07
392,MetaDrive-test-conv-dropout-norm-lr-1e5,68,131.20369876730152,394363,2901,5783.565247774124,20.68069076538086,-20.72965431213379,1.8975812196731567,0.08
393,MetaDrive-test-conv-dropout-norm-lr-1e5,68,134.64735136101854,395736,2904,5811.053784370422,18.549898147583008,,2.0605521202087402,0.08
394,MetaDrive-test-conv-dropout-norm-lr-1e5,68,134.6782494752822,396255,2905,5818.885756015778,22.129926681518555,-22.64453125,2.876321792602539,0.08
395,MetaDrive-test-conv-dropout-norm-lr-1e5,68,131.7997708156938,397112,2910,5831.391412734985,22.147342681884766,,2.8865904808044434,0.07
396,MetaDrive-test-conv-dropout-norm-lr-1e5,68,133.73797176992286,398038,2914,5843.84058713913,18.533079147338867,,3.8085107803344727,0.07
397,MetaDrive-test-conv-dropout-norm-lr-1e5,68,134.66965080700763,399101,2919,5858.385919094086,21.487396240234375,-21.748592376708984,2.211869955062866,0.08
398,MetaDrive-test-conv-dropout-norm-lr-1e5,68,137.34943436267665,400200,2921,5874.5948712825775,22.881866455078125,,4.74442195892334,0.08
399,MetaDrive-test-conv-dropout-norm-lr-1e5,68,141.1162476954104,401290,2924,5889.23894071579,21.569782257080078,,1.954636812210083,0.1
400,MetaDrive-test-conv-dropout-norm-lr-1e5,68,142.92246272096523,402138,2927,5900.191712141037,23.894725799560547,,1.8911943435668945,0.11
401,MetaDrive-test-conv-dropout-norm-lr-1e5,68,143.96867965198567,403020,2931,5912.717471599579,25.5861873626709,,1.8870503902435303,0.12
402,MetaDrive-test-conv-dropout-norm-lr-1e5,68,145.43706971617135,404187,2934,5931.024409770966,23.609346389770508,-23.50365447998047,3.1035101413726807,0.12
403,MetaDrive-test-conv-dropout-norm-lr-1e5,68,144.67865103809302,405208,2938,5947.046769142151,24.333433151245117,,1.798339605331421,0.12
404,MetaDrive-test-conv-dropout-norm-lr-1e5,68,147.39309253844058,406039,2942,5958.299307584763,21.52215003967285,-22.216964721679688,3.592229127883911,0.12
405,MetaDrive-test-conv-dropout-norm-lr-1e5,68,146.91472136621888,407065,2944,5973.460013866425,22.108264923095703,-22.515098571777344,2.168390989303589,0.12
406,MetaDrive-test-conv-dropout-norm-lr-1e5,68,140.3866715296041,408095,2950,5992.076992750168,24.212526321411133,-24.742136001586914,1.8496958017349243,0.12
407,MetaDrive-test-conv-dropout-norm-lr-1e5,68,139.0820999598727,409273,2955,6008.819706201553,21.483083724975586,-21.365131378173828,4.073634147644043,0.12
408,MetaDrive-test-conv-dropout-norm-lr-1e5,68,137.9206962912234,410176,2959,6023.806237220764,22.305511474609375,,2.9244251251220703,0.12
409,MetaDrive-test-conv-dropout-norm-lr-1e5,68,140.21057942906572,411080,2963,6037.483623743057,23.602333068847656,,4.104125022888184,0.12
410,MetaDrive-test-conv-dropout-norm-lr-1e5,68,141.76791873357467,412130,2967,6052.978358507156,24.842849731445312,,2.4424946308135986,0.12
411,MetaDrive-test-conv-dropout-norm-lr-1e5,68,143.82221204857328,413227,2970,6070.14321064949,20.455150604248047,-20.98194122314453,24.158809661865234,0.12
412,MetaDrive-test-conv-dropout-norm-lr-1e5,68,147.19932898314022,414833,2973,6097.383515834808,21.18935203552246,-21.1137638092041,4.391420364379883,0.12
413,MetaDrive-test-conv-dropout-norm-lr-1e5,68,144.99708097932077,415039,2975,6100.693700790405,22.044706344604492,-22.125354766845703,3.512091636657715,0.12
414,MetaDrive-test-conv-dropout-norm-lr-1e5,68,146.89812715860856,416637,2977,6123.450332403183,23.643003463745117,-23.84957504272461,1.3739697933197021,0.12
415,MetaDrive-test-conv-dropout-norm-lr-1e5,68,147.96658579632972,417470,2979,6135.220643758774,20.41412353515625,,1.839451551437378,0.13
416,MetaDrive-test-conv-dropout-norm-lr-1e5,68,148.30818193156804,418293,2984,6148.066584587097,24.55862045288086,-25.229875564575195,2.1994056701660156,0.13
417,MetaDrive-test-conv-dropout-norm-lr-1e5,68,149.25527130008962,419334,2988,6164.384945869446,19.56768798828125,,3.0964038372039795,0.14
418,MetaDrive-test-conv-dropout-norm-lr-1e5,68,153.18198114429086,420530,2991,6182.081995487213,20.55331039428711,,1.4359452724456787,0.16
419,MetaDrive-test-conv-dropout-norm-lr-1e5,68,153.35238675419336,421159,2993,6190.007021665573,23.699462890625,-23.746862411499023,2.9734606742858887,0.16
420,MetaDrive-test-conv-dropout-norm-lr-1e5,68,156.2919173249581,422676,2996,6212.29631114006,21.48711585998535,,16.456018447875977,0.17
421,MetaDrive-test-conv-dropout-norm-lr-1e5,68,154.61265440289503,423040,2998,6217.618592500687,20.36263656616211,,14.361296653747559,0.16
422,MetaDrive-test-conv-dropout-norm-lr-1e5,68,153.82452776411253,424029,3002,6235.468999147415,21.548542022705078,-21.637983322143555,1.620015025138855,0.15
423,MetaDrive-test-conv-dropout-norm-lr-1e5,67,151.9591489862767,425340,3006,6259.222446203232,25.33414077758789,,6.792242527008057,0.14
424,MetaDrive-test-conv-dropout-norm-lr-1e5,67,151.01130407198573,426100,3010,6271.2347407341,24.705297470092773,,14.833999633789062,0.14
425,MetaDrive-test-conv-dropout-norm-lr-1e5,67,150.65513218919034,427041,3014,6285.725372314453,23.262975692749023,-23.72060775756836,11.145587921142578,0.14
426,MetaDrive-test-conv-dropout-norm-lr-1e5,67,153.1039491446171,428316,3018,6305.695059299469,24.809146881103516,,2.2155189514160156,0.14
427,MetaDrive-test-conv-dropout-norm-lr-1e5,67,147.110540579537,429015,3021,6314.678691148758,23.73053550720215,-23.905292510986328,1.6162967681884766,0.12
428,MetaDrive-test-conv-dropout-norm-lr-1e5,67,145.33655219556186,430454,3026,6334.135360717773,25.099430084228516,,2.0884318351745605,0.11
429,MetaDrive-test-conv-dropout-norm-lr-1e5,67,146.10728858168943,431072,3028,6342.315570354462,23.261638641357422,,22.70836067199707,0.11
430,MetaDrive-test-conv-dropout-norm-lr-1e5,67,148.10246321232503,432120,3031,6361.801648616791,25.467796325683594,,23.02340316772461,0.1
431,MetaDrive-test-conv-dropout-norm-lr-1e5,67,147.89112021022777,433073,3035,6374.791201353073,24.063644409179688,-24.385534286499023,3.284019708633423,0.11
432,MetaDrive-test-conv-dropout-norm-lr-1e5,67,147.90965960592814,434372,3039,6395.743132829666,27.538000106811523,,2.418036937713623,0.11
433,MetaDrive-test-conv-dropout-norm-lr-1e5,67,150.2597942370109,435023,3041,6405.271281242371,23.250646591186523,-23.057636260986328,1.9874178171157837,0.12
434,MetaDrive-test-conv-dropout-norm-lr-1e5,67,151.8796378695548,436435,3045,6424.439398527145,23.987916946411133,-23.52621078491211,1.977392315864563,0.13
435,MetaDrive-test-conv-dropout-norm-lr-1e5,67,154.74541543557726,437148,3047,6437.796079874039,20.220157623291016,,10.191883087158203,0.13
436,MetaDrive-test-conv-dropout-norm-lr-1e5,67,156.84057411950195,438244,3051,6455.211406946182,22.353973388671875,,9.523124694824219,0.14
437,MetaDrive-test-conv-dropout-norm-lr-1e5,67,159.65937344408326,439178,3053,6469.028651237488,24.483821868896484,,2.211796760559082,0.16
438,MetaDrive-test-conv-dropout-norm-lr-1e5,67,162.6195305569191,440216,3057,6483.42848110199,24.00283432006836,,31.465702056884766,0.16
439,MetaDrive-test-conv-dropout-norm-lr-1e5,67,160.86522476721896,441161,3062,6498.691830873489,23.062885284423828,-23.79189682006836,15.795135498046875,0.16
440,MetaDrive-test-conv-dropout-norm-lr-1e5,67,159.22317424939146,442082,3067,6514.882317304611,22.02363395690918,,1.4332690238952637,0.15
441,MetaDrive-test-conv-dropout-norm-lr-1e5,67,156.17789036515475,443144,3071,6534.011138677597,23.090660095214844,,2.8566641807556152,0.15
442,MetaDrive-test-conv-dropout-norm-lr-1e5,67,155.91340858455362,444220,3075,6550.334439754486,21.332075119018555,,4.866089344024658,0.16
443,MetaDrive-test-conv-dropout-norm-lr-1e5,67,155.7892966333098,445190,3078,6565.295650243759,23.08403778076172,,2.567819595336914,0.17
444,MetaDrive-test-conv-dropout-norm-lr-1e5,67,155.28041340354636,446067,3080,6579.819144964218,23.05856704711914,-23.203187942504883,3.104668617248535,0.17
445,MetaDrive-test-conv-dropout-norm-lr-1e5,67,159.386874843469,447343,3084,6598.32005572319,22.825462341308594,-23.215518951416016,6.655909538269043,0.19
446,MetaDrive-test-conv-dropout-norm-lr-1e5,67,157.36624126403117,448306,3088,6612.204171180725,23.788936614990234,,6.617581844329834,0.19
447,MetaDrive-test-conv-dropout-norm-lr-1e5,67,154.61315669429194,449394,3092,6626.975975036621,23.18317222595215,,26.713966369628906,0.18
448,MetaDrive-test-conv-dropout-norm-lr-1e5,67,154.43457920980615,450117,3095,6639.373973608017,25.15104103088379,-25.848297119140625,5.600847244262695,0.17
449,MetaDrive-test-conv-dropout-norm-lr-1e5,67,153.90577805923914,451015,3099,6653.23832154274,23.646804809570312,-23.978557586669922,4.253751277923584,0.17
450,MetaDrive-test-conv-dropout-norm-lr-1e5,67,154.24361839542368,452372,3104,6674.417521953583,21.842517852783203,,36.611244201660156,0.18
451,MetaDrive-test-conv-dropout-norm-lr-1e5,67,154.1715563816981,453285,3106,6690.159717559814,24.737197875976562,-24.93000030517578,3.640886068344116,0.19
452,MetaDrive-test-conv-dropout-norm-lr-1e5,67,155.19440312882932,454286,3107,6705.505899190903,26.999197006225586,,5.657232761383057,0.19
453,MetaDrive-test-conv-dropout-norm-lr-1e5,67,158.68833854245216,455283,3110,6725.52147269249,23.49435806274414,-23.944904327392578,2.5732569694519043,0.2
454,MetaDrive-test-conv-dropout-norm-lr-1e5,67,157.1658905550449,456001,3114,6736.12047958374,23.326801300048828,-23.61390495300293,5.020624160766602,0.2
455,MetaDrive-test-conv-dropout-norm-lr-1e5,67,158.17836323613514,457198,3119,6753.614878416061,21.910839080810547,,11.576425552368164,0.21
456,MetaDrive-test-conv-dropout-norm-lr-1e5,67,159.83463686936994,458399,3123,6774.391348600388,24.499927520751953,-24.532878875732422,2.275336742401123,0.21
457,MetaDrive-test-conv-dropout-norm-lr-1e5,67,159.66349916777648,459045,3125,6785.610597610474,20.929664611816406,-21.034717559814453,1.7679145336151123,0.2
458,MetaDrive-test-conv-dropout-norm-lr-1e5,67,160.4097916102646,460195,3128,6807.687075614929,24.50629425048828,-24.87212371826172,2.5326433181762695,0.19
459,MetaDrive-test-conv-dropout-norm-lr-1e5,67,162.3264903440023,461431,3132,6826.41197013855,21.676509857177734,-21.864866256713867,2.2788500785827637,0.21
460,MetaDrive-test-conv-dropout-norm-lr-1e5,67,163.06340698945462,462243,3133,6843.602423906326,22.895061492919922,-23.325241088867188,2.710850715637207,0.2
461,MetaDrive-test-conv-dropout-norm-lr-1e5,67,162.0188865650108,463013,3137,6856.0121693611145,22.454730987548828,-21.973079681396484,21.615421295166016,0.19
462,MetaDrive-test-conv-dropout-norm-lr-1e5,67,164.12869520622033,464594,3141,6882.710765123367,22.619277954101562,,23.871166229248047,0.2
463,MetaDrive-test-conv-dropout-norm-lr-1e5,67,165.49201113415052,465124,3143,6892.628448486328,20.457660675048828,,18.077274322509766,0.2
464,MetaDrive-test-conv-dropout-norm-lr-1e5,67,162.13305452910055,466234,3148,6910.567335128784,22.466047286987305,,4.305637359619141,0.19
465,MetaDrive-test-conv-dropout-norm-lr-1e5,67,165.10644240619638,467557,3150,6931.55668926239,25.73138427734375,-25.536518096923828,2.4438316822052,0.2
466,MetaDrive-test-conv-dropout-norm-lr-1e5,67,161.1527090205718,468267,3152,6943.289999485016,26.101898193359375,-26.310632705688477,6.31951379776001,0.18
467,MetaDrive-test-conv-dropout-norm-lr-1e5,67,161.06104832634986,469361,3156,6957.758311986923,22.88086700439453,-22.977863311767578,4.773839950561523,0.18
468,MetaDrive-test-conv-dropout-norm-lr-1e5,67,161.37873739814717,470063,3157,6969.122992515564,24.734241485595703,-24.78345489501953,4.75279426574707,0.18
469,MetaDrive-test-conv-dropout-norm-lr-1e5,67,165.3849334066507,471207,3161,6987.1800310611725,24.63448715209961,-24.46248435974121,2.4021129608154297,0.18
470,MetaDrive-test-conv-dropout-norm-lr-1e5,67,166.96676370569617,472011,3163,7000.214707136154,26.93984603881836,-27.149293899536133,2.386662483215332,0.19
471,MetaDrive-test-conv-dropout-norm-lr-1e5,67,170.00110172421628,473870,3167,7028.617312431335,24.48740005493164,,18.439111709594727,0.2
472,MetaDrive-test-conv-dropout-norm-lr-1e5,67,169.66797378625353,474183,3168,7032.73054766655,26.145851135253906,-26.097261428833008,9.495355606079102,0.2
473,MetaDrive-test-conv-dropout-norm-lr-1e5,67,172.05585391842683,475231,3171,7052.080309867859,26.63591766357422,-27.11332893371582,11.791316986083984,0.2
474,MetaDrive-test-conv-dropout-norm-lr-1e5,67,172.69241001195917,476212,3174,7071.162388086319,23.462539672851562,,2.177671432495117,0.19
475,MetaDrive-test-conv-dropout-norm-lr-1e5,67,170.4518185370481,477628,3179,7096.832294225693,25.51026153564453,,2.4159369468688965,0.17
476,MetaDrive-test-conv-dropout-norm-lr-1e5,67,171.08517084564951,478134,3181,7105.272960662842,23.872207641601562,,5.1719512939453125,0.17
477,MetaDrive-test-conv-dropout-norm-lr-1e5,67,169.72077872027032,479156,3185,7120.8154733181,26.3887939453125,,5.007298469543457,0.15
478,MetaDrive-test-conv-dropout-norm-lr-1e5,67,173.70921572799412,480249,3188,7139.100942134857,23.942859649658203,-24.395427703857422,3.923072338104248,0.15
479,MetaDrive-test-conv-dropout-norm-lr-1e5,67,176.43780392942259,481292,3190,7154.732343673706,25.593456268310547,,4.611454963684082,0.16
480,MetaDrive-test-conv-dropout-norm-lr-1e5,67,177.54498399504845,482103,3193,7164.867524385452,20.091575622558594,-20.10220718383789,5.846736431121826,0.17
481,MetaDrive-test-conv-dropout-norm-lr-1e5,67,180.68653300868328,483159,3195,7181.397344112396,24.723297119140625,-24.75009536743164,1.5776357650756836,0.19
482,MetaDrive-test-conv-dropout-norm-lr-1e5,67,183.01260890685634,484414,3198,7203.3808698654175,23.312786102294922,,3.708908796310425,0.2
483,MetaDrive-test-conv-dropout-norm-lr-1e5,67,183.9550576213961,485143,3201,7215.9737956523895,26.856246948242188,-26.41592788696289,2.4577438831329346,0.2
484,MetaDrive-test-conv-dropout-norm-lr-1e5,67,180.2263417294493,486183,3206,7231.167380332947,27.040184020996094,-26.79370880126953,5.97244930267334,0.19
485,MetaDrive-test-conv-dropout-norm-lr-1e5,67,181.59103112001085,487376,3208,7249.335392951965,26.872085571289062,,6.981940269470215,0.19
486,MetaDrive-test-conv-dropout-norm-lr-1e5,67,179.54114839321656,488098,3209,7261.586057424545,25.37723159790039,,3.336622953414917,0.18
487,MetaDrive-test-conv-dropout-norm-lr-1e5,67,181.0499378086311,489282,3213,7282.212869167328,21.972545623779297,,2.3666834831237793,0.19
488,MetaDrive-test-conv-dropout-norm-lr-1e5,67,182.04876483748998,490550,3218,7302.45525097847,25.326753616333008,,3.8788046836853027,0.19
489,MetaDrive-test-conv-dropout-norm-lr-1e5,67,180.79364779370212,491063,3221,7309.6250195503235,24.62784194946289,-25.551441192626953,25.464248657226562,0.19
490,MetaDrive-test-conv-dropout-norm-lr-1e5,67,182.95306601864257,492111,3224,7327.6468064785,23.781972885131836,-24.55127716064453,14.66711711883545,0.2
491,MetaDrive-test-conv-dropout-norm-lr-1e5,67,180.17399544689394,493136,3228,7342.9699964523315,20.18899154663086,,2.424363851547241,0.21
492,MetaDrive-test-conv-dropout-norm-lr-1e5,67,183.39584001507268,494192,3230,7358.480272769928,25.296600341796875,,13.474663734436035,0.22
493,MetaDrive-test-conv-dropout-norm-lr-1e5,67,180.03374156696228,495187,3233,7374.978133201599,25.830135345458984,-26.257957458496094,2.447970151901245,0.2
494,MetaDrive-test-conv-dropout-norm-lr-1e5,67,183.51173723184638,496210,3235,7392.348119020462,26.892642974853516,,3.1947264671325684,0.21
495,MetaDrive-test-conv-dropout-norm-lr-1e5,67,189.8007906162012,497678,3237,7420.48207116127,25.225605010986328,,2.6399292945861816,0.23
496,MetaDrive-test-conv-dropout-norm-lr-1e5,67,188.45576380725214,498679,3238,7436.94152879715,27.888288497924805,-28.317371368408203,4.283522605895996,0.22
497,MetaDrive-test-conv-dropout-norm-lr-1e5,67,190.00150448812562,499540,3240,7451.252571344376,23.15604019165039,,3.3820862770080566,0.23
