TanmayH/CS269-RL-project-code/MetaDrive-td3combine-new-expt/MetaDrive-New-Next-v0/td3/progress.csv
,log_dir,frame_per_second,episode_reward,total_steps,total_episodes,total_time,target_q,actor_loss,critic_loss,success_rate
0,MetaDrive-td3combine-new-expt,715,12.581631494111328,1954,2,2.729111671447754,,,,0.0
1,MetaDrive-td3combine-new-expt,663,9.41860336160127,2566,3,3.8677916526794434,,,,0.0
2,MetaDrive-td3combine-new-expt,616,10.819530039351585,3567,4,5.789059400558472,,,,0.0
3,MetaDrive-td3combine-new-expt,614,10.7254303190383,4568,5,7.432968378067017,,,,0.0
4,MetaDrive-td3combine-new-expt,446,10.851064125025644,5047,6,11.291090726852417,0.16064698994159698,-0.1770406812429428,0.001475445693358779,0.0
5,MetaDrive-td3combine-new-expt,225,0.0629002346468844,6837,35,30.3122820854187,0.23284462094306946,-0.1993263065814972,0.03300316631793976,0.0
6,MetaDrive-td3combine-new-expt,208,0.012555903647127449,7838,36,37.67227554321289,0.21927326917648315,,0.0038024496752768755,0.0
7,MetaDrive-td3combine-new-expt,197,-0.10536457598446393,8760,37,44.36364769935608,0.24839875102043152,,0.008369139395654202,0.0
8,MetaDrive-td3combine-new-expt,188,-0.12688925459866526,9761,38,51.68930792808533,0.24454176425933838,-0.22927239537239075,0.001839308999478817,0.0
9,MetaDrive-td3combine-new-expt,181,0.04548845065653505,10925,40,60.199296712875366,0.2702082395553589,-0.2541004419326782,0.0029564332216978073,0.0
10,MetaDrive-td3combine-new-expt,176,0.10153835290126456,11926,41,67.643794298172,0.18977394700050354,,0.5787662267684937,0.0
11,MetaDrive-td3combine-new-expt,175,0.13229391657893713,12035,42,68.67070412635803,0.2924339771270752,-0.2972090244293213,0.015110339969396591,0.0
12,MetaDrive-td3combine-new-expt,168,0.8327461156037842,13260,46,78.57773947715759,0.2916313409805298,,0.009840241633355618,0.0
13,MetaDrive-td3combine-new-expt,164,1.582705799616214,14167,48,86.10622334480286,0.3538588285446167,-0.40799254179000854,0.014680018648505211,0.0
14,MetaDrive-td3combine-new-expt,158,1.7306933664705135,15006,57,94.41728258132935,0.37508267164230347,,0.010364986024796963,0.0
15,MetaDrive-td3combine-new-expt,154,2.3405454704065667,16006,67,103.71661710739136,0.40564244985580444,,0.015252269804477692,0.0
16,MetaDrive-td3combine-new-expt,150,2.7782891779821965,17013,79,112.92192935943604,0.45248162746429443,-0.43353915214538574,0.02673058956861496,0.0
17,MetaDrive-td3combine-new-expt,147,3.121752028442538,18075,95,122.87973213195801,0.5839025378227234,-0.5449774265289307,0.019444985315203667,0.0
18,MetaDrive-td3combine-new-expt,143,4.020659488070887,19012,115,132.71890902519226,0.6614499092102051,,0.03907085582613945,0.0
19,MetaDrive-td3combine-new-expt,140,6.627875697135311,20042,136,143.06273460388184,0.764030933380127,,0.04090827703475952,0.0
20,MetaDrive-td3combine-new-expt,137,7.42428471801559,21043,159,153.39233422279358,0.8242999315261841,-1.0297999382019043,2.3377699851989746,0.0
21,MetaDrive-td3combine-new-expt,135,7.8415938749945004,22008,181,162.9364058971405,0.9148411750793457,,3.5702924728393555,0.0
22,MetaDrive-td3combine-new-expt,132,7.900626363561084,23035,206,173.64713335037231,1.423386573791504,-1.4967310428619385,0.0461839959025383,0.0
23,MetaDrive-td3combine-new-expt,131,7.862392740892764,24080,223,182.92796301841736,1.61765718460083,,0.082617849111557,0.0
24,MetaDrive-td3combine-new-expt,131,8.631451347194933,25056,238,191.163161277771,1.8060150146484375,,1.3229501247406006,0.0
25,MetaDrive-td3combine-new-expt,130,9.88496375490814,26039,253,200.23415660858154,2.1596145629882812,-2.141981601715088,0.10050996392965317,0.0
26,MetaDrive-td3combine-new-expt,129,10.391761652691143,27015,269,209.1095368862152,2.306122064590454,-2.4557278156280518,1.8719110488891602,0.0
27,MetaDrive-td3combine-new-expt,128,12.011842859010859,28082,284,218.36075019836426,2.3867034912109375,,3.873548984527588,0.0
28,MetaDrive-td3combine-new-expt,127,13.710957988324115,29011,297,226.7266662120819,3.013655185699463,-3.076974868774414,0.08208006620407104,0.0
29,MetaDrive-td3combine-new-expt,127,15.22968341764164,30006,307,235.0866630077362,3.171191692352295,,2.3777616024017334,0.0
30,MetaDrive-td3combine-new-expt,127,15.596084248601107,31005,322,243.8760802745819,3.6253702640533447,-3.771817684173584,0.11487634479999542,0.0
31,MetaDrive-td3combine-new-expt,127,17.596213132707188,32462,327,254.8959469795227,3.8619422912597656,,5.165369510650635,0.02
32,MetaDrive-td3combine-new-expt,127,18.009098279944837,33016,334,259.4702422618866,4.22836971282959,,2.6165032386779785,0.02
33,MetaDrive-td3combine-new-expt,127,19.626935208536423,34025,338,267.55875992774963,4.859872817993164,-4.686334609985352,0.4762880206108093,0.02
34,MetaDrive-td3combine-new-expt,127,21.799902784479137,35023,346,275.3563368320465,4.8934645652771,-5.06370735168457,5.179352760314941,0.02
35,MetaDrive-td3combine-new-expt,126,23.06328168742386,36053,349,284.32641434669495,4.9445414543151855,-5.307168006896973,8.220928192138672,0.03
36,MetaDrive-td3combine-new-expt,126,24.968199174157007,37079,355,292.4340064525604,5.416754245758057,-5.848908424377441,9.998638153076172,0.03
37,MetaDrive-td3combine-new-expt,126,28.186560410212316,38100,361,301.4338502883911,6.417616844177246,,4.819580078125,0.03
38,MetaDrive-td3combine-new-expt,126,26.00554883906454,39334,364,311.1907408237457,6.5850629806518555,,1.825639009475708,0.04
39,MetaDrive-td3combine-new-expt,126,28.50848720529458,40547,369,320.4668984413147,7.202304363250732,-7.21860408782959,0.5421903133392334,0.05
40,MetaDrive-td3combine-new-expt,126,30.509069711956286,41020,371,324.3453960418701,7.701738357543945,,3.629547595977783,0.06
41,MetaDrive-td3combine-new-expt,126,33.08952573659383,42518,374,335.92022347450256,7.769901275634766,,11.588041305541992,0.06
42,MetaDrive-td3combine-new-expt,126,34.70489876923858,43212,376,341.2914969921112,8.736268997192383,,5.893826007843018,0.07
43,MetaDrive-td3combine-new-expt,126,35.258113207996566,44213,377,349.49268198013306,8.828847885131836,-9.376805305480957,4.39200496673584,0.07
44,MetaDrive-td3combine-new-expt,126,36.13531890437044,45214,378,357.2016820907593,9.552661895751953,,0.28410637378692627,0.07
45,MetaDrive-td3combine-new-expt,126,39.35612244298478,46063,380,363.9383108615875,10.354371070861816,-10.451030731201172,0.6731405258178711,0.08
46,MetaDrive-td3combine-new-expt,126,42.266309556170796,47556,383,375.68775749206543,9.576290130615234,,5.911999225616455,0.08
47,MetaDrive-td3combine-new-expt,126,45.616270669675124,48235,385,380.8696463108063,10.74459457397461,-11.219594955444336,6.4122772216796875,0.09
48,MetaDrive-td3combine-new-expt,126,48.03707985876868,49146,389,388.41060972213745,11.47300910949707,,0.7356767654418945,0.09
49,MetaDrive-td3combine-new-expt,126,52.31347727064637,50597,393,399.64734864234924,12.13512134552002,-12.616207122802734,8.250008583068848,0.1
50,MetaDrive-td3combine-new-expt,126,57.8668618944135,51660,395,408.4356610774994,12.140817642211914,,9.299318313598633,0.12
51,MetaDrive-td3combine-new-expt,126,60.15763131412082,52661,396,415.58607959747314,13.253610610961914,-13.571712493896484,0.42250800132751465,0.12
52,MetaDrive-td3combine-new-expt,126,62.195135465430575,53199,397,419.62467885017395,13.346948623657227,-13.66793441772461,0.7265629768371582,0.13
53,MetaDrive-td3combine-new-expt,126,68.34989042488948,54434,400,428.795574426651,14.131797790527344,,2.564079761505127,0.15
54,MetaDrive-td3combine-new-expt,127,69.1650867667929,55435,401,436.36901807785034,13.78427505493164,-14.039436340332031,0.3919152617454529,0.15
55,MetaDrive-td3combine-new-expt,127,69.2627454137684,56436,402,443.9846258163452,14.242812156677246,,1.8530935049057007,0.15
56,MetaDrive-td3combine-new-expt,127,70.05686954623371,57202,403,449.6285960674286,14.494912147521973,,0.43143245577812195,0.15
57,MetaDrive-td3combine-new-expt,127,72.03551612019167,58446,405,459.1751205921173,14.864703178405762,,0.9080789089202881,0.15
58,MetaDrive-td3combine-new-expt,127,72.40389711161829,59447,406,466.83257842063904,15.215400695800781,-15.217984199523926,10.460824966430664,0.15
59,MetaDrive-td3combine-new-expt,127,75.2773706706193,60059,407,471.4949474334717,16.460464477539062,-16.515106201171875,0.8224711418151855,0.16
60,MetaDrive-td3combine-new-expt,127,77.92540360835625,61060,408,478.97678661346436,15.900127410888672,,2.9510483741760254,0.16
61,MetaDrive-td3combine-new-expt,127,80.89091882538816,62800,410,493.10672426223755,16.285533905029297,,5.051496505737305,0.16
62,MetaDrive-td3combine-new-expt,127,83.92636632207092,63369,411,497.60119795799255,17.55508041381836,-18.043500900268555,0.5272923707962036,0.17
63,MetaDrive-td3combine-new-expt,127,84.49077271361408,64370,412,504.7978274822235,18.620744705200195,,2.6249327659606934,0.17
64,MetaDrive-td3combine-new-expt,127,85.85042352902903,65768,414,516.5337266921997,16.045320510864258,,1.3137288093566895,0.17
65,MetaDrive-td3combine-new-expt,127,86.07324211092778,66769,415,524.2853083610535,16.823444366455078,-17.312767028808594,1.3947393894195557,0.17
66,MetaDrive-td3combine-new-expt,127,86.5539853449914,67770,416,532.1816952228546,16.95435333251953,,32.222450256347656,0.17
67,MetaDrive-td3combine-new-expt,127,89.19043033582213,68350,417,537.5427770614624,16.817951202392578,,17.907405853271484,0.18
68,MetaDrive-td3combine-new-expt,127,91.54131827146622,69861,419,549.0724377632141,19.00323486328125,-19.511188507080078,1.5581269264221191,0.19
69,MetaDrive-td3combine-new-expt,127,91.53437039364593,70862,420,555.8019058704376,17.163814544677734,,0.9359019994735718,0.19
70,MetaDrive-td3combine-new-expt,127,92.54800418679017,71863,421,563.6242210865021,18.6933650970459,-20.135974884033203,16.978179931640625,0.19
71,MetaDrive-td3combine-new-expt,127,93.67209087301859,72864,422,571.3371276855469,16.038429260253906,,1.7946304082870483,0.19
72,MetaDrive-td3combine-new-expt,127,94.67814459385028,73865,423,579.302332162857,16.786922454833984,-16.54116439819336,5.065025806427002,0.19
73,MetaDrive-td3combine-new-expt,127,95.28944523371925,74866,424,587.0639667510986,19.431123733520508,,1.978480339050293,0.19
74,MetaDrive-td3combine-new-expt,127,94.62283506409096,75867,425,594.3635351657867,17.943761825561523,-18.380945205688477,25.07234764099121,0.18
75,MetaDrive-td3combine-new-expt,127,97.2273832151078,76958,427,603.1899552345276,17.569089889526367,,40.54835510253906,0.17
76,MetaDrive-td3combine-new-expt,127,97.47518651724505,77959,428,610.8099083900452,18.144256591796875,-18.737125396728516,2.246154308319092,0.17
77,MetaDrive-td3combine-new-expt,127,100.55752369719626,78340,429,613.8858897686005,20.953372955322266,,4.3302507400512695,0.18
78,MetaDrive-td3combine-new-expt,127,101.48968470361591,79436,431,622.7235381603241,18.863426208496094,,2.3760695457458496,0.18
79,MetaDrive-td3combine-new-expt,127,102.94818675234592,80064,434,627.340927362442,20.5274658203125,,2.5005874633789062,0.18
80,MetaDrive-td3combine-new-expt,127,104.51381417740205,81081,437,634.5559432506561,18.526769638061523,-19.593610763549805,6.904906272888184,0.2
81,MetaDrive-td3combine-new-expt,127,107.20609303164545,82467,439,644.9698247909546,16.257793426513672,-16.418886184692383,2.9662559032440186,0.21
82,MetaDrive-td3combine-new-expt,127,108.66821096276111,83803,441,655.0476100444794,19.601093292236328,-19.88477897644043,1.8795280456542969,0.21
83,MetaDrive-td3combine-new-expt,128,108.8689082772864,84804,442,662.3131170272827,17.21247100830078,,32.980159759521484,0.21
84,MetaDrive-td3combine-new-expt,128,110.22583443105452,85190,443,665.1456019878387,19.004343032836914,,3.6946964263916016,0.22
85,MetaDrive-td3combine-new-expt,128,110.1924279372178,86317,445,673.4437851905823,18.929840087890625,-19.6600341796875,1.421183466911316,0.22
86,MetaDrive-td3combine-new-expt,128,112.6308002798313,87753,447,684.9040348529816,19.36009979248047,-20.163501739501953,37.9300537109375,0.23
87,MetaDrive-td3combine-new-expt,127,113.09721308334316,88754,448,694.1983935832977,24.65668487548828,,3.5549826622009277,0.22
88,MetaDrive-td3combine-new-expt,127,116.46271822628498,89102,449,696.9076149463654,21.371295928955078,,10.227506637573242,0.23
89,MetaDrive-td3combine-new-expt,127,118.47578950664328,90068,450,704.0045993328094,22.5351619720459,,3.0583934783935547,0.24
90,MetaDrive-td3combine-new-expt,127,123.99429164422992,91020,453,711.2466740608215,23.491239547729492,,7.067124366760254,0.26
91,MetaDrive-td3combine-new-expt,127,126.04340085975217,92094,455,719.7668929100037,20.47677230834961,,7.332703590393066,0.27
92,MetaDrive-td3combine-new-expt,128,129.0765368907473,93663,457,730.6536931991577,23.175983428955078,-22.185367584228516,4.885528564453125,0.29
93,MetaDrive-td3combine-new-expt,128,129.10227682403988,94664,458,738.0864069461823,21.341432571411133,,6.220733642578125,0.29
94,MetaDrive-td3combine-new-expt,128,131.4194339360007,95665,459,745.0292015075684,16.67023468017578,-16.164501190185547,2.7696263790130615,0.29
95,MetaDrive-td3combine-new-expt,128,133.0387052467727,96521,460,751.0540723800659,25.44485092163086,-25.872562408447266,1.43350088596344,0.29
96,MetaDrive-td3combine-new-expt,128,134.41494187399192,97004,461,754.9989104270935,20.44513702392578,,3.9087095260620117,0.3
97,MetaDrive-td3combine-new-expt,128,135.14281719793004,98005,462,763.239904165268,24.235107421875,-24.939603805541992,31.64179229736328,0.3
98,MetaDrive-td3combine-new-expt,128,135.65143510940223,99006,463,770.9841883182526,23.229778289794922,,3.8792500495910645,0.3
99,MetaDrive-td3combine-new-expt,128,138.8096949347383,100007,464,778.1044044494629,22.87103271484375,-23.587387084960938,3.482203960418701,0.29
100,MetaDrive-td3combine-new-expt,128,140.4626774319677,101008,465,785.2345867156982,22.307025909423828,,29.63805389404297,0.29
101,MetaDrive-td3combine-new-expt,128,141.46948990535688,102225,467,795.5015168190002,21.486038208007812,-21.98162078857422,4.371893882751465,0.29
102,MetaDrive-td3combine-new-expt,128,144.53292163413084,103732,469,808.0830283164978,23.67151641845703,,3.2350778579711914,0.29
103,MetaDrive-td3combine-new-expt,128,145.55892040035812,104132,471,811.3592538833618,20.015419006347656,,3.383603096008301,0.29
104,MetaDrive-td3combine-new-expt,128,145.75579026218927,105133,472,818.8617355823517,22.5433406829834,-23.429014205932617,3.30496883392334,0.29
105,MetaDrive-td3combine-new-expt,128,146.30661279953765,106134,473,826.4923040866852,21.238731384277344,,55.40155792236328,0.29
106,MetaDrive-td3combine-new-expt,128,149.6121773809526,107363,476,836.3717205524445,20.327199935913086,-20.607074737548828,8.812145233154297,0.3
107,MetaDrive-td3combine-new-expt,128,151.1370397184843,108364,477,844.7708711624146,23.373971939086914,,6.401675224304199,0.3
108,MetaDrive-td3combine-new-expt,128,152.15090536528152,109430,480,853.7053866386414,21.284543991088867,,13.44507884979248,0.3
109,MetaDrive-td3combine-new-expt,128,151.89770374492747,110526,482,862.1860861778259,24.02318572998047,,4.620565414428711,0.3
110,MetaDrive-td3combine-new-expt,128,150.56378634993405,111527,483,869.4103140830994,23.83454132080078,-24.336544036865234,3.3252458572387695,0.3
111,MetaDrive-td3combine-new-expt,128,149.55013492383713,112528,484,877.0302832126617,24.80221939086914,,5.231113433837891,0.29
112,MetaDrive-td3combine-new-expt,128,151.8598431965085,113529,485,885.1620657444,24.03877067565918,-23.465213775634766,5.336712837219238,0.29
113,MetaDrive-td3combine-new-expt,128,153.9274559435731,114049,487,889.086733341217,25.21800994873047,-24.883909225463867,8.059507369995117,0.3
114,MetaDrive-td3combine-new-expt,128,153.72101516626927,115050,488,896.6053087711334,18.79415512084961,,19.981300354003906,0.3
115,MetaDrive-td3combine-new-expt,128,155.3758622789813,116051,489,904.1758069992065,26.058706283569336,-26.268817901611328,6.873826503753662,0.3
116,MetaDrive-td3combine-new-expt,128,158.38154405508783,117183,491,914.0345804691315,22.820241928100586,-23.9744815826416,10.264530181884766,0.3
117,MetaDrive-td3combine-new-expt,128,156.9045389285418,118184,492,921.0620880126953,24.527420043945312,,6.0331621170043945,0.29
118,MetaDrive-td3combine-new-expt,128,152.99118779655134,119706,495,933.1863133907318,20.40616226196289,,28.213947296142578,0.28
119,MetaDrive-td3combine-new-expt,128,153.4710248810343,120299,496,937.7518601417542,25.00222396850586,-25.09168243408203,2.7879345417022705,0.29
120,MetaDrive-td3combine-new-expt,128,151.5574970460397,121926,499,949.5784306526184,22.610450744628906,,42.6563606262207,0.28
121,MetaDrive-td3combine-new-expt,128,149.67146155797107,122927,500,957.3500905036926,13.365360260009766,-14.088336944580078,4.115642547607422,0.27
122,MetaDrive-td3combine-new-expt,128,150.09235525531915,123368,501,960.5421941280365,22.386798858642578,,2.9737305641174316,0.28
123,MetaDrive-td3combine-new-expt,128,150.0866792873725,124642,504,970.3151733875275,16.266584396362305,,5.337266445159912,0.28
124,MetaDrive-td3combine-new-expt,128,149.28183921343228,125168,505,974.2185106277466,20.289642333984375,,4.801295280456543,0.29
125,MetaDrive-td3combine-new-expt,128,149.4646957065646,126009,506,980.7215294837952,24.40966796875,-25.215436935424805,4.195980072021484,0.29
126,MetaDrive-td3combine-new-expt,128,146.08289160473004,127266,508,989.4430236816406,21.591320037841797,,4.934360504150391,0.29
127,MetaDrive-td3combine-new-expt,128,147.0372876227096,128430,510,998.3982424736023,26.24771499633789,,2.7691233158111572,0.29
128,MetaDrive-td3combine-new-expt,128,143.99348961933055,129519,512,1006.2666668891907,21.27910804748535,-21.04932403564453,8.034669876098633,0.28
129,MetaDrive-td3combine-new-expt,128,143.6121177445669,130520,513,1013.7508578300476,24.298370361328125,,35.623191833496094,0.28
130,MetaDrive-td3combine-new-expt,128,146.13296358389908,131160,515,1018.6381311416626,24.093425750732422,,8.009481430053711,0.29
131,MetaDrive-td3combine-new-expt,128,142.92995133402255,132295,517,1026.6490895748138,27.330230712890625,-28.36820411682129,2.5820164680480957,0.28
132,MetaDrive-td3combine-new-expt,128,145.67340322175104,133631,519,1036.816256761551,24.341716766357422,-24.14230728149414,11.013160705566406,0.28
133,MetaDrive-td3combine-new-expt,128,146.04225706094405,134632,520,1044.4052035808563,21.391193389892578,,5.545565605163574,0.28
134,MetaDrive-td3combine-new-expt,128,146.67795515694363,135200,521,1049.1631269454956,23.631410598754883,,6.3354010581970215,0.29
135,MetaDrive-td3combine-new-expt,128,146.48228030142823,136201,522,1058.83993434906,25.552488327026367,-25.996301651000977,4.841403007507324,0.29
136,MetaDrive-td3combine-new-expt,128,146.08508326727062,137202,523,1066.80082821846,20.075626373291016,,5.642254829406738,0.29
137,MetaDrive-td3combine-new-expt,128,144.64862976567392,138320,525,1075.2728941440582,16.13054656982422,,41.779754638671875,0.29
138,MetaDrive-td3combine-new-expt,128,142.56279547128045,139853,529,1087.6628930568695,22.69607925415039,-23.643753051757812,11.022842407226562,0.29
139,MetaDrive-td3combine-new-expt,128,143.22518100004484,140318,530,1091.304048538208,22.309412002563477,,4.771116733551025,0.29
140,MetaDrive-td3combine-new-expt,128,144.23608659127925,141700,533,1102.310512304306,28.395023345947266,,3.7648842334747314,0.29
141,MetaDrive-td3combine-new-expt,128,144.7338946986449,142701,534,1109.6820614337921,27.589441299438477,-28.04059600830078,12.908981323242188,0.29
142,MetaDrive-td3combine-new-expt,128,143.2942396037047,143012,536,1112.01588845253,26.191234588623047,,4.61892032623291,0.28
143,MetaDrive-td3combine-new-expt,128,142.36118919628905,144013,537,1119.3051602840424,21.717506408691406,-21.737380981445312,13.360315322875977,0.27
144,MetaDrive-td3combine-new-expt,128,140.32300737206205,145060,540,1127.5698087215424,24.48324966430664,,49.337364196777344,0.27
145,MetaDrive-td3combine-new-expt,128,140.59864084883102,146061,541,1135.0143756866455,22.33318328857422,-21.62188720703125,12.201505661010742,0.27
146,MetaDrive-td3combine-new-expt,128,142.95080222957503,147783,544,1148.088633298874,21.308124542236328,-21.840595245361328,6.629921913146973,0.27
147,MetaDrive-td3combine-new-expt,128,144.82477988661375,148784,545,1157.3236618041992,22.78227424621582,,5.0377197265625,0.27
148,MetaDrive-td3combine-new-expt,128,145.18829604076416,149785,546,1164.7555577754974,20.88382911682129,-21.188684463500977,7.6895904541015625,0.26
149,MetaDrive-td3combine-new-expt,128,143.42636337080145,150786,547,1171.820615530014,13.499719619750977,,6.010433673858643,0.26
150,MetaDrive-td3combine-new-expt,128,138.65334658637886,151016,549,1173.7974305152893,21.225881576538086,,72.95477294921875,0.25
151,MetaDrive-td3combine-new-expt,128,137.46951421759496,152017,550,1181.164221048355,23.463438034057617,-24.76097869873047,7.261662006378174,0.24
152,MetaDrive-td3combine-new-expt,128,135.22322479588797,153018,551,1188.3727221488953,23.977481842041016,,4.696765899658203,0.23
153,MetaDrive-td3combine-new-expt,128,132.22450141222942,154019,552,1195.6071481704712,26.58049774169922,-26.662399291992188,6.13237190246582,0.22
154,MetaDrive-td3combine-new-expt,128,129.62987149044366,155808,556,1208.9537150859833,23.562580108642578,,6.212379455566406,0.21
155,MetaDrive-td3combine-new-expt,128,129.2044009104467,156809,557,1216.3684842586517,26.093463897705078,-26.52625846862793,6.305446624755859,0.2
156,MetaDrive-td3combine-new-expt,128,130.98850334858275,157469,558,1221.6708977222443,16.040279388427734,-15.377537727355957,7.538361549377441,0.21
157,MetaDrive-td3combine-new-expt,128,125.58045456227833,158814,561,1231.6120982170105,18.272457122802734,,11.567681312561035,0.2
158,MetaDrive-td3combine-new-expt,129,124.84929893614914,159815,562,1238.6333072185516,17.347957611083984,-18.048494338989258,5.093801498413086,0.2
159,MetaDrive-td3combine-new-expt,129,126.03512700144715,160261,563,1242.136753320694,20.15835189819336,-20.04595947265625,7.6626386642456055,0.21
160,MetaDrive-td3combine-new-expt,128,127.11510267729476,161262,564,1250.408141374588,14.487590789794922,,7.50562858581543,0.21
161,MetaDrive-td3combine-new-expt,128,129.4112053571036,162435,566,1259.5431549549103,20.754671096801758,-20.683961868286133,15.645833015441895,0.22
162,MetaDrive-td3combine-new-expt,129,124.89001037104164,163552,568,1267.341986656189,24.05584716796875,,6.337014675140381,0.21
163,MetaDrive-td3combine-new-expt,129,124.59400292557159,164947,570,1277.4648296833038,16.25723648071289,-16.27136993408203,7.015275478363037,0.22
164,MetaDrive-td3combine-new-expt,129,121.90951433612696,165085,571,1278.471822977066,23.008153915405273,-22.811649322509766,8.081930160522461,0.21
165,MetaDrive-td3combine-new-expt,129,122.84918302326278,166036,573,1285.3847448825836,21.987211227416992,,7.299506187438965,0.22
166,MetaDrive-td3combine-new-expt,129,123.16520369297156,167305,575,1295.1103591918945,19.483306884765625,-19.67754364013672,5.820404052734375,0.22
167,MetaDrive-td3combine-new-expt,129,120.29255469508631,168306,576,1302.381088256836,23.734338760375977,,9.221780776977539,0.21
168,MetaDrive-td3combine-new-expt,129,117.16653853635786,169437,578,1311.8009264469147,15.487628936767578,-15.031257629394531,9.865632057189941,0.21
169,MetaDrive-td3combine-new-expt,129,116.77820661754508,170951,580,1324.0576293468475,23.55870246887207,-24.91103744506836,7.244439125061035,0.21
170,MetaDrive-td3combine-new-expt,129,117.14983017955623,171952,581,1331.492246389389,17.792438507080078,,25.96649742126465,0.21
171,MetaDrive-td3combine-new-expt,129,116.47948247698854,172379,582,1334.5973575115204,20.053470611572266,-19.654417037963867,11.6702241897583,0.21
172,MetaDrive-td3combine-new-expt,129,116.6227090206857,173380,583,1341.6115322113037,20.04186248779297,,29.391008377075195,0.21
173,MetaDrive-td3combine-new-expt,129,117.3742275550731,174381,584,1348.919258594513,16.107946395874023,-16.43635368347168,11.207929611206055,0.21
174,MetaDrive-td3combine-new-expt,129,115.7431922668396,175382,585,1357.0764632225037,17.3622989654541,,13.691909790039062,0.21
175,MetaDrive-td3combine-new-expt,129,114.95221638391031,176002,588,1362.3776986598969,16.376495361328125,,6.675493240356445,0.21
176,MetaDrive-td3combine-new-expt,129,111.2353789145396,177330,591,1373.345806837082,12.234138488769531,,6.501658916473389,0.21
177,MetaDrive-td3combine-new-expt,129,110.51095301100713,178331,592,1380.9780633449554,15.937167167663574,-15.895273208618164,11.388426780700684,0.21
178,MetaDrive-td3combine-new-expt,129,109.02816498896786,179470,594,1389.5177853107452,15.442251205444336,,10.586487770080566,0.2
179,MetaDrive-td3combine-new-expt,129,109.3828353665054,180471,595,1397.0286829471588,27.222980499267578,-28.101097106933594,10.643956184387207,0.2
180,MetaDrive-td3combine-new-expt,129,106.66917097018279,181059,596,1401.2904736995697,22.514772415161133,-22.876283645629883,38.464027404785156,0.19
181,MetaDrive-td3combine-new-expt,129,107.32525788165395,182344,598,1411.0870125293732,12.278976440429688,,12.466757774353027,0.19
182,MetaDrive-td3combine-new-expt,129,106.15095271433921,183345,599,1418.1379883289337,8.759713172912598,-8.023777961730957,13.462766647338867,0.19
183,MetaDrive-td3combine-new-expt,129,105.19635351646468,184346,600,1425.2132461071014,20.577001571655273,,7.696949005126953,0.19
184,MetaDrive-td3combine-new-expt,129,104.76081323490578,185347,601,1432.2861075401306,12.525777816772461,-13.759852409362793,10.991557121276855,0.18
185,MetaDrive-td3combine-new-expt,129,104.91251954047053,186348,602,1440.0850853919983,16.75420379638672,,6.958713054656982,0.18
186,MetaDrive-td3combine-new-expt,129,105.42183126496175,187318,603,1447.3248598575592,17.717510223388672,,8.155119895935059,0.18
187,MetaDrive-td3combine-new-expt,129,107.83609342876105,188319,604,1454.9153134822845,13.732177734375,-13.738725662231445,5.248607158660889,0.18
188,MetaDrive-td3combine-new-expt,129,106.44060051064936,189320,605,1462.1338057518005,16.686315536499023,,12.891281127929688,0.17
189,MetaDrive-td3combine-new-expt,129,106.57062653699022,190321,606,1469.4617223739624,22.62541961669922,-23.498613357543945,19.154159545898438,0.17
190,MetaDrive-td3combine-new-expt,129,105.09281821926281,191322,607,1476.6582038402557,20.457489013671875,,5.145901203155518,0.16
191,MetaDrive-td3combine-new-expt,129,106.46892923516678,192848,609,1488.391718864441,15.638814926147461,,9.6127347946167,0.17
192,MetaDrive-td3combine-new-expt,129,103.4490006370735,193849,610,1495.7675149440765,28.28109359741211,-29.69820213317871,8.380210876464844,0.17
193,MetaDrive-td3combine-new-expt,129,104.47302259269391,194457,611,1500.1882090568542,17.654006958007812,-18.421646118164062,9.671934127807617,0.18
194,MetaDrive-td3combine-new-expt,129,104.08862662111292,195207,613,1505.852852344513,15.165794372558594,-15.615747451782227,8.217735290527344,0.18
195,MetaDrive-td3combine-new-expt,129,102.19986922683388,196208,614,1513.2059767246246,17.405529022216797,,18.414569854736328,0.18
196,MetaDrive-td3combine-new-expt,129,103.93753135021696,197789,616,1525.3238787651062,13.964910507202148,-13.69934368133545,39.55592346191406,0.18
197,MetaDrive-td3combine-new-expt,129,105.10388177146422,198291,617,1528.8498275279999,19.944366455078125,-20.383502960205078,7.899930477142334,0.19
198,MetaDrive-td3combine-new-expt,129,103.25150692560824,199292,618,1536.2526500225067,18.45899200439453,,8.605240821838379,0.18
199,MetaDrive-td3combine-new-expt,129,103.46828616232295,200293,619,1543.694533109665,11.897672653198242,-11.988061904907227,3.1809170246124268,0.18
200,MetaDrive-td3combine-new-expt,129,106.18944701050349,201911,621,1555.5014016628265,11.541949272155762,-11.653871536254883,10.938764572143555,0.18
201,MetaDrive-td3combine-new-expt,129,106.85751222626546,202388,622,1559.1551401615143,16.870182037353516,,5.240438938140869,0.18
202,MetaDrive-td3combine-new-expt,129,108.11383121941492,203389,623,1566.311033964157,18.885211944580078,-19.248151779174805,13.709705352783203,0.18
203,MetaDrive-td3combine-new-expt,129,110.08164047239916,204759,625,1577.5620393753052,22.715068817138672,-22.861618041992188,12.40640640258789,0.19
204,MetaDrive-td3combine-new-expt,129,111.51603309239285,205760,626,1584.6909840106964,7.33292293548584,,12.686416625976562,0.19
205,MetaDrive-td3combine-new-expt,129,112.20630858306633,206761,627,1593.0540256500244,24.765705108642578,-25.125072479248047,27.836631774902344,0.19
206,MetaDrive-td3combine-new-expt,129,110.28111777648765,207762,628,1600.2950167655945,15.604072570800781,,8.523905754089355,0.18
207,MetaDrive-td3combine-new-expt,129,109.63947971976664,208763,629,1608.00071310997,11.307034492492676,-10.98958969116211,11.702433586120605,0.18
208,MetaDrive-td3combine-new-expt,129,109.19383500961432,209764,630,1614.9945938587189,16.695236206054688,,15.917110443115234,0.18
209,MetaDrive-td3combine-new-expt,129,107.577626468929,210765,631,1622.3715391159058,11.922182083129883,-11.989848136901855,11.414295196533203,0.18
210,MetaDrive-td3combine-new-expt,129,110.52046775630379,211256,632,1626.2519075870514,17.88196563720703,,9.075968742370605,0.19
211,MetaDrive-td3combine-new-expt,129,109.70085576789056,212182,633,1632.8226323127747,11.991434097290039,,10.792630195617676,0.19
212,MetaDrive-td3combine-new-expt,130,109.06162114508976,213183,634,1639.8122310638428,22.501121520996094,-23.655969619750977,17.16461181640625,0.19
213,MetaDrive-td3combine-new-expt,129,110.03849935680223,214184,635,1647.5767676830292,9.36450481414795,,5.754532814025879,0.19
214,MetaDrive-td3combine-new-expt,130,110.67631737568995,215343,637,1656.2247552871704,15.790297508239746,-16.622695922851562,10.728315353393555,0.19
215,MetaDrive-td3combine-new-expt,130,110.59029420848493,216344,638,1663.3613653182983,14.6259765625,,33.063079833984375,0.19
216,MetaDrive-td3combine-new-expt,130,111.03360419075696,217345,639,1671.0091533660889,24.842391967773438,-25.477031707763672,29.578882217407227,0.19
217,MetaDrive-td3combine-new-expt,130,109.09584237192888,218346,640,1678.5465106964111,12.314562797546387,,45.38606643676758,0.18
218,MetaDrive-td3combine-new-expt,130,108.25426056071267,219274,642,1685.9529356956482,20.529573440551758,,8.974756240844727,0.18
219,MetaDrive-td3combine-new-expt,130,108.63513359384909,220275,643,1693.4777190685272,14.156942367553711,-12.853866577148438,16.791706085205078,0.18
220,MetaDrive-td3combine-new-expt,130,108.2889805731748,221276,644,1700.6781406402588,10.676279067993164,,9.10820198059082,0.18
221,MetaDrive-td3combine-new-expt,130,107.93853973968785,222277,645,1708.0220427513123,14.584587097167969,-15.257122993469238,9.790388107299805,0.18
222,MetaDrive-td3combine-new-expt,130,106.42263292234037,223093,647,1715.0182604789734,14.648653984069824,-15.062738418579102,19.202472686767578,0.18
223,MetaDrive-td3combine-new-expt,130,109.28111676591007,224541,649,1725.7053372859955,19.25023651123047,-19.432037353515625,9.18414306640625,0.19
224,MetaDrive-td3combine-new-expt,130,108.68072220634093,225542,650,1733.1278891563416,12.872457504272461,,16.89046859741211,0.19
225,MetaDrive-td3combine-new-expt,130,108.96439819342194,226543,651,1740.2521936893463,19.32410430908203,-20.23325538635254,8.717523574829102,0.19
226,MetaDrive-td3combine-new-expt,130,111.05497806606472,227200,652,1745.2347071170807,22.018959045410156,,11.605132102966309,0.19
227,MetaDrive-td3combine-new-expt,130,110.61737929155557,228201,653,1752.9263367652893,18.619720458984375,-18.27184295654297,10.035154342651367,0.19
228,MetaDrive-td3combine-new-expt,130,110.02672205275373,229202,654,1760.3078379631042,12.066022872924805,,10.475049018859863,0.18
229,MetaDrive-td3combine-new-expt,130,111.50099430540641,230203,655,1768.1558237075806,9.380409240722656,-9.62282657623291,55.84037780761719,0.18
230,MetaDrive-td3combine-new-expt,130,112.1844565660369,231204,656,1775.3671844005585,19.90843963623047,,5.7824249267578125,0.18
231,MetaDrive-td3combine-new-expt,130,113.06851310549767,232205,657,1783.0633444786072,10.158982276916504,-10.917051315307617,12.720935821533203,0.18
232,MetaDrive-td3combine-new-expt,130,111.71471237357486,233206,658,1790.4879381656647,4.999699115753174,,55.174957275390625,0.17
233,MetaDrive-td3combine-new-expt,130,115.68266137100764,234207,659,1798.6975116729736,13.591833114624023,-14.34817886352539,6.912969589233398,0.17
234,MetaDrive-td3combine-new-expt,130,117.91117596354816,235208,660,1805.9554545879364,16.338634490966797,,8.371660232543945,0.17
235,MetaDrive-td3combine-new-expt,130,117.69004195198056,236384,662,1815.0960602760315,15.242666244506836,,11.344502449035645,0.17
236,MetaDrive-td3combine-new-expt,130,116.48853203149866,237385,663,1823.171168088913,13.991610527038574,-14.652420043945312,9.271557807922363,0.16
237,MetaDrive-td3combine-new-expt,130,115.6118723876319,238386,664,1831.8361160755157,12.511381149291992,,6.977425575256348,0.16
238,MetaDrive-td3combine-new-expt,130,115.85826620027568,239387,665,1838.9247517585754,10.425113677978516,-10.804697036743164,15.070512771606445,0.16
239,MetaDrive-td3combine-new-expt,130,114.17970962821158,240388,666,1846.9473142623901,11.824309349060059,,59.73101806640625,0.15
240,MetaDrive-td3combine-new-expt,130,114.91711845908132,241389,667,1854.6137216091156,9.557586669921875,-8.980488777160645,11.285816192626953,0.15
241,MetaDrive-td3combine-new-expt,130,115.00744759999625,242390,668,1862.3611180782318,8.9859619140625,,7.363068103790283,0.15
242,MetaDrive-td3combine-new-expt,130,115.99751520913982,243014,670,1867.1644353866577,13.33102798461914,,24.94906234741211,0.15
243,MetaDrive-td3combine-new-expt,130,117.57816141487808,244015,671,1874.2517495155334,12.552410125732422,-12.653377532958984,29.00960350036621,0.15
244,MetaDrive-td3combine-new-expt,130,117.60015474105776,245016,672,1881.6830620765686,10.730709075927734,,12.000646591186523,0.15
245,MetaDrive-td3combine-new-expt,130,115.74324426490692,246017,673,1889.814632177353,14.930967330932617,-14.644745826721191,5.027683258056641,0.14
246,MetaDrive-td3combine-new-expt,130,116.62352130271465,247093,675,1898.1295478343964,13.046122550964355,-13.913825035095215,6.877229690551758,0.14
247,MetaDrive-td3combine-new-expt,130,122.01268610424549,248216,677,1907.826343536377,11.346407890319824,,11.782867431640625,0.15
248,MetaDrive-td3combine-new-expt,130,122.2168922482797,249217,678,1915.3120930194855,11.841384887695312,-12.90632438659668,8.77547836303711,0.15
249,MetaDrive-td3combine-new-expt,130,120.7181165606453,250218,679,1923.3296475410461,10.142721176147461,,13.470269203186035,0.14
250,MetaDrive-td3combine-new-expt,130,119.59288809413395,251219,680,1930.3729991912842,14.31576919555664,-15.128179550170898,18.831989288330078,0.14
251,MetaDrive-td3combine-new-expt,130,119.60287835041807,252220,681,1937.6593952178955,15.186382293701172,,9.62034797668457,0.14
252,MetaDrive-td3combine-new-expt,130,120.46092252107775,253221,682,1945.2814078330994,13.002823829650879,-13.191858291625977,17.32805061340332,0.14
253,MetaDrive-td3combine-new-expt,130,120.15830169324778,254222,683,1952.450145483017,10.907400131225586,,37.556915283203125,0.14
254,MetaDrive-td3combine-new-expt,130,118.85627416815208,255223,684,1959.4153430461884,15.303169250488281,-17.584470748901367,15.290740966796875,0.14
255,MetaDrive-td3combine-new-expt,130,119.69755567677747,256018,685,1964.9657096862793,14.526206016540527,,14.65281867980957,0.15
256,MetaDrive-td3combine-new-expt,130,120.22555194263619,257019,686,1972.3939476013184,9.00671672821045,-11.026002883911133,8.98866081237793,0.15
257,MetaDrive-td3combine-new-expt,130,122.73255719493359,258559,688,1984.0555169582367,13.092452049255371,-13.396790504455566,7.735014915466309,0.15
258,MetaDrive-td3combine-new-expt,130,123.21739393511507,259560,689,1991.6470420360565,15.175297737121582,,29.439077377319336,0.15
259,MetaDrive-td3combine-new-expt,130,122.64326554174522,260828,691,2001.2050449848175,15.778751373291016,,9.98382568359375,0.15
260,MetaDrive-td3combine-new-expt,130,122.39793159728127,261829,692,2008.72976064682,18.549808502197266,-19.15958595275879,5.8758440017700195,0.15
261,MetaDrive-td3combine-new-expt,130,124.78894252036598,262830,693,2016.0017857551575,16.09870147705078,,12.245966911315918,0.15
262,MetaDrive-td3combine-new-expt,130,127.14285102094374,263593,694,2021.4807851314545,11.665674209594727,-12.123536109924316,8.807018280029297,0.16
263,MetaDrive-td3combine-new-expt,130,127.37070740958337,264693,696,2029.9252231121063,18.218698501586914,-19.729103088378906,6.2243757247924805,0.16
264,MetaDrive-td3combine-new-expt,130,126.62180010647793,265694,697,2038.4067726135254,19.82773780822754,,25.95647621154785,0.15
265,MetaDrive-td3combine-new-expt,130,126.78015639230983,266695,698,2045.5646209716797,8.803741455078125,-7.92996883392334,32.77405548095703,0.15
266,MetaDrive-td3combine-new-expt,130,129.3239491606326,267413,699,2051.2178978919983,14.342860221862793,-13.892316818237305,9.486703872680664,0.15
267,MetaDrive-td3combine-new-expt,130,134.56196373968197,268662,701,2060.676406621933,19.958417892456055,,8.194263458251953,0.17
268,MetaDrive-td3combine-new-expt,130,135.37364262563705,269663,702,2068.7931382656097,14.140602111816406,-15.533278465270996,6.6666388511657715,0.17
269,MetaDrive-td3combine-new-expt,130,131.44236935820834,270961,704,2078.251413345337,17.687156677246094,-17.864013671875,12.824867248535156,0.17
270,MetaDrive-td3combine-new-expt,130,131.9073175811314,271962,705,2085.4856362342834,14.729393005371094,,16.063302993774414,0.17
271,MetaDrive-td3combine-new-expt,130,134.66562889645624,272426,706,2089.6438839435577,12.527748107910156,,5.224246025085449,0.18
272,MetaDrive-td3combine-new-expt,130,136.91888172697247,273316,707,2096.912812232971,15.636785507202148,,15.77602767944336,0.18
273,MetaDrive-td3combine-new-expt,130,136.20571171133173,274317,708,2104.4838910102844,14.245575904846191,-14.131202697753906,11.647647857666016,0.17
274,MetaDrive-td3combine-new-expt,130,137.43044546657867,275318,709,2111.7596786022186,16.012081146240234,,9.032536506652832,0.17
275,MetaDrive-td3combine-new-expt,130,137.53439485496446,276319,710,2119.2120900154114,16.753162384033203,-16.507099151611328,9.391911506652832,0.17
276,MetaDrive-td3combine-new-expt,130,136.79081498715288,277320,711,2126.752682209015,18.318744659423828,,7.634760856628418,0.16
277,MetaDrive-td3combine-new-expt,130,137.68866350199949,278321,712,2133.8930599689484,19.56783676147461,-19.51373291015625,23.19025421142578,0.16
278,MetaDrive-td3combine-new-expt,130,138.49449532129776,279478,714,2142.6742429733276,12.968534469604492,,21.28643226623535,0.16
279,MetaDrive-td3combine-new-expt,130,137.03050158646104,280479,715,2150.6940455436707,15.830779075622559,-16.624361038208008,27.969295501708984,0.15
280,MetaDrive-td3combine-new-expt,130,135.6612033951915,281670,717,2160.171051263809,17.024654388427734,,35.692745208740234,0.14
281,MetaDrive-td3combine-new-expt,130,134.28584762802657,282671,718,2166.994717359543,15.891563415527344,-14.778545379638672,25.58722496032715,0.14
282,MetaDrive-td3combine-new-expt,130,133.77988591566142,283122,719,2170.296044111252,19.201377868652344,,6.987090110778809,0.14
283,MetaDrive-td3combine-new-expt,130,133.508402902941,284431,721,2179.818706512451,18.108684539794922,-18.55859375,10.97120189666748,0.15
284,MetaDrive-td3combine-new-expt,130,132.39766849923453,285432,722,2187.241063594818,19.68842887878418,,27.314857482910156,0.15
285,MetaDrive-td3combine-new-expt,130,130.88586833437716,286433,723,2194.742072582245,10.184958457946777,-9.879037857055664,14.08851146697998,0.15
286,MetaDrive-td3combine-new-expt,130,129.7257313716263,287434,724,2202.2243444919586,16.484107971191406,,6.489500045776367,0.14
287,MetaDrive-td3combine-new-expt,130,129.47200440285982,288435,725,2209.5080704689026,11.9009370803833,-10.873756408691406,64.37362670898438,0.14
288,MetaDrive-td3combine-new-expt,130,129.3084990317638,289436,726,2216.3877131938934,23.381057739257812,,25.599050521850586,0.14
289,MetaDrive-td3combine-new-expt,130,129.50801116734007,290437,727,2223.97079873085,10.511632919311523,-10.88626766204834,7.988687515258789,0.14
290,MetaDrive-td3combine-new-expt,130,129.72520074877718,291979,731,2235.625215768814,14.125665664672852,-15.411386489868164,6.440422058105469,0.14
291,MetaDrive-td3combine-new-expt,130,126.6113814410707,292980,732,2243.1565730571747,18.808677673339844,,17.588455200195312,0.13
292,MetaDrive-td3combine-new-expt,130,127.52309152601426,293981,733,2250.1380808353424,13.541512489318848,-13.949092864990234,7.766042232513428,0.13
293,MetaDrive-td3combine-new-expt,130,127.77193179049176,294982,734,2257.8847205638885,21.428369522094727,,8.436335563659668,0.13
294,MetaDrive-td3combine-new-expt,130,128.30753457724998,295983,735,2265.145584344864,12.822366714477539,-12.761898040771484,17.672775268554688,0.13
295,MetaDrive-td3combine-new-expt,130,131.87064263877053,296984,736,2272.997427225113,17.438032150268555,,47.884117126464844,0.13
296,MetaDrive-td3combine-new-expt,130,131.8105083087128,297985,737,2280.369576692581,15.917927742004395,-15.503751754760742,6.380783557891846,0.13
297,MetaDrive-td3combine-new-expt,130,132.3086882568935,298986,738,2287.487307548523,15.66107177734375,,12.984061241149902,0.13
298,MetaDrive-td3combine-new-expt,130,132.35638670271825,299987,739,2294.913259267807,22.48274040222168,-24.681617736816406,16.370155334472656,0.13
299,MetaDrive-td3combine-new-expt,130,132.75716386754254,300988,740,2302.1027030944824,22.73599624633789,,4.419261455535889,0.13
300,MetaDrive-td3combine-new-expt,130,133.85228822194475,301989,741,2309.361291408539,17.271617889404297,-16.967884063720703,8.674613952636719,0.13
301,MetaDrive-td3combine-new-expt,130,131.5714624587473,302990,742,2317.868952035904,19.099353790283203,,15.740948677062988,0.12
302,MetaDrive-td3combine-new-expt,130,130.91879228041068,303991,743,2324.6010603904724,16.473817825317383,-16.495508193969727,64.2215347290039,0.12
303,MetaDrive-td3combine-new-expt,130,131.26831583865635,304992,744,2332.1992089748383,25.171058654785156,,11.78958511352539,0.12
304,MetaDrive-td3combine-new-expt,130,131.00659631751853,305993,745,2339.9516184329987,9.274145126342773,-10.422004699707031,28.33209800720215,0.12
305,MetaDrive-td3combine-new-expt,130,132.71157565229169,306811,746,2345.5383608341217,10.462165832519531,-12.127189636230469,35.376365661621094,0.13
306,MetaDrive-td3combine-new-expt,130,132.87053822254714,307756,747,2352.190829515457,11.44210433959961,,11.523809432983398,0.13
307,MetaDrive-td3combine-new-expt,130,130.38490377503956,308757,748,2360.475109100342,18.038986206054688,-18.214962005615234,28.041690826416016,0.12
308,MetaDrive-td3combine-new-expt,130,131.4712263446371,309758,749,2368.9596560001373,10.480937957763672,,7.789518356323242,0.12
309,MetaDrive-td3combine-new-expt,130,132.42322011163614,310377,750,2373.6922211647034,10.994176864624023,-10.929925918579102,20.503902435302734,0.12
310,MetaDrive-td3combine-new-expt,130,131.82527319821557,311378,751,2381.001569509506,16.443115234375,,17.583560943603516,0.12
311,MetaDrive-td3combine-new-expt,130,130.64660307274772,312379,752,2388.3186061382294,16.830913543701172,-17.83383560180664,12.933871269226074,0.12
312,MetaDrive-td3combine-new-expt,130,130.4015433655695,313884,754,2400.346476793289,15.616571426391602,,11.648736000061035,0.12
313,MetaDrive-td3combine-new-expt,130,129.6784397676211,314885,755,2407.617313146591,15.461868286132812,-14.84511947631836,8.033775329589844,0.12
314,MetaDrive-td3combine-new-expt,130,129.67070331074555,315886,756,2415.4339079856873,21.063129425048828,,9.734159469604492,0.12
315,MetaDrive-td3combine-new-expt,130,131.1901003400922,316664,757,2421.362778186798,12.144593238830566,,12.175041198730469,0.12
316,MetaDrive-td3combine-new-expt,130,131.88850500729467,317665,758,2429.0716915130615,19.088064193725586,-17.78007698059082,7.042856216430664,0.12
317,MetaDrive-td3combine-new-expt,130,128.3778708953037,318666,759,2436.210075378418,17.040464401245117,,18.887657165527344,0.12
318,MetaDrive-td3combine-new-expt,130,127.13629619247,319667,760,2443.1162490844727,26.62430191040039,-26.58390235900879,6.786209583282471,0.12
319,MetaDrive-td3combine-new-expt,130,127.35306568120615,320668,761,2450.20068693161,19.424785614013672,,41.44951629638672,0.12
320,MetaDrive-td3combine-new-expt,130,125.78896376854763,321669,762,2457.4259095191956,18.547378540039062,-19.684783935546875,17.17803955078125,0.12
321,MetaDrive-td3combine-new-expt,130,126.59678543390488,322670,763,2465.1500284671783,15.832296371459961,,15.963006019592285,0.12
322,MetaDrive-td3combine-new-expt,130,127.56013746201535,323671,764,2473.2813951969147,12.595407485961914,-13.28073501586914,22.280120849609375,0.12
323,MetaDrive-td3combine-new-expt,130,127.53260366328271,324672,765,2480.6690061092377,11.972429275512695,,18.56920623779297,0.12
324,MetaDrive-td3combine-new-expt,130,127.59699288199322,325673,766,2488.6788330078125,12.040325164794922,-13.392413139343262,6.365179538726807,0.12
325,MetaDrive-td3combine-new-expt,130,128.4148741381258,326674,767,2496.416274547577,18.017147064208984,,9.116390228271484,0.12
326,MetaDrive-td3combine-new-expt,130,133.14102320389466,327387,768,2502.6207597255707,23.75405502319336,-23.520740509033203,14.623048782348633,0.13
327,MetaDrive-td3combine-new-expt,130,131.5317135974159,328388,769,2509.838410139084,8.839057922363281,,16.694353103637695,0.12
328,MetaDrive-td3combine-new-expt,130,131.61798836854297,329389,770,2517.774473667145,11.996397018432617,-12.792221069335938,65.44105529785156,0.12
329,MetaDrive-td3combine-new-expt,130,130.1286838086676,330390,771,2525.108889579773,14.693727493286133,,9.359064102172852,0.12
330,MetaDrive-td3combine-new-expt,130,129.86881924588843,331391,772,2532.279304742813,8.271903991699219,-9.495914459228516,9.303023338317871,0.12
331,MetaDrive-td3combine-new-expt,130,125.90401893032742,332716,774,2542.5560953617096,15.031732559204102,,7.414762496948242,0.11
332,MetaDrive-td3combine-new-expt,130,127.6635912936421,333717,775,2549.9288609027863,9.59882640838623,-8.335052490234375,9.926433563232422,0.11
333,MetaDrive-td3combine-new-expt,130,123.66953193417534,334903,777,2558.4880454540253,17.141969680786133,-17.665132522583008,12.491484642028809,0.1
334,MetaDrive-td3combine-new-expt,130,123.74163294729834,335904,778,2565.4937925338745,17.197494506835938,,8.57507610321045,0.1
335,MetaDrive-td3combine-new-expt,130,125.35269174277536,336905,779,2572.630923986435,20.470972061157227,-20.994592666625977,40.39629364013672,0.1
336,MetaDrive-td3combine-new-expt,130,124.77511427630986,337028,780,2573.6053631305695,22.298866271972656,,21.894710540771484,0.1
337,MetaDrive-td3combine-new-expt,130,125.36422063649533,338134,782,2581.937281370163,16.7924747467041,,10.984516143798828,0.1
338,MetaDrive-td3combine-new-expt,130,125.62543468378972,339135,783,2589.553427219391,10.508709907531738,-10.33740234375,16.483016967773438,0.1
339,MetaDrive-td3combine-new-expt,130,125.40956190775093,340136,784,2596.6665227413177,14.900739669799805,,6.65239143371582,0.1
340,MetaDrive-td3combine-new-expt,131,123.66519830050933,341137,785,2603.9066734313965,18.122695922851562,-17.763551712036133,7.608745574951172,0.09
341,MetaDrive-td3combine-new-expt,131,121.92373188712351,342636,788,2615.0550367832184,15.573467254638672,,8.29935073852539,0.09
342,MetaDrive-td3combine-new-expt,130,122.05834976950985,343637,789,2624.2419595718384,16.169292449951172,-17.16415786743164,17.747760772705078,0.09
343,MetaDrive-td3combine-new-expt,130,121.99109983325117,344638,790,2631.653660058975,20.275230407714844,,6.396058082580566,0.09
344,MetaDrive-td3combine-new-expt,130,122.34937458283535,345639,791,2639.3576312065125,14.346203804016113,-14.382092475891113,6.635702610015869,0.09
345,MetaDrive-td3combine-new-expt,130,125.0597098758578,346640,792,2646.8729853630066,12.843130111694336,,22.35345458984375,0.09
346,MetaDrive-td3combine-new-expt,130,124.67526077960942,347069,793,2649.9383249282837,21.20549774169922,-21.410621643066406,4.106775283813477,0.09
347,MetaDrive-td3combine-new-expt,130,123.05662900480938,348255,795,2658.8812322616577,11.918155670166016,-13.488787651062012,16.227436065673828,0.08
348,MetaDrive-td3combine-new-expt,130,123.89514601215647,349482,797,2668.909469604492,18.830821990966797,,9.048969268798828,0.08
349,MetaDrive-td3combine-new-expt,130,121.21110310794529,350162,799,2673.891110897064,17.908069610595703,,18.279504776000977,0.08
350,MetaDrive-td3combine-new-expt,130,120.50648645155692,351163,800,2681.5245323181152,18.840700149536133,-18.555770874023438,53.893741607666016,0.07
351,MetaDrive-td3combine-new-expt,130,118.24671897492357,352164,801,2689.6085579395294,14.624408721923828,,6.225024223327637,0.06
352,MetaDrive-td3combine-new-expt,130,118.97350677337965,353165,802,2698.396590232849,19.541067123413086,-19.772300720214844,16.089740753173828,0.06
353,MetaDrive-td3combine-new-expt,130,119.08657301704302,354166,803,2705.8417069911957,14.554908752441406,,80.31398010253906,0.06
354,MetaDrive-td3combine-new-expt,130,121.38038509433595,355167,804,2714.13409781456,8.040237426757812,-8.291357040405273,7.192856311798096,0.06
355,MetaDrive-td3combine-new-expt,130,115.84400399873246,356443,807,2723.553312778473,17.179466247558594,-18.076019287109375,11.36081314086914,0.05
356,MetaDrive-td3combine-new-expt,130,116.27036002658511,357444,808,2730.708082675934,4.746304512023926,,13.244043350219727,0.05
357,MetaDrive-td3combine-new-expt,130,117.29479057974694,358656,810,2739.6898860931396,13.548002243041992,,10.003494262695312,0.06
358,MetaDrive-td3combine-new-expt,130,118.38237749479177,359657,811,2747.2703642845154,10.007802963256836,-9.630205154418945,17.4081974029541,0.06
359,MetaDrive-td3combine-new-expt,130,123.14319101589028,360658,812,2755.6011707782745,20.978836059570312,,9.405168533325195,0.06
360,MetaDrive-td3combine-new-expt,130,123.96386989587302,361051,813,2758.9243960380554,19.454486846923828,-19.50344467163086,18.470298767089844,0.06
361,MetaDrive-td3combine-new-expt,130,123.6908704810062,362201,815,2767.4863562583923,21.04379653930664,-20.874555587768555,12.780028343200684,0.06
362,MetaDrive-td3combine-new-expt,130,127.07850979153993,363801,817,2779.8185954093933,18.90247344970703,-19.070667266845703,99.00655364990234,0.07
363,MetaDrive-td3combine-new-expt,130,127.47260003763729,364802,818,2787.6748304367065,13.033653259277344,,9.90670394897461,0.07
364,MetaDrive-td3combine-new-expt,130,126.42147965941092,365803,819,2794.568657398224,20.364826202392578,-20.387908935546875,14.671241760253906,0.07
365,MetaDrive-td3combine-new-expt,130,124.49371304573341,366053,820,2796.5340614318848,16.628204345703125,-15.775534629821777,13.417326927185059,0.06
366,MetaDrive-td3combine-new-expt,130,127.88132194256079,367355,823,2806.7602412700653,12.528196334838867,-12.092970848083496,16.13479995727539,0.07
367,MetaDrive-td3combine-new-expt,130,131.11982872895368,368614,825,2816.4231712818146,18.293155670166016,,13.872485160827637,0.07
368,MetaDrive-td3combine-new-expt,130,131.8398492355352,369615,826,2823.5115189552307,16.69289779663086,-17.260719299316406,7.287656784057617,0.07
369,MetaDrive-td3combine-new-expt,130,131.89747767768392,370616,827,2831.1524600982666,10.940351486206055,,13.618549346923828,0.07
370,MetaDrive-td3combine-new-expt,130,132.3904119374961,371149,829,2835.1691699028015,14.00226879119873,-15.116446495056152,8.866872787475586,0.07
371,MetaDrive-td3combine-new-expt,130,132.88350968693743,372150,830,2842.804085254669,16.667377471923828,,8.65502643585205,0.07
372,MetaDrive-td3combine-new-expt,130,135.67793148575223,373769,832,2854.9462897777557,10.744178771972656,-11.586126327514648,25.220550537109375,0.07
373,MetaDrive-td3combine-new-expt,130,136.92658673135355,374770,833,2862.2428827285767,15.913690567016602,,13.808104515075684,0.07
374,MetaDrive-td3combine-new-expt,130,137.08254043977954,375771,834,2870.4360949993134,11.600757598876953,-12.595525741577148,11.014198303222656,0.07
375,MetaDrive-td3combine-new-expt,130,136.03705377607324,376772,835,2878.0781531333923,16.690128326416016,,27.217464447021484,0.07
376,MetaDrive-td3combine-new-expt,130,132.9044593685304,377198,836,2882.718359231949,16.106597900390625,,11.411503791809082,0.07
377,MetaDrive-td3combine-new-expt,130,134.663845021954,378199,837,2891.0609726905823,26.421459197998047,-25.971675872802734,3.902047634124756,0.07
378,MetaDrive-td3combine-new-expt,130,134.6682927635011,379441,839,2900.2922434806824,18.743087768554688,-18.90445327758789,23.7220458984375,0.07
379,MetaDrive-td3combine-new-expt,130,135.475781112762,380442,840,2907.4341328144073,11.002391815185547,,12.522028923034668,0.07
380,MetaDrive-td3combine-new-expt,130,133.44944776479323,381443,841,2915.225606203079,16.074996948242188,-16.48798942565918,3.296761989593506,0.07
381,MetaDrive-td3combine-new-expt,130,133.12822006607755,382556,843,2923.419394016266,20.318893432617188,,5.432775974273682,0.07
382,MetaDrive-td3combine-new-expt,130,134.43419119933534,383557,844,2930.6203598976135,18.315479278564453,-18.550939559936523,17.309988021850586,0.07
383,MetaDrive-td3combine-new-expt,130,133.21496788833934,384558,845,2937.734174013138,17.884103775024414,,15.230571746826172,0.07
384,MetaDrive-td3combine-new-expt,130,132.41031438180417,385788,847,2946.700464487076,15.866254806518555,,11.618278503417969,0.06
385,MetaDrive-td3combine-new-expt,130,133.74027087911108,386317,848,2950.646700143814,19.537612915039062,-20.117950439453125,24.239999771118164,0.06
386,MetaDrive-td3combine-new-expt,130,137.58847659822712,387994,851,2963.6962163448334,22.629255294799805,,9.553510665893555,0.07
387,MetaDrive-td3combine-new-expt,130,136.5361796082778,388995,852,2970.8368260860443,14.27570915222168,-13.699140548706055,18.5350399017334,0.07
388,MetaDrive-td3combine-new-expt,130,137.53353938681718,389996,853,2977.379494667053,17.83676528930664,,10.588027000427246,0.07
389,MetaDrive-td3combine-new-expt,131,137.97734625002172,390997,854,2984.6017787456512,18.465198516845703,-18.131175994873047,7.154012203216553,0.07
390,MetaDrive-td3combine-new-expt,130,142.19752216376955,391675,855,2990.2793321609497,12.889986991882324,-12.46805191040039,10.36077880859375,0.08
391,MetaDrive-td3combine-new-expt,130,145.92349121191546,392173,856,2994.3383061885834,22.995704650878906,-22.31900978088379,12.696211814880371,0.09
392,MetaDrive-td3combine-new-expt,130,142.77427553168704,393487,858,3005.1720418930054,15.812196731567383,-16.091793060302734,4.670619487762451,0.09
393,MetaDrive-td3combine-new-expt,130,144.05718004733095,394488,859,3012.2059454917908,14.225990295410156,,14.770620346069336,0.09
394,MetaDrive-td3combine-new-expt,130,144.47965661002598,395489,860,3019.3788826465607,16.624061584472656,-18.131317138671875,14.077729225158691,0.09
395,MetaDrive-td3combine-new-expt,131,144.02742939282626,396834,863,3028.9207422733307,17.048925399780273,,5.17623233795166,0.09
396,MetaDrive-td3combine-new-expt,130,146.33712318625686,397835,864,3037.388402700424,18.107379913330078,-18.20659828186035,9.543253898620605,0.09
397,MetaDrive-td3combine-new-expt,130,147.6104594345916,398360,865,3041.628997325897,18.80857276916504,,16.18323516845703,0.1
398,MetaDrive-td3combine-new-expt,130,146.8738566890985,399361,866,3048.8928532600403,15.40893840789795,-14.835515975952148,6.777320384979248,0.1
