TanmayH/CS269-RL-project-code/MetaDrive-td3combine-expt1/MetaDrive-Gen-v0/td3/progress.csv
,log_dir,frame_per_second,episode_reward,total_steps,total_episodes,total_time,target_q,actor_loss,critic_loss,success_rate
0,MetaDrive-td3combine-expt1,242,4.055366263023834,1032,3,4.25594162940979,,,,0.0
1,MetaDrive-td3combine-expt1,256,4.949706511287009,2151,6,8.371440649032593,,,,0.0
2,MetaDrive-td3combine-expt1,266,5.524827333949357,3250,9,12.184927701950073,,,,0.0
3,MetaDrive-td3combine-expt1,263,5.209788335625639,4129,12,15.645792961120605,,,,0.0
4,MetaDrive-td3combine-expt1,250,6.368792245099018,5711,14,22.79764199256897,,,,0.0
5,MetaDrive-td3combine-expt1,246,6.156912673792771,6032,15,24.51033926010132,,,,0.0
6,MetaDrive-td3combine-expt1,212,7.3148313979981845,7731,17,36.42731523513794,,,,0.0
7,MetaDrive-td3combine-expt1,212,7.351583860195057,8080,18,38.04765009880066,,,,0.0
8,MetaDrive-td3combine-expt1,218,7.230025787616869,9356,21,42.881028175354004,,,,0.0
9,MetaDrive-td3combine-expt1,218,7.83701887396381,10065,22,46.09812593460083,-0.06555438041687012,0.06504020094871521,0.0014741787454113364,0.0
10,MetaDrive-td3combine-expt1,182,2.4802840414343805,11616,45,63.61142611503601,-0.0011021586833521724,,0.010851283557713032,0.0
11,MetaDrive-td3combine-expt1,174,2.3866551691092317,12617,46,72.23282504081726,-0.04969358071684837,-0.018541749566793442,0.7809603214263916,0.0
12,MetaDrive-td3combine-expt1,167,2.3633222424862996,13618,47,81.09220862388611,0.03533553332090378,,0.002523491159081459,0.0
13,MetaDrive-td3combine-expt1,164,2.243414240454696,14619,48,89.13495230674744,0.055259428918361664,-0.06758573651313782,0.0037330067716538906,0.0
14,MetaDrive-td3combine-expt1,156,2.7151547777022205,15441,49,98.3841803073883,0.09566935896873474,-0.05511680990457535,0.015023716725409031,0.0
15,MetaDrive-td3combine-expt1,147,3.0809448960870864,16658,54,112.83411288261414,0.14681781828403473,,0.003426996059715748,0.0
16,MetaDrive-td3combine-expt1,145,3.3932488344483085,17249,58,118.60114312171936,0.17855533957481384,-0.18259093165397644,0.004955540411174297,0.0
17,MetaDrive-td3combine-expt1,142,3.5877927968247767,18176,65,127.61411309242249,0.23244966566562653,,0.014695736579596996,0.0
18,MetaDrive-td3combine-expt1,139,4.114716319170416,19026,74,136.08758926391602,0.20693230628967285,,0.8794357180595398,0.0
19,MetaDrive-td3combine-expt1,135,4.315321415026167,20008,88,147.2442548274994,0.3648932874202728,,0.006441742647439241,0.0
20,MetaDrive-td3combine-expt1,132,4.337867584833061,21004,104,158.1521246433258,0.4365350902080536,,0.0038129263557493687,0.0
21,MetaDrive-td3combine-expt1,128,4.628602601506785,22048,125,171.29656147956848,0.5668491721153259,,0.024512141942977905,0.0
22,MetaDrive-td3combine-expt1,124,7.251482710285045,23027,147,184.28108525276184,0.767029881477356,-0.719501256942749,0.08756458014249802,0.0
23,MetaDrive-td3combine-expt1,121,7.862224685192119,24011,172,197.1662118434906,0.9095783233642578,-0.9488275051116943,0.028196481987833977,0.0
24,MetaDrive-td3combine-expt1,118,8.428233327741545,25019,198,210.46880054473877,1.1764360666275024,-1.113672137260437,0.0623355396091938,0.0
25,MetaDrive-td3combine-expt1,116,10.227809461777312,26032,220,222.65623140335083,1.4854081869125366,,0.0535341277718544,0.0
26,MetaDrive-td3combine-expt1,114,11.012291744306511,27025,243,235.5871262550354,1.8943367004394531,-1.9031963348388672,0.08031676709651947,0.0
27,MetaDrive-td3combine-expt1,112,13.209921782171948,28011,263,248.23111128807068,2.207184314727783,-2.440610408782959,1.3423463106155396,0.0
28,MetaDrive-td3combine-expt1,111,14.226554039748557,29034,284,261.5223197937012,2.6276047229766846,,3.882457733154297,0.0
29,MetaDrive-td3combine-expt1,109,16.010680211863637,30018,305,273.1117684841156,3.140552520751953,,2.445079803466797,0.0
30,MetaDrive-td3combine-expt1,108,15.883084577277257,31007,327,284.94190073013306,3.79068660736084,-3.961953639984131,0.2021891176700592,0.0
31,MetaDrive-td3combine-expt1,107,16.766785987194954,32015,349,296.9373297691345,4.203106880187988,-4.360146522521973,3.0157418251037598,0.0
32,MetaDrive-td3combine-expt1,106,16.527923931209344,33036,369,309.1115574836731,4.911685466766357,,0.5275720953941345,0.0
33,MetaDrive-td3combine-expt1,106,18.727457160254584,34036,385,320.31528997421265,5.268339157104492,,2.8873157501220703,0.0
34,MetaDrive-td3combine-expt1,105,19.829322580709583,35030,403,331.3318817615509,6.093304634094238,,4.156513214111328,0.0
35,MetaDrive-td3combine-expt1,105,21.351119508731845,36009,418,341.79039907455444,6.494056701660156,-6.746874809265137,3.9012794494628906,0.0
36,MetaDrive-td3combine-expt1,104,25.136146146675856,37011,432,354.13595962524414,6.986976146697998,-7.577960968017578,4.482294082641602,0.0
37,MetaDrive-td3combine-expt1,103,30.78313413436862,38089,445,366.51325249671936,7.723407745361328,-8.03335189819336,5.16562032699585,0.0
38,MetaDrive-td3combine-expt1,103,33.8063877802655,39039,459,376.9850161075592,8.497385025024414,-9.092069625854492,5.199777603149414,0.0
39,MetaDrive-td3combine-expt1,103,39.32995444025238,40006,468,387.3149616718292,9.386392593383789,,0.5259993672370911,0.0
40,MetaDrive-td3combine-expt1,102,44.86589369734038,41100,479,399.6779215335846,9.389897346496582,,11.80598258972168,0.0
41,MetaDrive-td3combine-expt1,102,47.722121308558755,42078,489,409.6264364719391,10.637904167175293,,0.8302369713783264,0.0
42,MetaDrive-td3combine-expt1,102,53.580810311153385,43092,499,420.78542923927307,11.446928977966309,,0.833656370639801,0.0
43,MetaDrive-td3combine-expt1,102,57.368123039499615,44069,509,431.9660134315491,12.166949272155762,-12.388835906982422,5.7090959548950195,0.0
44,MetaDrive-td3combine-expt1,101,61.257020718793456,45029,519,441.93346095085144,12.686413764953613,-12.927555084228516,10.07485580444336,0.0
45,MetaDrive-td3combine-expt1,101,63.06498597695097,46038,530,452.86390566825867,13.267918586730957,,0.5384762287139893,0.0
46,MetaDrive-td3combine-expt1,101,65.0718110049976,47076,541,464.23252868652344,14.374531745910645,,0.651038646697998,0.0
47,MetaDrive-td3combine-expt1,101,66.7359233120108,48074,552,474.5925672054291,15.163188934326172,,1.2654637098312378,0.0
48,MetaDrive-td3combine-expt1,101,69.5287096477681,49026,561,484.4543676376343,15.37074089050293,,14.314933776855469,0.0
49,MetaDrive-td3combine-expt1,100,69.87166085115477,50049,570,495.6306276321411,15.70096492767334,-16.235031127929688,23.81973648071289,0.0
50,MetaDrive-td3combine-expt1,100,70.3767208811849,51017,580,506.51162219047546,16.564891815185547,-16.909818649291992,1.9413480758666992,0.0
51,MetaDrive-td3combine-expt1,100,70.38495555379636,52081,590,517.8311975002289,16.79485321044922,-17.247154235839844,9.579282760620117,0.0
52,MetaDrive-td3combine-expt1,100,70.54039107777763,53021,599,528.5275111198425,17.931846618652344,-18.717641830444336,21.557518005371094,0.0
53,MetaDrive-td3combine-expt1,99,72.40809422386882,54051,608,541.0323317050934,17.734546661376953,-18.60538673400879,13.247566223144531,0.0
54,MetaDrive-td3combine-expt1,99,74.13631053652276,55039,617,552.6097090244293,19.46969985961914,-19.023828506469727,3.3922171592712402,0.0
55,MetaDrive-td3combine-expt1,99,75.56323267766719,56111,627,564.5791018009186,19.116840362548828,-19.569400787353516,1.2128580808639526,0.0
56,MetaDrive-td3combine-expt1,99,75.89557263087109,57044,636,574.9006657600403,21.21637725830078,,16.582584381103516,0.0
57,MetaDrive-td3combine-expt1,98,76.48063229806942,58070,646,586.6086220741272,20.079504013061523,,1.9229683876037598,0.0
58,MetaDrive-td3combine-expt1,98,77.86576594475227,59136,656,599.963710308075,21.4530029296875,,14.633464813232422,0.0
59,MetaDrive-td3combine-expt1,98,78.81561802586583,60052,662,610.1423451900482,22.444446563720703,,1.6512598991394043,0.0
60,MetaDrive-td3combine-expt1,98,79.26031260107537,61122,667,623.4521820545197,23.211929321289062,,4.482990264892578,0.0
61,MetaDrive-td3combine-expt1,97,81.98115073131015,62519,671,638.2112393379211,22.564851760864258,-22.416030883789062,5.873063564300537,0.01
62,MetaDrive-td3combine-expt1,97,85.39779062779122,63061,672,643.9304707050323,22.85308074951172,-23.31212615966797,2.288133382797241,0.02
63,MetaDrive-td3combine-expt1,97,90.08855193446985,64280,678,658.7150626182556,23.123104095458984,,6.466237545013428,0.03
64,MetaDrive-td3combine-expt1,97,90.33179626977814,65067,685,667.0554211139679,24.728757858276367,-25.912742614746094,12.19839096069336,0.03
65,MetaDrive-td3combine-expt1,97,90.1665894790014,66082,694,678.4228196144104,23.777137756347656,,19.254798889160156,0.03
66,MetaDrive-td3combine-expt1,97,93.79632326354891,67265,701,690.8492639064789,23.70655632019043,-23.66623306274414,20.76217269897461,0.03
67,MetaDrive-td3combine-expt1,97,93.2909904647252,68282,707,701.9438514709473,22.870624542236328,,41.37446594238281,0.03
68,MetaDrive-td3combine-expt1,97,96.83950031368713,69158,711,710.7982776165009,27.38705062866211,,1.635685682296753,0.04
69,MetaDrive-td3combine-expt1,97,98.2804469584601,70107,719,721.2327518463135,26.72524642944336,-27.31549835205078,2.2712156772613525,0.05
70,MetaDrive-td3combine-expt1,96,101.23950342260008,71133,723,734.6390039920807,26.3142032623291,-26.93199348449707,4.115760803222656,0.06
71,MetaDrive-td3combine-expt1,96,106.74741133176126,72277,727,748.6484878063202,24.882545471191406,-25.35169219970703,3.376603841781616,0.07
72,MetaDrive-td3combine-expt1,96,108.96525999397446,73049,731,757.6719989776611,29.374507904052734,-30.001426696777344,2.9514946937561035,0.08
73,MetaDrive-td3combine-expt1,96,110.96372916875596,74050,738,769.1383421421051,29.302099227905273,,2.6038386821746826,0.08
74,MetaDrive-td3combine-expt1,96,114.17288006798559,75114,744,781.8562180995941,28.151884078979492,,4.757864952087402,0.09
75,MetaDrive-td3combine-expt1,95,117.73825423905959,76130,750,793.5473210811615,30.25356674194336,,2.068171977996826,0.09
76,MetaDrive-td3combine-expt1,95,119.78991938185474,77008,756,803.5208797454834,27.987993240356445,,12.312761306762695,0.09
77,MetaDrive-td3combine-expt1,95,119.02223839875415,78227,765,818.3426480293274,30.003753662109375,-30.377357482910156,6.144778251647949,0.09
78,MetaDrive-td3combine-expt1,95,112.45825685147827,79107,772,828.6625964641571,30.672822952270508,-30.935239791870117,4.487534523010254,0.07
79,MetaDrive-td3combine-expt1,95,115.61400589355559,80141,776,839.6923899650574,29.291545867919922,-30.046937942504883,5.536541938781738,0.08
80,MetaDrive-td3combine-expt1,95,112.46795295390596,81096,783,849.8456003665924,30.552669525146484,,3.2881696224212646,0.07
81,MetaDrive-td3combine-expt1,95,116.816208480544,82118,787,861.9913702011108,29.325260162353516,,14.661378860473633,0.08
82,MetaDrive-td3combine-expt1,95,121.01803591218837,83320,792,875.7813487052917,32.15827941894531,,65.93016052246094,0.1
83,MetaDrive-td3combine-expt1,95,121.27137506737186,84048,797,884.1228840351105,31.87472152709961,,4.837634563446045,0.1
84,MetaDrive-td3combine-expt1,94,119.43106856425207,85021,803,896.3475859165192,33.76629638671875,-34.55974578857422,3.938908100128174,0.1
85,MetaDrive-td3combine-expt1,94,119.33526755508775,86065,808,909.8932464122772,34.10844421386719,-33.86309051513672,6.439300537109375,0.1
86,MetaDrive-td3combine-expt1,94,117.99271757068048,87043,815,920.3782997131348,35.262596130371094,-35.61334991455078,4.179270267486572,0.09
87,MetaDrive-td3combine-expt1,94,115.95460352276405,88002,821,931.0262441635132,32.502784729003906,,6.63112211227417,0.07
88,MetaDrive-td3combine-expt1,94,114.57424604093458,89209,826,946.6781258583069,35.095970153808594,-34.834564208984375,6.841122627258301,0.07
89,MetaDrive-td3combine-expt1,94,107.93253844952348,90110,834,956.4513885974884,34.99345016479492,,39.59069061279297,0.05
90,MetaDrive-td3combine-expt1,93,110.5599070456564,91045,838,969.2040090560913,33.923728942871094,-34.503047943115234,7.223752975463867,0.05
91,MetaDrive-td3combine-expt1,93,105.92723674273417,92038,846,979.7152609825134,32.80224609375,,10.38674259185791,0.04
92,MetaDrive-td3combine-expt1,94,103.40595553940165,93024,855,989.3227868080139,35.46082305908203,,7.676753520965576,0.04
93,MetaDrive-td3combine-expt1,93,105.15942863564196,94119,862,1001.4146630764008,31.86642837524414,-32.76850891113281,4.065155029296875,0.04
94,MetaDrive-td3combine-expt1,94,107.3965672584672,95078,867,1010.432959318161,32.95195007324219,,18.681381225585938,0.05
95,MetaDrive-td3combine-expt1,93,109.33542476199436,96024,872,1021.8009960651398,35.20848083496094,,5.10228157043457,0.05
96,MetaDrive-td3combine-expt1,93,105.8291524618177,97104,879,1034.4314122200012,37.723724365234375,,3.6482367515563965,0.04
97,MetaDrive-td3combine-expt1,93,103.51760187324686,98007,886,1043.7399306297302,32.86595153808594,-33.39697265625,5.237470626831055,0.03
98,MetaDrive-td3combine-expt1,93,100.74035898538362,99011,892,1054.0583469867706,36.2960205078125,-36.608642578125,7.631651878356934,0.01
99,MetaDrive-td3combine-expt1,93,102.2785860422583,100071,900,1065.1590027809143,37.532501220703125,-36.755516052246094,61.773704528808594,0.02
100,MetaDrive-td3combine-expt1,93,101.28851972354504,101090,907,1078.103104352951,37.337303161621094,,5.600551128387451,0.02
101,MetaDrive-td3combine-expt1,93,102.16195122375352,102018,913,1088.5067813396454,41.549964904785156,,4.733822822570801,0.02
102,MetaDrive-td3combine-expt1,93,103.30502094704384,103017,918,1099.9133884906769,35.362640380859375,-37.47509765625,147.68423461914062,0.02
103,MetaDrive-td3combine-expt1,93,104.19073773666096,104182,924,1112.9562146663666,32.41856384277344,,20.67699432373047,0.02
104,MetaDrive-td3combine-expt1,93,103.99458149968046,105091,931,1123.179898262024,38.245697021484375,-38.00834274291992,4.904456615447998,0.02
105,MetaDrive-td3combine-expt1,93,105.54389466825404,106278,937,1137.2639727592468,38.24732208251953,,22.329187393188477,0.03
106,MetaDrive-td3combine-expt1,93,108.02716694507627,107075,940,1145.6370432376862,38.364830017089844,-38.93817901611328,7.895934581756592,0.03
107,MetaDrive-td3combine-expt1,93,109.36778064573522,108251,946,1158.3864679336548,38.74232482910156,-40.20732116699219,5.046451568603516,0.04
108,MetaDrive-td3combine-expt1,93,111.11372052358075,109018,951,1166.247423171997,37.00817108154297,,101.52359008789062,0.04
109,MetaDrive-td3combine-expt1,93,115.81380857401766,110074,955,1177.5769572257996,36.812232971191406,,8.483402252197266,0.06
110,MetaDrive-td3combine-expt1,93,117.17028607651004,111012,960,1187.6853766441345,36.172447204589844,,12.365579605102539,0.06
111,MetaDrive-td3combine-expt1,93,119.02867617308105,112076,965,1200.463713645935,36.19514465332031,,24.59706687927246,0.07
112,MetaDrive-td3combine-expt1,93,117.88581345550563,113027,970,1211.6350283622742,40.14452362060547,-40.17267608642578,13.00953483581543,0.06
113,MetaDrive-td3combine-expt1,93,118.59673332197481,114216,974,1227.9661812782288,35.78690719604492,,38.34376525878906,0.07
114,MetaDrive-td3combine-expt1,93,120.48580950070306,115019,979,1235.969081401825,39.014488220214844,-39.1792106628418,2.810626745223999,0.08
115,MetaDrive-td3combine-expt1,92,121.48754083022251,116072,983,1249.1501603126526,37.6194953918457,,5.4980573654174805,0.08
116,MetaDrive-td3combine-expt1,92,123.98606671552871,117199,988,1260.8488998413086,40.176902770996094,-39.530120849609375,9.416648864746094,0.09
117,MetaDrive-td3combine-expt1,92,126.15048669301073,118254,992,1272.9566462039948,41.23817825317383,,5.214456558227539,0.09
118,MetaDrive-td3combine-expt1,92,124.94617713976801,119041,997,1282.3289847373962,36.797523498535156,-37.12651062011719,31.815196990966797,0.09
119,MetaDrive-td3combine-expt1,92,129.6141880920941,120204,1002,1294.5979998111725,38.9383544921875,,6.317054748535156,0.11
120,MetaDrive-td3combine-expt1,92,133.9402592202913,121144,1006,1304.8081204891205,40.81123352050781,,7.261321067810059,0.12
121,MetaDrive-td3combine-expt1,92,137.21035051840641,122005,1008,1314.1786320209503,36.85203170776367,-37.14000701904297,10.135834693908691,0.13
122,MetaDrive-td3combine-expt1,92,139.40326473954025,123014,1012,1325.2833096981049,39.649940490722656,,5.592682361602783,0.14
123,MetaDrive-td3combine-expt1,92,140.34401383533034,124029,1017,1335.0139577388763,37.85819625854492,-38.06066131591797,5.195456504821777,0.16
124,MetaDrive-td3combine-expt1,92,141.79786709433446,125030,1018,1348.8880605697632,38.042022705078125,,71.67881774902344,0.16
125,MetaDrive-td3combine-expt1,92,145.9506693810949,126522,1022,1366.5908858776093,43.190589904785156,,6.799933433532715,0.17
126,MetaDrive-td3combine-expt1,92,144.87856516602093,127647,1024,1379.083951473236,42.89741897583008,-43.176368713378906,16.67637825012207,0.17
127,MetaDrive-td3combine-expt1,92,146.77444641441346,128184,1026,1384.7524151802063,38.326072692871094,,4.7074384689331055,0.18
128,MetaDrive-td3combine-expt1,92,150.63872025627782,129030,1029,1394.0374283790588,39.553070068359375,,69.81991577148438,0.19
129,MetaDrive-td3combine-expt1,92,154.68611751958667,130136,1032,1406.21688914299,42.268768310546875,,9.656689643859863,0.21
130,MetaDrive-td3combine-expt1,92,151.31730853360105,131020,1038,1416.1019656658173,38.62712097167969,,12.670639991760254,0.2
131,MetaDrive-td3combine-expt1,92,153.8520766590256,132442,1042,1431.6151161193848,40.94681167602539,,6.373551845550537,0.21
132,MetaDrive-td3combine-expt1,92,154.9042480027106,133215,1044,1439.7309038639069,41.03256607055664,-41.524436950683594,6.705921173095703,0.2
133,MetaDrive-td3combine-expt1,92,154.55941721560094,134045,1049,1449.6651530265808,40.7661018371582,-41.40805435180664,38.278011322021484,0.2
134,MetaDrive-td3combine-expt1,92,154.88647138339854,135163,1053,1465.2512204647064,42.091270446777344,-42.23463439941406,4.306004524230957,0.19
135,MetaDrive-td3combine-expt1,92,153.49329499713534,136052,1057,1475.0290987491608,41.86092758178711,,5.139336109161377,0.19
136,MetaDrive-td3combine-expt1,92,155.93189520640456,137207,1059,1489.4172852039337,43.71090316772461,-43.88176727294922,8.351597785949707,0.2
137,MetaDrive-td3combine-expt1,92,153.92427964624113,138151,1064,1498.5330321788788,38.430442810058594,-38.88587188720703,15.696258544921875,0.2
138,MetaDrive-td3combine-expt1,92,158.24650269451107,139092,1066,1508.2576401233673,38.62562942504883,,4.888296127319336,0.21
139,MetaDrive-td3combine-expt1,92,159.9595507192114,140179,1071,1519.0076308250427,40.643001556396484,-41.74262619018555,20.357566833496094,0.22
140,MetaDrive-td3combine-expt1,92,156.7759039484096,141919,1077,1537.9754166603088,42.80772399902344,-42.31957244873047,10.874801635742188,0.21
141,MetaDrive-td3combine-expt1,92,157.67826449659714,142292,1078,1543.0268287658691,44.578147888183594,,11.292742729187012,0.21
142,MetaDrive-td3combine-expt1,92,158.8605820619926,143008,1081,1550.9257402420044,43.97694778442383,,6.776420593261719,0.21
143,MetaDrive-td3combine-expt1,92,159.0287137438043,144016,1084,1562.4869792461395,41.96173858642578,,11.603639602661133,0.21
144,MetaDrive-td3combine-expt1,92,158.35107333454098,145145,1089,1575.6919808387756,44.432342529296875,-45.836334228515625,52.48274612426758,0.22
145,MetaDrive-td3combine-expt1,92,159.98609113290672,146247,1093,1588.0581862926483,43.112060546875,-42.898033142089844,4.7740583419799805,0.23
146,MetaDrive-td3combine-expt1,92,162.18340964405294,147495,1095,1601.724321603775,44.44475173950195,-45.13670349121094,4.021768569946289,0.23
147,MetaDrive-td3combine-expt1,92,163.66119430917027,148457,1098,1612.1624283790588,41.437320709228516,-41.73366928100586,16.576087951660156,0.22
148,MetaDrive-td3combine-expt1,92,164.01525195594346,149141,1099,1619.212996006012,41.36471176147461,-41.77557373046875,4.264866352081299,0.22
149,MetaDrive-td3combine-expt1,92,164.14260743271504,150514,1102,1633.6355636119843,47.911922454833984,,6.973679542541504,0.21
150,MetaDrive-td3combine-expt1,92,164.9268826427725,151094,1104,1639.5171802043915,44.341888427734375,,9.902791976928711,0.21
151,MetaDrive-td3combine-expt1,92,159.64148032205998,152045,1108,1650.3132019042969,43.767093658447266,-46.061378479003906,130.62338256835938,0.2
152,MetaDrive-td3combine-expt1,92,159.47076855942998,153218,1112,1662.1855511665344,46.688629150390625,,11.255943298339844,0.2
153,MetaDrive-td3combine-expt1,92,161.19144263255438,154222,1115,1672.373608827591,41.941505432128906,,9.741575241088867,0.2
154,MetaDrive-td3combine-expt1,92,156.0391548241782,155247,1119,1685.2961695194244,45.225440979003906,-45.73353576660156,3.6424062252044678,0.18
155,MetaDrive-td3combine-expt1,92,157.97687956621098,156047,1121,1695.5431699752808,43.24198913574219,-43.782615661621094,5.103053569793701,0.19
156,MetaDrive-td3combine-expt1,92,160.31030080558747,157526,1125,1711.1688332557678,42.53132629394531,,50.35088348388672,0.2
157,MetaDrive-td3combine-expt1,91,156.28627162009073,158287,1129,1720.7765800952911,49.35883331298828,-49.97060775756836,8.561165809631348,0.19
158,MetaDrive-td3combine-expt1,91,156.80894869921462,159182,1131,1733.7380788326263,46.65341567993164,,8.452198028564453,0.19
159,MetaDrive-td3combine-expt1,91,160.00309432149535,160071,1133,1743.2335407733917,41.608272552490234,-40.98699188232422,10.753196716308594,0.2
160,MetaDrive-td3combine-expt1,91,165.16080048336974,161775,1136,1768.0502908229828,40.31470489501953,-41.005699157714844,7.920699119567871,0.21
161,MetaDrive-td3combine-expt1,91,166.16109961401256,162234,1137,1773.6046528816223,42.54113006591797,,13.515311241149902,0.21
162,MetaDrive-td3combine-expt1,91,165.44549525725904,163137,1141,1785.5010437965393,43.845516204833984,-44.41004943847656,5.781144142150879,0.2
163,MetaDrive-td3combine-expt1,91,166.98890321695922,164426,1144,1798.2509117126465,43.79588317871094,,41.0025634765625,0.23
164,MetaDrive-td3combine-expt1,91,168.7051735646997,165182,1146,1806.530825138092,43.474647521972656,,108.22663879394531,0.24
165,MetaDrive-td3combine-expt1,91,172.6305700948317,166037,1148,1818.169044971466,48.5455322265625,-48.280670166015625,8.741178512573242,0.25
166,MetaDrive-td3combine-expt1,91,175.46895865709178,167469,1151,1835.0569887161255,42.62510681152344,-43.8536491394043,6.911271572113037,0.25
167,MetaDrive-td3combine-expt1,91,176.24177511118756,168462,1153,1845.6443231105804,47.12944412231445,,4.140224456787109,0.26
168,MetaDrive-td3combine-expt1,91,178.48968932830928,169198,1154,1853.457881450653,43.725223541259766,,10.895021438598633,0.27
169,MetaDrive-td3combine-expt1,91,180.96046708456328,170372,1157,1865.9236288070679,48.12751388549805,,8.552501678466797,0.28
170,MetaDrive-td3combine-expt1,91,178.04413917518232,171618,1160,1880.630334854126,47.94798278808594,,34.08488845825195,0.27
171,MetaDrive-td3combine-expt1,91,180.68242993374085,172076,1161,1886.235443353653,46.465171813964844,,30.999866485595703,0.28
172,MetaDrive-td3combine-expt1,91,182.14338418309305,173049,1164,1897.2262842655182,45.149749755859375,-45.67350769042969,6.093112945556641,0.28
173,MetaDrive-td3combine-expt1,91,182.87409461915428,174023,1167,1905.7742505073547,44.205963134765625,-44.23460388183594,10.076499938964844,0.29
174,MetaDrive-td3combine-expt1,91,184.61463623417953,175045,1169,1917.3194682598114,45.88105010986328,-47.083709716796875,8.203169822692871,0.3
175,MetaDrive-td3combine-expt1,91,186.3735720905547,176150,1171,1929.7971804141998,42.991722106933594,,102.33921813964844,0.31
176,MetaDrive-td3combine-expt1,91,191.68819359118592,177937,1174,1947.5673401355743,47.651634216308594,-48.186851501464844,5.611664295196533,0.32
177,MetaDrive-td3combine-expt1,91,194.44295596529767,178510,1175,1954.4588215351105,47.14299011230469,,5.430265426635742,0.33
178,MetaDrive-td3combine-expt1,91,197.83165239858963,179541,1177,1965.320252418518,42.113983154296875,-43.066139221191406,6.632688522338867,0.34
179,MetaDrive-td3combine-expt1,91,199.18103092988375,180395,1179,1975.8663921356201,47.916961669921875,-48.360107421875,5.099967002868652,0.35
180,MetaDrive-td3combine-expt1,91,198.00036971905337,181152,1182,1985.210465669632,49.0356330871582,,9.707197189331055,0.34
181,MetaDrive-td3combine-expt1,91,197.10439776134422,182429,1187,1998.6260504722595,48.960594177246094,-48.85786437988281,8.465920448303223,0.33
182,MetaDrive-td3combine-expt1,91,195.41518329678973,183567,1189,2010.7858707904816,42.89118194580078,-43.289772033691406,20.138912200927734,0.33
183,MetaDrive-td3combine-expt1,91,196.33536518413118,184568,1190,2021.3007011413574,49.71430206298828,,5.407590389251709,0.33
184,MetaDrive-td3combine-expt1,91,193.98665651994412,185218,1193,2028.8421659469604,47.87080383300781,,6.631178379058838,0.32
185,MetaDrive-td3combine-expt1,91,197.92946041048998,186474,1196,2042.998741865158,50.83732223510742,,11.425506591796875,0.33
186,MetaDrive-td3combine-expt1,91,199.54825379746205,187496,1198,2057.109111070633,46.844703674316406,,60.86199951171875,0.34
187,MetaDrive-td3combine-expt1,91,199.5934121847718,188332,1200,2064.1036422252655,48.639793395996094,,13.004658699035645,0.35
188,MetaDrive-td3combine-expt1,91,196.497257095736,189031,1203,2071.0096640586853,44.1175537109375,-44.001678466796875,3.834329605102539,0.35
189,MetaDrive-td3combine-expt1,91,198.74400773453172,190054,1205,2080.775246143341,49.347450256347656,,14.082932472229004,0.37
190,MetaDrive-td3combine-expt1,91,201.69816140334294,191142,1208,2093.266515016556,50.092613220214844,,49.297752380371094,0.38
191,MetaDrive-td3combine-expt1,91,199.12584219635883,192024,1213,2102.2059602737427,46.092464447021484,,5.539870262145996,0.37
192,MetaDrive-td3combine-expt1,91,201.4498883691835,193351,1217,2116.8837106227875,50.50606918334961,-50.66730499267578,4.0293169021606445,0.39
193,MetaDrive-td3combine-expt1,91,198.41557731084455,194498,1221,2130.2089579105377,44.76377868652344,,18.086956024169922,0.39
194,MetaDrive-td3combine-expt1,91,200.85676801543707,195430,1223,2140.562754869461,43.06291198730469,,5.801243782043457,0.39
195,MetaDrive-td3combine-expt1,91,199.75516305709397,196397,1225,2149.7730045318604,49.491172790527344,-49.90074920654297,9.840335845947266,0.39
196,MetaDrive-td3combine-expt1,91,202.28203773995426,197076,1227,2157.8399295806885,47.76795196533203,,17.32010269165039,0.4
197,MetaDrive-td3combine-expt1,91,199.27567959766003,198098,1231,2167.6879863739014,45.546409606933594,,19.186426162719727,0.38
198,MetaDrive-td3combine-expt1,91,195.11914013584703,199408,1234,2181.2759957313538,46.14805221557617,,15.448071479797363,0.37
199,MetaDrive-td3combine-expt1,91,195.56730350511333,200320,1236,2194.7213294506073,46.299896240234375,,92.7794189453125,0.37
200,MetaDrive-td3combine-expt1,91,198.22630792606182,201284,1238,2205.933113336563,47.44182586669922,,88.72340393066406,0.38
201,MetaDrive-td3combine-expt1,91,203.6484647884638,202456,1240,2219.428513765335,44.864952087402344,,18.618053436279297,0.4
202,MetaDrive-td3combine-expt1,91,198.8026331939145,203544,1243,2231.848419904709,47.46773147583008,,6.598251819610596,0.38
203,MetaDrive-td3combine-expt1,91,196.99034622424924,204017,1244,2237.387575149536,46.93989181518555,-47.463504791259766,7.235876083374023,0.37
204,MetaDrive-td3combine-expt1,91,196.64276492401638,205008,1246,2249.9240975379944,48.853755950927734,,4.384371757507324,0.37
205,MetaDrive-td3combine-expt1,91,197.49573127789898,206186,1249,2264.5899560451508,47.92970275878906,,22.58116912841797,0.37
206,MetaDrive-td3combine-expt1,90,197.83884137209682,207463,1251,2280.4387629032135,47.75343322753906,-46.70473861694336,19.507282257080078,0.38
207,MetaDrive-td3combine-expt1,91,195.4624194684675,208331,1254,2289.2977612018585,39.27119445800781,-40.373741149902344,5.802848815917969,0.37
208,MetaDrive-td3combine-expt1,91,198.00041027199322,209311,1256,2299.94802570343,45.71726608276367,-46.94000244140625,104.93163299560547,0.38
209,MetaDrive-td3combine-expt1,90,196.61833863839314,210312,1257,2311.9428884983063,43.477577209472656,,12.379149436950684,0.37
210,MetaDrive-td3combine-expt1,90,197.26374696582639,211313,1258,2322.8958954811096,42.01878356933594,-43.52912902832031,14.909051895141602,0.37
211,MetaDrive-td3combine-expt1,90,195.38390951306738,212239,1261,2333.468321323395,47.62027359008789,-48.9290885925293,15.100696563720703,0.36
212,MetaDrive-td3combine-expt1,91,199.53509952227733,213268,1263,2343.5023674964905,44.653316497802734,,14.387648582458496,0.37
213,MetaDrive-td3combine-expt1,91,199.72961028698393,214016,1265,2351.5793917179108,46.31171417236328,,7.133954048156738,0.38
214,MetaDrive-td3combine-expt1,91,201.1439157792194,215930,1268,2372.448586463928,44.329559326171875,,4.125299453735352,0.37
215,MetaDrive-td3combine-expt1,91,198.88142613665656,216116,1269,2374.264002799988,40.20785140991211,,33.46479415893555,0.36
216,MetaDrive-td3combine-expt1,91,198.85140820991958,217176,1271,2385.8347539901733,47.83216857910156,,5.74920129776001,0.36
217,MetaDrive-td3combine-expt1,90,198.72897295048296,218066,1273,2398.15007686615,45.049156188964844,,6.803623199462891,0.35
218,MetaDrive-td3combine-expt1,90,199.1880551753111,219062,1275,2408.594749689102,42.79302215576172,,14.630422592163086,0.36
219,MetaDrive-td3combine-expt1,90,198.95025151258855,220088,1277,2422.324157476425,45.10541534423828,,5.33648157119751,0.36
220,MetaDrive-td3combine-expt1,90,199.52748077069592,221232,1281,2432.6736969947815,42.9599723815918,,11.357745170593262,0.38
221,MetaDrive-td3combine-expt1,90,201.96223795222429,222456,1283,2446.237573623657,46.4483642578125,,9.137166976928711,0.38
222,MetaDrive-td3combine-expt1,90,202.06306423407943,223020,1284,2452.852059364319,45.30951690673828,,33.380943298339844,0.38
223,MetaDrive-td3combine-expt1,90,204.8485992191038,224535,1287,2468.7829942703247,47.28176498413086,-47.520042419433594,4.133437633514404,0.38
224,MetaDrive-td3combine-expt1,90,208.9072890625024,225439,1289,2477.8811495304108,48.578582763671875,-48.03679275512695,17.139781951904297,0.4
225,MetaDrive-td3combine-expt1,91,213.14447241144492,226343,1291,2487.0936329364777,42.545005798339844,-43.33761978149414,9.762611389160156,0.42
226,MetaDrive-td3combine-expt1,91,213.20898434712805,227494,1293,2498.3493802547455,48.20689392089844,,51.591712951660156,0.42
227,MetaDrive-td3combine-expt1,91,211.61196264663226,228011,1295,2503.8227684497833,43.996002197265625,-44.9923095703125,8.358309745788574,0.41
228,MetaDrive-td3combine-expt1,90,210.57533190468928,229272,1297,2521.1742577552795,46.511112213134766,,4.5160417556762695,0.4
229,MetaDrive-td3combine-expt1,90,207.1474601984553,230161,1299,2529.7914156913757,46.46567916870117,-46.80992126464844,4.313904762268066,0.39
230,MetaDrive-td3combine-expt1,90,205.34835756833388,231012,1302,2540.344313144684,43.02186584472656,,39.751495361328125,0.37
231,MetaDrive-td3combine-expt1,90,206.17803220644123,232243,1305,2556.829818248749,44.257564544677734,-44.067081451416016,9.719663619995117,0.36
232,MetaDrive-td3combine-expt1,90,209.34647605983707,233057,1307,2567.496110677719,44.43315505981445,-45.29449462890625,37.362369537353516,0.37
233,MetaDrive-td3combine-expt1,90,209.0995693818586,234928,1309,2590.5210416316986,47.13772964477539,,14.131143569946289,0.36
234,MetaDrive-td3combine-expt1,90,210.65588611931196,235508,1310,2598.057587623596,44.86770248413086,,40.793052673339844,0.36
235,MetaDrive-td3combine-expt1,90,210.60861928713882,236163,1311,2608.9175951480865,47.84820556640625,-47.254295349121094,8.212967872619629,0.36
236,MetaDrive-td3combine-expt1,90,214.93118233493135,237490,1314,2622.5909452438354,43.39744567871094,,92.90615844726562,0.38
237,MetaDrive-td3combine-expt1,90,215.45860735972914,238082,1315,2628.649619579315,43.56550979614258,,12.099832534790039,0.38
238,MetaDrive-td3combine-expt1,90,217.23990894933598,239203,1319,2640.9965076446533,45.02532196044922,-45.64568328857422,6.227243423461914,0.39
239,MetaDrive-td3combine-expt1,90,220.29469770116827,240400,1321,2653.4730734825134,45.64356994628906,,14.381209373474121,0.4
240,MetaDrive-td3combine-expt1,90,219.91531423194152,241365,1323,2665.01482963562,41.21843719482422,-42.39939880371094,12.862105369567871,0.4
241,MetaDrive-td3combine-expt1,90,223.5317882328267,242101,1324,2674.492369890213,44.937103271484375,-45.49152374267578,11.711841583251953,0.41
242,MetaDrive-td3combine-expt1,90,220.74149356831447,243021,1325,2687.388739824295,46.42430877685547,-46.803001403808594,4.243268013000488,0.4
243,MetaDrive-td3combine-expt1,90,222.44370850270354,244162,1327,2704.6144437789917,44.800899505615234,,6.754311561584473,0.4
244,MetaDrive-td3combine-expt1,90,224.98643737194604,245131,1329,2713.8845608234406,45.10112762451172,-45.0352897644043,6.319633483886719,0.42
245,MetaDrive-td3combine-expt1,90,226.99439524925023,246222,1333,2726.704605579376,45.91642379760742,,7.157855987548828,0.41
246,MetaDrive-td3combine-expt1,90,223.79941258288716,247519,1337,2738.899872779846,45.26766586303711,-45.40155029296875,4.991943836212158,0.4
247,MetaDrive-td3combine-expt1,90,222.95035466273367,248801,1339,2754.829788208008,47.02543640136719,-47.291595458984375,37.18610382080078,0.39
248,MetaDrive-td3combine-expt1,90,224.2437837351543,249674,1340,2767.332857131958,44.940086364746094,,24.306833267211914,0.39
249,MetaDrive-td3combine-expt1,90,226.00473567622603,250395,1342,2775.056997537613,41.13835906982422,-41.260196685791016,28.293697357177734,0.39
250,MetaDrive-td3combine-expt1,90,228.53590098701665,251143,1344,2781.905486345291,46.200965881347656,-45.57579040527344,8.026248931884766,0.4
251,MetaDrive-td3combine-expt1,90,227.16080684016882,252075,1347,2793.963404893875,40.520973205566406,-42.651405334472656,111.20610809326172,0.39
252,MetaDrive-td3combine-expt1,90,227.21998431877742,253053,1350,2802.671288728714,45.020992279052734,-45.349281311035156,9.827019691467285,0.4
253,MetaDrive-td3combine-expt1,90,228.96470412411173,254209,1352,2816.5033917427063,42.02787399291992,-41.970516204833984,15.110647201538086,0.4
254,MetaDrive-td3combine-expt1,90,229.38894906118148,255244,1355,2828.8299193382263,39.74985885620117,,8.000740051269531,0.39
255,MetaDrive-td3combine-expt1,90,229.32397983788877,256259,1358,2840.1512088775635,44.28424072265625,-45.07627868652344,7.168627738952637,0.39
256,MetaDrive-td3combine-expt1,90,231.6718036075541,257400,1361,2853.5533409118652,43.010658264160156,,26.192035675048828,0.39
257,MetaDrive-td3combine-expt1,90,227.2269571239897,258357,1365,2864.3868913650513,45.7780876159668,-45.54570007324219,15.874153137207031,0.37
258,MetaDrive-td3combine-expt1,90,226.99472371172942,259251,1367,2873.4537625312805,44.58039093017578,-45.3380012512207,6.980616569519043,0.37
259,MetaDrive-td3combine-expt1,90,226.04868139653843,260364,1370,2885.32075881958,43.40872573852539,,15.35511589050293,0.37
260,MetaDrive-td3combine-expt1,90,228.92209150232372,261056,1371,2895.949855327606,42.916587829589844,,20.766033172607422,0.37
261,MetaDrive-td3combine-expt1,90,225.36206520152894,262686,1376,2917.79217338562,43.14506149291992,,5.875702857971191,0.37
262,MetaDrive-td3combine-expt1,90,226.39803418588218,263168,1377,2922.570957660675,45.823509216308594,,5.36279296875,0.37
263,MetaDrive-td3combine-expt1,90,230.17928366554995,264102,1379,2933.7043330669403,46.22767639160156,,13.58430004119873,0.38
264,MetaDrive-td3combine-expt1,89,232.6398879771425,265497,1381,2952.6105403900146,45.73649597167969,-46.633636474609375,5.1212639808654785,0.38
265,MetaDrive-td3combine-expt1,89,231.26854873530726,266274,1384,2960.2549324035645,43.004425048828125,,13.205486297607422,0.39
266,MetaDrive-td3combine-expt1,89,231.05954582818902,267124,1386,2968.407084941864,44.61825942993164,,79.32036590576172,0.4
267,MetaDrive-td3combine-expt1,89,234.6844839046046,268046,1387,2984.359853744507,42.69729995727539,,13.770145416259766,0.41
268,MetaDrive-td3combine-expt1,89,233.03624503824133,269217,1390,2997.2964568138123,44.76789093017578,-44.464439392089844,10.453376770019531,0.4
269,MetaDrive-td3combine-expt1,89,233.97613648607745,270309,1393,3010.910781621933,46.96012878417969,-46.27565002441406,7.0459699630737305,0.41
270,MetaDrive-td3combine-expt1,89,233.60401732758982,271095,1396,3018.808748960495,44.160491943359375,-44.66366195678711,17.284412384033203,0.42
271,MetaDrive-td3combine-expt1,89,235.97270250570836,272127,1399,3031.6209313869476,40.204566955566406,-40.839569091796875,41.771087646484375,0.43
272,MetaDrive-td3combine-expt1,89,237.0179266676194,273106,1402,3042.4412558078766,46.08118438720703,,10.184955596923828,0.43
273,MetaDrive-td3combine-expt1,89,236.2091918871696,274451,1406,3057.010605573654,44.52447509765625,-45.04057312011719,47.74766540527344,0.43
274,MetaDrive-td3combine-expt1,89,236.1216534445245,275237,1408,3064.8680844306946,42.636863708496094,-43.16082000732422,9.358753204345703,0.43
275,MetaDrive-td3combine-expt1,89,236.82027357083726,276238,1409,3077.5161089897156,43.776832580566406,,14.52000904083252,0.43
276,MetaDrive-td3combine-expt1,89,238.823578019295,277039,1411,3086.7603800296783,41.475502014160156,-42.17951583862305,18.974714279174805,0.44
277,MetaDrive-td3combine-expt1,89,238.17295073747806,278268,1414,3103.073353290558,40.5007438659668,,71.92103576660156,0.43
278,MetaDrive-td3combine-expt1,89,237.90798066634488,279012,1416,3110.2444512844086,44.482994079589844,,11.972978591918945,0.42
279,MetaDrive-td3combine-expt1,89,234.25713085456024,280103,1420,3121.1547524929047,49.53431701660156,-50.632225036621094,10.178018569946289,0.39
280,MetaDrive-td3combine-expt1,89,227.1638128983817,281102,1424,3132.4180471897125,42.6026611328125,,4.250938415527344,0.36
281,MetaDrive-td3combine-expt1,89,225.5150892445355,282239,1428,3144.848399877548,41.31914520263672,-42.90033721923828,13.418829917907715,0.34
282,MetaDrive-td3combine-expt1,89,225.62771571035108,283266,1431,3158.5919597148895,46.35736083984375,,5.340694904327393,0.34
283,MetaDrive-td3combine-expt1,89,225.04791243790626,284062,1434,3167.950498819351,46.99937057495117,,11.877450942993164,0.34
284,MetaDrive-td3combine-expt1,89,226.20724208087032,285502,1437,3183.800247192383,47.09960174560547,,12.111712455749512,0.35
285,MetaDrive-td3combine-expt1,89,226.4052474409902,286257,1439,3191.7134425640106,47.98427200317383,-48.012428283691406,6.920092582702637,0.35
286,MetaDrive-td3combine-expt1,89,223.82560681050893,287210,1442,3201.9477474689484,45.329315185546875,,14.859086990356445,0.35
287,MetaDrive-td3combine-expt1,89,225.464914391463,288255,1445,3212.533940553665,44.61239242553711,-44.26081085205078,9.115915298461914,0.35
288,MetaDrive-td3combine-expt1,89,225.2053406486379,289303,1447,3224.089100122452,45.48823165893555,-45.956058502197266,5.947011947631836,0.35
289,MetaDrive-td3combine-expt1,89,227.4091407557359,290743,1449,3240.0965044498444,41.5409049987793,-42.60697555541992,42.77058792114258,0.35
290,MetaDrive-td3combine-expt1,89,227.96870977843665,291217,1450,3244.372500181198,42.65156555175781,-42.393714904785156,73.94869995117188,0.35
291,MetaDrive-td3combine-expt1,89,226.76496861740608,292043,1452,3253.220227241516,45.71704864501953,-45.22280502319336,6.910736560821533,0.36
292,MetaDrive-td3combine-expt1,89,228.08733402815741,293205,1455,3264.3042085170746,45.38695526123047,-46.34242630004883,14.658613204956055,0.37
293,MetaDrive-td3combine-expt1,89,229.92745371370066,294036,1457,3275.0989768505096,44.43229675292969,,9.192397117614746,0.37
294,MetaDrive-td3combine-expt1,89,228.98761492275997,295053,1460,3284.6894431114197,46.612953186035156,-46.23000717163086,4.888853073120117,0.38
295,MetaDrive-td3combine-expt1,89,230.51849984219328,296227,1464,3297.4542083740234,41.95783233642578,-41.999481201171875,76.16030883789062,0.39
296,MetaDrive-td3combine-expt1,89,231.11723262170645,297288,1466,3310.0452415943146,40.89988708496094,,13.627302169799805,0.39
297,MetaDrive-td3combine-expt1,89,226.2077990598148,298111,1470,3320.0666942596436,45.09880065917969,-45.07406234741211,8.544784545898438,0.37
298,MetaDrive-td3combine-expt1,89,224.85408621354938,299300,1473,3332.5095765590668,46.238563537597656,,8.337034225463867,0.36
299,MetaDrive-td3combine-expt1,89,224.84183399787256,300333,1476,3342.4140973091125,45.24128723144531,-45.753318786621094,9.610191345214844,0.37
300,MetaDrive-td3combine-expt1,89,219.9177407477398,301225,1479,3352.5115213394165,41.15584945678711,-41.99708938598633,11.370515823364258,0.35
301,MetaDrive-td3combine-expt1,89,217.5717599013566,302448,1482,3366.9316940307617,45.06273651123047,,44.78507995605469,0.33
302,MetaDrive-td3combine-expt1,89,219.82452942425815,303847,1484,3383.229526758194,45.80674743652344,-46.267093658447266,8.905322074890137,0.33
303,MetaDrive-td3combine-expt1,89,220.19715600883285,304231,1485,3386.651008605957,47.1576042175293,-46.5247802734375,13.10269546508789,0.33
304,MetaDrive-td3combine-expt1,89,218.46388505372147,305408,1488,3397.7596230506897,44.8424072265625,,28.530105590820312,0.32
305,MetaDrive-td3combine-expt1,89,215.97375279250852,306375,1491,3409.8318564891815,43.5572509765625,-44.198341369628906,5.285369873046875,0.3
306,MetaDrive-td3combine-expt1,89,215.6820370781805,307444,1493,3420.432456254959,43.9798698425293,,7.665657997131348,0.3
307,MetaDrive-td3combine-expt1,89,216.17037176359375,308383,1495,3436.8422594070435,46.18389892578125,-46.78466796875,6.757176876068115,0.29
308,MetaDrive-td3combine-expt1,89,217.4683678641113,309119,1497,3445.6268191337585,44.219181060791016,-44.13037109375,32.96953201293945,0.29
309,MetaDrive-td3combine-expt1,89,214.72397051525869,310221,1501,3457.6306891441345,43.81106948852539,-43.98693084716797,27.15955924987793,0.29
310,MetaDrive-td3combine-expt1,89,218.56319492134068,311201,1502,3475.111592531204,43.229591369628906,-41.91852569580078,9.468975067138672,0.29
311,MetaDrive-td3combine-expt1,89,219.1036065738474,312051,1504,3483.298494577408,39.223793029785156,-40.03892135620117,20.32201385498047,0.29
312,MetaDrive-td3combine-expt1,89,217.62597510243057,313015,1508,3493.9932091236115,42.2662353515625,-42.96055603027344,5.229877471923828,0.28
313,MetaDrive-td3combine-expt1,89,216.34005572690836,314123,1511,3505.4560885429382,46.2445068359375,-45.76096725463867,9.354890823364258,0.28
314,MetaDrive-td3combine-expt1,89,216.70335983079678,315126,1513,3516.144351243973,43.94855499267578,,24.028104782104492,0.29
315,MetaDrive-td3combine-expt1,89,216.73593985857948,316127,1514,3530.2126610279083,45.6489143371582,-44.37494659423828,17.3522891998291,0.29
316,MetaDrive-td3combine-expt1,89,219.01655751619546,317270,1517,3541.990930080414,45.60976028442383,,4.991336822509766,0.31
317,MetaDrive-td3combine-expt1,89,220.51636089009997,318103,1520,3551.6830015182495,42.4857177734375,-42.78325653076172,21.606815338134766,0.32
318,MetaDrive-td3combine-expt1,89,221.77773761247647,319124,1522,3568.667638063431,43.88669967651367,,40.479610443115234,0.32
319,MetaDrive-td3combine-expt1,89,227.4679757244437,320249,1524,3580.4246537685394,50.76298904418945,-50.01271057128906,8.169620513916016,0.34
320,MetaDrive-td3combine-expt1,89,228.30907387824115,321277,1527,3590.3883109092712,48.10260772705078,-48.32192611694336,16.52274513244629,0.35
321,MetaDrive-td3combine-expt1,89,229.72758273989155,322224,1530,3600.549793481827,44.470054626464844,,10.92192268371582,0.36
322,MetaDrive-td3combine-expt1,89,231.21316650293184,323360,1532,3612.351682662964,49.54166793823242,,6.962988376617432,0.37
323,MetaDrive-td3combine-expt1,89,232.41749306330453,324284,1535,3622.5274262428284,43.10628890991211,,5.001709938049316,0.37
324,MetaDrive-td3combine-expt1,89,234.28320208356462,325521,1537,3638.320105791092,47.45433044433594,-46.58283233642578,20.876888275146484,0.37
325,MetaDrive-td3combine-expt1,89,233.27205599455777,326522,1538,3651.9884808063507,44.437339782714844,,5.451597213745117,0.37
326,MetaDrive-td3combine-expt1,89,233.23823864977732,327120,1540,3657.2231347560883,41.432899475097656,,14.877124786376953,0.38
327,MetaDrive-td3combine-expt1,89,233.5976079837414,328316,1542,3669.952934741974,44.094459533691406,,5.97784423828125,0.38
328,MetaDrive-td3combine-expt1,89,235.07456968579731,329013,1543,3681.999123573303,39.55534362792969,-39.53813934326172,8.58887004852295,0.38
329,MetaDrive-td3combine-expt1,89,236.8807077360856,330086,1545,3694.8159699440002,48.41058349609375,,7.400407791137695,0.39
330,MetaDrive-td3combine-expt1,89,238.87337845752907,331600,1547,3716.4718012809753,46.90996170043945,,7.796075344085693,0.39
331,MetaDrive-td3combine-expt1,89,235.63181686660067,332002,1549,3721.026614189148,40.74899673461914,,81.871826171875,0.38
332,MetaDrive-td3combine-expt1,89,235.80029463498738,333356,1552,3738.849868774414,44.70819854736328,,12.000879287719727,0.38
333,MetaDrive-td3combine-expt1,88,235.58244925940983,334460,1554,3758.3604547977448,49.958702087402344,,7.671360969543457,0.37
334,MetaDrive-td3combine-expt1,88,235.36528819344295,335114,1555,3766.9010553359985,44.40348815917969,,9.240389823913574,0.37
335,MetaDrive-td3combine-expt1,88,236.84027844130986,336324,1558,3780.6363372802734,42.23371887207031,,9.870519638061523,0.38
336,MetaDrive-td3combine-expt1,88,236.61278361899144,337195,1560,3789.951227426529,47.822139739990234,-48.774131774902344,9.823986053466797,0.37
337,MetaDrive-td3combine-expt1,88,237.4441912527918,338401,1562,3805.7850482463837,46.72407150268555,-46.298179626464844,54.938568115234375,0.37
338,MetaDrive-td3combine-expt1,88,239.5033816402787,339229,1564,3815.5966033935547,46.90831756591797,-47.436439514160156,14.364092826843262,0.37
339,MetaDrive-td3combine-expt1,88,239.5405285068099,340230,1565,3832.3076803684235,45.053733825683594,,12.065754890441895,0.36
340,MetaDrive-td3combine-expt1,88,241.12476980859384,341011,1567,3844.217494726181,48.85467529296875,-48.959999084472656,10.823049545288086,0.36
341,MetaDrive-td3combine-expt1,88,245.91548467212965,342170,1570,3856.105086326599,44.011085510253906,,8.59963321685791,0.38
342,MetaDrive-td3combine-expt1,88,246.73611289241316,343144,1572,3867.1268980503082,45.813514709472656,,4.824577331542969,0.39
343,MetaDrive-td3combine-expt1,88,248.00646490044267,344652,1576,3886.461567401886,48.4052848815918,,20.401681900024414,0.38
344,MetaDrive-td3combine-expt1,88,249.24763433315894,345365,1578,3894.4400260448456,45.34284973144531,-46.02344512939453,7.494236946105957,0.39
345,MetaDrive-td3combine-expt1,88,251.12242952498153,346176,1579,3904.8525445461273,45.45880126953125,,9.698883056640625,0.39
346,MetaDrive-td3combine-expt1,88,250.34267102315295,347392,1583,3918.743975877762,48.25090408325195,,7.301999092102051,0.39
347,MetaDrive-td3combine-expt1,88,250.28916560561655,348393,1584,3935.969927072525,46.91857147216797,-47.23255157470703,14.804162979125977,0.39
348,MetaDrive-td3combine-expt1,88,250.35128637536582,349178,1586,3944.030189037323,46.725868225097656,,13.755586624145508,0.39
349,MetaDrive-td3combine-expt1,88,253.04765011173052,350428,1588,3957.4585218429565,43.500099182128906,,20.40660858154297,0.4
350,MetaDrive-td3combine-expt1,88,254.0163926724116,351313,1590,3968.1635372638702,39.39390563964844,-39.853981018066406,9.562582969665527,0.41
351,MetaDrive-td3combine-expt1,88,253.9294858199827,352833,1593,3989.510012626648,46.497894287109375,-47.361083984375,20.362560272216797,0.4
352,MetaDrive-td3combine-expt1,88,255.6813057984275,353314,1594,3994.096587896347,40.96037292480469,,7.018289566040039,0.41
353,MetaDrive-td3combine-expt1,88,255.70241937458158,354072,1596,4003.689633369446,48.88168716430664,,15.55770492553711,0.42
354,MetaDrive-td3combine-expt1,88,258.1252673376762,355132,1598,4017.513905763626,48.512237548828125,,4.96370792388916,0.43
355,MetaDrive-td3combine-expt1,88,262.3760942798577,356214,1600,4027.9555945396423,48.40087127685547,,8.034307479858398,0.45
356,MetaDrive-td3combine-expt1,88,259.62979107790215,357003,1602,4036.4927196502686,45.26948547363281,-46.775001525878906,11.432275772094727,0.45
357,MetaDrive-td3combine-expt1,88,261.40668314047394,358135,1604,4048.4469649791718,44.37046432495117,-45.527557373046875,9.119795799255371,0.45
358,MetaDrive-td3combine-expt1,88,262.3962554714952,359142,1606,4063.7309074401855,48.5723876953125,,8.485328674316406,0.45
359,MetaDrive-td3combine-expt1,88,263.3384876354453,360096,1608,4074.7199127674103,49.71772384643555,,8.785383224487305,0.46
360,MetaDrive-td3combine-expt1,88,260.49076073168874,361101,1611,4086.419614315033,45.53012466430664,-45.872676849365234,7.205143928527832,0.45
361,MetaDrive-td3combine-expt1,88,260.98218920628847,362309,1613,4103.143057346344,43.776268005371094,-43.57258224487305,23.997631072998047,0.44
362,MetaDrive-td3combine-expt1,88,256.94191733787017,363504,1617,4116.379603862762,47.478878021240234,,68.36944580078125,0.43
363,MetaDrive-td3combine-expt1,88,259.69690859717,364197,1618,4128.592775583267,47.48727798461914,-47.16530990600586,7.207893371582031,0.43
364,MetaDrive-td3combine-expt1,88,258.73701853116296,365111,1620,4138.544449329376,49.559112548828125,-50.18357849121094,9.519684791564941,0.43
365,MetaDrive-td3combine-expt1,88,260.227336277601,366130,1622,4148.808782577515,45.299217224121094,,15.041631698608398,0.45
366,MetaDrive-td3combine-expt1,88,259.66188199255134,367685,1625,4167.864810705185,46.8495979309082,-47.07341766357422,6.190127849578857,0.44
367,MetaDrive-td3combine-expt1,88,260.4260152644826,368521,1627,4178.802691698074,45.19019317626953,-45.15341567993164,9.508111000061035,0.44
368,MetaDrive-td3combine-expt1,88,262.6496304186144,369389,1629,4188.89262342453,44.67866516113281,-44.31761169433594,130.5006103515625,0.45
369,MetaDrive-td3combine-expt1,88,259.6864367535689,370197,1631,4198.809172153473,46.55137634277344,-46.869117736816406,11.470329284667969,0.43
370,MetaDrive-td3combine-expt1,88,258.55368125287583,371285,1633,4209.685715675354,48.7377815246582,-48.40497589111328,14.598502159118652,0.43
371,MetaDrive-td3combine-expt1,88,261.37184364692223,372107,1635,4218.523617982864,47.167457580566406,-47.0429801940918,24.911556243896484,0.44
372,MetaDrive-td3combine-expt1,88,258.66058280764867,373063,1637,4227.89754486084,47.314483642578125,-46.907020568847656,11.292606353759766,0.43
373,MetaDrive-td3combine-expt1,88,260.26576304076957,374187,1640,4242.201905488968,45.554656982421875,-46.2038688659668,7.064856052398682,0.43
374,MetaDrive-td3combine-expt1,88,260.6985205290103,375199,1642,4252.188100337982,46.13662338256836,-45.935394287109375,6.97352409362793,0.44
375,MetaDrive-td3combine-expt1,88,259.5924031173079,376315,1644,4263.94842839241,42.416385650634766,-43.21546173095703,7.419113636016846,0.44
376,MetaDrive-td3combine-expt1,88,256.68946373399615,377154,1646,4272.934493780136,47.12226486206055,,72.48816680908203,0.43
377,MetaDrive-td3combine-expt1,88,258.16938781497475,378342,1649,4284.6952311992645,49.35462188720703,,9.339242935180664,0.44
378,MetaDrive-td3combine-expt1,88,256.75830297795244,379127,1651,4292.677772521973,44.639976501464844,-45.10626983642578,11.903741836547852,0.44
379,MetaDrive-td3combine-expt1,88,258.7096366170627,380406,1653,4307.513851881027,46.411643981933594,,15.928216934204102,0.44
380,MetaDrive-td3combine-expt1,88,259.4923874150718,381402,1654,4322.707912445068,47.726478576660156,,13.273103713989258,0.45
381,MetaDrive-td3combine-expt1,88,257.45763115654745,382494,1657,4335.058407306671,49.860679626464844,,6.9092912673950195,0.45
382,MetaDrive-td3combine-expt1,88,257.04898884557986,383126,1658,4342.2509207725525,46.56695556640625,,9.429352760314941,0.45
383,MetaDrive-td3combine-expt1,88,253.21676105166682,384117,1662,4352.103495359421,48.19766616821289,-49.2277717590332,82.62107849121094,0.46
384,MetaDrive-td3combine-expt1,88,254.87289127970962,385279,1664,4363.92045378685,42.31435775756836,-42.39653778076172,24.665294647216797,0.47
385,MetaDrive-td3combine-expt1,88,252.29964735780072,386013,1666,4370.5026886463165,48.220703125,-47.88037872314453,7.918352127075195,0.48
386,MetaDrive-td3combine-expt1,88,252.68152059409857,387848,1670,4389.58342051506,48.7955322265625,,8.69896411895752,0.48
387,MetaDrive-td3combine-expt1,88,253.25825101222605,388622,1671,4397.896878242493,47.44269561767578,,10.293022155761719,0.48
388,MetaDrive-td3combine-expt1,88,253.24984292866426,389223,1672,4404.953094959259,44.87669372558594,-45.59723663330078,18.100208282470703,0.48
389,MetaDrive-td3combine-expt1,88,255.64408933752836,390229,1674,4416.560690164566,45.57427978515625,-46.89403533935547,65.87924194335938,0.49
390,MetaDrive-td3combine-expt1,88,254.2645241988948,391205,1677,4428.178124666214,52.35142517089844,-51.938446044921875,16.983991622924805,0.49
391,MetaDrive-td3combine-expt1,88,251.25975485421324,392087,1679,4439.99321770668,45.3921012878418,-45.886207580566406,13.404337882995605,0.48
392,MetaDrive-td3combine-expt1,88,250.09963139467948,393230,1683,4452.361634969711,46.36610412597656,,11.40424633026123,0.48
393,MetaDrive-td3combine-expt1,88,249.2265568140996,394064,1685,4461.510561466217,47.18000793457031,,16.148605346679688,0.49
394,MetaDrive-td3combine-expt1,88,245.00651216233678,395223,1688,4473.061079502106,49.9335823059082,-49.59336853027344,8.624870300292969,0.48
395,MetaDrive-td3combine-expt1,88,244.32943451199216,396071,1690,4482.294382810593,46.4584846496582,-46.47396469116211,5.487401962280273,0.47
396,MetaDrive-td3combine-expt1,88,246.53206861977526,397210,1692,4495.350551843643,47.438758850097656,,12.737977981567383,0.48
397,MetaDrive-td3combine-expt1,88,244.29982218840772,398516,1694,4509.967782020569,48.53083419799805,,11.101181983947754,0.47
398,MetaDrive-td3combine-expt1,88,247.8397063782175,399141,1695,4517.1644060611725,42.75497055053711,-43.22245788574219,18.07229232788086,0.48
399,MetaDrive-td3combine-expt1,88,249.47632466381987,400390,1697,4529.838129043579,47.198360443115234,,25.585956573486328,0.49
400,MetaDrive-td3combine-expt1,88,248.48864780766894,401204,1698,4537.985538959503,46.426612854003906,,19.08245086669922,0.49
401,MetaDrive-td3combine-expt1,88,248.22618149053807,402375,1700,4551.756351232529,46.66899871826172,-46.054344177246094,10.295680046081543,0.49
402,MetaDrive-td3combine-expt1,88,248.59475775569092,403376,1701,4567.270775079727,48.471527099609375,,79.44464111328125,0.49
403,MetaDrive-td3combine-expt1,88,245.5267858400583,404773,1704,4585.191085100174,47.55258560180664,-48.00526428222656,8.803455352783203,0.47
404,MetaDrive-td3combine-expt1,88,247.951539419592,405462,1705,4593.754967927933,49.115055084228516,,11.161097526550293,0.48
405,MetaDrive-td3combine-expt1,88,247.18149181762863,406045,1707,4598.831663608551,50.08680725097656,-50.099365234375,7.927553653717041,0.49
406,MetaDrive-td3combine-expt1,88,249.48425456350708,407522,1710,4617.707906961441,49.712791442871094,,8.173020362854004,0.5
407,MetaDrive-td3combine-expt1,88,248.63010751463554,408533,1712,4630.492632865906,49.209495544433594,-50.0048713684082,8.258401870727539,0.5
408,MetaDrive-td3combine-expt1,88,249.96477747097842,409420,1714,4642.009460687637,47.844444274902344,,8.599318504333496,0.5
409,MetaDrive-td3combine-expt1,88,255.56318736397807,410964,1716,4662.92595911026,38.82521057128906,,10.42528247833252,0.51
410,MetaDrive-td3combine-expt1,88,257.0808147467292,411850,1717,4675.524784326553,49.44816970825195,,8.912347793579102,0.51
411,MetaDrive-td3combine-expt1,88,256.33604674314176,412338,1718,4679.882445812225,48.961708068847656,,9.844036102294922,0.52
412,MetaDrive-td3combine-expt1,88,259.77648227635643,413482,1720,4693.583173036575,48.45398712158203,,8.024270057678223,0.53
413,MetaDrive-td3combine-expt1,88,257.7841531106102,414483,1721,4704.503155231476,49.42229461669922,-50.411441802978516,37.27708435058594,0.52
414,MetaDrive-td3combine-expt1,88,259.75421296053696,415570,1723,4717.447356939316,45.49171447753906,,19.19188690185547,0.52
415,MetaDrive-td3combine-expt1,88,260.1064471239339,416165,1724,4722.860457658768,44.35005187988281,-45.014190673828125,12.135139465332031,0.53
416,MetaDrive-td3combine-expt1,88,260.30080607010456,417166,1726,4733.012467384338,48.02758026123047,,12.66981315612793,0.53
417,MetaDrive-td3combine-expt1,88,257.23110619295744,418309,1729,4745.946902513504,48.74205780029297,-49.06016540527344,8.100367546081543,0.52
418,MetaDrive-td3combine-expt1,88,258.46654127045514,419343,1732,4755.042091369629,50.58066940307617,-51.292327880859375,11.808296203613281,0.54
419,MetaDrive-td3combine-expt1,88,252.7218839089275,420029,1735,4763.073907375336,43.297523498535156,-43.58559036254883,12.745218276977539,0.53
420,MetaDrive-td3combine-expt1,88,252.72517000973497,421181,1738,4773.871326684952,45.46449279785156,-46.84190368652344,31.181640625,0.54
421,MetaDrive-td3combine-expt1,88,254.91483916624185,422574,1740,4790.272335290909,50.83344650268555,,47.27505874633789,0.55
422,MetaDrive-td3combine-expt1,88,253.03176935368342,423304,1742,4796.891739845276,46.36322021484375,,6.84593391418457,0.54
423,MetaDrive-td3combine-expt1,88,251.02365847946683,424305,1743,4809.043279647827,51.244651794433594,-51.788475036621094,7.991363525390625,0.54
424,MetaDrive-td3combine-expt1,88,252.15603013394858,425003,1744,4817.211618185043,46.16164016723633,-46.91746520996094,10.792268753051758,0.54
425,MetaDrive-td3combine-expt1,88,254.09753122228355,426162,1746,4831.152185201645,46.81073760986328,,7.417183876037598,0.53
426,MetaDrive-td3combine-expt1,88,256.3856849376106,427180,1748,4841.455550909042,53.24169158935547,,7.039313316345215,0.55
427,MetaDrive-td3combine-expt1,88,255.97858851144346,428051,1750,4850.739399671555,46.787879943847656,-48.1937255859375,80.03970336914062,0.55
428,MetaDrive-td3combine-expt1,88,258.16114715766804,429234,1752,4865.402535676956,54.214935302734375,,22.94356346130371,0.56
429,MetaDrive-td3combine-expt1,88,256.71886860048306,430628,1754,4880.48380279541,47.8242301940918,,14.286331176757812,0.56
430,MetaDrive-td3combine-expt1,88,257.0653257466083,431862,1757,4896.722904443741,47.3671989440918,,7.754549980163574,0.55
431,MetaDrive-td3combine-expt1,88,256.3734283544026,432650,1758,4905.534516096115,51.047813415527344,,11.2181396484375,0.54
432,MetaDrive-td3combine-expt1,88,256.6324463459943,433156,1759,4910.233994483948,47.018131256103516,,9.876437187194824,0.54
433,MetaDrive-td3combine-expt1,88,260.00551063981766,434251,1762,4920.416082859039,41.71250915527344,-40.96849822998047,11.96450424194336,0.55
434,MetaDrive-td3combine-expt1,88,258.250745948335,435252,1763,4937.817184209824,48.02069854736328,,6.4335527420043945,0.54
435,MetaDrive-td3combine-expt1,88,258.05430180901936,436272,1765,4949.7140481472015,49.54909133911133,,17.80152702331543,0.53
436,MetaDrive-td3combine-expt1,88,257.60093284160865,437262,1768,4959.70979475975,53.099246978759766,,6.379988193511963,0.53
437,MetaDrive-td3combine-expt1,88,259.6798825803882,438789,1770,4978.476526260376,48.24768829345703,-47.7869758605957,17.01925277709961,0.54
438,MetaDrive-td3combine-expt1,88,259.0656586389765,439255,1771,4982.534644842148,45.5623779296875,-46.06433868408203,12.66893196105957,0.54
439,MetaDrive-td3combine-expt1,88,259.0408912988571,440473,1773,4994.092973470688,45.25191116333008,-47.699867248535156,105.93326568603516,0.55
440,MetaDrive-td3combine-expt1,88,259.86496383222965,441043,1774,5001.083067178726,48.41328430175781,-49.5062255859375,11.245296478271484,0.55
441,MetaDrive-td3combine-expt1,88,264.3737046887025,442081,1776,5011.322579860687,50.32456970214844,-51.51097869873047,34.99528121948242,0.57
442,MetaDrive-td3combine-expt1,88,265.1600918184779,443546,1778,5027.585474729538,48.05023193359375,,25.115259170532227,0.57
443,MetaDrive-td3combine-expt1,88,263.6504771371039,444120,1780,5033.311407804489,43.553977966308594,,12.25522232055664,0.56
444,MetaDrive-td3combine-expt1,88,267.295107772856,445233,1782,5045.605297803879,46.11026382446289,-47.72209548950195,117.85084533691406,0.58
445,MetaDrive-td3combine-expt1,88,269.21094264604295,446503,1784,5060.513876199722,45.605201721191406,-45.78031539916992,19.0310115814209,0.58
446,MetaDrive-td3combine-expt1,88,270.3948394873618,447032,1785,5065.344079017639,48.50141143798828,,6.202155113220215,0.59
447,MetaDrive-td3combine-expt1,88,272.54246931989024,448188,1787,5076.96200299263,45.14604568481445,,6.314693450927734,0.6
448,MetaDrive-td3combine-expt1,88,272.44338614642317,449189,1788,5088.901484251022,48.461448669433594,-48.297950744628906,9.44096565246582,0.59
449,MetaDrive-td3combine-expt1,88,275.5336001747917,450429,1790,5102.57893538475,47.32145690917969,-47.08649826049805,6.67075252532959,0.61
450,MetaDrive-td3combine-expt1,88,276.48120871516556,451243,1791,5113.226904392242,48.345008850097656,-47.74812316894531,14.599953651428223,0.61
451,MetaDrive-td3combine-expt1,88,274.5699313802347,452832,1794,5130.688572645187,48.554630279541016,,9.354766845703125,0.61
452,MetaDrive-td3combine-expt1,88,274.0846288899544,453401,1795,5136.242940425873,48.34059524536133,-48.41466522216797,11.17728328704834,0.61
453,MetaDrive-td3combine-expt1,88,274.51824043245483,454790,1797,5156.34969997406,43.37825012207031,,10.560063362121582,0.61
454,MetaDrive-td3combine-expt1,88,275.22956221209853,455438,1798,5163.122775793076,51.27192687988281,,10.851572036743164,0.61
455,MetaDrive-td3combine-expt1,88,270.89681228259684,456047,1800,5169.748841762543,52.07493209838867,-51.76448440551758,11.71925163269043,0.59
456,MetaDrive-td3combine-expt1,88,272.70797106775507,457630,1802,5187.7101838588715,48.61935806274414,,15.912564277648926,0.6
457,MetaDrive-td3combine-expt1,88,272.35909929043135,458294,1804,5195.521660327911,46.49292755126953,,8.716325759887695,0.61
458,MetaDrive-td3combine-expt1,88,275.42176443934375,459441,1806,5206.215626478195,49.18101501464844,-50.04620361328125,118.761474609375,0.62
459,MetaDrive-td3combine-expt1,88,277.44854229298454,460192,1807,5213.518179893494,45.82465362548828,,21.095386505126953,0.62
460,MetaDrive-td3combine-expt1,88,280.6910742549468,461310,1809,5224.857558012009,49.726173400878906,,18.139577865600586,0.63
461,MetaDrive-td3combine-expt1,88,281.50878648406575,462413,1811,5235.259997844696,48.6555061340332,-49.44363021850586,15.473417282104492,0.64
462,MetaDrive-td3combine-expt1,88,278.96186809051756,463453,1814,5248.24117398262,47.20940399169922,-47.07740020751953,6.899934768676758,0.64
463,MetaDrive-td3combine-expt1,88,279.53329152887017,464034,1815,5255.235311508179,43.396968841552734,,14.109670639038086,0.64
464,MetaDrive-td3combine-expt1,88,277.107789680174,465296,1817,5267.516639947891,50.359413146972656,,6.636772632598877,0.65
465,MetaDrive-td3combine-expt1,88,277.9266750567134,466297,1818,5283.734173297882,47.50566101074219,-47.73017883300781,15.869726181030273,0.64
466,MetaDrive-td3combine-expt1,88,274.48249301600094,467027,1820,5290.770967721939,45.552268981933594,-46.30202102661133,6.576921463012695,0.63
467,MetaDrive-td3combine-expt1,88,276.27490208143854,468505,1823,5308.027599811554,52.186614990234375,-52.01451873779297,8.095657348632812,0.64
468,MetaDrive-td3combine-expt1,88,276.2557800019684,469091,1824,5314.502944946289,47.85456848144531,-47.62324523925781,16.004302978515625,0.64
469,MetaDrive-td3combine-expt1,88,272.7359244942323,470394,1828,5326.130706310272,49.39812469482422,,8.98222541809082,0.64
470,MetaDrive-td3combine-expt1,88,276.0095310112818,471505,1830,5337.843157052994,48.73048400878906,-48.827880859375,19.21238136291504,0.65
471,MetaDrive-td3combine-expt1,88,275.300643940392,472506,1831,5352.377110004425,47.185707092285156,,14.182323455810547,0.64
472,MetaDrive-td3combine-expt1,88,279.94315441448373,473804,1833,5368.919432640076,46.12879180908203,,10.196115493774414,0.65
473,MetaDrive-td3combine-expt1,88,283.5378490700692,474805,1834,5385.272752285004,48.74741744995117,-49.43860626220703,122.68490600585938,0.65
474,MetaDrive-td3combine-expt1,88,282.08575590179237,475392,1836,5391.036441326141,49.78095245361328,,39.538368225097656,0.64
475,MetaDrive-td3combine-expt1,88,281.9556560984754,476290,1838,5402.024214982986,47.7508544921875,,7.978789806365967,0.64
476,MetaDrive-td3combine-expt1,88,277.82040212054744,477363,1841,5412.961626291275,49.53655242919922,-50.433250427246094,6.536243915557861,0.63
477,MetaDrive-td3combine-expt1,88,278.34241042991675,478221,1842,5421.5534789562225,45.450782775878906,-44.991363525390625,20.194257736206055,0.63
478,MetaDrive-td3combine-expt1,88,273.54032344218007,479100,1845,5429.91819691658,48.88433837890625,,13.660776138305664,0.63
479,MetaDrive-td3combine-expt1,88,274.92925652519307,480362,1847,5444.7156682014465,46.235565185546875,,8.003875732421875,0.64
480,MetaDrive-td3combine-expt1,88,275.16500008635893,481062,1848,5453.327564716339,49.51512908935547,,9.087135314941406,0.64
481,MetaDrive-td3combine-expt1,88,276.75601627831855,482196,1850,5464.938503026962,48.64929962158203,,31.18329620361328,0.65
482,MetaDrive-td3combine-expt1,88,274.10639560500044,483118,1852,5476.351845741272,47.43014144897461,,10.873857498168945,0.64
483,MetaDrive-td3combine-expt1,88,274.04828742446824,484224,1854,5488.438086748123,47.80260467529297,,8.23350715637207,0.62
484,MetaDrive-td3combine-expt1,88,276.18714863860697,485546,1857,5502.283287763596,44.41648864746094,,7.295214653015137,0.61
485,MetaDrive-td3combine-expt1,88,276.0954733489843,486084,1858,5508.316284656525,46.184326171875,,7.939007759094238,0.61
486,MetaDrive-td3combine-expt1,88,274.6215470270346,487300,1860,5521.108489274979,44.554534912109375,,22.70830726623535,0.61
487,MetaDrive-td3combine-expt1,88,275.48242584567623,488484,1862,5536.334187746048,48.93113708496094,,9.867608070373535,0.6
488,MetaDrive-td3combine-expt1,88,277.3019953147397,489306,1863,5545.332934617996,47.592350006103516,,6.603857517242432,0.61
489,MetaDrive-td3combine-expt1,88,279.0029448191719,490307,1864,5559.645626783371,50.223018646240234,-50.625404357910156,13.742140769958496,0.61
490,MetaDrive-td3combine-expt1,88,277.76790194770956,491128,1866,5571.019908189774,50.97080993652344,,26.238727569580078,0.6
491,MetaDrive-td3combine-expt1,88,279.9845688777046,492129,1867,5584.855212211609,45.56509017944336,-43.808441162109375,16.620399475097656,0.6
492,MetaDrive-td3combine-expt1,88,276.3266599626175,493331,1870,5599.3823227882385,49.22673797607422,-49.809532165527344,7.847437858581543,0.58
493,MetaDrive-td3combine-expt1,88,275.59331907429737,494156,1872,5609.673711776733,48.080543518066406,,17.18056869506836,0.57
494,MetaDrive-td3combine-expt1,88,271.05201177705186,495253,1874,5622.013523101807,45.60633087158203,-46.397544860839844,12.89708423614502,0.55
495,MetaDrive-td3combine-expt1,88,270.03491014110847,496063,1876,5628.763331413269,49.3003044128418,-50.20393753051758,14.006086349487305,0.54
496,MetaDrive-td3combine-expt1,88,264.1489730768379,497506,1881,5644.268033027649,45.813140869140625,,18.55758285522461,0.54
497,MetaDrive-td3combine-expt1,88,260.7930745354525,498222,1883,5650.335560560226,47.946617126464844,,14.425104141235352,0.53
498,MetaDrive-td3combine-expt1,88,250.5837683329528,499370,1888,5662.550790786743,49.280818939208984,,24.070785522460938,0.5
499,MetaDrive-td3combine-expt1,88,249.36213651565248,500299,1890,5670.137652873993,45.331459045410156,-46.2629280090332,8.121495246887207,0.5
500,MetaDrive-td3combine-expt1,88,251.63819043879903,501472,1892,5680.943188667297,45.35763931274414,,10.50197696685791,0.51
501,MetaDrive-td3combine-expt1,88,252.49445099248092,502068,1893,5686.837087154388,44.90773010253906,,13.222383499145508,0.51
502,MetaDrive-td3combine-expt1,88,250.66805209952054,503116,1895,5697.861597061157,47.23265075683594,,33.039180755615234,0.51
503,MetaDrive-td3combine-expt1,88,244.23273484548884,504181,1898,5709.642941951752,44.74675750732422,-45.516746520996094,133.08766174316406,0.49
504,MetaDrive-td3combine-expt1,88,248.37364517048758,505514,1900,5726.054924488068,49.78797912597656,,12.835616111755371,0.5
505,MetaDrive-td3combine-expt1,88,247.65967229490354,506191,1901,5733.917602300644,45.09934616088867,-45.50043487548828,117.02703857421875,0.5
506,MetaDrive-td3combine-expt1,88,247.01541577439423,507192,1902,5744.742681026459,42.16674041748047,,27.63723373413086,0.49
507,MetaDrive-td3combine-expt1,88,250.65190588929022,508013,1903,5752.563974380493,47.62995147705078,-47.90253448486328,10.872753143310547,0.5
508,MetaDrive-td3combine-expt1,88,248.73154884161391,509217,1905,5763.104088068008,47.57219314575195,-48.46881103515625,23.85477066040039,0.49
509,MetaDrive-td3combine-expt1,88,244.7952195790072,510148,1907,5774.917686462402,45.28843307495117,,11.471574783325195,0.47
510,MetaDrive-td3combine-expt1,88,244.60431439810083,511246,1909,5786.87859916687,49.66777038574219,,4.758701324462891,0.47
511,MetaDrive-td3combine-expt1,88,244.01604191773652,512354,1911,5797.934757471085,47.002410888671875,,28.474140167236328,0.47
512,MetaDrive-td3combine-expt1,88,247.93389794292398,513541,1913,5808.531617879868,50.16114807128906,-50.704124450683594,7.926492691040039,0.48
513,MetaDrive-td3combine-expt1,88,246.64726513915141,514051,1914,5815.829949140549,50.17628479003906,-50.64719772338867,18.355113983154297,0.47
514,MetaDrive-td3combine-expt1,88,242.15746334882263,515550,1917,5830.688929319382,47.959129333496094,,5.275745391845703,0.45
515,MetaDrive-td3combine-expt1,88,242.5834337372147,516378,1918,5839.150001525879,45.2614631652832,,7.4825639724731445,0.46
516,MetaDrive-td3combine-expt1,88,243.63123095616092,517379,1919,5849.652366399765,41.62804412841797,-42.04707336425781,10.19847297668457,0.45
517,MetaDrive-td3combine-expt1,88,245.77423031914384,518225,1920,5857.228643417358,49.06636428833008,-49.056602478027344,48.39324951171875,0.46
518,MetaDrive-td3combine-expt1,88,246.53308688985587,519884,1922,5874.524110555649,43.4947395324707,,13.45641040802002,0.45
519,MetaDrive-td3combine-expt1,88,244.8073441758346,520299,1923,5878.717839241028,49.45732879638672,-49.33985137939453,7.128141403198242,0.44
520,MetaDrive-td3combine-expt1,88,243.96991946006278,521408,1925,5893.045347213745,45.6920051574707,,6.950120449066162,0.43
521,MetaDrive-td3combine-expt1,88,244.5198387375821,522222,1927,5901.8783712387085,48.96823501586914,,15.007261276245117,0.42
522,MetaDrive-td3combine-expt1,88,245.17326483425794,523548,1929,5919.236861944199,46.66931915283203,,28.836963653564453,0.41
523,MetaDrive-td3combine-expt1,88,243.61080430765907,524699,1931,5930.804592132568,47.47840881347656,-47.92101287841797,22.97640037536621,0.41
524,MetaDrive-td3combine-expt1,88,243.75253306390238,525282,1932,5936.79447555542,50.85905456542969,,22.817245483398438,0.4
525,MetaDrive-td3combine-expt1,88,243.026061089548,526764,1934,5953.642510890961,50.33353042602539,,8.627822875976562,0.41
526,MetaDrive-td3combine-expt1,88,246.55401916551546,527446,1935,5962.150518417358,45.42498779296875,,20.116928100585938,0.42
527,MetaDrive-td3combine-expt1,88,244.25289956894838,528954,1938,5983.073645353317,44.44095230102539,,45.261104583740234,0.4
528,MetaDrive-td3combine-expt1,88,244.26637157656313,529060,1939,5984.295171260834,44.31258010864258,,12.329756736755371,0.4
529,MetaDrive-td3combine-expt1,88,245.0869712998417,530458,1941,5999.090057611465,43.45074462890625,,8.414325714111328,0.39
530,MetaDrive-td3combine-expt1,88,247.3984946336968,531479,1943,6010.934783220291,45.5184211730957,-45.760555267333984,19.328453063964844,0.39
531,MetaDrive-td3combine-expt1,88,247.65899214973032,532583,1945,6026.624494552612,46.50206756591797,-47.26774978637695,7.959249496459961,0.39
532,MetaDrive-td3combine-expt1,88,247.4432741456098,533584,1946,6042.869947195053,44.90879821777344,,20.29749298095703,0.38
533,MetaDrive-td3combine-expt1,88,248.5334130377945,534585,1947,6054.024752378464,47.78141784667969,-47.412628173828125,19.354290008544922,0.37
534,MetaDrive-td3combine-expt1,88,247.04127908191055,535550,1949,6064.350490570068,49.56626892089844,,14.385662078857422,0.36
535,MetaDrive-td3combine-expt1,88,247.71675264786847,536404,1950,6073.276738405228,46.96302032470703,,12.140933990478516,0.36
536,MetaDrive-td3combine-expt1,88,248.9034397082683,537648,1952,6088.83024930954,44.63286590576172,,8.544687271118164,0.36
537,MetaDrive-td3combine-expt1,88,248.2528589601054,538001,1953,6092.748254537582,50.152549743652344,-49.883155822753906,6.718626976013184,0.36
538,MetaDrive-td3combine-expt1,88,248.5221863111862,539002,1954,6109.036053419113,48.002601623535156,,23.982881546020508,0.36
539,MetaDrive-td3combine-expt1,88,251.15554713428705,540478,1956,6127.955286741257,49.62659454345703,,12.708385467529297,0.37
540,MetaDrive-td3combine-expt1,88,249.46603106815476,541003,1957,6133.466350078583,53.21234130859375,-54.02838897705078,4.96845817565918,0.37
541,MetaDrive-td3combine-expt1,88,252.2138144039999,542348,1959,6149.942876815796,50.661983489990234,,37.796207427978516,0.37
542,MetaDrive-td3combine-expt1,88,254.37484435114638,543459,1961,6162.998849153519,44.73033905029297,-44.53032302856445,11.987968444824219,0.37
543,MetaDrive-td3combine-expt1,88,247.62233539332684,544885,1964,6178.6611959934235,48.17095184326172,-48.90066909790039,12.256108283996582,0.36
544,MetaDrive-td3combine-expt1,88,247.95938548021184,545419,1965,6182.95448756218,46.45294952392578,-47.733131408691406,14.51427173614502,0.37
545,MetaDrive-td3combine-expt1,88,248.08783294382349,546420,1966,6193.766486644745,51.11296081542969,,7.629551887512207,0.37
546,MetaDrive-td3combine-expt1,88,248.00944152097344,547421,1967,6211.684179544449,45.86073303222656,-45.6998405456543,6.080554962158203,0.37
547,MetaDrive-td3combine-expt1,88,249.27688491363162,548785,1969,6225.318631649017,46.685218811035156,-46.58709716796875,32.961326599121094,0.37
548,MetaDrive-td3combine-expt1,88,250.36745618327305,549724,1971,6236.46580696106,53.133392333984375,,9.349900245666504,0.36
549,MetaDrive-td3combine-expt1,88,250.2468257227147,550504,1972,6242.676620960236,45.019508361816406,,23.364673614501953,0.36
550,MetaDrive-td3combine-expt1,88,251.88075680094448,551505,1973,6254.850650310516,47.78974151611328,-47.23670959472656,14.585371017456055,0.36
551,MetaDrive-td3combine-expt1,88,252.0692225361962,552069,1974,6259.316318511963,47.23301696777344,-46.917991638183594,3.9665894508361816,0.37
552,MetaDrive-td3combine-expt1,88,252.35610545273076,553117,1976,6271.292002439499,47.07030487060547,-48.051292419433594,7.779705047607422,0.36
553,MetaDrive-td3combine-expt1,88,253.89031286599922,554039,1978,6282.559483528137,47.08731460571289,-47.78287887573242,7.417220115661621,0.36
554,MetaDrive-td3combine-expt1,88,258.3678344789582,555044,1980,6293.377970218658,43.5676155090332,,7.159935474395752,0.37
555,MetaDrive-td3combine-expt1,88,261.70649262037654,556186,1982,6305.406191110611,49.01083755493164,,8.375524520874023,0.38
556,MetaDrive-td3combine-expt1,88,262.4432104329094,557879,1984,6326.678075313568,49.077964782714844,-49.5552864074707,17.05219268798828,0.37
557,MetaDrive-td3combine-expt1,88,265.7249696200913,558880,1985,6339.894553661346,47.11044692993164,,7.335235118865967,0.37
558,MetaDrive-td3combine-expt1,88,266.9939102637977,559080,1986,6341.779960155487,49.33415985107422,,5.690340042114258,0.37
559,MetaDrive-td3combine-expt1,88,267.7085120515036,560070,1988,6353.794538736343,50.954681396484375,,149.8765106201172,0.37
560,MetaDrive-td3combine-expt1,88,266.5488155646636,561071,1989,6365.676591873169,45.331634521484375,-46.12446594238281,7.730517387390137,0.36
561,MetaDrive-td3combine-expt1,88,259.1488379139408,562046,1993,6375.901940345764,49.0657958984375,,11.335607528686523,0.34
562,MetaDrive-td3combine-expt1,88,259.1298133516954,563407,1995,6399.539380788803,44.58442687988281,-44.50873565673828,7.377278804779053,0.32
563,MetaDrive-td3combine-expt1,88,262.18535795241985,564566,1997,6411.213876485825,47.487606048583984,,10.388668060302734,0.32
564,MetaDrive-td3combine-expt1,88,261.033840264398,565558,1999,6423.856832265854,49.67756271362305,,11.011380195617676,0.32
565,MetaDrive-td3combine-expt1,88,260.7710733782298,566243,2000,6431.079492092133,44.65760803222656,-45.51844787597656,28.801843643188477,0.32
566,MetaDrive-td3combine-expt1,88,261.54999995447633,567018,2001,6438.572686910629,45.98081970214844,,9.877169609069824,0.33
567,MetaDrive-td3combine-expt1,88,253.23563936070906,568025,2006,6448.33708190918,45.92829895019531,-46.208465576171875,5.0856781005859375,0.32
568,MetaDrive-td3combine-expt1,88,255.17068616591382,569309,2008,6460.081131696701,49.52277755737305,-49.46483612060547,7.548447608947754,0.33
569,MetaDrive-td3combine-expt1,88,254.68075254190757,570696,2010,6478.31920838356,46.285736083984375,,6.487880229949951,0.31
570,MetaDrive-td3combine-expt1,88,254.34305761469233,571151,2011,6484.466105222702,45.00569152832031,-45.255889892578125,8.442333221435547,0.3
571,MetaDrive-td3combine-expt1,88,251.37150193153394,572407,2014,6502.841656208038,47.793582916259766,-47.38603210449219,5.200539588928223,0.29
572,MetaDrive-td3combine-expt1,87,256.93504002408844,573850,2016,6522.811688423157,43.29206466674805,,8.038093566894531,0.31
573,MetaDrive-td3combine-expt1,87,255.5589871810232,574247,2017,6526.642763376236,46.89885711669922,-47.65787887573242,11.557304382324219,0.3
574,MetaDrive-td3combine-expt1,87,254.7103375400333,575466,2019,6539.560129880905,44.11039733886719,,21.417545318603516,0.31
575,MetaDrive-td3combine-expt1,88,251.85048025960978,576048,2021,6545.746689319611,46.107513427734375,,23.670326232910156,0.3
576,MetaDrive-td3combine-expt1,88,251.32810509125895,577047,2024,6557.127245426178,45.729732513427734,-45.9488639831543,7.590749740600586,0.3
577,MetaDrive-td3combine-expt1,88,254.0771215069035,578302,2026,6568.316392660141,43.14598083496094,,7.071186065673828,0.32
578,MetaDrive-td3combine-expt1,88,253.23847335667398,579937,2028,6585.129277944565,45.79583740234375,-46.38325881958008,10.746355056762695,0.33
579,MetaDrive-td3combine-expt1,88,251.53559838064905,580472,2029,6590.850825548172,47.96897888183594,,11.72971248626709,0.33
580,MetaDrive-td3combine-expt1,88,254.1482750142659,581242,2030,6597.772275924683,44.346595764160156,,12.583166122436523,0.34
581,MetaDrive-td3combine-expt1,88,252.67408612935532,582359,2032,6608.44925737381,47.23372268676758,-47.18560028076172,16.644489288330078,0.33
582,MetaDrive-td3combine-expt1,88,246.3473954490942,583432,2035,6616.913756132126,50.740966796875,,10.257601737976074,0.31
583,MetaDrive-td3combine-expt1,88,249.12381530044615,584280,2036,6626.641345739365,50.01369857788086,,7.220824241638184,0.32
584,MetaDrive-td3combine-expt1,88,251.76571550252547,585627,2038,6639.339502811432,43.71269226074219,-44.97866439819336,13.464975357055664,0.32
585,MetaDrive-td3combine-expt1,88,255.42369651991933,586628,2039,6651.611233472824,48.93071746826172,,8.266522407531738,0.32
586,MetaDrive-td3combine-expt1,88,256.44874170782793,587297,2040,6658.548837900162,46.80531311035156,-47.178321838378906,103.49588775634766,0.33
587,MetaDrive-td3combine-expt1,88,254.2156059925253,588033,2042,6666.929093360901,46.50995635986328,-47.931617736816406,9.841007232666016,0.33
588,MetaDrive-td3combine-expt1,88,253.61450202368903,589721,2045,6683.293721914291,45.63947677612305,-46.115882873535156,7.648233890533447,0.31
589,MetaDrive-td3combine-expt1,88,253.99661293803533,590363,2046,6689.187479019165,43.666603088378906,-44.211185455322266,7.067587375640869,0.32
590,MetaDrive-td3combine-expt1,88,253.1800084833855,591281,2047,6699.4579565525055,44.323486328125,-44.993553161621094,7.795352458953857,0.32
591,MetaDrive-td3combine-expt1,88,254.65814059718613,592212,2048,6706.831967830658,50.08552551269531,,7.919854164123535,0.33
592,MetaDrive-td3combine-expt1,88,251.1740848649115,593932,2052,6723.71795630455,39.89814376831055,,24.10202980041504,0.31
593,MetaDrive-td3combine-expt1,88,250.50523993244312,594173,2053,6726.303217887878,45.40605545043945,-45.10445785522461,9.178667068481445,0.31
594,MetaDrive-td3combine-expt1,88,247.40231505694632,595238,2055,6739.616823911667,45.80188751220703,,8.146565437316895,0.32
595,MetaDrive-td3combine-expt1,88,246.1453421841965,596236,2056,6750.628009557724,46.61908721923828,,7.058345317840576,0.31
596,MetaDrive-td3combine-expt1,88,247.63726374075847,597237,2057,6761.0332679748535,49.79747009277344,-49.59752655029297,6.084603786468506,0.31
597,MetaDrive-td3combine-expt1,88,248.8400396852977,598816,2059,6778.072712421417,47.65943145751953,,7.299402236938477,0.31
598,MetaDrive-td3combine-expt1,88,246.94145977651576,599462,2061,6785.0485961437225,49.622459411621094,,5.962790489196777,0.31
599,MetaDrive-td3combine-expt1,88,248.33358353890588,600220,2062,6792.012610435486,46.381980895996094,,7.6699419021606445,0.31
600,MetaDrive-td3combine-expt1,88,248.9421260046986,601543,2065,6805.59645819664,46.83574676513672,-47.8905029296875,9.433728218078613,0.31
601,MetaDrive-td3combine-expt1,88,247.67729729467618,602483,2068,6814.983222961426,49.98426055908203,-50.76723098754883,4.75638484954834,0.31
602,MetaDrive-td3combine-expt1,88,246.6575083024548,603484,2069,6829.430145025253,47.57680130004883,,13.312016487121582,0.31
603,MetaDrive-td3combine-expt1,88,248.5528125972691,604149,2070,6836.013721942902,44.23035430908203,-43.72247314453125,8.233701705932617,0.32
604,MetaDrive-td3combine-expt1,88,247.38212432513336,605825,2073,6853.539913415909,45.488033294677734,-46.27959442138672,7.638494968414307,0.33
605,MetaDrive-td3combine-expt1,88,248.12682459228384,606547,2074,6861.215292453766,40.14594268798828,-40.52925109863281,21.166667938232422,0.33
606,MetaDrive-td3combine-expt1,88,249.4925620868366,607099,2075,6868.414789438248,44.904335021972656,-44.84130096435547,10.249902725219727,0.33
607,MetaDrive-td3combine-expt1,88,250.94404457388737,608018,2077,6876.344536304474,45.05149841308594,,20.803009033203125,0.34
608,MetaDrive-td3combine-expt1,88,251.46352403133017,609019,2078,6885.943946361542,43.77435302734375,-43.75739669799805,64.67853546142578,0.33
609,MetaDrive-td3combine-expt1,88,250.7085031743336,610165,2080,6899.454140663147,50.8333740234375,-51.421913146972656,6.649325370788574,0.33
610,MetaDrive-td3combine-expt1,88,247.74957008750593,611610,2083,6915.636735200882,49.922611236572266,,4.662158966064453,0.32
611,MetaDrive-td3combine-expt1,88,249.17900179499102,612082,2084,6920.806728601456,47.384185791015625,,14.375734329223633,0.33
612,MetaDrive-td3combine-expt1,88,249.10865794325963,613138,2086,6931.194082975388,47.783897399902344,,5.893315315246582,0.33
613,MetaDrive-td3combine-expt1,88,246.8970862466552,614143,2089,6942.276121854782,48.39204025268555,-48.593048095703125,4.983495712280273,0.32
614,MetaDrive-td3combine-expt1,88,246.69711984429415,615003,2092,6952.782876968384,44.544036865234375,-44.38009262084961,6.992127895355225,0.31
615,MetaDrive-td3combine-expt1,88,249.73214394953072,616690,2094,6974.598930597305,43.34233093261719,,4.434545516967773,0.31
616,MetaDrive-td3combine-expt1,88,251.07493134776385,617641,2095,6986.295192241669,42.918983459472656,-43.2198371887207,11.133537292480469,0.32
617,MetaDrive-td3combine-expt1,88,249.48275286386604,618581,2097,6997.419270992279,46.47960662841797,-46.242820739746094,10.667381286621094,0.32
618,MetaDrive-td3combine-expt1,88,251.42413549579965,619221,2098,7004.012855291367,45.4072265625,-44.5024528503418,7.2352681159973145,0.33
619,MetaDrive-td3combine-expt1,88,253.0854808533082,620937,2100,7025.222833871841,45.06087875366211,-44.626739501953125,25.25347137451172,0.32
620,MetaDrive-td3combine-expt1,88,252.3575615012015,621522,2101,7032.357307910919,43.86437225341797,,9.203648567199707,0.31
621,MetaDrive-td3combine-expt1,88,255.0407314136159,622013,2102,7036.226464509964,47.30265426635742,-46.855506896972656,12.865507125854492,0.32
622,MetaDrive-td3combine-expt1,88,258.41471806154453,623014,2103,7049.933678627014,43.59368133544922,,8.635671615600586,0.32
623,MetaDrive-td3combine-expt1,88,259.0125254710322,624015,2104,7061.126336574554,47.7509880065918,-48.08740234375,5.722749710083008,0.31
624,MetaDrive-td3combine-expt1,88,259.9873696727718,625197,2107,7073.303354024887,44.745948791503906,-45.39727783203125,7.23405122756958,0.3
625,MetaDrive-td3combine-expt1,88,260.2566083469553,626025,2108,7081.626642942429,44.930335998535156,-45.09742736816406,9.69209098815918,0.29
626,MetaDrive-td3combine-expt1,88,262.0974904280317,627026,2109,7092.849697828293,43.474708557128906,,22.242050170898438,0.29
627,MetaDrive-td3combine-expt1,88,262.4244774044276,628118,2111,7103.640680551529,48.32442092895508,,7.2953596115112305,0.3
628,MetaDrive-td3combine-expt1,88,264.9586721734341,629004,2112,7118.502611160278,42.39609909057617,,7.718486785888672,0.31
629,MetaDrive-td3combine-expt1,88,265.0005360738444,630023,2115,7129.091193914413,42.93755340576172,-43.1923828125,9.277995109558105,0.3
630,MetaDrive-td3combine-expt1,88,258.0319775782206,631509,2118,7144.611957550049,46.253929138183594,-46.87167739868164,7.14394998550415,0.28
631,MetaDrive-td3combine-expt1,88,256.8799593840954,632301,2120,7156.212238550186,48.1751708984375,-48.03395080566406,6.485757827758789,0.27
632,MetaDrive-td3combine-expt1,88,261.6797861552093,633302,2121,7167.346205472946,45.25867462158203,,41.20733642578125,0.27
633,MetaDrive-td3combine-expt1,88,262.88652957374904,634237,2123,7180.317273378372,47.9640998840332,-47.55400085449219,10.258637428283691,0.27
634,MetaDrive-td3combine-expt1,88,266.0485103331313,635238,2124,7196.863876819611,45.354862213134766,,4.405662536621094,0.27
635,MetaDrive-td3combine-expt1,88,260.58996817956535,636188,2127,7206.846751213074,42.48883056640625,,13.464703559875488,0.24
636,MetaDrive-td3combine-expt1,88,263.48311349158024,637259,2129,7218.4831738471985,46.960426330566406,-47.468910217285156,6.192131996154785,0.24
637,MetaDrive-td3combine-expt1,88,262.33081470613416,638061,2130,7227.55609536171,50.9339599609375,-51.713985443115234,8.226486206054688,0.23
638,MetaDrive-td3combine-expt1,88,263.56227419732215,639111,2132,7241.910202264786,42.02293395996094,-41.57333755493164,9.618461608886719,0.23
639,MetaDrive-td3combine-expt1,88,262.9447185725534,640380,2135,7255.486311912537,49.629615783691406,,20.361652374267578,0.22
640,MetaDrive-td3combine-expt1,88,261.9886832066011,641310,2136,7264.387663841248,44.85675811767578,,6.014124870300293,0.21
641,MetaDrive-td3combine-expt1,88,262.64220297435014,642215,2137,7273.021026611328,44.526580810546875,-43.91956329345703,17.59078598022461,0.21
642,MetaDrive-td3combine-expt1,88,260.7500654255936,643358,2139,7284.3498475551605,49.62607955932617,,5.527346611022949,0.21
643,MetaDrive-td3combine-expt1,88,260.8223147107162,644257,2141,7294.997580766678,48.61920928955078,-48.79573059082031,4.887253284454346,0.21
644,MetaDrive-td3combine-expt1,88,260.06436158316114,645047,2144,7302.375904083252,43.06531524658203,-42.00509262084961,26.54027557373047,0.21
645,MetaDrive-td3combine-expt1,88,259.12657935833,646271,2146,7313.087019443512,44.53852844238281,-44.08875274658203,7.422348499298096,0.21
646,MetaDrive-td3combine-expt1,88,258.60194859261213,647425,2148,7324.519844532013,43.7446174621582,-44.652870178222656,9.249944686889648,0.22
647,MetaDrive-td3combine-expt1,88,262.33388830438287,648804,2150,7337.624742746353,46.78184509277344,,5.14406681060791,0.23
648,MetaDrive-td3combine-expt1,88,263.45934440610114,649199,2151,7341.589905500412,43.24042510986328,-43.88814926147461,7.024584770202637,0.23
649,MetaDrive-td3combine-expt1,88,261.6284041592767,650200,2152,7350.899513244629,44.08467102050781,,10.571456909179688,0.22
650,MetaDrive-td3combine-expt1,88,264.88495767121697,651183,2154,7360.441016674042,45.8442268371582,-46.18778610229492,9.666223526000977,0.23
651,MetaDrive-td3combine-expt1,88,264.4671667524063,652184,2155,7373.36224937439,45.238525390625,,6.079736709594727,0.22
652,MetaDrive-td3combine-expt1,88,264.1457660276949,653219,2157,7383.089519023895,48.529136657714844,-49.61064147949219,7.613375663757324,0.24
653,MetaDrive-td3combine-expt1,88,261.3488048327619,654084,2159,7393.516411066055,44.7489128112793,,10.03669548034668,0.24
654,MetaDrive-td3combine-expt1,88,262.92082970792353,655211,2162,7405.351409912109,47.831321716308594,-48.246063232421875,9.549430847167969,0.25
655,MetaDrive-td3combine-expt1,88,264.93258559336545,656180,2164,7415.051734685898,45.29462432861328,,51.15876388549805,0.25
656,MetaDrive-td3combine-expt1,88,265.53774182363173,657680,2166,7432.336279392242,46.311588287353516,,10.043661117553711,0.25
657,MetaDrive-td3combine-expt1,88,266.9068394137618,658099,2167,7435.6913340091705,44.41744613647461,-44.28057098388672,5.932438850402832,0.26
658,MetaDrive-td3combine-expt1,88,265.99495589578663,659100,2168,7451.393568515778,44.188812255859375,,18.08066177368164,0.26
659,MetaDrive-td3combine-expt1,88,268.36215169020176,660964,2171,7474.4449763298035,47.086585998535156,,5.596888542175293,0.25
660,MetaDrive-td3combine-expt1,88,270.44525124682156,661811,2172,7482.695754289627,44.68178176879883,-44.39899444580078,12.050958633422852,0.25
661,MetaDrive-td3combine-expt1,88,268.2970336947993,662286,2173,7487.637899637222,44.641746520996094,,7.829336166381836,0.24
662,MetaDrive-td3combine-expt1,88,269.7621769588426,663287,2174,7502.588059902191,47.1767578125,-47.60784912109375,6.322900772094727,0.23
663,MetaDrive-td3combine-expt1,88,269.35361115349593,664034,2176,7509.634336709976,50.63623046875,,39.01863098144531,0.25
664,MetaDrive-td3combine-expt1,88,265.88046251296987,665169,2178,7522.787307977676,46.35110092163086,-46.865333557128906,4.001611232757568,0.24
665,MetaDrive-td3combine-expt1,88,266.7003281923107,666057,2180,7532.98001241684,49.226287841796875,-49.113525390625,7.071986198425293,0.23
666,MetaDrive-td3combine-expt1,88,268.44282291974827,667279,2183,7545.416019439697,42.60429382324219,-42.62339782714844,11.061105728149414,0.23
667,MetaDrive-td3combine-expt1,88,269.6368505511967,668181,2184,7554.721788644791,48.8585205078125,-50.35816955566406,15.038376808166504,0.23
668,MetaDrive-td3combine-expt1,88,272.82830196797767,669860,2186,7573.178076505661,48.5652961730957,,7.444711208343506,0.24
669,MetaDrive-td3combine-expt1,88,275.84212676685877,670774,2187,7583.086446285248,46.5533561706543,,6.966826438903809,0.25
670,MetaDrive-td3combine-expt1,88,275.85879260101404,671387,2189,7590.364883184433,49.071739196777344,-50.097007751464844,6.819965362548828,0.26
671,MetaDrive-td3combine-expt1,88,280.8001674068501,672183,2190,7601.965620517731,49.361785888671875,-50.12327194213867,9.321676254272461,0.27
672,MetaDrive-td3combine-expt1,88,281.95941875548374,673075,2191,7613.340865373611,45.446632385253906,-45.97858428955078,6.405002593994141,0.28
673,MetaDrive-td3combine-expt1,88,281.2448676381676,674027,2194,7624.379035234451,43.79071807861328,-45.16440200805664,21.220565795898438,0.29
674,MetaDrive-td3combine-expt1,88,282.1251260786099,675157,2196,7637.105813741684,49.29780578613281,-49.034523010253906,8.02659797668457,0.3
675,MetaDrive-td3combine-expt1,88,282.1744426018476,676158,2197,7657.081931352615,46.49832534790039,,3.2144582271575928,0.29
676,MetaDrive-td3combine-expt1,88,277.6893035483599,677793,2200,7676.296927213669,49.10039520263672,-49.05095291137695,15.179479598999023,0.28
677,MetaDrive-td3combine-expt1,88,279.20211897097727,678428,2201,7682.000243425369,45.14589309692383,,12.470756530761719,0.29
678,MetaDrive-td3combine-expt1,88,279.8797631117839,679297,2202,7696.258043289185,42.387664794921875,-43.55022430419922,11.201517105102539,0.28
679,MetaDrive-td3combine-expt1,88,277.90744735022315,680069,2203,7706.514745473862,51.092491149902344,-50.92403030395508,5.517330646514893,0.28
680,MetaDrive-td3combine-expt1,88,280.11423390431986,681844,2206,7729.002070903778,41.75267028808594,,38.40924835205078,0.3
681,MetaDrive-td3combine-expt1,88,279.14032596727685,682487,2207,7736.728222846985,47.23931884765625,-47.75949478149414,5.879574775695801,0.3
682,MetaDrive-td3combine-expt1,88,277.4055679512721,683348,2209,7744.747354030609,47.15688705444336,,7.270421504974365,0.31
683,MetaDrive-td3combine-expt1,88,279.16749860302184,684036,2210,7751.65517449379,47.071659088134766,,6.735114097595215,0.32
684,MetaDrive-td3combine-expt1,88,273.33124025549876,685574,2214,7770.284222841263,44.134883880615234,,7.473630428314209,0.31
685,MetaDrive-td3combine-expt1,88,275.79175458494757,686535,2215,7781.769838809967,48.727996826171875,-49.02794647216797,10.470781326293945,0.32
686,MetaDrive-td3combine-expt1,88,276.32115511608254,687010,2217,7787.223868846893,42.75969696044922,,11.545807838439941,0.33
687,MetaDrive-td3combine-expt1,88,279.1657403522013,688372,2220,7803.008780479431,43.25891876220703,,39.90351867675781,0.35
688,MetaDrive-td3combine-expt1,88,275.19801327046383,689373,2221,7816.550935506821,41.807281494140625,-41.623199462890625,11.093095779418945,0.35
689,MetaDrive-td3combine-expt1,88,273.98479403369384,690016,2223,7823.157875061035,42.71501159667969,,7.108315467834473,0.36
690,MetaDrive-td3combine-expt1,88,273.26992400170576,691437,2225,7839.947242021561,44.869468688964844,-44.611331939697266,7.679339408874512,0.37
691,MetaDrive-td3combine-expt1,88,275.88096442320074,692375,2227,7849.921570301056,49.83185958862305,-50.02313232421875,8.180558204650879,0.38
692,MetaDrive-td3combine-expt1,88,276.0040843000222,693464,2229,7860.628890752792,49.140708923339844,,3.6392152309417725,0.39
693,MetaDrive-td3combine-expt1,88,273.6148328000583,694368,2231,7868.798094034195,47.305274963378906,,24.576438903808594,0.4
694,MetaDrive-td3combine-expt1,88,276.5016252613278,695204,2232,7878.157404661179,51.08343505859375,,5.8429718017578125,0.41
695,MetaDrive-td3combine-expt1,88,280.04088938611824,696339,2234,7892.7594602108,46.95537567138672,-46.402587890625,9.257258415222168,0.41
696,MetaDrive-td3combine-expt1,88,280.28857782525876,697340,2235,7903.946389198303,44.656978607177734,,9.539299011230469,0.41
697,MetaDrive-td3combine-expt1,88,278.87109249725154,698110,2237,7910.304983854294,46.51885986328125,,22.044841766357422,0.43
698,MetaDrive-td3combine-expt1,88,280.50532789448204,699388,2239,7925.248874664307,45.22125244140625,,7.642322540283203,0.44
699,MetaDrive-td3combine-expt1,88,280.5514046616047,700148,2241,7932.556597232819,47.22184753417969,,5.9175615310668945,0.44
700,MetaDrive-td3combine-expt1,88,282.8666792358333,701451,2244,7947.862339496613,48.827796936035156,-49.3489875793457,7.044175148010254,0.45
701,MetaDrive-td3combine-expt1,88,284.3776943871953,702422,2245,7960.6712284088135,46.45479202270508,,7.316599369049072,0.46
702,MetaDrive-td3combine-expt1,88,283.9442453099889,703487,2247,7971.784896612167,42.978736877441406,-42.854148864746094,28.355300903320312,0.45
703,MetaDrive-td3combine-expt1,88,282.49896505441427,704230,2249,7979.729360580444,46.888282775878906,,5.408666133880615,0.44
704,MetaDrive-td3combine-expt1,88,279.4008317336052,705392,2252,7994.686162471771,42.645748138427734,,8.157421112060547,0.43
705,MetaDrive-td3combine-expt1,88,278.8439288761481,706465,2254,8009.9033398628235,46.677757263183594,-46.56071472167969,8.570395469665527,0.43
706,MetaDrive-td3combine-expt1,88,278.45602909080804,707125,2255,8016.527532339096,49.11418151855469,-48.81019973754883,16.341594696044922,0.44
707,MetaDrive-td3combine-expt1,88,277.43392197887476,708595,2259,8034.322302818298,48.901832580566406,-49.389488220214844,5.617673873901367,0.44
708,MetaDrive-td3combine-expt1,88,279.8779706429578,709596,2260,8044.850528240204,42.12211990356445,,13.282644271850586,0.44
709,MetaDrive-td3combine-expt1,88,279.80401579727175,710203,2261,8052.299909114838,46.028594970703125,-45.81721496582031,9.493425369262695,0.44
710,MetaDrive-td3combine-expt1,88,277.5178108586537,711438,2264,8063.622492790222,46.697059631347656,,3.399491310119629,0.45
711,MetaDrive-td3combine-expt1,88,276.577791416128,712300,2266,8072.322325706482,46.88755798339844,,27.00167465209961,0.45
712,MetaDrive-td3combine-expt1,88,277.9171426179818,713145,2268,8079.752255439758,42.01322937011719,-42.68970489501953,13.107654571533203,0.46
713,MetaDrive-td3combine-expt1,88,279.2791023885022,714317,2270,8092.299781084061,45.966064453125,-46.38740158081055,5.297944068908691,0.48
714,MetaDrive-td3combine-expt1,88,277.7281789739286,715333,2272,8101.807028532028,44.65050506591797,-44.80296325683594,6.126054763793945,0.49
715,MetaDrive-td3combine-expt1,88,276.40502275659503,716238,2274,8111.353581428528,47.951019287109375,,4.91623592376709,0.5
716,MetaDrive-td3combine-expt1,88,276.08236116509056,717688,2277,8127.170508146286,46.96430206298828,,6.245182991027832,0.5
717,MetaDrive-td3combine-expt1,88,277.61277757157245,718085,2278,8130.545744180679,43.454246520996094,-44.18193435668945,4.6783342361450195,0.51
718,MetaDrive-td3combine-expt1,88,280.255833959965,719469,2280,8146.846990346909,48.49602508544922,-49.05031967163086,2.975447654724121,0.53
719,MetaDrive-td3combine-expt1,88,281.2073279642795,720710,2282,8157.880719661713,43.55754089355469,,7.439782619476318,0.54
720,MetaDrive-td3combine-expt1,88,283.0585002144099,721654,2283,8170.137240886688,42.39921951293945,,7.314082145690918,0.55
721,MetaDrive-td3combine-expt1,88,281.9646780264305,722244,2284,8176.033100128174,48.60015106201172,,7.992327690124512,0.55
722,MetaDrive-td3combine-expt1,88,273.0308796300587,723588,2289,8189.362255334854,38.76603698730469,,107.58796691894531,0.53
723,MetaDrive-td3combine-expt1,88,269.47627398164315,724466,2291,8197.070234298706,43.59627151489258,,10.278557777404785,0.52
724,MetaDrive-td3combine-expt1,88,268.57578095183703,725467,2292,8206.716201782227,45.87590026855469,-45.260047912597656,12.901430130004883,0.52
725,MetaDrive-td3combine-expt1,88,270.11411483411933,726515,2294,8217.18911075592,47.84558868408203,-47.593231201171875,3.8050448894500732,0.52
726,MetaDrive-td3combine-expt1,88,266.76354065012663,727229,2296,8225.287256479263,46.159854888916016,-46.243675231933594,4.863059043884277,0.51
727,MetaDrive-td3combine-expt1,88,267.2344803524966,728511,2298,8247.378661870956,48.740150451660156,-49.19000244140625,5.596731185913086,0.51
728,MetaDrive-td3combine-expt1,88,266.2485988005941,729439,2300,8258.937554597855,46.30625534057617,-46.14341735839844,9.094218254089355,0.51
729,MetaDrive-td3combine-expt1,88,265.73463776330965,730346,2301,8268.78725194931,41.181678771972656,,3.3577702045440674,0.51
730,MetaDrive-td3combine-expt1,88,265.9294495757711,731385,2303,8278.647235155106,43.8868408203125,-44.51256561279297,6.885523796081543,0.53
731,MetaDrive-td3combine-expt1,88,262.36080669339736,732916,2306,8298.346527814865,42.13518142700195,,18.10791015625,0.52
732,MetaDrive-td3combine-expt1,88,262.54173724884214,733247,2307,8301.74489736557,49.06669235229492,-48.59312057495117,8.63958740234375,0.53
733,MetaDrive-td3combine-expt1,88,261.50785461941155,734024,2309,8310.43496632576,43.75624084472656,,4.498910903930664,0.53
734,MetaDrive-td3combine-expt1,88,261.72389337702737,735025,2310,8326.891986370087,44.847930908203125,-43.80799102783203,7.434042453765869,0.52
