TanmayH/CS269-RL-project-code/MetaDrive-td3combine-expt_with_safe_fix_again/MetaDrive-Gen-Next-v1/td3/progress.csv
,log_dir,frame_per_second,episode_reward,total_steps,total_episodes,total_time,target_q,actor_loss,critic_loss,success_rate
0,MetaDrive-td3combine-expt_with_safe_fix_again,138,241.74753174597004,1253,2,9.060027122497559,,,,0.5
1,MetaDrive-td3combine-expt_with_safe_fix_again,95,266.0615440502311,2012,3,21.1751925945282,,,,0.3333333333333333
2,MetaDrive-td3combine-expt_with_safe_fix_again,84,234.79100332405852,3013,4,35.580405950546265,,,,0.25
3,MetaDrive-td3combine-expt_with_safe_fix_again,104,198.25529444579772,4014,5,38.56934857368469,,,,0.2
4,MetaDrive-td3combine-expt_with_safe_fix_again,98,157.00063872468417,5917,9,60.024505615234375,29.407434463500977,-29.59906768798828,7.998032569885254,0.1111111111111111
5,MetaDrive-td3combine-expt_with_safe_fix_again,99,171.93902715424545,6509,10,65.23887634277344,31.49976348876953,-32.3547477722168,6.0864362716674805,0.2
6,MetaDrive-td3combine-expt_with_safe_fix_again,93,185.74680227861742,7510,11,80.6667697429657,31.177217483520508,,4.582247734069824,0.18181818181818182
7,MetaDrive-td3combine-expt_with_safe_fix_again,88,182.50411010129054,8395,13,94.69342279434204,30.73210334777832,-30.352529525756836,7.218325614929199,0.15384615384615385
8,MetaDrive-td3combine-expt_with_safe_fix_again,85,186.68844935340525,9236,15,107.56583595275879,28.28630256652832,,8.781858444213867,0.2
9,MetaDrive-td3combine-expt_with_safe_fix_again,82,183.1157976430312,10094,18,121.82931876182556,26.77684211730957,,6.734279632568359,0.2222222222222222
10,MetaDrive-td3combine-expt_with_safe_fix_again,74,181.49064341423588,11095,20,149.5306487083435,24.929933547973633,-25.204280853271484,9.166444778442383,0.2
11,MetaDrive-td3combine-expt_with_safe_fix_again,75,170.97912551013795,12205,22,162.59745025634766,30.91377830505371,-31.18561363220215,5.270211219787598,0.18181818181818182
12,MetaDrive-td3combine-expt_with_safe_fix_again,72,172.9449517940043,13206,23,182.91461849212646,28.30467987060547,,3.884220600128174,0.17391304347826086
13,MetaDrive-td3combine-expt_with_safe_fix_again,71,157.30343410696304,14838,28,208.46755385398865,27.939735412597656,,7.303969383239746,0.14285714285714285
14,MetaDrive-td3combine-expt_with_safe_fix_again,71,157.6148693788317,15237,29,213.0698525905609,33.40542984008789,-33.93681335449219,4.34187650680542,0.13793103448275862
15,MetaDrive-td3combine-expt_with_safe_fix_again,70,149.6378748675193,16300,31,230.39985990524292,29.131542205810547,,10.364051818847656,0.12903225806451613
16,MetaDrive-td3combine-expt_with_safe_fix_again,70,151.0319952282008,17004,33,239.5912206172943,32.238677978515625,,5.994406700134277,0.15151515151515152
17,MetaDrive-td3combine-expt_with_safe_fix_again,70,150.45242126758075,18005,34,256.31753516197205,31.421184539794922,-31.200056076049805,11.897530555725098,0.14705882352941177
18,MetaDrive-td3combine-expt_with_safe_fix_again,70,151.5090623117917,19645,37,280.5250005722046,26.46331024169922,-26.711132049560547,8.708322525024414,0.13513513513513514
19,MetaDrive-td3combine-expt_with_safe_fix_again,69,150.96834058207693,20646,38,296.4494547843933,22.12574005126953,,3.9827499389648438,0.13157894736842105
20,MetaDrive-td3combine-expt_with_safe_fix_again,69,154.26323836838043,21362,39,305.2667417526245,29.80640983581543,,7.500315189361572,0.15384615384615385
21,MetaDrive-td3combine-expt_with_safe_fix_again,70,157.95692715914998,22363,40,315.9958233833313,33.059967041015625,-33.62980651855469,6.360465049743652,0.15
22,MetaDrive-td3combine-expt_with_safe_fix_again,69,157.13678824677905,23364,41,334.63493394851685,28.104169845581055,,9.383862495422363,0.14634146341463414
23,MetaDrive-td3combine-expt_with_safe_fix_again,70,159.90898444536404,24121,42,341.44636607170105,25.89046287536621,-26.34122085571289,7.268847465515137,0.16666666666666666
24,MetaDrive-td3combine-expt_with_safe_fix_again,71,162.19905202877575,25398,44,354.7516026496887,23.640134811401367,,11.115142822265625,0.1590909090909091
25,MetaDrive-td3combine-expt_with_safe_fix_again,71,161.450868550583,26399,45,368.06632375717163,26.32508087158203,-25.84897232055664,6.8414106369018555,0.15555555555555556
26,MetaDrive-td3combine-expt_with_safe_fix_again,71,162.12716181994242,27789,47,386.87162828445435,23.090850830078125,-23.99095916748047,69.39411926269531,0.14893617021276595
27,MetaDrive-td3combine-expt_with_safe_fix_again,72,164.40726413101754,28440,48,393.3939423561096,29.139873504638672,,4.202516555786133,0.16666666666666666
28,MetaDrive-td3combine-expt_with_safe_fix_again,72,166.04006801092598,29093,49,399.4924998283386,23.357379913330078,-23.309412002563477,3.7848782539367676,0.1836734693877551
29,MetaDrive-td3combine-expt_with_safe_fix_again,72,166.5336361670905,30858,52,425.04809403419495,26.768108367919922,,3.2301673889160156,0.19230769230769232
30,MetaDrive-td3combine-expt_with_safe_fix_again,72,164.09402080611008,31043,53,427.26256227493286,25.788925170898438,-26.757457733154297,4.378549098968506,0.18867924528301888
31,MetaDrive-td3combine-expt_with_safe_fix_again,72,163.444092924843,32044,54,443.5565938949585,28.417564392089844,,3.2204360961914062,0.18518518518518517
32,MetaDrive-td3combine-expt_with_safe_fix_again,72,160.5131470634356,33154,56,459.55648708343506,23.64248275756836,,8.799328804016113,0.17857142857142858
33,MetaDrive-td3combine-expt_with_safe_fix_again,71,160.53600879827624,34155,57,474.61278104782104,25.013221740722656,-25.26705551147461,3.571214199066162,0.17543859649122806
34,MetaDrive-td3combine-expt_with_safe_fix_again,72,160.23951967803404,35156,58,487.6610279083252,22.61237907409668,,4.92723274230957,0.1724137931034483
35,MetaDrive-td3combine-expt_with_safe_fix_again,72,162.4067754252318,36753,60,505.34765887260437,24.44297218322754,-25.177431106567383,6.588958740234375,0.18333333333333332
36,MetaDrive-td3combine-expt_with_safe_fix_again,72,161.94838433653678,37405,62,512.5969090461731,22.36597442626953,-22.268404006958008,8.034708023071289,0.1774193548387097
37,MetaDrive-td3combine-expt_with_safe_fix_again,73,162.5696011214923,38843,64,531.7535161972046,25.428030014038086,-24.77484130859375,5.815282821655273,0.171875
38,MetaDrive-td3combine-expt_with_safe_fix_again,71,163.1056894983326,39844,65,554.6383953094482,22.395097732543945,,6.080064296722412,0.16923076923076924
39,MetaDrive-td3combine-expt_with_safe_fix_again,71,162.12895536299948,40063,66,557.9571063518524,25.445087432861328,-25.910202026367188,6.81026554107666,0.16666666666666666
40,MetaDrive-td3combine-expt_with_safe_fix_again,72,158.57047904585187,41104,70,569.1248760223389,27.634254455566406,,6.878945350646973,0.17142857142857143
41,MetaDrive-td3combine-expt_with_safe_fix_again,72,160.35192711951788,42798,72,594.058676481247,21.83454704284668,,4.4576311111450195,0.16666666666666666
42,MetaDrive-td3combine-expt_with_safe_fix_again,72,161.90601833087555,43799,73,606.7035059928894,26.817232131958008,-27.07428741455078,4.357142925262451,0.1643835616438356
43,MetaDrive-td3combine-expt_with_safe_fix_again,72,161.2070226908046,44020,74,609.4924793243408,25.083740234375,,5.984358310699463,0.16216216216216217
44,MetaDrive-td3combine-expt_with_safe_fix_again,72,164.08039526540284,45984,76,637.5949704647064,25.73407554626465,,4.459352016448975,0.17105263157894737
45,MetaDrive-td3combine-expt_with_safe_fix_again,72,166.7117137760089,46629,77,644.8978176116943,27.448551177978516,-27.39800262451172,4.048623085021973,0.18181818181818182
46,MetaDrive-td3combine-expt_with_safe_fix_again,71,164.84764467458038,47791,79,664.0181241035461,22.701026916503906,-22.685914993286133,5.643306255340576,0.17721518987341772
47,MetaDrive-td3combine-expt_with_safe_fix_again,71,164.9084256898007,48387,80,674.5855090618134,23.9710693359375,-24.04568099975586,3.722163677215576,0.175
48,MetaDrive-td3combine-expt_with_safe_fix_again,72,163.79616759135843,49512,82,687.383597612381,20.329090118408203,,4.347541809082031,0.17073170731707318
49,MetaDrive-td3combine-expt_with_safe_fix_again,71,161.9846513930808,50218,84,698.4579768180847,23.830472946166992,,12.346768379211426,0.16666666666666666
50,MetaDrive-td3combine-expt_with_safe_fix_again,70,161.48299325203982,51352,86,726.4931674003601,24.300537109375,,8.492558479309082,0.16279069767441862
51,MetaDrive-td3combine-expt_with_safe_fix_again,70,161.76276741415424,52353,87,739.1386334896088,24.837947845458984,-25.141132354736328,4.096072196960449,0.16091954022988506
52,MetaDrive-td3combine-expt_with_safe_fix_again,70,162.25962041047194,53354,88,752.7866053581238,25.68002700805664,,3.7318437099456787,0.1590909090909091
53,MetaDrive-td3combine-expt_with_safe_fix_again,71,161.91149116162313,54355,89,765.4758718013763,25.63370132446289,-25.628538131713867,4.7654337882995605,0.15730337078651685
54,MetaDrive-td3combine-expt_with_safe_fix_again,71,164.44122495427877,55554,91,780.9703416824341,23.337162017822266,,11.954345703125,0.16483516483516483
55,MetaDrive-td3combine-expt_with_safe_fix_again,71,163.3577723481063,56112,93,788.6819143295288,25.22826385498047,,5.7431230545043945,0.16129032258064516
56,MetaDrive-td3combine-expt_with_safe_fix_again,71,164.72175561105993,57182,95,799.1479482650757,22.19106674194336,,3.233020782470703,0.16842105263157894
57,MetaDrive-td3combine-expt_with_safe_fix_again,71,166.1260235934403,58596,97,818.4864180088043,23.066389083862305,,4.147652626037598,0.16494845360824742
58,MetaDrive-td3combine-expt_with_safe_fix_again,71,167.32555020249873,59702,99,833.6620016098022,25.870195388793945,,3.9709250926971436,0.1717171717171717
59,MetaDrive-td3combine-expt_with_safe_fix_again,71,167.28013105536763,60703,100,848.7177612781525,25.060123443603516,-24.35649299621582,6.208298683166504,0.17
60,MetaDrive-td3combine-expt_with_safe_fix_again,71,165.04506032517386,61212,101,854.7865242958069,23.139352798461914,,2.9320452213287354,0.16
61,MetaDrive-td3combine-expt_with_safe_fix_again,71,164.26436968204615,62934,103,881.2470939159393,21.108850479125977,,3.3085312843322754,0.16
62,MetaDrive-td3combine-expt_with_safe_fix_again,71,164.87355614336113,63739,104,892.5528440475464,21.64227867126465,-22.346633911132812,3.8188858032226562,0.16
63,MetaDrive-td3combine-expt_with_safe_fix_again,71,165.63353608234294,64242,105,901.0325462818146,20.144561767578125,,3.3491158485412598,0.16
64,MetaDrive-td3combine-expt_with_safe_fix_again,71,166.82116604607828,65199,107,911.6339206695557,18.15294647216797,-18.222087860107422,4.616387367248535,0.17
65,MetaDrive-td3combine-expt_with_safe_fix_again,71,169.13810222394824,66136,109,924.2802863121033,21.37432098388672,,6.910993576049805,0.18
66,MetaDrive-td3combine-expt_with_safe_fix_again,71,168.6259274191337,67137,110,938.398693561554,20.94627571105957,-20.369522094726562,2.838024377822876,0.17
67,MetaDrive-td3combine-expt_with_safe_fix_again,71,167.56516538038977,68138,111,953.1012744903564,25.634952545166016,,4.688933849334717,0.17
68,MetaDrive-td3combine-expt_with_safe_fix_again,70,169.10751219288758,69139,112,975.8315534591675,20.064289093017578,-20.289081573486328,4.680290699005127,0.17
69,MetaDrive-td3combine-expt_with_safe_fix_again,70,166.3442757512335,70346,116,992.6176238059998,20.938304901123047,,4.486810207366943,0.16
70,MetaDrive-td3combine-expt_with_safe_fix_again,70,165.2862475613361,71560,119,1008.0911138057709,25.94709014892578,,8.859326362609863,0.16
71,MetaDrive-td3combine-expt_with_safe_fix_again,71,166.44548824234022,72034,120,1014.1366090774536,23.38684844970703,,3.009631395339966,0.16
72,MetaDrive-td3combine-expt_with_safe_fix_again,71,167.52681009933244,73967,124,1039.5306115150452,21.933216094970703,-22.319835662841797,49.77935028076172,0.16
73,MetaDrive-td3combine-expt_with_safe_fix_again,70,168.28852924820757,74968,125,1056.5898327827454,21.912506103515625,,6.8400187492370605,0.16
74,MetaDrive-td3combine-expt_with_safe_fix_again,70,169.18817145044383,75599,126,1066.923192024231,21.870773315429688,-22.1185359954834,7.004990577697754,0.16
75,MetaDrive-td3combine-expt_with_safe_fix_again,70,172.35736271762988,76600,127,1081.1209366321564,20.946063995361328,,2.8268303871154785,0.16
76,MetaDrive-td3combine-expt_with_safe_fix_again,70,174.36053047269561,77531,129,1092.5239341259003,24.367752075195312,-24.21514892578125,6.741437911987305,0.17
77,MetaDrive-td3combine-expt_with_safe_fix_again,71,176.50624886468972,78261,130,1101.6276297569275,23.751571655273438,-23.753379821777344,5.112520694732666,0.17
78,MetaDrive-td3combine-expt_with_safe_fix_again,71,176.77468894068926,79132,133,1112.926298379898,25.329051971435547,,4.591338157653809,0.16
79,MetaDrive-td3combine-expt_with_safe_fix_again,71,179.6426397380381,80647,135,1134.5687034130096,22.548030853271484,-23.01250457763672,5.203855514526367,0.16
80,MetaDrive-td3combine-expt_with_safe_fix_again,71,180.15495507763603,81045,136,1139.428423166275,22.855085372924805,-22.912504196166992,3.3988518714904785,0.16
81,MetaDrive-td3combine-expt_with_safe_fix_again,71,179.58588199923648,82513,138,1158.9453783035278,29.058164596557617,-28.688947677612305,7.269091606140137,0.16
82,MetaDrive-td3combine-expt_with_safe_fix_again,71,178.27494475219203,83514,139,1174.4294073581696,26.497894287109375,,3.8037819862365723,0.15
83,MetaDrive-td3combine-expt_with_safe_fix_again,70,178.51380708465186,84546,141,1191.0152161121368,24.81568145751953,,3.837155342102051,0.16
84,MetaDrive-td3combine-expt_with_safe_fix_again,70,176.37177059786947,85001,143,1197.8657417297363,19.59101104736328,-20.560853958129883,4.803621768951416,0.15
85,MetaDrive-td3combine-expt_with_safe_fix_again,70,175.54155655871912,86427,145,1223.7371101379395,23.728897094726562,-23.623435974121094,5.234699249267578,0.15
86,MetaDrive-td3combine-expt_with_safe_fix_again,70,176.37942658472883,87945,147,1250.7363450527191,26.805404663085938,-26.844058990478516,5.759650230407715,0.16
87,MetaDrive-td3combine-expt_with_safe_fix_again,70,176.2309572838468,88440,148,1256.5757086277008,22.90057373046875,,73.64349365234375,0.15
88,MetaDrive-td3combine-expt_with_safe_fix_again,70,177.26007531249866,89441,149,1274.9789443016052,23.926647186279297,-24.27165412902832,4.23377799987793,0.14
89,MetaDrive-td3combine-expt_with_safe_fix_again,70,177.0420338428225,90802,151,1292.1208913326263,25.731346130371094,,2.399367332458496,0.13
90,MetaDrive-td3combine-expt_with_safe_fix_again,70,176.76700057233182,91803,152,1307.6616187095642,25.638124465942383,-25.373638153076172,4.495980262756348,0.13
91,MetaDrive-td3combine-expt_with_safe_fix_again,70,177.30079993267879,92036,153,1309.989780664444,21.592090606689453,,5.948296546936035,0.13
92,MetaDrive-td3combine-expt_with_safe_fix_again,70,176.29622186460173,93265,156,1328.9938452243805,23.792552947998047,-23.880908966064453,4.035252571105957,0.13
93,MetaDrive-td3combine-expt_with_safe_fix_again,70,176.3501647025452,94266,157,1343.0610964298248,22.50088119506836,,4.793291091918945,0.13
94,MetaDrive-td3combine-expt_with_safe_fix_again,70,174.96418928921935,95120,160,1353.4893815517426,20.978160858154297,,3.495901107788086,0.13
95,MetaDrive-td3combine-expt_with_safe_fix_again,70,175.72656996550174,96564,163,1372.2222118377686,22.943706512451172,,5.742233753204346,0.14
96,MetaDrive-td3combine-expt_with_safe_fix_again,70,175.5335227923477,97437,165,1385.8085656166077,26.140214920043945,-26.891435623168945,6.264914512634277,0.14
97,MetaDrive-td3combine-expt_with_safe_fix_again,70,178.60068803053838,98304,166,1397.8918843269348,24.238981246948242,,7.8966217041015625,0.15
98,MetaDrive-td3combine-expt_with_safe_fix_again,70,178.41402267200735,99206,168,1411.952829360962,24.344905853271484,,12.130112648010254,0.14
99,MetaDrive-td3combine-expt_with_safe_fix_again,70,180.88860640083902,100069,170,1425.6210243701935,21.26533317565918,-20.752140045166016,5.844549179077148,0.14
100,MetaDrive-td3combine-expt_with_safe_fix_again,70,179.9445939176669,101432,172,1444.1723020076752,24.54327964782715,,3.9008195400238037,0.14
101,MetaDrive-td3combine-expt_with_safe_fix_again,70,174.21500827064384,102152,175,1454.8852112293243,26.276445388793945,,4.409236907958984,0.13
102,MetaDrive-td3combine-expt_with_safe_fix_again,70,173.15779860806015,103194,177,1469.093353509903,22.386110305786133,,3.6132431030273438,0.13
103,MetaDrive-td3combine-expt_with_safe_fix_again,69,175.1347430445339,104195,178,1488.684514284134,22.222124099731445,-22.265823364257812,3.524745464324951,0.13
104,MetaDrive-td3combine-expt_with_safe_fix_again,70,176.71978866667828,105088,179,1498.7069671154022,24.48409080505371,,3.1003317832946777,0.14
105,MetaDrive-td3combine-expt_with_safe_fix_again,70,178.67638068728692,106478,182,1514.7863664627075,19.421123504638672,,15.069101333618164,0.16
106,MetaDrive-td3combine-expt_with_safe_fix_again,70,179.6674199580927,107479,183,1527.7448318004608,27.613582611083984,-28.047069549560547,3.999058723449707,0.16
107,MetaDrive-td3combine-expt_with_safe_fix_again,70,177.65503305444946,108062,186,1534.6183466911316,23.831756591796875,,3.191220283508301,0.16
108,MetaDrive-td3combine-expt_with_safe_fix_again,70,177.39367909757138,109063,187,1556.3087027072906,23.575855255126953,-23.80175018310547,2.682194709777832,0.16
109,MetaDrive-td3combine-expt_with_safe_fix_again,70,179.2535391023431,110612,190,1576.1620018482208,19.678165435791016,,2.428633213043213,0.18
110,MetaDrive-td3combine-expt_with_safe_fix_again,70,178.98436155395137,111097,191,1582.1653063297272,23.69159698486328,-23.32976531982422,4.476578712463379,0.18
111,MetaDrive-td3combine-expt_with_safe_fix_again,70,178.24535233122893,112098,192,1595.017429113388,20.785491943359375,,2.3619935512542725,0.18
112,MetaDrive-td3combine-expt_with_safe_fix_again,70,179.36421457284519,113259,194,1610.3412218093872,27.950376510620117,-27.976318359375,5.809354782104492,0.18
113,MetaDrive-td3combine-expt_with_safe_fix_again,70,180.43433700196496,114260,195,1622.6274933815002,24.270639419555664,,2.258190155029297,0.17
114,MetaDrive-td3combine-expt_with_safe_fix_again,70,178.9307024161933,115479,197,1648.2195155620575,22.848228454589844,-22.924043655395508,4.8077592849731445,0.17
115,MetaDrive-td3combine-expt_with_safe_fix_again,70,178.12882437940897,116544,199,1659.226271867752,23.283662796020508,,51.116600036621094,0.17
116,MetaDrive-td3combine-expt_with_safe_fix_again,69,178.71963605984934,117493,200,1683.9687497615814,24.831287384033203,-24.783388137817383,4.306268692016602,0.17
117,MetaDrive-td3combine-expt_with_safe_fix_again,69,178.31225624084504,118494,201,1699.7451026439667,22.833044052124023,,6.12220573425293,0.17
118,MetaDrive-td3combine-expt_with_safe_fix_again,69,179.54666518506568,119057,202,1708.989525794983,23.01085090637207,-23.130149841308594,2.354313373565674,0.18
119,MetaDrive-td3combine-expt_with_safe_fix_again,69,181.53394084476466,120807,205,1730.3146829605103,21.57284927368164,-21.778587341308594,7.776840686798096,0.2
120,MetaDrive-td3combine-expt_with_safe_fix_again,69,177.3295407165163,121659,208,1746.6075084209442,29.385541915893555,-29.215007781982422,4.7841925621032715,0.18
121,MetaDrive-td3combine-expt_with_safe_fix_again,69,175.98261943974111,122897,211,1765.9288940429688,21.187881469726562,-21.29498863220215,2.9469242095947266,0.18
122,MetaDrive-td3combine-expt_with_safe_fix_again,69,174.8338304132642,123209,212,1769.9630689620972,22.966598510742188,-22.88909912109375,3.430595874786377,0.18
123,MetaDrive-td3combine-expt_with_safe_fix_again,69,177.92960499697173,124742,215,1793.7457718849182,27.942455291748047,,5.091866493225098,0.18
124,MetaDrive-td3combine-expt_with_safe_fix_again,69,177.88215123427977,125743,216,1810.7730133533478,26.852272033691406,-27.70314598083496,2.576923131942749,0.18
125,MetaDrive-td3combine-expt_with_safe_fix_again,69,179.2635526228658,126218,217,1816.85728597641,23.881103515625,,3.5396170616149902,0.18
126,MetaDrive-td3combine-expt_with_safe_fix_again,69,180.17816659998073,127187,218,1831.0251107215881,27.39004135131836,-27.519454956054688,5.754034996032715,0.18
127,MetaDrive-td3combine-expt_with_safe_fix_again,69,177.79207444661964,128301,220,1848.8341393470764,26.013141632080078,-26.42667007446289,4.474393844604492,0.18
128,MetaDrive-td3combine-expt_with_safe_fix_again,69,180.49374806101784,129291,222,1862.9106526374817,27.120830535888672,-27.196243286132812,5.0121612548828125,0.19
129,MetaDrive-td3combine-expt_with_safe_fix_again,69,178.83423713286763,130077,225,1873.8631052970886,27.250545501708984,-26.990299224853516,3.0725016593933105,0.19
130,MetaDrive-td3combine-expt_with_safe_fix_again,69,176.730958524371,131078,227,1887.0971100330353,25.504985809326172,,5.2408318519592285,0.19
131,MetaDrive-td3combine-expt_with_safe_fix_again,69,176.42273303212758,132042,229,1897.340850353241,30.67673683166504,,21.265682220458984,0.19
132,MetaDrive-td3combine-expt_with_safe_fix_again,69,175.50520876646763,133163,231,1916.0800688266754,26.492774963378906,-26.579652786254883,2.5386147499084473,0.19
133,MetaDrive-td3combine-expt_with_safe_fix_again,69,174.16542015326198,134164,232,1929.4882431030273,27.93401527404785,,3.238506555557251,0.19
134,MetaDrive-td3combine-expt_with_safe_fix_again,69,173.98397197880098,135624,234,1953.2798862457275,25.205167770385742,,4.0948567390441895,0.19
135,MetaDrive-td3combine-expt_with_safe_fix_again,69,173.57301608749356,136425,236,1962.7763254642487,26.072662353515625,-26.820270538330078,4.081727027893066,0.2
136,MetaDrive-td3combine-expt_with_safe_fix_again,69,172.583865116055,137173,238,1972.5334815979004,25.719562530517578,-26.2458553314209,4.134318828582764,0.2
137,MetaDrive-td3combine-expt_with_safe_fix_again,69,171.24688667438983,138626,241,1994.8287646770477,27.837646484375,,5.7430925369262695,0.19
138,MetaDrive-td3combine-expt_with_safe_fix_again,69,174.48789212909665,139557,242,2009.6446120738983,28.18968963623047,-28.220930099487305,4.158657550811768,0.2
139,MetaDrive-td3combine-expt_with_safe_fix_again,69,174.32137970921514,140558,243,2021.1694931983948,23.378692626953125,,7.087464809417725,0.2
140,MetaDrive-td3combine-expt_with_safe_fix_again,69,175.63715903492738,141559,244,2036.6335098743439,24.444747924804688,-24.590839385986328,3.1653196811676025,0.2
141,MetaDrive-td3combine-expt_with_safe_fix_again,69,174.6381332743191,142585,246,2048.340921640396,23.901615142822266,-24.26256561279297,3.8067593574523926,0.2
142,MetaDrive-td3combine-expt_with_safe_fix_again,69,175.14288231114486,143302,247,2059.4072070121765,26.49319076538086,,6.518977165222168,0.2
143,MetaDrive-td3combine-expt_with_safe_fix_again,69,172.39526767796013,144083,249,2069.645697593689,27.436939239501953,-27.831958770751953,2.782881736755371,0.21
144,MetaDrive-td3combine-expt_with_safe_fix_again,69,172.70108251180457,145084,250,2084.13458275795,26.88291358947754,,7.582993507385254,0.21
145,MetaDrive-td3combine-expt_with_safe_fix_again,69,173.07850033511116,146113,252,2099.6065962314606,22.973583221435547,-23.573726654052734,3.5691611766815186,0.22
146,MetaDrive-td3combine-expt_with_safe_fix_again,69,173.26520745078014,147114,253,2115.3819663524628,25.40517807006836,,9.47095012664795,0.22
147,MetaDrive-td3combine-expt_with_safe_fix_again,69,176.98780091627958,148283,255,2127.949456214905,24.939743041992188,-25.10824203491211,3.51851487159729,0.23
148,MetaDrive-td3combine-expt_with_safe_fix_again,69,176.7992626467776,149019,257,2141.1743307113647,24.516036987304688,-24.772951126098633,6.568838119506836,0.23
149,MetaDrive-td3combine-expt_with_safe_fix_again,69,176.8579430100528,150158,260,2160.451598882675,23.56392478942871,,5.100811004638672,0.22
150,MetaDrive-td3combine-expt_with_safe_fix_again,69,178.016920887592,151159,261,2186.743234395981,27.916227340698242,-28.167987823486328,5.560267448425293,0.22
151,MetaDrive-td3combine-expt_with_safe_fix_again,69,178.90193055686123,152252,263,2200.5290706157684,29.013660430908203,,4.914560794830322,0.22
152,MetaDrive-td3combine-expt_with_safe_fix_again,69,179.07102941852273,153253,264,2216.0401949882507,26.435253143310547,-26.405351638793945,3.7268662452697754,0.22
153,MetaDrive-td3combine-expt_with_safe_fix_again,69,175.6086021810066,154184,267,2226.8817813396454,26.736228942871094,,5.6472673416137695,0.22
154,MetaDrive-td3combine-expt_with_safe_fix_again,69,177.77759703059093,155779,270,2250.3769981861115,21.215534210205078,-20.63004493713379,69.16569519042969,0.23
155,MetaDrive-td3combine-expt_with_safe_fix_again,69,178.5610023142874,156265,271,2256.488089323044,23.68178939819336,-23.967151641845703,3.733977794647217,0.23
156,MetaDrive-td3combine-expt_with_safe_fix_again,69,179.5799754334231,157142,273,2268.7573096752167,24.39606475830078,,5.775960922241211,0.23
157,MetaDrive-td3combine-expt_with_safe_fix_again,69,181.7468554928312,158143,274,2283.4404907226562,22.76748275756836,-23.311119079589844,4.462310314178467,0.23
158,MetaDrive-td3combine-expt_with_safe_fix_again,69,184.00334791367558,159673,276,2303.4789271354675,26.223308563232422,-26.69940185546875,2.5631422996520996,0.23
159,MetaDrive-td3combine-expt_with_safe_fix_again,69,183.44197391164693,160523,277,2319.1462988853455,28.406116485595703,-28.312610626220703,4.548023223876953,0.22
160,MetaDrive-td3combine-expt_with_safe_fix_again,69,183.40443955951028,161029,278,2324.8297159671783,22.892860412597656,-24.081087112426758,8.466737747192383,0.23
161,MetaDrive-td3combine-expt_with_safe_fix_again,69,181.2505904890487,162107,280,2336.4720153808594,28.054712295532227,-28.65677261352539,6.847275733947754,0.22
162,MetaDrive-td3combine-expt_with_safe_fix_again,69,184.42388085928513,163051,281,2350.1950335502625,25.358623504638672,-25.578716278076172,4.504095077514648,0.23
163,MetaDrive-td3combine-expt_with_safe_fix_again,69,183.07524224382283,164725,284,2374.1991894245148,25.46042823791504,-25.688091278076172,5.966651439666748,0.23
164,MetaDrive-td3combine-expt_with_safe_fix_again,69,184.59728351165484,165085,285,2377.7660586833954,23.641605377197266,-24.208980560302734,7.634936809539795,0.23
165,MetaDrive-td3combine-expt_with_safe_fix_again,69,184.55501504776723,166922,289,2412.0630469322205,28.80975914001465,,6.821020126342773,0.23
166,MetaDrive-td3combine-expt_with_safe_fix_again,69,183.7098320415218,167440,290,2416.826548576355,25.859285354614258,,5.3628082275390625,0.23
167,MetaDrive-td3combine-expt_with_safe_fix_again,69,182.66590828654523,168441,291,2440.6782081127167,27.08359146118164,-26.918794631958008,4.487181663513184,0.22
168,MetaDrive-td3combine-expt_with_safe_fix_again,69,182.02719823638787,169605,293,2455.7920656204224,27.107276916503906,-27.104162216186523,6.873471260070801,0.22
169,MetaDrive-td3combine-expt_with_safe_fix_again,69,183.4415458839093,170606,294,2471.313614845276,21.42229461669922,,5.036155700683594,0.22
170,MetaDrive-td3combine-expt_with_safe_fix_again,68,182.52738048403765,171406,295,2486.4278461933136,24.205270767211914,,7.407503128051758,0.22
171,MetaDrive-td3combine-expt_with_safe_fix_again,68,183.4005744422415,172407,296,2507.3028383255005,23.47564125061035,-24.15119171142578,7.4395551681518555,0.22
172,MetaDrive-td3combine-expt_with_safe_fix_again,68,183.69907527964435,173543,298,2529.5448698997498,21.989303588867188,-21.92806625366211,3.667046546936035,0.22
173,MetaDrive-td3combine-expt_with_safe_fix_again,68,180.78352247561517,174583,300,2551.201780319214,30.09229278564453,-29.99795913696289,3.5480334758758545,0.21
174,MetaDrive-td3combine-expt_with_safe_fix_again,68,182.11830966792945,175355,301,2565.9783959388733,32.361656188964844,-32.1952018737793,4.906573295593262,0.21
175,MetaDrive-td3combine-expt_with_safe_fix_again,68,178.18728782332974,176301,303,2582.1543402671814,23.073501586914062,-23.27901840209961,6.529748916625977,0.19
176,MetaDrive-td3combine-expt_with_safe_fix_again,68,180.02661257341944,177761,305,2603.964930295944,23.84837532043457,-23.912715911865234,3.1308484077453613,0.18
177,MetaDrive-td3combine-expt_with_safe_fix_again,68,180.80923700948495,178036,306,2607.114138841629,28.583141326904297,,13.249095916748047,0.18
178,MetaDrive-td3combine-expt_with_safe_fix_again,67,183.8424892542893,179586,309,2642.51615858078,25.432422637939453,,7.232910633087158,0.18
179,MetaDrive-td3combine-expt_with_safe_fix_again,67,185.19417224123217,180123,310,2649.4246923923492,26.604816436767578,-26.93356704711914,7.005278587341309,0.19
180,MetaDrive-td3combine-expt_with_safe_fix_again,68,186.43141140640705,181336,312,2663.1572420597076,27.792177200317383,,4.845285415649414,0.2
181,MetaDrive-td3combine-expt_with_safe_fix_again,68,188.6511650955416,182580,314,2680.7434718608856,27.692073822021484,,3.176285743713379,0.2
182,MetaDrive-td3combine-expt_with_safe_fix_again,68,187.50614684421015,183195,315,2688.803797483444,22.918363571166992,-22.82887840270996,3.234368324279785,0.2
183,MetaDrive-td3combine-expt_with_safe_fix_again,68,182.41989236113398,184109,318,2700.1329157352448,25.805387496948242,-25.95492172241211,4.7595624923706055,0.19
184,MetaDrive-td3combine-expt_with_safe_fix_again,68,182.56762819583565,185271,320,2715.9616298675537,26.242942810058594,-27.04016876220703,19.094539642333984,0.19
185,MetaDrive-td3combine-expt_with_safe_fix_again,68,183.7083173873172,186272,321,2732.8051238059998,25.241601943969727,,2.9503750801086426,0.19
186,MetaDrive-td3combine-expt_with_safe_fix_again,68,184.60271859395942,187007,322,2743.171179294586,27.773296356201172,-27.71483612060547,4.811882019042969,0.19
187,MetaDrive-td3combine-expt_with_safe_fix_again,68,187.4782653450366,188120,324,2755.7837386131287,27.374847412109375,,2.557918071746826,0.2
188,MetaDrive-td3combine-expt_with_safe_fix_again,68,188.42657487919655,189164,326,2770.826182126999,22.339853286743164,,5.3263397216796875,0.21
189,MetaDrive-td3combine-expt_with_safe_fix_again,68,184.79140846323514,190333,330,2788.3230073451996,23.22385025024414,-23.597881317138672,4.894820690155029,0.2
190,MetaDrive-td3combine-expt_with_safe_fix_again,68,185.43068384418845,191388,332,2801.5585944652557,28.972442626953125,,5.9592814445495605,0.21
191,MetaDrive-td3combine-expt_with_safe_fix_again,68,187.85364666607623,192343,333,2817.1662509441376,27.618942260742188,-28.069908142089844,3.548279047012329,0.22
192,MetaDrive-td3combine-expt_with_safe_fix_again,68,188.4367563893444,193785,336,2838.5461695194244,28.784149169921875,-28.975631713867188,4.541662693023682,0.22
193,MetaDrive-td3combine-expt_with_safe_fix_again,68,188.80196270292888,194786,337,2853.189801931381,25.935115814208984,,4.360508918762207,0.22
194,MetaDrive-td3combine-expt_with_safe_fix_again,68,188.89284674779742,195787,338,2869.115938425064,28.625221252441406,-28.991838455200195,5.177825927734375,0.22
195,MetaDrive-td3combine-expt_with_safe_fix_again,68,190.52049110829702,196788,339,2890.064823627472,25.729999542236328,,3.7004122734069824,0.22
196,MetaDrive-td3combine-expt_with_safe_fix_again,68,188.91347674742258,197400,341,2897.6850683689117,22.74941062927246,,54.25532531738281,0.22
197,MetaDrive-td3combine-expt_with_safe_fix_again,68,186.88916358441256,198067,343,2905.541092157364,26.836811065673828,-26.85889434814453,4.482304573059082,0.21
198,MetaDrive-td3combine-expt_with_safe_fix_again,68,186.44100628848537,199068,344,2923.5561459064484,27.404781341552734,,7.411168575286865,0.21
199,MetaDrive-td3combine-expt_with_safe_fix_again,67,188.51025350993783,200069,345,2950.865834712982,28.65706443786621,-28.84653091430664,5.130404472351074,0.21
200,MetaDrive-td3combine-expt_with_safe_fix_again,67,188.69903783695253,201548,347,2967.530657052994,21.885875701904297,,5.543034553527832,0.21
201,MetaDrive-td3combine-expt_with_safe_fix_again,67,189.72228741363725,202549,348,2984.472375869751,27.867368698120117,-27.692264556884766,10.929281234741211,0.21
202,MetaDrive-td3combine-expt_with_safe_fix_again,67,188.99098842388182,203014,349,2988.830211162567,25.359865188598633,,7.021687984466553,0.21
203,MetaDrive-td3combine-expt_with_safe_fix_again,67,191.88888906275017,204650,351,3023.000700712204,29.052114486694336,,3.8938260078430176,0.21
204,MetaDrive-td3combine-expt_with_safe_fix_again,67,190.5944335576864,205651,352,3037.9412472248077,29.050649642944336,-29.234848022460938,12.669654846191406,0.2
205,MetaDrive-td3combine-expt_with_safe_fix_again,67,192.3486358770272,206270,353,3043.866389989853,20.628063201904297,,3.6591601371765137,0.21
206,MetaDrive-td3combine-expt_with_safe_fix_again,67,192.53831724403776,207090,354,3059.0175111293793,26.831130981445312,,8.267255783081055,0.2
207,MetaDrive-td3combine-expt_with_safe_fix_again,67,188.61628542016345,208379,358,3081.0191326141357,27.277095794677734,-27.853164672851562,5.433435440063477,0.2
208,MetaDrive-td3combine-expt_with_safe_fix_again,67,190.32058600689305,209165,360,3090.0256054401398,28.006591796875,-28.664030075073242,6.811563968658447,0.21
209,MetaDrive-td3combine-expt_with_safe_fix_again,67,190.70974744468845,210166,361,3104.6514544487,28.618572235107422,,5.151432991027832,0.21
210,MetaDrive-td3combine-expt_with_safe_fix_again,67,190.24309728044764,211442,365,3118.9964525699615,21.957881927490234,,14.715909957885742,0.22
211,MetaDrive-td3combine-expt_with_safe_fix_again,67,192.9910263366894,212058,366,3127.2222759723663,27.30698013305664,,3.3088502883911133,0.23
212,MetaDrive-td3combine-expt_with_safe_fix_again,67,186.74416374483138,213011,370,3139.2430777549744,32.99469757080078,-33.222740173339844,5.09334135055542,0.21
213,MetaDrive-td3combine-expt_with_safe_fix_again,67,185.84644492289945,214345,372,3157.2909076213837,27.67330551147461,-28.604522705078125,3.3673181533813477,0.21
214,MetaDrive-td3combine-expt_with_safe_fix_again,67,186.56529582805942,215346,373,3172.60139131546,23.09038543701172,,2.556457042694092,0.21
215,MetaDrive-td3combine-expt_with_safe_fix_again,67,186.90353687076677,216041,374,3185.404626607895,23.453310012817383,-24.316837310791016,5.943890571594238,0.21
216,MetaDrive-td3combine-expt_with_safe_fix_again,67,187.56185882942805,217385,376,3209.2739136219025,26.729305267333984,-26.896970748901367,4.736784934997559,0.21
217,MetaDrive-td3combine-expt_with_safe_fix_again,67,186.01147516061724,218364,377,3222.2288675308228,27.664581298828125,,6.4649739265441895,0.21
218,MetaDrive-td3combine-expt_with_safe_fix_again,67,186.0413153183776,219365,378,3240.456355571747,25.26276969909668,-25.304161071777344,12.830309867858887,0.2
219,MetaDrive-td3combine-expt_with_safe_fix_again,67,184.3455282102317,220495,380,3256.3404767513275,27.816909790039062,-27.823335647583008,5.0353851318359375,0.19
220,MetaDrive-td3combine-expt_with_safe_fix_again,67,182.87893879690975,221448,381,3278.3412556648254,26.481840133666992,,6.474071025848389,0.18
221,MetaDrive-td3combine-expt_with_safe_fix_again,67,183.22649546054635,222222,383,3291.1306533813477,28.02999496459961,,8.458988189697266,0.17
222,MetaDrive-td3combine-expt_with_safe_fix_again,67,182.72953571423372,223394,386,3306.1958417892456,28.532073974609375,,4.130773544311523,0.17
223,MetaDrive-td3combine-expt_with_safe_fix_again,67,185.3219891181908,224395,387,3330.46688580513,27.348220825195312,-28.086727142333984,6.644024848937988,0.17
224,MetaDrive-td3combine-expt_with_safe_fix_again,67,188.20315034959015,225170,388,3341.158797264099,23.7593994140625,,4.77204704284668,0.18
225,MetaDrive-td3combine-expt_with_safe_fix_again,67,187.43590245275962,226849,390,3365.412274122238,25.477344512939453,-25.670917510986328,17.74271011352539,0.18
226,MetaDrive-td3combine-expt_with_safe_fix_again,67,187.91905359918587,227966,392,3390.442346572876,29.536598205566406,,3.2509169578552246,0.18
227,MetaDrive-td3combine-expt_with_safe_fix_again,67,187.93700432627926,228967,393,3405.560139656067,25.44068145751953,-25.19480323791504,6.513937950134277,0.18
228,MetaDrive-td3combine-expt_with_safe_fix_again,67,187.75501645826643,229668,394,3417.058185815811,30.080373764038086,,11.462650299072266,0.18
229,MetaDrive-td3combine-expt_with_safe_fix_again,67,189.02122337837605,230669,395,3430.2746546268463,28.292137145996094,-28.21469497680664,5.215793132781982,0.18
230,MetaDrive-td3combine-expt_with_safe_fix_again,67,189.9171182187196,231301,396,3440.791661262512,26.759443283081055,-26.762434005737305,7.354805946350098,0.18
231,MetaDrive-td3combine-expt_with_safe_fix_again,67,190.57882873612908,232259,398,3456.84600687027,26.54402732849121,-26.506393432617188,6.067575454711914,0.18
232,MetaDrive-td3combine-expt_with_safe_fix_again,67,192.37477167972796,233071,399,3470.427229166031,29.31429672241211,-29.750385284423828,9.472715377807617,0.18
233,MetaDrive-td3combine-expt_with_safe_fix_again,67,194.64423915290524,234823,401,3489.5830562114716,26.970176696777344,-27.300493240356445,4.433493614196777,0.2
234,MetaDrive-td3combine-expt_with_safe_fix_again,67,195.6413755592688,235824,402,3506.037669658661,30.193626403808594,,10.61762523651123,0.2
235,MetaDrive-td3combine-expt_with_safe_fix_again,67,195.88102627483454,236825,403,3527.89706158638,26.483694076538086,-26.957130432128906,5.5211052894592285,0.2
236,MetaDrive-td3combine-expt_with_safe_fix_again,67,195.60557878398424,237512,404,3536.8397405147552,28.07142448425293,,7.019400596618652,0.2
237,MetaDrive-td3combine-expt_with_safe_fix_again,67,195.82653280295318,238739,406,3552.782454967499,31.070066452026367,-31.02021026611328,7.451693534851074,0.21
238,MetaDrive-td3combine-expt_with_safe_fix_again,67,196.0882488926102,239740,407,3566.8022916316986,25.804550170898438,,4.959386825561523,0.21
239,MetaDrive-td3combine-expt_with_safe_fix_again,66,198.13713738344882,240741,408,3595.286076068878,27.013137817382812,-26.91251564025879,8.246942520141602,0.21
240,MetaDrive-td3combine-expt_with_safe_fix_again,66,197.96615387466053,241493,409,3604.5473124980927,31.59410285949707,-32.03363800048828,5.476106643676758,0.22
241,MetaDrive-td3combine-expt_with_safe_fix_again,67,195.278462328046,242749,411,3619.953929901123,25.430004119873047,-25.67131805419922,6.423040390014648,0.21
242,MetaDrive-td3combine-expt_with_safe_fix_again,67,193.5086877889364,243031,412,3624.344465494156,27.257347106933594,-27.462430953979492,5.6921844482421875,0.2
243,MetaDrive-td3combine-expt_with_safe_fix_again,66,190.37955515316736,244433,415,3659.2579867839813,25.432029724121094,-25.12738037109375,5.905474662780762,0.2
244,MetaDrive-td3combine-expt_with_safe_fix_again,66,192.98211634897226,245112,416,3665.9467730522156,31.03857421875,,8.332603454589844,0.21
245,MetaDrive-td3combine-expt_with_safe_fix_again,66,194.97959670314384,246666,418,3687.0260002613068,26.73871612548828,,5.89997673034668,0.21
246,MetaDrive-td3combine-expt_with_safe_fix_again,66,195.88505983975222,247123,419,3694.3183476924896,24.540382385253906,-24.37572479248047,7.391009330749512,0.21
247,MetaDrive-td3combine-expt_with_safe_fix_again,66,196.3472134927967,248153,421,3706.025014400482,30.242916107177734,-30.428050994873047,4.986207962036133,0.22
248,MetaDrive-td3combine-expt_with_safe_fix_again,66,191.53966959645243,249259,424,3722.3329813480377,22.95209312438965,-23.097518920898438,9.969627380371094,0.2
249,MetaDrive-td3combine-expt_with_safe_fix_again,66,190.2998784855229,250464,429,3750.18221449852,24.755714416503906,,17.193939208984375,0.19
250,MetaDrive-td3combine-expt_with_safe_fix_again,66,186.75626503926486,251007,432,3757.811685562134,34.27063751220703,-34.17530059814453,7.364036560058594,0.18
251,MetaDrive-td3combine-expt_with_safe_fix_again,66,186.66724103917778,252284,434,3775.384740829468,26.26335906982422,,6.197234630584717,0.18
252,MetaDrive-td3combine-expt_with_safe_fix_again,66,183.63583421045098,253169,437,3788.7548751831055,27.978893280029297,-27.81041145324707,4.661023139953613,0.17
253,MetaDrive-td3combine-expt_with_safe_fix_again,66,185.3371453321464,254074,438,3802.1113681793213,28.98603057861328,,5.164455413818359,0.18
254,MetaDrive-td3combine-expt_with_safe_fix_again,66,185.27869625840253,255075,439,3825.549033641815,23.493608474731445,-24.067941665649414,3.0988028049468994,0.18
255,MetaDrive-td3combine-expt_with_safe_fix_again,66,186.24359891740062,256076,440,3839.4302151203156,25.00421142578125,,8.155536651611328,0.18
256,MetaDrive-td3combine-expt_with_safe_fix_again,66,185.94580170236267,257601,442,3858.394524335861,27.6088924407959,-27.77176856994629,5.104508399963379,0.19
257,MetaDrive-td3combine-expt_with_safe_fix_again,66,184.4870021885181,258391,445,3872.4925525188446,29.55282211303711,-29.480432510375977,13.027715682983398,0.19
258,MetaDrive-td3combine-expt_with_safe_fix_again,66,181.3479382992014,259026,447,3881.3360691070557,25.914335250854492,,6.8371052742004395,0.18
259,MetaDrive-td3combine-expt_with_safe_fix_again,66,178.0144966611204,260828,451,3908.152822971344,29.66008758544922,,8.574300765991211,0.17
260,MetaDrive-td3combine-expt_with_safe_fix_again,66,175.42768599632552,261924,453,3924.5884149074554,27.991275787353516,,3.8260090351104736,0.16
261,MetaDrive-td3combine-expt_with_safe_fix_again,66,173.02058928228598,262015,454,3925.949782371521,27.578453063964844,-28.069183349609375,7.5351080894470215,0.16
262,MetaDrive-td3combine-expt_with_safe_fix_again,66,174.89739083942203,263016,455,3953.3594155311584,23.4763126373291,,16.690673828125,0.16
263,MetaDrive-td3combine-expt_with_safe_fix_again,66,178.86909835424854,264235,458,3968.3701570034027,26.055156707763672,-26.965744018554688,9.684462547302246,0.17
264,MetaDrive-td3combine-expt_with_safe_fix_again,66,175.56300405824717,265450,461,3995.3536071777344,24.707101821899414,,4.792599678039551,0.16
265,MetaDrive-td3combine-expt_with_safe_fix_again,66,177.24185024935625,266057,462,4003.805956363678,22.16162109375,-22.569019317626953,6.734005928039551,0.16
266,MetaDrive-td3combine-expt_with_safe_fix_again,66,176.55430316275647,267058,463,4024.856567621231,28.71425437927246,,4.333778381347656,0.15
267,MetaDrive-td3combine-expt_with_safe_fix_again,66,176.8739276451605,268848,466,4051.014954328537,24.003780364990234,,4.158736228942871,0.13
268,MetaDrive-td3combine-expt_with_safe_fix_again,66,178.39994744286076,269627,468,4059.9784791469574,26.343048095703125,-26.33649444580078,5.640778541564941,0.14
269,MetaDrive-td3combine-expt_with_safe_fix_again,66,179.5131128625512,270224,469,4067.17303276062,24.11737060546875,,5.2819013595581055,0.15
270,MetaDrive-td3combine-expt_with_safe_fix_again,66,179.53920569890568,271331,471,4087.0373454093933,30.216594696044922,-29.604496002197266,5.736480712890625,0.15
271,MetaDrive-td3combine-expt_with_safe_fix_again,66,178.2321482968939,272018,473,4101.371754169464,28.346221923828125,,6.700219631195068,0.15
272,MetaDrive-td3combine-expt_with_safe_fix_again,66,176.605126023755,273877,475,4131.378011465073,21.57901382446289,-21.362754821777344,2.772780656814575,0.15
273,MetaDrive-td3combine-expt_with_safe_fix_again,66,175.45853079729778,274259,476,4135.597288608551,27.9039306640625,-27.854045867919922,7.07128381729126,0.15
274,MetaDrive-td3combine-expt_with_safe_fix_again,66,175.84873137218827,275260,477,4154.960128068924,20.943893432617188,,6.626406669616699,0.15
275,MetaDrive-td3combine-expt_with_safe_fix_again,66,176.03942610919043,276744,480,4179.665276288986,28.902698516845703,,6.6641998291015625,0.15
276,MetaDrive-td3combine-expt_with_safe_fix_again,66,175.7907497879601,277487,481,4194.2319712638855,29.151535034179688,-28.945531845092773,5.786383152008057,0.15
277,MetaDrive-td3combine-expt_with_safe_fix_again,66,176.95451438429245,278377,482,4210.836822748184,27.245101928710938,-27.492773056030273,5.092216968536377,0.15
278,MetaDrive-td3combine-expt_with_safe_fix_again,66,177.22344348529452,279378,483,4231.547493696213,28.892555236816406,,3.323547840118408,0.15
279,MetaDrive-td3combine-expt_with_safe_fix_again,66,177.30262360454742,280379,484,4245.692900896072,21.249954223632812,-20.742019653320312,5.025332450866699,0.15
280,MetaDrive-td3combine-expt_with_safe_fix_again,66,176.31766120798034,281215,486,4256.5790021419525,26.939075469970703,-27.111656188964844,8.375085830688477,0.15
281,MetaDrive-td3combine-expt_with_safe_fix_again,66,177.1963691234637,282013,487,4268.608841180801,30.218154907226562,-30.522871017456055,5.3546247482299805,0.16
282,MetaDrive-td3combine-expt_with_safe_fix_again,66,175.5369530388017,283352,489,4290.400767564774,25.621597290039062,,7.544648170471191,0.15
283,MetaDrive-td3combine-expt_with_safe_fix_again,66,177.6700146480718,284130,490,4301.604005813599,28.22332000732422,,5.927558898925781,0.16
284,MetaDrive-td3combine-expt_with_safe_fix_again,66,180.90014887840766,285131,491,4315.947449684143,24.948413848876953,-25.38485336303711,132.6905517578125,0.16
285,MetaDrive-td3combine-expt_with_safe_fix_again,66,182.08486020035755,286586,493,4337.20076918602,23.173954010009766,,4.969552040100098,0.16
286,MetaDrive-td3combine-expt_with_safe_fix_again,66,177.1338799672398,287169,495,4349.2511394023895,30.521503448486328,-30.905643463134766,10.864452362060547,0.16
287,MetaDrive-td3combine-expt_with_safe_fix_again,66,174.39291029996602,288053,498,4358.874251365662,30.3692626953125,-30.371679306030273,10.30778980255127,0.17
288,MetaDrive-td3combine-expt_with_safe_fix_again,66,167.50146449232,289006,502,4372.269688606262,28.40240478515625,,8.842604637145996,0.15
289,MetaDrive-td3combine-expt_with_safe_fix_again,66,168.4596900419222,290738,504,4398.999908208847,25.20172119140625,,7.5255208015441895,0.15
290,MetaDrive-td3combine-expt_with_safe_fix_again,66,169.78801611553234,291493,505,4408.544137954712,26.288997650146484,-26.68122100830078,5.251802921295166,0.16
291,MetaDrive-td3combine-expt_with_safe_fix_again,66,170.11090407158454,292494,506,4427.22881436348,34.302734375,,5.677974700927734,0.15
292,MetaDrive-td3combine-expt_with_safe_fix_again,66,168.88698877227068,293768,508,4445.746307134628,26.17123031616211,,8.216337203979492,0.15
293,MetaDrive-td3combine-expt_with_safe_fix_again,66,167.56873525421983,294042,509,4449.780973911285,25.015522003173828,,4.593316555023193,0.14
294,MetaDrive-td3combine-expt_with_safe_fix_again,66,168.31193275654715,295065,512,4465.789023160934,24.788984298706055,-24.945743560791016,7.478217124938965,0.15
295,MetaDrive-td3combine-expt_with_safe_fix_again,66,170.09927515561478,296628,514,4486.79322552681,26.552156448364258,,5.018587589263916,0.15
296,MetaDrive-td3combine-expt_with_safe_fix_again,66,166.87858450415712,297436,516,4499.417653560638,26.001510620117188,,6.558877944946289,0.14
297,MetaDrive-td3combine-expt_with_safe_fix_again,66,166.0515506266885,298777,518,4519.229303598404,20.14344024658203,-19.788150787353516,7.555903434753418,0.14
298,MetaDrive-td3combine-expt_with_safe_fix_again,66,167.71702228531646,299542,519,4527.773334264755,22.027263641357422,,19.99213218688965,0.15
299,MetaDrive-td3combine-expt_with_safe_fix_again,66,168.33206991888383,300543,520,4548.672122478485,27.380338668823242,-27.126815795898438,6.347481727600098,0.15
300,MetaDrive-td3combine-expt_with_safe_fix_again,66,166.751854398133,301379,523,4561.346989154816,27.253864288330078,-27.281803131103516,9.396492004394531,0.14
301,MetaDrive-td3combine-expt_with_safe_fix_again,65,166.03036259760444,302380,524,4581.904758214951,29.853607177734375,,9.217743873596191,0.14
302,MetaDrive-td3combine-expt_with_safe_fix_again,66,168.83609042900088,303193,525,4593.661602735519,21.92639923095703,-22.52014923095703,3.920259475708008,0.14
303,MetaDrive-td3combine-expt_with_safe_fix_again,66,171.91123165705838,304987,528,4619.480853796005,25.78611183166504,-25.42428970336914,15.332368850708008,0.15
304,MetaDrive-td3combine-expt_with_safe_fix_again,65,171.39978706187307,305988,529,4645.7033751010895,29.797374725341797,,4.578730583190918,0.15
305,MetaDrive-td3combine-expt_with_safe_fix_again,65,172.86646734059065,306581,530,4658.377264261246,24.844707489013672,-25.913299560546875,59.755516052246094,0.15
306,MetaDrive-td3combine-expt_with_safe_fix_again,65,174.74123572598944,307582,531,4675.238591909409,23.434677124023438,,6.941725730895996,0.15
307,MetaDrive-td3combine-expt_with_safe_fix_again,65,173.29893514000494,308109,533,4682.879513025284,27.53156280517578,-28.779455184936523,8.325899124145508,0.14
308,MetaDrive-td3combine-expt_with_safe_fix_again,65,172.4159520008447,309110,535,4696.549476861954,23.486053466796875,,6.534126281738281,0.14
309,MetaDrive-td3combine-expt_with_safe_fix_again,65,173.9693170353872,310360,537,4718.881465435028,24.7491455078125,,48.69649887084961,0.14
310,MetaDrive-td3combine-expt_with_safe_fix_again,65,172.8752310926996,311906,539,4738.53009057045,23.90081214904785,,12.368683815002441,0.14
311,MetaDrive-td3combine-expt_with_safe_fix_again,65,171.9757827076165,312013,540,4740.157144784927,27.222854614257812,-27.339937210083008,4.2154011726379395,0.14
312,MetaDrive-td3combine-expt_with_safe_fix_again,65,170.91762221079912,313052,544,4750.299190759659,20.82264518737793,,6.252857208251953,0.14
313,MetaDrive-td3combine-expt_with_safe_fix_again,65,170.3048608073813,314053,545,4768.5040807724,27.39847183227539,-27.908405303955078,4.278707504272461,0.14
314,MetaDrive-td3combine-expt_with_safe_fix_again,65,171.94499984796533,315398,548,4784.24339389801,25.42007064819336,,7.596957683563232,0.15
315,MetaDrive-td3combine-expt_with_safe_fix_again,65,172.49522962006225,316399,549,4808.564455986023,25.853660583496094,-25.915672302246094,7.3828277587890625,0.15
316,MetaDrive-td3combine-expt_with_safe_fix_again,65,175.1920207686487,317095,550,4816.215163469315,26.10454559326172,-26.19729232788086,4.31796932220459,0.16
317,MetaDrive-td3combine-expt_with_safe_fix_again,65,179.37191147008127,318540,552,4834.549528360367,27.968379974365234,,17.462650299072266,0.18
318,MetaDrive-td3combine-expt_with_safe_fix_again,65,180.6850451158765,319422,554,4847.08047747612,22.016862869262695,,13.374652862548828,0.18
319,MetaDrive-td3combine-expt_with_safe_fix_again,65,178.91939630421476,320535,556,4859.515340328217,21.87862777709961,-21.870342254638672,10.487521171569824,0.18
320,MetaDrive-td3combine-expt_with_safe_fix_again,65,179.9782452572415,321536,557,4874.0796937942505,26.10234832763672,,6.835689544677734,0.18
321,MetaDrive-td3combine-expt_with_safe_fix_again,66,178.72211711222678,322450,559,4885.166944265366,24.748977661132812,,6.723601341247559,0.18
322,MetaDrive-td3combine-expt_with_safe_fix_again,66,181.41682474715606,323157,560,4893.439243078232,28.86745262145996,-29.517757415771484,6.828574180603027,0.19
323,MetaDrive-td3combine-expt_with_safe_fix_again,66,176.76658313841645,324079,564,4903.730829238892,27.47797203063965,-27.12933921813965,11.612667083740234,0.19
324,MetaDrive-td3combine-expt_with_safe_fix_again,66,175.80929369611923,325667,566,4927.87540435791,21.291915893554688,-20.750656127929688,4.210167407989502,0.19
325,MetaDrive-td3combine-expt_with_safe_fix_again,65,177.41684023907993,326668,567,4950.263030290604,25.426593780517578,,5.7483062744140625,0.19
326,MetaDrive-td3combine-expt_with_safe_fix_again,66,175.63130000944682,327669,568,4964.151449203491,27.168468475341797,-26.748912811279297,4.339620590209961,0.18
327,MetaDrive-td3combine-expt_with_safe_fix_again,66,175.3537290031212,328220,569,4970.47816824913,22.19407844543457,,5.852719783782959,0.18
328,MetaDrive-td3combine-expt_with_safe_fix_again,65,177.09008645020137,329221,570,4991.924662590027,27.6624698638916,-27.12238311767578,12.663618087768555,0.18
329,MetaDrive-td3combine-expt_with_safe_fix_again,65,179.51629303474792,330845,572,5020.770675420761,23.756607055664062,-24.1177978515625,3.4316866397857666,0.18
330,MetaDrive-td3combine-expt_with_safe_fix_again,65,178.51287775467105,331482,573,5029.3041315078735,28.408893585205078,,3.8234775066375732,0.18
331,MetaDrive-td3combine-expt_with_safe_fix_again,65,180.02890823385667,332272,574,5040.409355640411,28.324356079101562,,10.977592468261719,0.19
332,MetaDrive-td3combine-expt_with_safe_fix_again,65,180.1775441817648,333273,575,5056.841484069824,22.37204360961914,-22.910476684570312,8.164379119873047,0.19
333,MetaDrive-td3combine-expt_with_safe_fix_again,65,180.59597419643487,334274,576,5075.018549203873,27.504070281982422,,4.9434661865234375,0.19
334,MetaDrive-td3combine-expt_with_safe_fix_again,65,180.29119503549728,335275,577,5088.507299423218,27.792837142944336,-27.485637664794922,6.704652786254883,0.19
335,MetaDrive-td3combine-expt_with_safe_fix_again,65,181.1614678076664,336720,579,5120.669367313385,24.80520248413086,,6.227465629577637,0.19
336,MetaDrive-td3combine-expt_with_safe_fix_again,65,181.17603933019126,337078,580,5125.836930990219,25.52538299560547,,6.193134307861328,0.19
337,MetaDrive-td3combine-expt_with_safe_fix_again,65,180.06743434320285,338074,582,5136.728788852692,21.897462844848633,,50.865699768066406,0.2
338,MetaDrive-td3combine-expt_with_safe_fix_again,65,180.99590961180468,339757,585,5157.190676212311,21.126272201538086,-20.791728973388672,4.84152364730835,0.21
339,MetaDrive-td3combine-expt_with_safe_fix_again,65,180.9102859001122,340442,586,5165.25572347641,23.13384437561035,,7.432548522949219,0.21
340,MetaDrive-td3combine-expt_with_safe_fix_again,65,181.1986131441293,341325,587,5177.120446205139,28.239553451538086,-28.0481014251709,5.9948344230651855,0.21
341,MetaDrive-td3combine-expt_with_safe_fix_again,65,181.25271406464478,342234,588,5189.975656747818,26.619762420654297,,7.882901191711426,0.21
342,MetaDrive-td3combine-expt_with_safe_fix_again,65,182.75892844643968,343235,589,5208.189575910568,24.411033630371094,-26.274234771728516,28.3526611328125,0.21
343,MetaDrive-td3combine-expt_with_safe_fix_again,65,179.16875057590482,344043,591,5218.991655349731,28.281600952148438,-28.630020141601562,6.16817045211792,0.21
344,MetaDrive-td3combine-expt_with_safe_fix_again,65,178.0789941032208,345939,593,5249.101525068283,26.434715270996094,-26.949386596679688,4.509664535522461,0.22
345,MetaDrive-td3combine-expt_with_safe_fix_again,65,179.81806062359072,346722,594,5266.374106645584,22.57730484008789,,3.137538433074951,0.22
346,MetaDrive-td3combine-expt_with_safe_fix_again,65,179.9019197456515,347883,596,5280.688198328018,28.07520294189453,-28.664304733276367,7.143119812011719,0.22
347,MetaDrive-td3combine-expt_with_safe_fix_again,65,180.1478434870095,348697,597,5291.638306856155,24.197528839111328,-24.600196838378906,11.355754852294922,0.21
348,MetaDrive-td3combine-expt_with_safe_fix_again,65,181.10523785737394,349326,598,5299.858637571335,27.662939071655273,,19.07342529296875,0.21
349,MetaDrive-td3combine-expt_with_safe_fix_again,65,182.01900591312238,350116,599,5311.91254234314,29.386611938476562,,7.246150970458984,0.22
350,MetaDrive-td3combine-expt_with_safe_fix_again,65,184.7988516569076,351117,600,5328.661613702774,27.316051483154297,-27.820070266723633,11.042485237121582,0.22
351,MetaDrive-td3combine-expt_with_safe_fix_again,65,187.1821059045381,352023,602,5342.166825532913,20.871978759765625,-21.408370971679688,5.339422225952148,0.22
352,MetaDrive-td3combine-expt_with_safe_fix_again,65,186.747907175217,353342,604,5357.279444217682,25.73560333251953,,38.68439483642578,0.23
353,MetaDrive-td3combine-expt_with_safe_fix_again,65,187.03585594195968,354267,605,5370.031524181366,24.892459869384766,-25.100311279296875,6.403419494628906,0.23
354,MetaDrive-td3combine-expt_with_safe_fix_again,65,187.1690400344934,355226,606,5382.274298191071,25.89340591430664,,9.116063117980957,0.24
355,MetaDrive-td3combine-expt_with_safe_fix_again,66,187.0209327361734,356761,608,5405.102412700653,26.703094482421875,-26.8942928314209,5.2300639152526855,0.24
356,MetaDrive-td3combine-expt_with_safe_fix_again,66,187.22223963671595,357172,609,5410.061464309692,23.65630531311035,,4.889266490936279,0.24
357,MetaDrive-td3combine-expt_with_safe_fix_again,66,187.85179121784498,358428,612,5429.053957939148,24.911149978637695,,13.39416217803955,0.23
358,MetaDrive-td3combine-expt_with_safe_fix_again,66,187.24871497428987,359181,613,5440.115010261536,31.13724136352539,-31.494226455688477,4.87586784362793,0.23
359,MetaDrive-td3combine-expt_with_safe_fix_again,66,188.56589262287332,360182,614,5456.842311859131,32.711456298828125,,5.543491363525391,0.23
360,MetaDrive-td3combine-expt_with_safe_fix_again,66,189.03357131256493,361241,617,5468.51411485672,19.222000122070312,-18.37721824645996,5.703929901123047,0.24
361,MetaDrive-td3combine-expt_with_safe_fix_again,66,189.7770550320092,362242,618,5485.443660259247,22.747608184814453,,9.811946868896484,0.24
362,MetaDrive-td3combine-expt_with_safe_fix_again,66,189.25527482575012,363243,619,5503.285728931427,28.44845962524414,-28.101558685302734,8.051641464233398,0.23
363,MetaDrive-td3combine-expt_with_safe_fix_again,66,189.9809026458359,364162,622,5514.636388540268,20.12560272216797,,4.087680816650391,0.24
364,MetaDrive-td3combine-expt_with_safe_fix_again,65,192.84902494964194,365912,624,5547.013906240463,23.042911529541016,,5.153769016265869,0.25
365,MetaDrive-td3combine-expt_with_safe_fix_again,65,192.9095698489899,366913,625,5566.233772754669,24.738052368164062,-24.889495849609375,4.902871131896973,0.25
366,MetaDrive-td3combine-expt_with_safe_fix_again,65,194.39811039478212,367798,626,5580.465188026428,26.001468658447266,,5.2876176834106445,0.25
367,MetaDrive-td3combine-expt_with_safe_fix_again,65,194.72220797498937,368799,627,5597.369410276413,24.902610778808594,-25.3983097076416,6.6098480224609375,0.24
368,MetaDrive-td3combine-expt_with_safe_fix_again,65,196.27702146688458,369426,628,5604.12908577919,25.490076065063477,,10.400617599487305,0.25
369,MetaDrive-td3combine-expt_with_safe_fix_again,65,196.30561583777634,370427,629,5626.573345661163,19.367961883544922,-20.02524185180664,20.85301971435547,0.25
370,MetaDrive-td3combine-expt_with_safe_fix_again,65,197.6995629848476,371428,630,5641.812160015106,25.78001594543457,,6.908980846405029,0.25
371,MetaDrive-td3combine-expt_with_safe_fix_again,65,196.5323213172678,372429,631,5660.813399553299,21.942180633544922,-21.634628295898438,13.123092651367188,0.25
372,MetaDrive-td3combine-expt_with_safe_fix_again,65,197.3460683388705,373670,634,5675.995527267456,23.244319915771484,,4.182558536529541,0.26
373,MetaDrive-td3combine-expt_with_safe_fix_again,65,199.11126183433086,374671,635,5700.9144558906555,25.350339889526367,-25.987884521484375,6.050868988037109,0.26
374,MetaDrive-td3combine-expt_with_safe_fix_again,65,200.2356592607738,375667,636,5714.295794963837,27.517032623291016,-27.87610626220703,10.307567596435547,0.27
375,MetaDrive-td3combine-expt_with_safe_fix_again,65,200.34138946942056,376668,637,5730.275084018707,24.83196258544922,,6.793194770812988,0.27
376,MetaDrive-td3combine-expt_with_safe_fix_again,65,198.71791060321146,377746,639,5746.706423521042,22.700475692749023,,4.150503635406494,0.26
377,MetaDrive-td3combine-expt_with_safe_fix_again,65,199.7855220278653,378139,640,5751.809646368027,25.59102439880371,-25.52053451538086,5.6391401290893555,0.26
378,MetaDrive-td3combine-expt_with_safe_fix_again,65,198.90766554820365,379169,642,5765.822108030319,27.479049682617188,-27.11672592163086,8.070026397705078,0.25
379,MetaDrive-td3combine-expt_with_safe_fix_again,65,200.3143049464242,380026,645,5776.337007522583,21.263015747070312,,7.5439276695251465,0.26
380,MetaDrive-td3combine-expt_with_safe_fix_again,65,196.77748187870452,381207,649,5792.650616168976,29.864267349243164,-30.703495025634766,7.066289901733398,0.25
381,MetaDrive-td3combine-expt_with_safe_fix_again,65,188.4459160437351,382858,654,5816.777426958084,23.407703399658203,,5.203753471374512,0.22
382,MetaDrive-td3combine-expt_with_safe_fix_again,65,189.12759390165928,383164,655,5821.61178445816,21.032543182373047,,7.127315521240234,0.22
383,MetaDrive-td3combine-expt_with_safe_fix_again,65,191.0591921704479,384833,658,5849.037327289581,21.176013946533203,-21.54334259033203,6.386372089385986,0.22
384,MetaDrive-td3combine-expt_with_safe_fix_again,65,188.87601208033473,385044,659,5852.155114173889,20.61960220336914,,4.726105213165283,0.21
385,MetaDrive-td3combine-expt_with_safe_fix_again,65,187.8117062726546,386045,660,5866.7186987400055,22.20248794555664,-22.32585334777832,4.285861968994141,0.2
386,MetaDrive-td3combine-expt_with_safe_fix_again,65,191.6984024838897,387265,662,5882.5186088085175,25.459407806396484,-25.02277183532715,40.29907989501953,0.21
387,MetaDrive-td3combine-expt_with_safe_fix_again,65,193.60561112422332,388035,663,5891.189471483231,22.869754791259766,-23.79690170288086,9.844490051269531,0.22
388,MetaDrive-td3combine-expt_with_safe_fix_again,65,193.57391946421913,389220,666,5904.305354118347,21.041038513183594,,11.770204544067383,0.23
389,MetaDrive-td3combine-expt_with_safe_fix_again,65,190.72275522604076,390041,669,5917.121467590332,24.494848251342773,-24.568571090698242,7.465691089630127,0.22
390,MetaDrive-td3combine-expt_with_safe_fix_again,65,191.0506922165734,391042,670,5933.32794213295,18.821609497070312,,5.037611484527588,0.22
391,MetaDrive-td3combine-expt_with_safe_fix_again,65,186.40978013174754,392101,674,5946.436411142349,25.713050842285156,-26.61348533630371,8.138936996459961,0.21
392,MetaDrive-td3combine-expt_with_safe_fix_again,65,185.58968541280478,393213,676,5964.921958684921,28.70755386352539,-28.871206283569336,5.318129539489746,0.21
393,MetaDrive-td3combine-expt_with_safe_fix_again,65,184.2394048567946,394532,679,5992.056547880173,26.222484588623047,,4.4464240074157715,0.21
394,MetaDrive-td3combine-expt_with_safe_fix_again,65,182.15140536481883,395983,681,6015.857451200485,23.283716201782227,-22.265209197998047,5.297778129577637,0.2
395,MetaDrive-td3combine-expt_with_safe_fix_again,65,182.4072749471053,396125,682,6017.906499147415,22.051937103271484,-22.235448837280273,6.46491813659668,0.2
396,MetaDrive-td3combine-expt_with_safe_fix_again,65,182.54971478413907,397637,684,6046.3003759384155,28.77791976928711,-28.73354148864746,10.65220832824707,0.19
397,MetaDrive-td3combine-expt_with_safe_fix_again,65,180.42149833922485,398095,686,6052.718940734863,21.620315551757812,-21.444015502929688,6.2614641189575195,0.18
398,MetaDrive-td3combine-expt_with_safe_fix_again,65,177.13166951330092,399577,688,6078.192181825638,22.581119537353516,-23.320972442626953,10.925606727600098,0.16
