TanmayH/CS269-RL-project-code/MetaDrive-test-conv-colab-both/td3/progress.csv
,log_dir,frame_per_second,episode_reward,total_steps,total_episodes,total_time,target_q,actor_loss,critic_loss,success_rate
0,MetaDrive-test-conv-colab-both,239,11.134157956823,2001,2,8.3405282497406,,,,0.0
1,MetaDrive-test-conv-colab-both,275,11.613127929004742,3002,3,10.907731771469116,,,,0.0
2,MetaDrive-test-conv-colab-both,285,7.890349833041237,4997,6,17.507194995880127,,,,0.0
3,MetaDrive-test-conv-colab-both,263,8.467245818671932,5998,7,22.748442888259888,,,,0.0
4,MetaDrive-test-conv-colab-both,268,9.058526962346825,6999,8,26.03166627883911,,,,0.0
5,MetaDrive-test-conv-colab-both,263,9.053732959674651,8000,9,30.37431526184082,,,,0.0
6,MetaDrive-test-conv-colab-both,253,8.587946532692738,9622,11,37.9898521900177,,,,0.0
7,MetaDrive-test-conv-colab-both,230,7.867365738678358,10184,12,44.14877271652222,-0.0070220697671175,,0.000954069138970226,0.0
8,MetaDrive-test-conv-colab-both,168,2.443975907504987,11620,23,68.7638373374939,2.2552674636244774e-05,,0.0007191414479166269,0.0
9,MetaDrive-test-conv-colab-both,158,2.2419783739078176,12100,24,76.55563426017761,0.010923575609922409,,0.001960416091606021,0.0
10,MetaDrive-test-conv-colab-both,125,-0.6249375330687758,13797,46,109.94145703315735,0.002176726935431361,-0.0015955325216054916,0.0035543940030038357,0.0
11,MetaDrive-test-conv-colab-both,116,-0.6580532702155798,14798,47,127.37224817276001,-0.014007190242409706,,0.0018888064660131931,0.0
12,MetaDrive-test-conv-colab-both,109,-0.7163743164953252,15799,48,143.99636936187744,-0.014697126112878323,0.012093912810087204,0.0015516956336796284,0.0
13,MetaDrive-test-conv-colab-both,105,-0.8071675071886943,16513,49,155.8814835548401,-0.036044858396053314,0.04383615404367447,0.004486404825001955,0.0
14,MetaDrive-test-conv-colab-both,102,-0.9055739789600119,17422,51,170.54525542259216,-0.09250044077634811,,0.004465376026928425,0.0
15,MetaDrive-test-conv-colab-both,99,-0.5180724203348688,18040,54,181.5697844028473,-0.0356200747191906,,0.0050400495529174805,0.0
16,MetaDrive-test-conv-colab-both,95,1.4289217966259022,19176,60,201.81753706932068,-0.022950414568185806,,0.004630155861377716,0.0
17,MetaDrive-test-conv-colab-both,91,1.7740032029786268,20031,73,218.57512140274048,-0.08926786482334137,0.1060149148106575,0.032383162528276443,0.0
18,MetaDrive-test-conv-colab-both,87,2.884882745041349,21041,83,239.1898856163025,-0.04785722866654396,0.06054767221212387,0.03775297850370407,0.0
19,MetaDrive-test-conv-colab-both,85,3.7763438122882826,22016,97,258.512983083725,0.008523065596818924,,0.016861429437994957,0.0
20,MetaDrive-test-conv-colab-both,82,4.877386849430128,23020,112,280.53625202178955,0.04112336039543152,,0.026641417294740677,0.0
21,MetaDrive-test-conv-colab-both,79,7.521114254892576,24009,128,300.71285820007324,0.10211418569087982,-0.07573004066944122,1.0671786069869995,0.0
22,MetaDrive-test-conv-colab-both,77,10.370706455435272,25023,145,321.8964207172394,0.15541023015975952,-0.18294960260391235,0.05028822273015976,0.0
23,MetaDrive-test-conv-colab-both,75,14.12253194840938,26080,158,343.3014552593231,0.5314798355102539,,0.03952431678771973,0.0
24,MetaDrive-test-conv-colab-both,74,17.397257468969993,27065,173,362.4729149341583,0.6361768245697021,-0.6875684261322021,0.035643599927425385,0.0
25,MetaDrive-test-conv-colab-both,73,20.203920699535477,28014,189,382.9989128112793,1.0313688516616821,,0.1637393832206726,0.0
26,MetaDrive-test-conv-colab-both,72,21.992900400809102,29026,208,403.1337962150574,1.1486523151397705,,0.08771006762981415,0.0
27,MetaDrive-test-conv-colab-both,70,21.52183586604376,30039,231,425.0061058998108,1.5057282447814941,-1.5514320135116577,0.28706634044647217,0.0
28,MetaDrive-test-conv-colab-both,69,19.79752135506281,31022,253,446.1070456504822,1.6038877964019775,,0.1265362948179245,0.0
29,MetaDrive-test-conv-colab-both,68,16.173707602445933,32025,275,467.6795356273651,2.074183225631714,-2.3662109375,0.3245288133621216,0.0
30,MetaDrive-test-conv-colab-both,67,13.660368590634198,33047,297,487.5483796596527,2.4241397380828857,-2.387901544570923,0.716270923614502,0.0
31,MetaDrive-test-conv-colab-both,67,13.708540294690158,34039,320,507.5992021560669,2.832939624786377,-3.105006456375122,1.4476672410964966,0.0
32,MetaDrive-test-conv-colab-both,66,14.381452945210372,35002,340,527.7565031051636,2.9239463806152344,,0.2463546097278595,0.0
33,MetaDrive-test-conv-colab-both,65,18.297459388861625,36022,355,548.5218830108643,3.380262851715088,,7.407649993896484,0.0
34,MetaDrive-test-conv-colab-both,64,21.86351037591123,37042,371,570.1206789016724,3.6361212730407715,,0.255116730928421,0.0
35,MetaDrive-test-conv-colab-both,64,23.92821768773933,38054,389,590.9024457931519,3.704547882080078,,1.3733903169631958,0.0
36,MetaDrive-test-conv-colab-both,63,24.665505819389935,39031,406,611.0587494373322,4.548042297363281,-4.834634780883789,2.1948137283325195,0.0
37,MetaDrive-test-conv-colab-both,63,28.525779428378378,40040,422,631.254905462265,4.810240745544434,,0.8181538581848145,0.0
38,MetaDrive-test-conv-colab-both,62,31.382630224048317,41001,437,650.9333920478821,5.259184837341309,-5.511212348937988,0.36603373289108276,0.0
39,MetaDrive-test-conv-colab-both,62,30.12793588256844,42009,454,671.5504207611084,5.624877452850342,-5.59006404876709,0.5464650392532349,0.0
40,MetaDrive-test-conv-colab-both,62,30.61204821381497,43092,469,693.5638999938965,5.315657615661621,,7.806662559509277,0.0
41,MetaDrive-test-conv-colab-both,61,32.518836971615244,44042,481,712.9718787670135,6.678295135498047,,1.166857361793518,0.0
42,MetaDrive-test-conv-colab-both,61,33.77088836723137,45008,494,731.2896845340729,6.488768100738525,,3.6953582763671875,0.0
43,MetaDrive-test-conv-colab-both,61,38.81977607831725,46143,504,753.9353587627411,6.929291248321533,-6.992751121520996,0.8347685933113098,0.0
44,MetaDrive-test-conv-colab-both,61,40.07618807351438,47154,515,772.835221529007,8.253355026245117,,1.1298518180847168,0.0
45,MetaDrive-test-conv-colab-both,60,41.4937525675704,48115,525,791.336617231369,7.790937423706055,-7.948247909545898,1.9821109771728516,0.0
46,MetaDrive-test-conv-colab-both,60,43.27208579135846,49112,535,810.795761346817,7.220067501068115,,7.715933799743652,0.0
47,MetaDrive-test-conv-colab-both,60,46.70779850700524,50029,542,827.8336825370789,8.091720581054688,-8.552038192749023,4.679143905639648,0.0
48,MetaDrive-test-conv-colab-both,60,48.41931542284843,51092,555,849.3337564468384,8.32420539855957,,17.61670684814453,0.0
49,MetaDrive-test-conv-colab-both,59,49.7563564108487,52090,566,868.9317479133606,8.284627914428711,,14.433387756347656,0.0
50,MetaDrive-test-conv-colab-both,59,51.71401384006533,53020,574,885.7272474765778,9.23533821105957,,2.6736183166503906,0.0
51,MetaDrive-test-conv-colab-both,59,53.5642996755943,54016,583,904.5813231468201,8.882238388061523,,1.9948890209197998,0.0
52,MetaDrive-test-conv-colab-both,59,54.25370850577035,55050,594,924.213440656662,10.44163703918457,,1.881899118423462,0.0
53,MetaDrive-test-conv-colab-both,59,53.95227443961938,56009,602,943.7402899265289,9.654291152954102,-10.188599586486816,2.7974131107330322,0.0
54,MetaDrive-test-conv-colab-both,59,55.747807755565006,57113,612,965.1192212104797,9.433793067932129,-9.605884552001953,2.4040966033935547,0.0
55,MetaDrive-test-conv-colab-both,58,57.45074897651912,58127,619,986.6903672218323,10.278400421142578,-10.560164451599121,2.5070667266845703,0.0
56,MetaDrive-test-conv-colab-both,58,59.20610002177078,59066,627,1004.7715334892273,9.76365852355957,,8.174646377563477,0.0
57,MetaDrive-test-conv-colab-both,58,58.02280490121471,60016,636,1022.9908349514008,11.67756175994873,,9.399486541748047,0.0
58,MetaDrive-test-conv-colab-both,58,59.85937469035752,61011,643,1041.9696674346924,9.957366943359375,-10.089925765991211,4.018570899963379,0.0
59,MetaDrive-test-conv-colab-both,58,60.984973812019646,62053,656,1060.9944264888763,12.41757869720459,-12.742713928222656,3.4651288986206055,0.0
60,MetaDrive-test-conv-colab-both,58,61.64510528487448,63042,666,1079.7138063907623,11.560142517089844,,1.8071959018707275,0.0
61,MetaDrive-test-conv-colab-both,58,59.79537464867255,64054,676,1099.206967830658,11.045064926147461,,2.275461435317993,0.0
62,MetaDrive-test-conv-colab-both,58,62.43936467668975,65022,683,1117.7078816890717,12.347850799560547,,2.5271315574645996,0.0
63,MetaDrive-test-conv-colab-both,58,64.89206674464407,66002,691,1136.7050249576569,10.593503952026367,,0.9768325090408325,0.0
64,MetaDrive-test-conv-colab-both,57,65.50904055355436,67036,701,1157.1421642303467,11.881937980651855,,11.820028305053711,0.0
65,MetaDrive-test-conv-colab-both,57,66.58475825989642,68033,711,1175.8429741859436,11.089607238769531,-11.776459693908691,3.9448444843292236,0.0
66,MetaDrive-test-conv-colab-both,57,67.62663984073615,69058,718,1196.1258862018585,12.851937294006348,,2.4599950313568115,0.0
67,MetaDrive-test-conv-colab-both,57,65.66171780246634,70067,728,1215.2747976779938,13.403535842895508,-13.731362342834473,0.9836432933807373,0.0
68,MetaDrive-test-conv-colab-both,57,64.54129960021542,71047,740,1233.6578023433685,14.526019096374512,-14.546952247619629,2.536713123321533,0.0
69,MetaDrive-test-conv-colab-both,57,62.148923969238766,72003,751,1252.2727160453796,12.884367942810059,-12.969522476196289,16.797069549560547,0.0
70,MetaDrive-test-conv-colab-both,57,63.389214441355854,73111,762,1273.5114150047302,13.155681610107422,-13.387382507324219,6.841715335845947,0.0
71,MetaDrive-test-conv-colab-both,57,65.57934860552955,74072,770,1293.2991154193878,11.687080383300781,,21.552303314208984,0.0
72,MetaDrive-test-conv-colab-both,57,64.53684112991724,75064,780,1312.5055847167969,14.386957168579102,,8.405512809753418,0.0
73,MetaDrive-test-conv-colab-both,57,63.22212175293197,76059,788,1331.6404073238373,11.823629379272461,-12.7926607131958,15.953885078430176,0.0
74,MetaDrive-test-conv-colab-both,57,64.16593783086927,77066,797,1350.7974603176117,13.374706268310547,,3.2528138160705566,0.0
75,MetaDrive-test-conv-colab-both,56,64.93612472927978,78064,805,1371.7498288154602,13.26150131225586,,35.80342102050781,0.0
76,MetaDrive-test-conv-colab-both,56,65.12343346341635,79050,814,1390.7857339382172,14.75444221496582,,10.945404052734375,0.0
77,MetaDrive-test-conv-colab-both,56,63.67167227244092,80011,822,1408.5887188911438,15.55346393585205,-16.089696884155273,3.137545347213745,0.0
78,MetaDrive-test-conv-colab-both,56,66.21097202386176,81083,829,1429.4844017028809,12.209028244018555,-12.923986434936523,14.880609512329102,0.0
79,MetaDrive-test-conv-colab-both,56,69.09359327122529,82071,836,1448.9571962356567,15.363019943237305,-16.226364135742188,2.0339064598083496,0.0
80,MetaDrive-test-conv-colab-both,56,70.79553150821025,83050,845,1467.6956593990326,15.319034576416016,,3.4279537200927734,0.0
81,MetaDrive-test-conv-colab-both,56,73.34681566094356,84132,854,1489.34396982193,14.390085220336914,,9.279952049255371,0.0
82,MetaDrive-test-conv-colab-both,56,74.12640541034288,85087,864,1506.775384902954,14.095663070678711,-14.334328651428223,1.4895563125610352,0.0
83,MetaDrive-test-conv-colab-both,56,74.65408548017281,86064,873,1525.2174742221832,15.654183387756348,,2.9064135551452637,0.0
84,MetaDrive-test-conv-colab-both,56,76.1115840209335,87031,881,1544.2911245822906,14.867879867553711,-15.550028800964355,6.4813971519470215,0.0
85,MetaDrive-test-conv-colab-both,56,73.21452990574775,88073,892,1564.4902276992798,15.974472045898438,-16.067325592041016,3.4853854179382324,0.0
86,MetaDrive-test-conv-colab-both,56,75.08671264168504,89126,900,1585.1702573299408,15.168754577636719,,14.775571823120117,0.0
87,MetaDrive-test-conv-colab-both,56,74.31704176301623,90073,908,1603.4242026805878,15.814332962036133,-16.572509765625,8.742152214050293,0.0
88,MetaDrive-test-conv-colab-both,56,76.27084833310964,91153,916,1624.760365486145,17.689979553222656,-18.318992614746094,4.912380695343018,0.0
89,MetaDrive-test-conv-colab-both,56,77.72374946744931,92199,924,1644.5311784744263,16.435636520385742,-17.671842575073242,7.427901268005371,0.0
90,MetaDrive-test-conv-colab-both,56,75.96770821435774,93086,932,1661.1267580986023,17.608518600463867,,4.335066318511963,0.0
91,MetaDrive-test-conv-colab-both,55,76.71151272509422,94307,941,1684.51176571846,19.281208038330078,-19.08786392211914,7.397490501403809,0.01
92,MetaDrive-test-conv-colab-both,55,76.4229020348548,95058,949,1699.8036301136017,15.209588050842285,,2.8328120708465576,0.01
93,MetaDrive-test-conv-colab-both,55,76.05081814321989,96042,957,1719.1835861206055,15.830883026123047,,24.69082260131836,0.01
94,MetaDrive-test-conv-colab-both,55,78.27452071747501,97093,966,1738.8996407985687,16.454816818237305,-17.135364532470703,5.9248881340026855,0.01
95,MetaDrive-test-conv-colab-both,55,77.95997444436458,98045,974,1757.3337619304657,15.875143051147461,-15.894243240356445,3.4456188678741455,0.01
96,MetaDrive-test-conv-colab-both,55,78.49036969971263,99162,984,1778.050720691681,17.014057159423828,,1.543175458908081,0.01
97,MetaDrive-test-conv-colab-both,55,77.8189253053586,100091,993,1795.8700296878815,19.519062042236328,-20.392528533935547,5.182460308074951,0.01
98,MetaDrive-test-conv-colab-both,55,76.44224459172054,101005,1001,1812.669971704483,19.383468627929688,-19.65935516357422,1.6297411918640137,0.01
99,MetaDrive-test-conv-colab-both,55,77.03930660835803,102066,1010,1833.6595113277435,17.373149871826172,,6.464167594909668,0.01
100,MetaDrive-test-conv-colab-both,55,74.22109137485607,103146,1021,1853.9330615997314,20.243606567382812,,6.301728248596191,0.01
101,MetaDrive-test-conv-colab-both,55,74.18595943270299,104045,1028,1870.8423526287079,18.35509490966797,-18.217090606689453,8.673998832702637,0.01
102,MetaDrive-test-conv-colab-both,55,74.35454176653565,105032,1037,1890.3154819011688,18.33319091796875,,2.3083348274230957,0.01
103,MetaDrive-test-conv-colab-both,55,73.43865040179989,106010,1046,1908.0238859653473,18.7210750579834,,5.886814594268799,0.0
104,MetaDrive-test-conv-colab-both,55,71.68311422524259,107031,1056,1927.1149072647095,18.434322357177734,-19.169450759887695,18.425495147705078,0.0
105,MetaDrive-test-conv-colab-both,55,73.50014179030072,108102,1063,1945.9837627410889,19.173511505126953,,20.445934295654297,0.01
106,MetaDrive-test-conv-colab-both,55,73.37781491349779,109009,1070,1963.29070186615,17.277965545654297,-17.70867919921875,12.694051742553711,0.01
107,MetaDrive-test-conv-colab-both,55,74.65956848261162,110025,1078,1982.6152927875519,19.54161834716797,-20.178508758544922,2.1039342880249023,0.01
108,MetaDrive-test-conv-colab-both,55,77.52126429082973,111022,1085,2001.3198804855347,18.802249908447266,,4.277273178100586,0.01
109,MetaDrive-test-conv-colab-both,55,80.9017612160589,112137,1092,2022.2490558624268,20.60039520263672,-20.841127395629883,3.8859047889709473,0.01
110,MetaDrive-test-conv-colab-both,55,83.38654958235873,113026,1099,2039.0948078632355,19.1024169921875,,3.77775239944458,0.01
111,MetaDrive-test-conv-colab-both,55,83.21927710686576,114007,1107,2057.8625078201294,19.397262573242188,-19.639972686767578,5.843258380889893,0.01
112,MetaDrive-test-conv-colab-both,55,84.70532310224749,115160,1117,2082.5696794986725,20.769399642944336,,7.7125749588012695,0.01
113,MetaDrive-test-conv-colab-both,55,82.40300095502351,116008,1125,2099.9039039611816,22.266071319580078,,2.4633255004882812,0.01
114,MetaDrive-test-conv-colab-both,55,82.78411416420893,117050,1134,2120.5891609191895,20.94793128967285,,2.8003056049346924,0.01
115,MetaDrive-test-conv-colab-both,55,82.15958787426807,118018,1143,2137.9865987300873,19.18117904663086,,5.225893020629883,0.01
116,MetaDrive-test-conv-colab-both,55,83.86059475647038,119046,1151,2158.637145280838,19.65351104736328,,5.877172946929932,0.01
117,MetaDrive-test-conv-colab-both,55,84.91037542815825,120047,1160,2177.294511079788,20.953523635864258,-21.195392608642578,4.897027969360352,0.01
118,MetaDrive-test-conv-colab-both,55,84.5065625065966,121077,1168,2196.7323961257935,19.574939727783203,-20.60664939880371,4.586199760437012,0.0
119,MetaDrive-test-conv-colab-both,55,84.0890054656613,122026,1175,2214.844703435898,19.892284393310547,,2.2722206115722656,0.0
120,MetaDrive-test-conv-colab-both,55,85.68739860948112,123005,1181,2234.408031463623,21.004154205322266,-21.49947738647461,4.619200706481934,0.0
121,MetaDrive-test-conv-colab-both,55,83.1537115192329,124151,1189,2257.0119473934174,22.042705535888672,-22.61682891845703,2.081676959991455,0.0
122,MetaDrive-test-conv-colab-both,55,81.64038705538512,125043,1196,2272.9983031749725,19.969263076782227,-21.163917541503906,9.21877670288086,0.0
123,MetaDrive-test-conv-colab-both,54,83.05987840313529,126094,1204,2292.801001548767,18.824310302734375,,11.184037208557129,0.0
124,MetaDrive-test-conv-colab-both,54,84.98153419576889,127028,1210,2310.0211725234985,20.836959838867188,,3.016049385070801,0.0
125,MetaDrive-test-conv-colab-both,54,87.5521591997347,128025,1216,2328.973263978958,21.66172218322754,-21.822181701660156,6.465571403503418,0.0
126,MetaDrive-test-conv-colab-both,54,89.92557129514758,129135,1224,2351.1351511478424,20.653104782104492,-20.689098358154297,3.383002281188965,0.0
127,MetaDrive-test-conv-colab-both,54,91.1225869970777,130148,1230,2369.6481482982635,24.026607513427734,,2.8333005905151367,0.0
128,MetaDrive-test-conv-colab-both,54,93.35120700020285,131012,1236,2386.870536327362,22.19891357421875,,3.0310258865356445,0.0
129,MetaDrive-test-conv-colab-both,54,94.21331643940603,132163,1244,2409.53089928627,21.394649505615234,-21.76592254638672,3.5622730255126953,0.0
130,MetaDrive-test-conv-colab-both,54,92.99245332763803,133049,1252,2427.386875152588,20.56786346435547,-21.305580139160156,2.560037612915039,0.0
131,MetaDrive-test-conv-colab-both,54,95.72693009616125,134132,1259,2448.7695021629333,20.954082489013672,,3.3195149898529053,0.0
132,MetaDrive-test-conv-colab-both,54,96.31409313592815,135021,1265,2465.0126786231995,21.373273849487305,-21.361665725708008,3.4284627437591553,0.0
133,MetaDrive-test-conv-colab-both,54,99.20719016801135,136089,1272,2486.235558271408,19.994678497314453,-20.385578155517578,9.45599365234375,0.0
134,MetaDrive-test-conv-colab-both,54,100.58354683987993,137125,1277,2508.501123189926,23.35771942138672,-23.45289421081543,7.439690113067627,0.0
135,MetaDrive-test-conv-colab-both,54,98.41060062764278,138018,1285,2524.795161485672,24.995742797851562,,5.362374782562256,0.0
136,MetaDrive-test-conv-colab-both,54,98.21414164952796,139014,1293,2542.7867057323456,24.1976375579834,,3.5089187622070312,0.0
137,MetaDrive-test-conv-colab-both,54,100.10158344409159,140175,1301,2565.406687259674,21.772321701049805,-22.00609588623047,5.042232513427734,0.0
138,MetaDrive-test-conv-colab-both,54,96.23788345117718,141111,1309,2582.6059834957123,23.510160446166992,-23.964214324951172,8.170662879943848,0.0
139,MetaDrive-test-conv-colab-both,54,94.64137385990432,142039,1316,2599.622232437134,23.876461029052734,-24.168304443359375,2.928826332092285,0.0
140,MetaDrive-test-conv-colab-both,54,97.78670304741398,143151,1322,2620.039291858673,23.293193817138672,-24.034046173095703,3.650545597076416,0.01
141,MetaDrive-test-conv-colab-both,54,98.21688306130649,144078,1328,2637.3884642124176,19.998552322387695,,3.4713761806488037,0.01
142,MetaDrive-test-conv-colab-both,54,98.1578463969699,145069,1333,2656.844665288925,23.84868812561035,-24.09925079345703,6.091691017150879,0.01
143,MetaDrive-test-conv-colab-both,54,99.32729280628614,146034,1340,2675.053498029709,22.959758758544922,,5.3842878341674805,0.01
144,MetaDrive-test-conv-colab-both,54,99.24716945718603,147014,1346,2694.880038499832,20.622047424316406,,5.853479862213135,0.01
145,MetaDrive-test-conv-colab-both,54,102.8315670169291,148144,1352,2719.9029133319855,23.495285034179688,,2.6365110874176025,0.01
146,MetaDrive-test-conv-colab-both,54,102.8547139616193,149149,1359,2739.655293226242,23.832542419433594,-23.816680908203125,3.149003028869629,0.01
147,MetaDrive-test-conv-colab-both,54,101.12605392608766,150055,1366,2758.0008521080017,23.737194061279297,-24.01194190979004,9.108634948730469,0.01
148,MetaDrive-test-conv-colab-both,54,97.56847817870307,151097,1375,2778.8879747390747,25.61646270751953,-25.83072280883789,2.3477892875671387,0.01
149,MetaDrive-test-conv-colab-both,54,98.16215925975476,152205,1382,2800.7797360420227,24.07272720336914,-24.667882919311523,4.145545959472656,0.01
150,MetaDrive-test-conv-colab-both,54,97.9274508619567,153038,1389,2816.301858663559,22.011632919311523,,3.836653709411621,0.01
151,MetaDrive-test-conv-colab-both,54,98.94418679013117,154088,1396,2836.3575718402863,23.340274810791016,,6.897123336791992,0.01
152,MetaDrive-test-conv-colab-both,54,96.37808100803801,155014,1403,2853.915988922119,22.947044372558594,,10.896488189697266,0.01
153,MetaDrive-test-conv-colab-both,54,97.42831567153495,156142,1412,2875.437319755554,20.293466567993164,,5.639032363891602,0.01
154,MetaDrive-test-conv-colab-both,54,92.4237088050386,157014,1421,2891.934750318527,25.274595260620117,,3.112346887588501,0.0
155,MetaDrive-test-conv-colab-both,54,89.55164957578165,158085,1429,2912.65779876709,23.258567810058594,-23.534011840820312,8.154998779296875,0.0
156,MetaDrive-test-conv-colab-both,54,87.82643361094473,159154,1438,2933.173471212387,20.377994537353516,,4.675844192504883,0.0
157,MetaDrive-test-conv-colab-both,54,85.9278927109768,160029,1444,2949.272126197815,23.762531280517578,-24.400218963623047,14.667278289794922,0.0
158,MetaDrive-test-conv-colab-both,54,88.0995259487024,161130,1450,2971.7561779022217,25.671127319335938,,3.12831449508667,0.0
159,MetaDrive-test-conv-colab-both,54,85.4229858039068,162025,1457,2991.0943927764893,24.232629776000977,-24.639251708984375,3.5873055458068848,0.0
160,MetaDrive-test-conv-colab-both,54,90.22031281598741,163261,1462,3015.351875782013,22.786468505859375,-23.63367462158203,6.51449728012085,0.02
161,MetaDrive-test-conv-colab-both,54,89.84248664748297,164062,1468,3029.93008685112,24.732128143310547,,2.1912734508514404,0.02
162,MetaDrive-test-conv-colab-both,54,93.07467141113617,165053,1474,3049.473820924759,23.444347381591797,-24.19232940673828,3.5276708602905273,0.02
163,MetaDrive-test-conv-colab-both,54,91.79372173301046,166137,1483,3069.8673655986786,24.113536834716797,-24.225067138671875,3.3671326637268066,0.02
164,MetaDrive-test-conv-colab-both,54,92.8717025521245,167096,1490,3088.431839466095,24.25887680053711,,3.42093825340271,0.02
165,MetaDrive-test-conv-colab-both,54,93.81812152541417,168032,1495,3107.447258234024,23.33429718017578,,21.890138626098633,0.02
166,MetaDrive-test-conv-colab-both,54,97.27448934421086,169264,1501,3132.5904903411865,24.99432373046875,,4.537898540496826,0.03
167,MetaDrive-test-conv-colab-both,54,98.67390134989878,170231,1507,3152.1128528118134,25.365970611572266,-26.058244705200195,16.598186492919922,0.03
168,MetaDrive-test-conv-colab-both,54,99.561617938602,171107,1514,3168.245403289795,21.968406677246094,-22.24249267578125,2.319478988647461,0.03
169,MetaDrive-test-conv-colab-both,53,103.8019212318589,172308,1520,3193.800058364868,23.2876033782959,,8.119580268859863,0.03
170,MetaDrive-test-conv-colab-both,53,105.98389258737865,173085,1525,3208.929720878601,26.708904266357422,-27.103179931640625,6.570709228515625,0.03
171,MetaDrive-test-conv-colab-both,53,106.65977204118957,174222,1533,3230.7667570114136,26.684125900268555,,4.878415107727051,0.03
172,MetaDrive-test-conv-colab-both,53,109.22783140756559,175137,1538,3247.535940170288,23.421693801879883,-23.668933868408203,2.1153674125671387,0.03
173,MetaDrive-test-conv-colab-both,53,111.73819837620435,176210,1544,3268.6682498455048,23.126934051513672,,14.472539901733398,0.04
174,MetaDrive-test-conv-colab-both,53,108.63560223552147,177072,1551,3284.988686323166,23.32109832763672,,5.1075944900512695,0.04
175,MetaDrive-test-conv-colab-both,53,111.54735650671053,178110,1557,3305.4756507873535,27.365535736083984,,5.082218170166016,0.04
176,MetaDrive-test-conv-colab-both,53,108.20139719344597,179132,1564,3325.6831982135773,24.890544891357422,,4.055731296539307,0.02
177,MetaDrive-test-conv-colab-both,53,104.4533069727766,180125,1573,3343.9257707595825,23.646724700927734,-24.12045669555664,3.797295570373535,0.02
178,MetaDrive-test-conv-colab-both,53,106.87497042752506,181257,1581,3364.5342218875885,24.22283172607422,-24.90164566040039,18.82453727722168,0.03
179,MetaDrive-test-conv-colab-both,53,107.15441539690747,182105,1586,3381.270257949829,22.295276641845703,-22.794456481933594,5.611041069030762,0.03
180,MetaDrive-test-conv-colab-both,53,106.45778133153303,183045,1592,3399.752628803253,23.514076232910156,-23.663753509521484,3.434586763381958,0.03
181,MetaDrive-test-conv-colab-both,53,105.32426885907073,184109,1599,3421.343580722809,21.72673988342285,-22.35989761352539,6.1100921630859375,0.02
182,MetaDrive-test-conv-colab-both,53,105.13620912307688,185015,1606,3438.07031583786,24.0120849609375,-24.138614654541016,3.331862449645996,0.02
183,MetaDrive-test-conv-colab-both,53,105.59579991340237,186012,1613,3456.622088432312,24.955734252929688,,10.698017120361328,0.02
184,MetaDrive-test-conv-colab-both,53,103.1653722114759,187083,1621,3476.9333567619324,25.4743709564209,-25.664268493652344,5.27658748626709,0.03
185,MetaDrive-test-conv-colab-both,53,102.73669291492584,188080,1629,3495.8816804885864,22.15045928955078,,2.125770092010498,0.03
186,MetaDrive-test-conv-colab-both,53,101.56527253309315,189037,1635,3516.873027086258,25.639310836791992,-25.903615951538086,4.58466911315918,0.03
187,MetaDrive-test-conv-colab-both,53,101.4006443946232,190077,1642,3537.0515756607056,23.90518569946289,-23.989437103271484,8.33266830444336,0.03
188,MetaDrive-test-conv-colab-both,53,101.10202373145917,191009,1648,3554.9851195812225,23.824453353881836,-23.73579978942871,4.140281677246094,0.02
189,MetaDrive-test-conv-colab-both,53,101.06756215258194,192384,1655,3585.634467601776,22.554855346679688,,4.653981685638428,0.03
190,MetaDrive-test-conv-colab-both,53,99.95878843767795,193071,1661,3598.128320455551,23.39331817626953,-23.787187576293945,5.5492682456970215,0.03
191,MetaDrive-test-conv-colab-both,53,101.07134802725334,194024,1668,3617.200464248657,24.807437896728516,,4.42344856262207,0.03
192,MetaDrive-test-conv-colab-both,53,102.22310351610284,195016,1675,3636.841362476349,21.802154541015625,,3.131911516189575,0.03
193,MetaDrive-test-conv-colab-both,53,101.02013318731323,196276,1684,3661.9248712062836,19.39903450012207,,5.977669715881348,0.02
194,MetaDrive-test-conv-colab-both,53,98.88632378691482,197046,1689,3677.5683014392853,22.46990203857422,,4.825039863586426,0.02
195,MetaDrive-test-conv-colab-both,53,99.69343418399271,198011,1696,3696.260354757309,25.84330940246582,-26.632110595703125,4.247763156890869,0.02
196,MetaDrive-test-conv-colab-both,53,101.3205494340854,199138,1703,3718.2632694244385,25.502845764160156,,3.4061942100524902,0.02
197,MetaDrive-test-conv-colab-both,53,99.33142205099557,200113,1710,3736.993278026581,22.701133728027344,-23.147647857666016,3.036058187484741,0.02
198,MetaDrive-test-conv-colab-both,53,100.04829137294122,201057,1716,3756.4786479473114,21.659486770629883,-21.85369110107422,1.6583755016326904,0.01
199,MetaDrive-test-conv-colab-both,53,99.30312342409,202105,1724,3777.1869938373566,24.399612426757812,-24.611181259155273,12.957406997680664,0.01
200,MetaDrive-test-conv-colab-both,53,101.6033864701378,203059,1731,3796.0765380859375,21.587162017822266,-21.420719146728516,4.47447395324707,0.01
201,MetaDrive-test-conv-colab-both,53,102.13684640285024,204084,1738,3814.765918493271,24.210803985595703,,4.4385576248168945,0.02
202,MetaDrive-test-conv-colab-both,53,102.9232226449368,205205,1746,3835.224913597107,24.524856567382812,-24.739704132080078,3.4727582931518555,0.02
203,MetaDrive-test-conv-colab-both,53,101.54331635466319,206124,1753,3852.5972793102264,24.162738800048828,,2.9510672092437744,0.01
204,MetaDrive-test-conv-colab-both,53,99.04545205541807,207022,1760,3871.178608894348,24.947473526000977,,6.25667142868042,0.01
205,MetaDrive-test-conv-colab-both,53,99.06297735583567,208087,1768,3891.7242670059204,25.814006805419922,-25.99840545654297,4.489439487457275,0.01
206,MetaDrive-test-conv-colab-both,53,98.73698938613207,209132,1775,3913.061918735504,21.51714515686035,,4.107669353485107,0.01
207,MetaDrive-test-conv-colab-both,53,101.36548501664143,210162,1781,3933.921438932419,24.476787567138672,,5.413459300994873,0.01
208,MetaDrive-test-conv-colab-both,53,101.26154483711986,211003,1787,3951.1178007125854,23.40008544921875,-23.894474029541016,3.0593185424804688,0.01
209,MetaDrive-test-conv-colab-both,53,103.0454715666585,212031,1793,3971.642347574234,22.099456787109375,-22.733840942382812,9.619682312011719,0.01
210,MetaDrive-test-conv-colab-both,53,103.22839382070602,213190,1801,3994.191189289093,20.31978988647461,,7.7983856201171875,0.01
211,MetaDrive-test-conv-colab-both,53,103.22469555145899,214116,1807,4012.5097897052765,22.858707427978516,,3.1979446411132812,0.01
212,MetaDrive-test-conv-colab-both,53,103.01307000668568,215177,1814,4033.420108318329,25.736000061035156,-25.581077575683594,14.85500717163086,0.02
213,MetaDrive-test-conv-colab-both,53,101.83777896191447,216094,1822,4050.5333540439606,26.86547088623047,,7.449865341186523,0.02
214,MetaDrive-test-conv-colab-both,53,104.98261259935792,217254,1829,4072.4950017929077,23.357681274414062,,5.332281112670898,0.03
215,MetaDrive-test-conv-colab-both,53,106.74925407684596,218034,1833,4089.9628188610077,22.56496238708496,,6.641939640045166,0.03
216,MetaDrive-test-conv-colab-both,53,105.576218449733,219202,1841,4111.885197401047,20.84307861328125,,3.4026477336883545,0.03
217,MetaDrive-test-conv-colab-both,53,107.3711190496861,220015,1846,4127.959000587463,22.203628540039062,-22.467287063598633,5.34284782409668,0.03
218,MetaDrive-test-conv-colab-both,53,110.4044803834131,221265,1853,4154.608904600143,23.046110153198242,-23.5111141204834,6.686340808868408,0.04
219,MetaDrive-test-conv-colab-both,53,110.3155141999325,222019,1859,4169.710121870041,22.360599517822266,-22.454498291015625,2.452826499938965,0.04
220,MetaDrive-test-conv-colab-both,53,113.37667442079879,223094,1865,4191.472701311111,24.110233306884766,,2.917600631713867,0.04
221,MetaDrive-test-conv-colab-both,53,114.10901057453954,224031,1871,4210.222680091858,23.722270965576172,-23.765933990478516,8.07065486907959,0.04
222,MetaDrive-test-conv-colab-both,53,115.22493958515788,225212,1879,4233.57599568367,23.69032859802246,,4.317647933959961,0.04
223,MetaDrive-test-conv-colab-both,53,114.9417618635407,226055,1885,4250.70427441597,22.05862045288086,-22.556007385253906,7.161423683166504,0.04
224,MetaDrive-test-conv-colab-both,53,114.69964859003187,227029,1891,4268.696156024933,22.084699630737305,-22.496971130371094,5.525365352630615,0.04
225,MetaDrive-test-conv-colab-both,53,116.06091972729737,228017,1898,4289.056032896042,24.376995086669922,-24.499189376831055,3.3457322120666504,0.04
226,MetaDrive-test-conv-colab-both,53,115.09644765124956,229045,1905,4309.581724405289,24.082523345947266,-24.12084197998047,6.354159355163574,0.04
227,MetaDrive-test-conv-colab-both,53,116.64324830795702,230058,1911,4330.003850221634,25.317731857299805,,3.3940176963806152,0.04
228,MetaDrive-test-conv-colab-both,53,116.0453858968247,231074,1918,4350.221312999725,22.064586639404297,,3.536200761795044,0.04
229,MetaDrive-test-conv-colab-both,53,117.76794788271492,232052,1925,4369.128143548965,24.304758071899414,,3.922376871109009,0.04
230,MetaDrive-test-conv-colab-both,53,116.5113543475091,233119,1931,4388.599977493286,22.312450408935547,-22.66144371032715,3.159822463989258,0.04
231,MetaDrive-test-conv-colab-both,53,115.5580141445337,234062,1938,4407.972049951553,23.860614776611328,,8.120041847229004,0.04
232,MetaDrive-test-conv-colab-both,53,111.60354930014275,235034,1945,4427.814887523651,25.986576080322266,,4.315845489501953,0.03
233,MetaDrive-test-conv-colab-both,53,108.33070142498292,236032,1953,4447.147847652435,20.732309341430664,,3.985368490219116,0.02
234,MetaDrive-test-conv-colab-both,53,110.26549464123659,237110,1960,4469.057399749756,27.756179809570312,,4.128265857696533,0.02
235,MetaDrive-test-conv-colab-both,53,107.3631735624386,238018,1967,4486.589823484421,24.79909896850586,,5.971390724182129,0.02
236,MetaDrive-test-conv-colab-both,53,107.13875905521898,239022,1974,4505.727512359619,28.032670974731445,,4.507049083709717,0.03
237,MetaDrive-test-conv-colab-both,53,105.58828979119829,240015,1981,4526.060793638229,23.550559997558594,-23.912174224853516,8.91299057006836,0.03
238,MetaDrive-test-conv-colab-both,52,105.77550247348005,241052,1987,4549.176018953323,24.83589744567871,,4.6412858963012695,0.03
239,MetaDrive-test-conv-colab-both,52,105.0120448002712,242023,1993,4570.026740074158,22.459516525268555,-22.9350643157959,7.945852756500244,0.03
240,MetaDrive-test-conv-colab-both,52,104.55527792311021,243184,2000,4592.657171487808,22.685354232788086,,2.8234589099884033,0.03
241,MetaDrive-test-conv-colab-both,52,104.12377609207832,244091,2007,4609.375416517258,25.21689796447754,-25.424928665161133,9.976081848144531,0.03
242,MetaDrive-test-conv-colab-both,52,103.16562915875949,245011,2014,4627.568642377853,23.75177001953125,-24.06636619567871,3.2729086875915527,0.03
243,MetaDrive-test-conv-colab-both,52,103.49184257924576,246074,2019,4647.956383943558,21.132848739624023,,4.782706260681152,0.03
244,MetaDrive-test-conv-colab-both,52,105.13333947435271,247049,2026,4666.6723985672,24.876422882080078,-25.21746826171875,2.3695971965789795,0.03
245,MetaDrive-test-conv-colab-both,52,102.66240981413107,248023,2032,4686.46132683754,24.260948181152344,-24.996145248413086,5.2264509201049805,0.02
246,MetaDrive-test-conv-colab-both,52,103.99234423765267,249127,2039,4708.676098108292,24.403457641601562,-24.827003479003906,7.799671173095703,0.02
247,MetaDrive-test-conv-colab-both,52,104.05923788456853,250142,2046,4729.486717939377,26.211101531982422,,8.325570106506348,0.02
248,MetaDrive-test-conv-colab-both,52,105.73801839710805,251061,2052,4747.33603310585,24.956138610839844,-25.24774932861328,5.558969497680664,0.02
249,MetaDrive-test-conv-colab-both,52,103.90172387045973,252046,2060,4766.398038387299,22.82376480102539,,3.4455623626708984,0.02
250,MetaDrive-test-conv-colab-both,52,103.94954131039823,253014,2066,4787.689994812012,23.484933853149414,,8.551531791687012,0.02
251,MetaDrive-test-conv-colab-both,52,105.42135283276868,254197,2073,4812.785428524017,23.061813354492188,-23.5828857421875,35.25175476074219,0.01
252,MetaDrive-test-conv-colab-both,52,103.97392041557264,255054,2080,4829.255121946335,20.40322494506836,,4.766740322113037,0.01
253,MetaDrive-test-conv-colab-both,52,105.62455187582866,256202,2086,4852.352108240128,26.124168395996094,,5.255047798156738,0.02
254,MetaDrive-test-conv-colab-both,52,107.21727030012192,257011,2090,4870.20795083046,22.713472366333008,-23.290767669677734,5.792810440063477,0.02
255,MetaDrive-test-conv-colab-both,52,107.67121917957353,258082,2097,4891.034282207489,25.948123931884766,,3.382534980773926,0.02
256,MetaDrive-test-conv-colab-both,52,107.92160607397194,259370,2105,4916.843027830124,22.648147583007812,,6.195096969604492,0.03
257,MetaDrive-test-conv-colab-both,52,110.33972152484272,260083,2108,4930.324995994568,21.649616241455078,-22.037872314453125,3.041830539703369,0.04
258,MetaDrive-test-conv-colab-both,52,109.9027833344539,261024,2115,4949.356264591217,23.396827697753906,,2.5407567024230957,0.04
259,MetaDrive-test-conv-colab-both,52,110.15544946473068,262055,2119,4972.848807811737,22.274791717529297,-22.666446685791016,13.938599586486816,0.03
260,MetaDrive-test-conv-colab-both,52,111.37917854628988,263030,2125,4992.220021247864,22.077167510986328,,5.3523640632629395,0.03
261,MetaDrive-test-conv-colab-both,52,110.9907051360755,264056,2132,5011.264184951782,25.097179412841797,,3.3050827980041504,0.03
262,MetaDrive-test-conv-colab-both,52,115.31291277808442,265035,2136,5031.546804428101,23.78057861328125,-23.766334533691406,3.209665298461914,0.04
263,MetaDrive-test-conv-colab-both,52,114.99950083335833,266109,2142,5052.889013767242,22.972896575927734,-23.522205352783203,7.769721984863281,0.04
264,MetaDrive-test-conv-colab-both,52,115.85599554568222,267096,2147,5072.616637229919,24.582969665527344,,5.045414924621582,0.04
265,MetaDrive-test-conv-colab-both,52,119.68308270748966,268261,2153,5094.342674255371,22.65151596069336,-22.621562957763672,6.37711238861084,0.05
266,MetaDrive-test-conv-colab-both,52,120.03045817460105,269048,2159,5109.177248716354,22.405956268310547,,5.068796634674072,0.05
267,MetaDrive-test-conv-colab-both,52,122.78918272603258,270125,2164,5130.067757129669,25.013916015625,-25.305416107177734,2.105583906173706,0.05
268,MetaDrive-test-conv-colab-both,52,124.77136124186005,271234,2171,5153.574869632721,25.22647476196289,,3.1960082054138184,0.05
269,MetaDrive-test-conv-colab-both,52,123.00527492973904,272087,2177,5169.99569439888,24.16765022277832,-24.45428466796875,3.691744804382324,0.05
270,MetaDrive-test-conv-colab-both,52,121.76730072445605,273044,2185,5187.677886962891,23.718055725097656,,2.1918423175811768,0.04
271,MetaDrive-test-conv-colab-both,52,119.6245374087218,274022,2192,5206.036619901657,22.302104949951172,,5.689899444580078,0.05
272,MetaDrive-test-conv-colab-both,52,120.4589507373649,275138,2200,5228.186234712601,25.53720474243164,,2.8708558082580566,0.05
273,MetaDrive-test-conv-colab-both,52,119.31276529485064,276059,2207,5245.824917316437,24.157974243164062,-24.675588607788086,6.43456506729126,0.04
274,MetaDrive-test-conv-colab-both,52,119.52052914246764,277022,2214,5264.96652674675,21.469810485839844,,3.8572959899902344,0.03
275,MetaDrive-test-conv-colab-both,52,115.84835984993293,278018,2221,5284.70081615448,23.192245483398438,,5.9686079025268555,0.03
276,MetaDrive-test-conv-colab-both,52,116.93522998206242,279046,2225,5307.936334609985,23.779029846191406,,5.695096969604492,0.03
277,MetaDrive-test-conv-colab-both,52,118.77074780869712,280309,2232,5332.073750495911,21.09961700439453,-20.92868995666504,6.435820579528809,0.04
278,MetaDrive-test-conv-colab-both,52,115.72735292273295,281007,2236,5346.446329832077,25.512767791748047,-25.82775115966797,4.5428009033203125,0.03
279,MetaDrive-test-conv-colab-both,52,115.00588901715244,282078,2244,5367.39094042778,25.676929473876953,,8.960023880004883,0.03
280,MetaDrive-test-conv-colab-both,52,113.13860075558894,283128,2251,5386.990068912506,24.312225341796875,,2.0973222255706787,0.03
281,MetaDrive-test-conv-colab-both,52,111.9557340298782,284050,2256,5406.47651219368,22.82383155822754,,14.122568130493164,0.02
282,MetaDrive-test-conv-colab-both,52,108.45097602661663,285167,2264,5426.629642724991,26.50704574584961,-26.39996910095215,12.86391830444336,0.02
283,MetaDrive-test-conv-colab-both,52,110.20378512587025,286095,2269,5445.722369670868,22.159847259521484,-22.520288467407227,5.990665912628174,0.02
284,MetaDrive-test-conv-colab-both,52,112.9873490761664,287048,2274,5463.772708654404,24.23232650756836,,2.945247173309326,0.03
285,MetaDrive-test-conv-colab-both,52,117.69043662106552,288183,2278,5486.447874307632,21.6051025390625,-22.444637298583984,6.383525848388672,0.04
286,MetaDrive-test-conv-colab-both,52,121.60262766775811,289069,2281,5503.922028303146,23.883041381835938,-23.95667266845703,4.210700511932373,0.05
287,MetaDrive-test-conv-colab-both,52,125.04491502446888,290107,2287,5523.199219942093,22.897361755371094,-23.21395492553711,4.08463191986084,0.06
288,MetaDrive-test-conv-colab-both,52,127.04556314766548,291431,2292,5549.731683015823,22.73128318786621,-23.057327270507812,5.464875221252441,0.05
289,MetaDrive-test-conv-colab-both,52,128.7481441511466,292173,2295,5563.5892424583435,21.678112030029297,-22.192325592041016,15.890209197998047,0.06
290,MetaDrive-test-conv-colab-both,52,132.6650177773326,293048,2299,5579.74845790863,23.97150421142578,,2.0666234493255615,0.07
291,MetaDrive-test-conv-colab-both,52,135.32554785549308,294362,2306,5606.176227092743,25.207595825195312,,2.78566312789917,0.07
292,MetaDrive-test-conv-colab-both,52,135.23991751419854,295180,2311,5621.163565635681,22.819852828979492,,3.9953367710113525,0.07
293,MetaDrive-test-conv-colab-both,52,138.70896258248968,296274,2316,5642.921901464462,23.177566528320312,,4.979474067687988,0.07
294,MetaDrive-test-conv-colab-both,52,138.57945798777325,297174,2322,5661.565356016159,24.427494049072266,,2.088581085205078,0.07
295,MetaDrive-test-conv-colab-both,52,137.0673367418859,298025,2328,5677.822632551193,23.494691848754883,-24.004901885986328,3.997507095336914,0.07
296,MetaDrive-test-conv-colab-both,52,131.6900834749398,299020,2336,5697.017002105713,24.6131591796875,,1.7433630228042603,0.06
297,MetaDrive-test-conv-colab-both,52,131.98551957338677,300246,2344,5721.1229338645935,22.37653350830078,,5.459876537322998,0.06
298,MetaDrive-test-conv-colab-both,52,134.85720233343687,301165,2347,5739.858767747879,26.058082580566406,-26.13540267944336,7.878653526306152,0.07
299,MetaDrive-test-conv-colab-both,52,133.56731788441235,302010,2354,5757.409846782684,23.295486450195312,,3.184053897857666,0.07
300,MetaDrive-test-conv-colab-both,52,134.61099748586892,303021,2360,5779.132935762405,24.78276824951172,-25.198711395263672,3.4739365577697754,0.07
301,MetaDrive-test-conv-colab-both,52,133.49100086947703,304155,2366,5801.465473890305,20.283124923706055,-20.741153717041016,2.683905601501465,0.07
302,MetaDrive-test-conv-colab-both,52,132.51979553515832,305107,2371,5820.064259767532,22.97791290283203,-23.062681198120117,2.7249531745910645,0.06
303,MetaDrive-test-conv-colab-both,52,130.32460212428632,306008,2376,5836.902260303497,23.059476852416992,,2.190174102783203,0.05
304,MetaDrive-test-conv-colab-both,52,123.79270756147108,307016,2383,5857.19980931282,22.305931091308594,,4.443874359130859,0.03
305,MetaDrive-test-conv-colab-both,52,122.58932352461406,308096,2391,5877.3930497169495,24.192852020263672,,8.411091804504395,0.03
306,MetaDrive-test-conv-colab-both,52,118.26615595361623,309177,2397,5899.323365688324,23.174312591552734,-23.427635192871094,3.8997302055358887,0.02
307,MetaDrive-test-conv-colab-both,52,118.58325384185522,310062,2402,5916.645708084106,22.226560592651367,,5.301870346069336,0.01
308,MetaDrive-test-conv-colab-both,52,118.62964939865915,311152,2406,5940.650768995285,21.820953369140625,,6.11981725692749,0.01
309,MetaDrive-test-conv-colab-both,52,120.1299884021233,312128,2411,5960.628825902939,26.324466705322266,,10.231515884399414,0.01
310,MetaDrive-test-conv-colab-both,52,118.02124938662935,313104,2417,5980.153215169907,22.084999084472656,,15.088899612426758,0.01
311,MetaDrive-test-conv-colab-both,52,120.99128906489015,314095,2422,5999.553964614868,21.386085510253906,-21.24605369567871,4.037113189697266,0.02
312,MetaDrive-test-conv-colab-both,52,124.13763672540992,315301,2428,6025.449300527573,25.140605926513672,-25.311363220214844,3.990464210510254,0.03
313,MetaDrive-test-conv-colab-both,52,125.30225790955254,316116,2433,6042.174134254456,26.40101432800293,,2.4560203552246094,0.03
314,MetaDrive-test-conv-colab-both,52,129.57908278248416,317107,2438,6061.535485982895,24.989856719970703,-25.30404281616211,2.0346906185150146,0.04
315,MetaDrive-test-conv-colab-both,52,131.96320070092588,318155,2443,6084.399188518524,22.3277587890625,-22.57830810546875,3.594810724258423,0.04
316,MetaDrive-test-conv-colab-both,52,129.11494904484582,319002,2448,6100.895374059677,23.737018585205078,,3.376768112182617,0.03
317,MetaDrive-test-conv-colab-both,52,131.93359509104283,320033,2454,6120.912766456604,24.390121459960938,-24.410297393798828,3.20015811920166,0.04
318,MetaDrive-test-conv-colab-both,52,131.011389863903,321198,2461,6145.339254617691,23.46215057373047,,2.6790335178375244,0.04
319,MetaDrive-test-conv-colab-both,52,131.40860894796924,322091,2467,6163.7200927734375,25.652971267700195,-25.98155975341797,3.3836703300476074,0.04
320,MetaDrive-test-conv-colab-both,52,129.50363971386932,323356,2474,6190.543385028839,24.6177978515625,,4.015228271484375,0.04
321,MetaDrive-test-conv-colab-both,52,130.7677803512729,324136,2479,6206.106827020645,24.453081130981445,,5.613001346588135,0.04
322,MetaDrive-test-conv-colab-both,52,131.86802210681634,325022,2483,6225.23473238945,22.271503448486328,,2.8079380989074707,0.04
323,MetaDrive-test-conv-colab-both,52,132.77893262539365,326015,2488,6245.794941663742,23.06260108947754,-23.698156356811523,2.902245044708252,0.04
324,MetaDrive-test-conv-colab-both,52,134.72173760471105,327020,2494,6265.96661567688,23.210845947265625,,3.4184443950653076,0.05
325,MetaDrive-test-conv-colab-both,52,132.91436143510447,328097,2501,6286.823921442032,25.639965057373047,-25.835254669189453,8.977230072021484,0.05
326,MetaDrive-test-conv-colab-both,52,131.71178385713597,329065,2506,6307.035780668259,25.882051467895508,-26.597549438476562,17.58443260192871,0.06
327,MetaDrive-test-conv-colab-both,52,130.80296028891755,330249,2513,6332.92879319191,23.81131935119629,-23.963958740234375,2.5509731769561768,0.06
328,MetaDrive-test-conv-colab-both,52,132.93498367658376,331246,2517,6352.17692399025,27.55544662475586,,8.402252197265625,0.07
329,MetaDrive-test-conv-colab-both,52,130.22495318848064,332104,2523,6369.483551502228,23.600929260253906,,4.056370735168457,0.06
330,MetaDrive-test-conv-colab-both,52,126.25001182747127,333032,2529,6387.650895357132,26.538787841796875,,1.5405339002609253,0.05
331,MetaDrive-test-conv-colab-both,52,127.79708788412113,334067,2535,6407.986355781555,24.92017364501953,-25.205202102661133,3.9883389472961426,0.05
332,MetaDrive-test-conv-colab-both,52,124.88228622817932,335083,2541,6428.124910116196,24.28945541381836,-24.486846923828125,4.034224033355713,0.04
333,MetaDrive-test-conv-colab-both,52,124.8027741621756,336064,2547,6448.877637147903,22.781681060791016,,20.723011016845703,0.04
334,MetaDrive-test-conv-colab-both,52,126.12321797764154,337063,2552,6469.243559122086,23.955421447753906,-24.222267150878906,6.771244525909424,0.04
335,MetaDrive-test-conv-colab-both,52,126.24767534340388,338239,2559,6494.359818458557,24.370128631591797,-24.641796112060547,4.564538955688477,0.04
336,MetaDrive-test-conv-colab-both,52,125.05196871571998,339008,2564,6509.857133388519,23.9744930267334,,3.769813299179077,0.04
337,MetaDrive-test-conv-colab-both,52,128.23997823115766,340153,2568,6534.764223814011,25.07638931274414,-25.543254852294922,3.302464246749878,0.04
338,MetaDrive-test-conv-colab-both,52,126.23808788480841,341100,2574,6554.27633523941,23.36773109436035,,3.3186233043670654,0.04
339,MetaDrive-test-conv-colab-both,52,124.01306326201771,342130,2581,6574.411195516586,27.666107177734375,,4.040528297424316,0.04
340,MetaDrive-test-conv-colab-both,52,123.58991223615543,343069,2587,6592.964540243149,21.726110458374023,-22.083908081054688,3.680835247039795,0.04
341,MetaDrive-test-conv-colab-both,52,126.93318101996681,344008,2591,6613.256307840347,26.22524642944336,,2.6336097717285156,0.04
342,MetaDrive-test-conv-colab-both,52,128.81576367747866,345141,2595,6634.71177649498,23.85446548461914,-24.369285583496094,4.2016825675964355,0.05
343,MetaDrive-test-conv-colab-both,52,129.91340299985347,346141,2600,6654.565627336502,23.391468048095703,-23.572555541992188,4.5492377281188965,0.06
344,MetaDrive-test-conv-colab-both,52,126.40067775709919,347020,2606,6672.907287836075,25.266578674316406,,3.4767255783081055,0.05
345,MetaDrive-test-conv-colab-both,51,128.42518431134604,348098,2612,6695.08028960228,26.509212493896484,,25.09200096130371,0.05
346,MetaDrive-test-conv-colab-both,51,128.90718139136231,349092,2616,6715.967999458313,24.432655334472656,,1.7128467559814453,0.05
347,MetaDrive-test-conv-colab-both,51,128.30900360907242,350030,2622,6735.536683797836,24.050899505615234,,3.277474880218506,0.04
348,MetaDrive-test-conv-colab-both,51,128.4436667092822,351247,2629,6760.123359680176,23.87782096862793,-24.498645782470703,5.813390731811523,0.04
349,MetaDrive-test-conv-colab-both,51,128.87577543495166,352120,2633,6777.242721796036,26.171480178833008,,6.643916130065918,0.04
350,MetaDrive-test-conv-colab-both,51,128.0945776236182,353066,2639,6796.195434093475,26.575275421142578,,2.3268556594848633,0.04
351,MetaDrive-test-conv-colab-both,51,129.82693593887367,354083,2644,6816.54718208313,25.096603393554688,-25.51773452758789,5.147351264953613,0.05
352,MetaDrive-test-conv-colab-both,51,131.52919575955409,355110,2650,6837.004010677338,26.027576446533203,,3.8746695518493652,0.05
353,MetaDrive-test-conv-colab-both,51,130.5560907003258,356094,2654,6859.222122192383,26.19513702392578,,5.012779235839844,0.04
354,MetaDrive-test-conv-colab-both,51,130.13964733240428,357020,2659,6877.814576148987,23.67401695251465,,5.234689712524414,0.04
355,MetaDrive-test-conv-colab-both,51,126.93297022031976,358013,2666,6897.308726549149,23.98871612548828,-24.006269454956055,4.561169147491455,0.04
356,MetaDrive-test-conv-colab-both,51,130.1813406387956,359178,2670,6918.765735387802,24.77959442138672,,4.756155967712402,0.06
357,MetaDrive-test-conv-colab-both,51,132.04002080246894,360065,2674,6937.983610391617,27.004138946533203,-27.14219856262207,3.808445692062378,0.06
358,MetaDrive-test-conv-colab-both,51,134.62002476842662,361020,2679,6956.483887195587,23.790882110595703,,2.490124225616455,0.07
359,MetaDrive-test-conv-colab-both,51,136.72770776901717,362224,2684,6980.53399181366,26.145366668701172,,1.9861130714416504,0.08
360,MetaDrive-test-conv-colab-both,51,141.60217383008677,363372,2688,7002.934880256653,23.191911697387695,,8.337865829467773,0.09
361,MetaDrive-test-conv-colab-both,51,139.7862683538261,364065,2692,7016.571666002274,20.89645004272461,-21.602767944335938,3.9472360610961914,0.09
362,MetaDrive-test-conv-colab-both,51,138.6708839301656,365215,2697,7038.22155714035,25.558063507080078,-25.974411010742188,3.1051993370056152,0.07
363,MetaDrive-test-conv-colab-both,51,139.02139235327763,366278,2703,7058.897927284241,24.895809173583984,,3.6349587440490723,0.08
364,MetaDrive-test-conv-colab-both,51,141.95539296764989,367030,2706,7073.8666570186615,25.951692581176758,,7.5197553634643555,0.08
365,MetaDrive-test-conv-colab-both,51,143.78704638538045,368126,2712,7095.486821651459,22.258075714111328,,4.302002429962158,0.1
366,MetaDrive-test-conv-colab-both,51,141.98727006993263,369063,2718,7114.557205438614,23.902917861938477,-23.769149780273438,3.4668946266174316,0.1
367,MetaDrive-test-conv-colab-both,51,142.73933624563327,370107,2724,7135.962587356567,27.013870239257812,-27.156715393066406,5.961521625518799,0.1
368,MetaDrive-test-conv-colab-both,51,147.99524720259677,371327,2727,7165.051901102066,28.653167724609375,-29.107200622558594,2.9821715354919434,0.11
369,MetaDrive-test-conv-colab-both,51,146.07172864546408,372004,2731,7180.056739091873,24.482101440429688,,8.270048141479492,0.11
370,MetaDrive-test-conv-colab-both,51,147.2538691714543,373187,2737,7203.007733345032,26.647003173828125,-26.9213809967041,1.619779348373413,0.12
371,MetaDrive-test-conv-colab-both,51,146.98813556042603,374083,2741,7222.9600286483765,25.884708404541016,-26.160594940185547,3.3359971046447754,0.11
372,MetaDrive-test-conv-colab-both,51,150.6406993507163,375266,2745,7246.3782954216,25.970409393310547,,4.24599552154541,0.11
373,MetaDrive-test-conv-colab-both,51,150.41829489669007,376083,2750,7262.90957570076,25.545255661010742,-25.67729949951172,4.929030418395996,0.12
374,MetaDrive-test-conv-colab-both,51,153.79407621186235,377195,2754,7283.7211830616,24.265708923339844,-24.58830451965332,4.898860454559326,0.14
375,MetaDrive-test-conv-colab-both,51,155.74349776073748,378241,2758,7305.074339866638,22.02497673034668,-22.420818328857422,6.206380367279053,0.14
376,MetaDrive-test-conv-colab-both,51,157.1814238294476,379044,2762,7323.071212053299,25.706218719482422,,3.680905818939209,0.14
377,MetaDrive-test-conv-colab-both,51,156.00230014619902,380315,2769,7348.975116014481,25.922245025634766,-26.52951431274414,4.424073219299316,0.12
378,MetaDrive-test-conv-colab-both,51,154.36931819426437,381089,2774,7363.079035997391,26.522197723388672,-26.899517059326172,5.665197849273682,0.12
379,MetaDrive-test-conv-colab-both,51,153.30329674807092,382086,2779,7385.924384832382,22.84269142150879,,6.25128173828125,0.11
380,MetaDrive-test-conv-colab-both,51,147.90850770738507,383081,2786,7404.629298448563,23.228168487548828,-23.586017608642578,7.568926811218262,0.09
381,MetaDrive-test-conv-colab-both,51,146.26873116644222,384199,2792,7425.969341754913,26.0192928314209,-26.25636863708496,3.001434326171875,0.09
382,MetaDrive-test-conv-colab-both,51,143.82802488646897,385022,2797,7443.808419704437,25.344579696655273,,2.9081830978393555,0.08
383,MetaDrive-test-conv-colab-both,51,144.98292083342133,386151,2803,7465.176193714142,25.089860916137695,-25.192420959472656,2.8821685314178467,0.07
384,MetaDrive-test-conv-colab-both,51,142.84896981035288,387184,2809,7484.843713998795,23.275043487548828,,37.5863151550293,0.06
385,MetaDrive-test-conv-colab-both,51,143.31158825566584,388178,2813,7505.448793172836,26.52910614013672,,5.606177806854248,0.05
386,MetaDrive-test-conv-colab-both,51,144.97004788314808,389199,2817,7526.401735544205,22.915653228759766,-23.274375915527344,3.2690269947052,0.06
387,MetaDrive-test-conv-colab-both,51,146.15264046083246,390139,2821,7547.177770853043,24.599140167236328,-24.836776733398438,3.10089111328125,0.06
388,MetaDrive-test-conv-colab-both,51,140.9743417871313,391184,2827,7567.773656606674,26.100311279296875,,4.167944431304932,0.05
389,MetaDrive-test-conv-colab-both,51,142.40576020973705,392113,2832,7585.203903436661,24.807947158813477,-25.08922576904297,2.8910837173461914,0.06
390,MetaDrive-test-conv-colab-both,51,143.63609579248728,393009,2835,7603.904201030731,23.377273559570312,-23.396289825439453,2.822106122970581,0.06
391,MetaDrive-test-conv-colab-both,51,142.48951491033125,394025,2840,7623.606242656708,22.94513702392578,-22.674152374267578,4.027190208435059,0.06
392,MetaDrive-test-conv-colab-both,51,137.19445007435507,395404,2847,7651.922353982925,25.193822860717773,,6.546738624572754,0.05
393,MetaDrive-test-conv-colab-both,51,138.57766881156678,396351,2851,7671.539184093475,25.753868103027344,-25.9067440032959,3.284043312072754,0.04
394,MetaDrive-test-conv-colab-both,51,137.54843576249107,397040,2854,7684.990106582642,26.063940048217773,,6.947050094604492,0.04
395,MetaDrive-test-conv-colab-both,51,139.0466292844355,398130,2858,7705.231057167053,25.316041946411133,,6.421379089355469,0.06
396,MetaDrive-test-conv-colab-both,51,140.0681509613693,399095,2862,7724.423812866211,25.61210060119629,-26.04109764099121,14.937131881713867,0.07
397,MetaDrive-test-conv-colab-both,51,141.2885036889985,400077,2867,7744.61781835556,25.024913787841797,-25.491376876831055,4.4365034103393555,0.07
398,MetaDrive-test-conv-colab-both,51,141.18954219753851,401119,2873,7764.401536941528,25.054611206054688,-25.14532470703125,4.26661491394043,0.07
399,MetaDrive-test-conv-colab-both,51,145.07838317509672,402466,2877,7794.677256345749,24.204925537109375,,4.936281204223633,0.08
400,MetaDrive-test-conv-colab-both,51,146.08055091456464,403336,2881,7811.982949256897,24.090200424194336,,5.968145370483398,0.09
401,MetaDrive-test-conv-colab-both,51,147.51620114391338,404048,2884,7829.19993853569,23.25693130493164,,5.916858673095703,0.09
402,MetaDrive-test-conv-colab-both,51,149.0164320443879,405136,2890,7851.251021623611,24.866100311279297,,3.8674399852752686,0.09
403,MetaDrive-test-conv-colab-both,51,150.8844474013266,406355,2895,7875.383543729782,24.080263137817383,-24.60363006591797,5.637698650360107,0.09
404,MetaDrive-test-conv-colab-both,51,151.39210584357437,407165,2899,7891.324430704117,25.09266471862793,-25.376441955566406,4.883859157562256,0.1
405,MetaDrive-test-conv-colab-both,51,151.3399234600216,408039,2903,7908.307406663895,21.398967742919922,-21.48198890686035,6.736003398895264,0.1
406,MetaDrive-test-conv-colab-both,51,153.89152712586466,409308,2908,7936.877530574799,26.575119018554688,,4.615309715270996,0.1
407,MetaDrive-test-conv-colab-both,51,154.08123432158987,410061,2911,7953.287312746048,24.59157943725586,-25.19678497314453,5.61423397064209,0.11
408,MetaDrive-test-conv-colab-both,51,153.68429756507922,411298,2916,7976.803685903549,23.78488540649414,,3.7538278102874756,0.11
409,MetaDrive-test-conv-colab-both,51,152.0511174995488,412155,2921,7993.5964024066925,24.748554229736328,-25.058502197265625,4.807276725769043,0.11
410,MetaDrive-test-conv-colab-both,51,153.76468431710532,413097,2926,8013.059718847275,25.764057159423828,-25.769290924072266,5.561046600341797,0.11
411,MetaDrive-test-conv-colab-both,51,157.3452886333992,414138,2930,8031.643912792206,26.045711517333984,,2.805670976638794,0.13
412,MetaDrive-test-conv-colab-both,51,153.74105140778937,415027,2935,8049.672290802002,25.452957153320312,-26.12523078918457,13.070815086364746,0.11
413,MetaDrive-test-conv-colab-both,51,157.3600955366498,416276,2939,8073.090969085693,25.26447296142578,,4.296339988708496,0.13
414,MetaDrive-test-conv-colab-both,51,161.08144566997916,417075,2942,8089.182151317596,25.813867568969727,-26.43564224243164,7.821575164794922,0.13
415,MetaDrive-test-conv-colab-both,51,161.87347362261892,418310,2947,8112.7804317474365,25.164020538330078,,3.759887218475342,0.14
416,MetaDrive-test-conv-colab-both,51,163.77406846815762,419016,2950,8128.835044384003,21.507617950439453,,8.549161911010742,0.14
417,MetaDrive-test-conv-colab-both,51,158.6456659545756,420170,2957,8150.979902267456,24.706600189208984,,4.283904552459717,0.11
418,MetaDrive-test-conv-colab-both,51,157.77537973310936,421081,2962,8169.187839984894,26.064376831054688,-26.358421325683594,2.958218812942505,0.1
419,MetaDrive-test-conv-colab-both,51,157.97020192069547,422024,2966,8187.436165571213,25.776248931884766,,4.249222755432129,0.11
420,MetaDrive-test-conv-colab-both,51,161.28437991162963,423162,2969,8209.8447432518,21.46303367614746,,5.2613205909729,0.12
421,MetaDrive-test-conv-colab-both,51,163.0197188414394,424137,2973,8232.965552568436,25.083175659179688,-25.392810821533203,3.3401150703430176,0.12
422,MetaDrive-test-conv-colab-both,51,159.9698719005419,425167,2978,8253.937631607056,24.98012924194336,-24.724956512451172,5.19191837310791,0.11
423,MetaDrive-test-conv-colab-both,51,161.9268279762639,426071,2981,8271.694845676422,25.38469886779785,-25.557430267333984,2.5002999305725098,0.1
424,MetaDrive-test-conv-colab-both,51,161.87015116090467,427324,2987,8295.786470413208,25.910743713378906,,6.178876876831055,0.1
425,MetaDrive-test-conv-colab-both,51,162.85014012558483,428039,2990,8309.936627388,25.83709144592285,-26.132705688476562,4.646858215332031,0.1
426,MetaDrive-test-conv-colab-both,51,158.89540147859324,429257,2997,8334.311497211456,23.962448120117188,-24.207477569580078,4.390860557556152,0.1
427,MetaDrive-test-conv-colab-both,51,159.06672884510388,430111,3001,8352.931037425995,26.575519561767578,-26.706253051757812,18.371667861938477,0.1
428,MetaDrive-test-conv-colab-both,51,162.4309551939579,431569,3004,8382.669960975647,28.130971908569336,-28.78856658935547,12.101208686828613,0.12
429,MetaDrive-test-conv-colab-both,51,164.2466138928635,432253,3006,8396.396060466766,27.747533798217773,-27.778602600097656,3.175170421600342,0.13
430,MetaDrive-test-conv-colab-both,51,163.29022404531017,433023,3010,8410.062015533447,23.756139755249023,-23.856700897216797,7.505758285522461,0.13
431,MetaDrive-test-conv-colab-both,51,168.55199872253016,434335,3014,8436.979278564453,24.867084503173828,-25.012788772583008,3.933664560317993,0.14
432,MetaDrive-test-conv-colab-both,51,167.39147703517128,435134,3018,8452.88054728508,21.845401763916016,,5.608761310577393,0.13
433,MetaDrive-test-conv-colab-both,51,170.70265484538504,436118,3021,8472.243748426437,28.246135711669922,,7.712540149688721,0.14
434,MetaDrive-test-conv-colab-both,51,171.2324717373201,437111,3026,8492.115183115005,21.671009063720703,-21.9815673828125,5.780106544494629,0.15
435,MetaDrive-test-conv-colab-both,51,168.11717418381875,438226,3033,8514.194725751877,27.323448181152344,,9.197888374328613,0.13
436,MetaDrive-test-conv-colab-both,51,170.33159020297725,439028,3036,8531.66089963913,22.538818359375,,2.976858615875244,0.14
437,MetaDrive-test-conv-colab-both,51,172.53947557963266,440007,3038,8556.526589632034,28.823692321777344,-29.002729415893555,5.351954460144043,0.14
438,MetaDrive-test-conv-colab-both,51,172.31968860676758,441438,3042,8584.13640499115,29.23674774169922,,3.128204822540283,0.15
439,MetaDrive-test-conv-colab-both,51,173.45281544520785,442261,3046,8602.670813560486,25.93634033203125,-25.91684341430664,11.749685287475586,0.15
440,MetaDrive-test-conv-colab-both,51,170.7201993294491,443176,3050,8619.883897304535,27.721595764160156,,4.921990394592285,0.15
441,MetaDrive-test-conv-colab-both,51,171.52481181021406,444129,3055,8639.152891635895,26.708892822265625,-27.115989685058594,7.652530670166016,0.15
442,MetaDrive-test-conv-colab-both,51,174.16563646678068,445250,3059,8662.018520832062,26.989944458007812,,6.503693580627441,0.16
443,MetaDrive-test-conv-colab-both,51,174.7429508725584,446110,3064,8678.242581129074,27.826528549194336,,7.081030368804932,0.16
444,MetaDrive-test-conv-colab-both,51,170.49211497635017,447081,3069,8698.81972026825,27.03825569152832,-26.807903289794922,3.8598856925964355,0.14
445,MetaDrive-test-conv-colab-both,51,172.45627665170935,448211,3073,8726.205073595047,22.700660705566406,-22.55571746826172,3.126723289489746,0.14
446,MetaDrive-test-conv-colab-both,51,173.94125587277995,449145,3077,8744.501472234726,26.52077293395996,-27.138416290283203,5.013933181762695,0.14
447,MetaDrive-test-conv-colab-both,51,171.38739109409627,450319,3083,8768.764855623245,24.629680633544922,-25.042999267578125,6.809294700622559,0.14
448,MetaDrive-test-conv-colab-both,51,173.1091772996627,451077,3086,8785.167982816696,27.525144577026367,-27.953035354614258,3.766601085662842,0.14
449,MetaDrive-test-conv-colab-both,51,171.1251613907703,452278,3092,8808.309693813324,24.831867218017578,,5.826700210571289,0.14
450,MetaDrive-test-conv-colab-both,51,170.2003930753055,453044,3097,8823.087909936905,25.02210235595703,,5.981341361999512,0.13
451,MetaDrive-test-conv-colab-both,51,170.60783692093398,454014,3101,8845.821661233902,27.077356338500977,,2.4649767875671387,0.13
452,MetaDrive-test-conv-colab-both,51,169.46741427601745,455043,3104,8867.47981953621,24.580902099609375,-25.24547576904297,29.10455322265625,0.12
453,MetaDrive-test-conv-colab-both,51,171.28840042924367,456325,3108,8893.979694366455,25.063430786132812,-25.518522262573242,5.365329742431641,0.12
454,MetaDrive-test-conv-colab-both,51,169.2714896550571,457013,3111,8906.569658041,23.84427261352539,-23.494964599609375,8.508172035217285,0.11
455,MetaDrive-test-conv-colab-both,51,171.67218343906995,458376,3114,8932.87120103836,26.35402488708496,,6.773897171020508,0.13
456,MetaDrive-test-conv-colab-both,51,174.06079809127957,459198,3116,8949.728206396103,28.35842514038086,,6.449196815490723,0.14
457,MetaDrive-test-conv-colab-both,51,170.98452472677286,460070,3121,8966.574762105942,26.18146514892578,,3.5549914836883545,0.13
458,MetaDrive-test-conv-colab-both,51,171.0276427117842,461060,3125,8984.570761680603,24.55850601196289,,5.045443534851074,0.14
459,MetaDrive-test-conv-colab-both,51,177.01899038430219,462320,3127,9013.74460029602,25.494159698486328,,2.4065356254577637,0.16
460,MetaDrive-test-conv-colab-both,51,179.77535655525259,463154,3130,9030.96289396286,24.750185012817383,,19.25994873046875,0.17
461,MetaDrive-test-conv-colab-both,51,183.27341906607572,464200,3133,9052.181368350983,25.566516876220703,,3.5362486839294434,0.18
462,MetaDrive-test-conv-colab-both,51,180.2218830767145,465043,3137,9069.185847759247,28.461519241333008,-28.91625213623047,3.791232109069824,0.17
463,MetaDrive-test-conv-colab-both,51,172.781388043657,466003,3143,9087.549986124039,26.959197998046875,-27.11272430419922,4.441231727600098,0.14
464,MetaDrive-test-conv-colab-both,51,171.173716565678,467140,3148,9112.362670183182,25.279754638671875,,2.498953104019165,0.14
465,MetaDrive-test-conv-colab-both,51,172.0472516284656,468037,3152,9130.478048086166,26.25851058959961,-26.303056716918945,5.76229190826416,0.14
466,MetaDrive-test-conv-colab-both,51,172.1553350801288,469027,3157,9150.472090005875,26.13521957397461,-26.900531768798828,7.072110652923584,0.13
467,MetaDrive-test-conv-colab-both,51,169.55928849078944,470085,3164,9170.68104839325,26.991031646728516,-27.187049865722656,15.009422302246094,0.13
468,MetaDrive-test-conv-colab-both,51,167.19456706754514,471135,3170,9192.959053516388,24.43313217163086,-24.959274291992188,4.889203071594238,0.13
469,MetaDrive-test-conv-colab-both,51,167.520466222025,472095,3173,9213.926165342331,25.52326202392578,-25.768478393554688,11.68831729888916,0.14
470,MetaDrive-test-conv-colab-both,51,165.79294324241297,473069,3178,9234.044660568237,26.631742477416992,-26.997936248779297,4.366023063659668,0.14
471,MetaDrive-test-conv-colab-both,51,168.78669909964555,474287,3181,9261.3885140419,28.988489151000977,-29.064918518066406,2.6770074367523193,0.14
472,MetaDrive-test-conv-colab-both,51,170.3439009533027,475145,3184,9279.318717241287,26.4835205078125,-26.244966506958008,6.174161911010742,0.14
473,MetaDrive-test-conv-colab-both,51,172.0120953679438,476114,3187,9299.765388727188,28.94806671142578,,3.6085453033447266,0.15
474,MetaDrive-test-conv-colab-both,51,176.54800828551214,477070,3190,9319.753784656525,25.146141052246094,,4.429604530334473,0.16
475,MetaDrive-test-conv-colab-both,51,173.7884203280894,478011,3195,9340.128306150436,23.71550178527832,-24.19034194946289,7.070851802825928,0.16
476,MetaDrive-test-conv-colab-both,51,175.86719898678987,479122,3200,9365.291979074478,24.704004287719727,,7.581074237823486,0.16
477,MetaDrive-test-conv-colab-both,51,175.08108421108747,480187,3203,9386.343260288239,25.8466796875,-25.740602493286133,4.829672813415527,0.17
478,MetaDrive-test-conv-colab-both,51,168.88603357815842,481167,3208,9405.160043001175,25.65561294555664,-26.334733963012695,7.280475616455078,0.15
479,MetaDrive-test-conv-colab-both,51,167.89314666067756,482400,3212,9428.582776069641,26.473342895507812,,4.518241882324219,0.14
480,MetaDrive-test-conv-colab-both,51,166.54533985107454,483310,3215,9447.149209737778,25.94350814819336,,2.5638017654418945,0.14
481,MetaDrive-test-conv-colab-both,51,167.13287038931105,484132,3218,9463.264335870743,26.453105926513672,,5.527801513671875,0.13
482,MetaDrive-test-conv-colab-both,51,164.01282329977894,485163,3223,9483.837778806686,25.281944274902344,-25.635744094848633,4.261054992675781,0.11
483,MetaDrive-test-conv-colab-both,51,161.9753770056617,486113,3227,9504.397696495056,27.578950881958008,-27.768091201782227,2.699098825454712,0.09
484,MetaDrive-test-conv-colab-both,51,157.075169176862,487003,3232,9524.044122934341,26.69040870666504,-26.95217514038086,4.580789566040039,0.08
485,MetaDrive-test-conv-colab-both,51,156.26873748053293,488208,3238,9547.372383356094,24.53216552734375,,4.289004802703857,0.08
486,MetaDrive-test-conv-colab-both,51,158.8096415756732,489167,3241,9566.421638011932,26.36687469482422,-27.26970863342285,5.503880500793457,0.08
487,MetaDrive-test-conv-colab-both,51,159.06506763079895,490029,3244,9585.40082025528,25.67975616455078,-25.741212844848633,5.279545783996582,0.07
488,MetaDrive-test-conv-colab-both,51,160.0485615144235,491049,3248,9604.815241575241,26.6033935546875,-27.215351104736328,8.251508712768555,0.07
489,MetaDrive-test-conv-colab-both,51,160.33593091987768,492064,3252,9624.626816272736,26.356525421142578,,7.086547374725342,0.08
490,MetaDrive-test-conv-colab-both,51,162.99331042994646,493132,3255,9649.134783029556,27.091270446777344,,5.0445356369018555,0.09
491,MetaDrive-test-conv-colab-both,51,164.5882287140961,494171,3260,9673.137840509415,24.958574295043945,-25.079734802246094,4.316105365753174,0.09
492,MetaDrive-test-conv-colab-both,51,163.76986784739412,495096,3266,9691.536415576935,24.39022445678711,,3.3794572353363037,0.09
493,MetaDrive-test-conv-colab-both,51,164.34115961576126,496118,3270,9712.486986875534,24.900409698486328,,5.091245174407959,0.09
494,MetaDrive-test-conv-colab-both,51,162.29093098744997,497145,3274,9732.751012086868,25.185697555541992,-25.498430252075195,3.6189959049224854,0.09
495,MetaDrive-test-conv-colab-both,51,165.72293687870774,498049,3277,9750.91701245308,28.645069122314453,-28.677570343017578,3.8334622383117676,0.1
496,MetaDrive-test-conv-colab-both,51,162.67721740615713,499195,3282,9773.882720947266,27.100492477416992,-27.541303634643555,2.0927443504333496,0.1
