TanmayH/CS269-RL-project-code/MetaDrive-test-conv-colab/td3/progress.csv
,log_dir,frame_per_second,episode_reward,total_steps,total_episodes,total_time,target_q,actor_loss,critic_loss,success_rate
0,MetaDrive-test-conv-colab,327,2.9290193595735063,1140,2,3.4757184982299805,,,,0.0
1,MetaDrive-test-conv-colab,296,4.964609749003908,2141,3,7.216498374938965,,,,0.0
2,MetaDrive-test-conv-colab,304,6.66118051366352,3142,4,10.317982912063599,,,,0.0
3,MetaDrive-test-conv-colab,306,6.074402087643035,4097,5,13.38313913345337,,,,0.0
4,MetaDrive-test-conv-colab,229,6.951683872041671,5085,6,22.12644672393799,-0.05579546093940735,0.04954932630062103,0.0009145399089902639,0.0
5,MetaDrive-test-conv-colab,159,-0.7581080732162989,6001,31,37.5683069229126,-0.12319625169038773,0.060764163732528687,0.7484974265098572,0.0
6,MetaDrive-test-conv-colab,141,-0.7852972287719397,7002,32,49.628846168518066,-0.027563486248254776,,0.007932368665933609,0.0
7,MetaDrive-test-conv-colab,131,-0.7762408158092322,8003,33,61.08299803733826,-0.017014143988490105,0.014466071501374245,0.009214088320732117,0.0
8,MetaDrive-test-conv-colab,123,-0.7695282058987394,9099,35,73.7616319656372,-0.08614284545183182,0.012158026918768883,0.6181231737136841,0.0
9,MetaDrive-test-conv-colab,119,-0.7933234309389401,10100,36,84.50745511054993,-0.014552799984812737,,0.021628573536872864,0.0
10,MetaDrive-test-conv-colab,114,-0.7862517339213819,11171,38,97.51450252532959,-0.12259400635957718,0.07650095224380493,0.6837610006332397,0.0
11,MetaDrive-test-conv-colab,110,-0.6915410694738896,12172,39,109.90256428718567,-0.0674835816025734,,0.0019676312804222107,0.0
12,MetaDrive-test-conv-colab,107,-0.7267543352849115,13173,40,122.43260550498962,-0.12605372071266174,0.06722980737686157,0.7904917597770691,0.0
13,MetaDrive-test-conv-colab,104,-0.7522022464129533,14174,41,135.03922724723816,-0.13618864119052887,,0.6708313226699829,0.0
14,MetaDrive-test-conv-colab,103,-0.9756133634027296,15502,44,150.06298303604126,-0.0695054680109024,,0.0036820629611611366,0.0
15,MetaDrive-test-conv-colab,101,-1.1901006554053395,16988,47,167.01217103004456,-0.08376497030258179,,0.00205456605181098,0.0
16,MetaDrive-test-conv-colab,101,-1.2690896586975748,17100,48,168.41291284561157,-0.09347417950630188,,0.0007607050938531756,0.0
17,MetaDrive-test-conv-colab,100,-1.4248610131855244,18330,51,181.95300793647766,-0.09257912635803223,,0.01086520031094551,0.0
18,MetaDrive-test-conv-colab,99,-1.5193841940081658,19731,53,197.6552333831787,-0.12487761676311493,0.14637213945388794,0.020156582817435265,0.0
19,MetaDrive-test-conv-colab,99,-1.600929818821906,20104,54,201.88377356529236,-0.1155911237001419,,0.001525241183117032,0.0
20,MetaDrive-test-conv-colab,98,-1.5401742611293898,21105,55,213.34723162651062,-0.12583813071250916,0.1321030855178833,0.0003116204170510173,0.0
21,MetaDrive-test-conv-colab,98,-1.464715486033018,22106,56,224.20139503479004,-0.12575121223926544,,0.002174259629100561,0.0
22,MetaDrive-test-conv-colab,98,-1.4356885093064906,23206,58,235.57049822807312,-0.13148704171180725,,0.0014577496331185102,0.0
23,MetaDrive-test-conv-colab,97,-1.5011779903773383,24283,60,247.95310735702515,-0.1469365805387497,0.137858048081398,0.00733731035143137,0.0
24,MetaDrive-test-conv-colab,95,-1.8185467767043362,25026,88,262.22875714302063,-0.14921684563159943,,0.005661875940859318,0.0
25,MetaDrive-test-conv-colab,92,-0.22710814266624624,26023,119,282.47556614875793,-0.005533447023481131,0.002373614115640521,0.016827156767249107,0.0
26,MetaDrive-test-conv-colab,90,1.6561275177795975,27012,149,298.98056173324585,0.11210591346025467,,0.014998991042375565,0.0
27,MetaDrive-test-conv-colab,88,3.9015948002087537,28022,178,315.0455777645111,0.2230375111103058,,0.27041712403297424,0.0
28,MetaDrive-test-conv-colab,87,6.888084121353762,29055,200,330.6705536842346,0.44715431332588196,-0.6650182008743286,1.0262887477874756,0.0
29,MetaDrive-test-conv-colab,86,11.773820104678604,30056,213,346.4318208694458,0.8521438837051392,,0.079267218708992,0.0
30,MetaDrive-test-conv-colab,85,14.880966224717163,31065,228,362.8027744293213,1.2797702550888062,-1.334223747253418,0.06489627063274384,0.0
31,MetaDrive-test-conv-colab,84,19.92375714251131,32052,240,378.57555627822876,1.6800510883331299,,0.14284443855285645,0.0
32,MetaDrive-test-conv-colab,84,23.330968980595117,33020,253,392.24430084228516,2.1922903060913086,,0.0702492743730545,0.0
33,MetaDrive-test-conv-colab,83,27.406073974718105,34024,264,406.05441761016846,2.6872828006744385,,0.0757233053445816,0.0
34,MetaDrive-test-conv-colab,83,31.54043990639972,35120,275,422.09239530563354,3.230947494506836,,3.6222898960113525,0.0
35,MetaDrive-test-conv-colab,82,35.60516444690851,36086,287,435.7269365787506,3.9731922149658203,,0.18596655130386353,0.0
36,MetaDrive-test-conv-colab,82,36.64011087761088,37034,300,449.19874596595764,4.453979015350342,,2.5704007148742676,0.0
37,MetaDrive-test-conv-colab,82,37.37342838780594,38071,312,464.06169509887695,5.289008617401123,-5.253122329711914,0.30269378423690796,0.0
38,MetaDrive-test-conv-colab,81,38.59326580617478,39017,321,475.9155750274658,5.648371696472168,-5.911075592041016,3.545650005340576,0.0
39,MetaDrive-test-conv-colab,81,40.99810546250523,40097,331,491.53382444381714,6.419399261474609,-6.520855903625488,4.188037395477295,0.0
40,MetaDrive-test-conv-colab,81,44.699181363442484,41011,337,504.6032962799072,7.177593231201172,-7.4653120040893555,3.967318534851074,0.0
41,MetaDrive-test-conv-colab,80,48.612333420449204,42007,345,519.9236400127411,7.791678428649902,-8.035786628723145,10.952592849731445,0.0
42,MetaDrive-test-conv-colab,80,52.351321941923395,43056,351,534.8196346759796,8.378478050231934,,0.25642117857933044,0.0
43,MetaDrive-test-conv-colab,80,57.062757998695844,44156,358,549.2037301063538,9.58403205871582,,7.180885314941406,0.0
44,MetaDrive-test-conv-colab,80,59.186902105756225,45092,364,561.4569942951202,9.745439529418945,,0.8704005479812622,0.0
45,MetaDrive-test-conv-colab,80,63.42168456008461,46197,370,574.9590353965759,10.959407806396484,-10.776634216308594,0.7878742218017578,0.0
46,MetaDrive-test-conv-colab,80,65.97281783042645,47228,375,590.2232844829559,10.815065383911133,,10.190231323242188,0.0
47,MetaDrive-test-conv-colab,79,71.2879265408631,48324,380,606.3571124076843,12.722953796386719,,0.2635355293750763,0.0
48,MetaDrive-test-conv-colab,79,75.5664064417845,49050,384,617.1716964244843,13.454975128173828,,2.259854316711426,0.0
49,MetaDrive-test-conv-colab,79,77.17993496398606,50035,390,630.9297082424164,14.173229217529297,-14.668712615966797,0.8256919384002686,0.0
50,MetaDrive-test-conv-colab,79,82.7227038114963,51035,395,644.0801751613617,14.17357349395752,-14.851469039916992,1.2674198150634766,0.01
51,MetaDrive-test-conv-colab,78,85.89452553531535,52164,402,660.7005941867828,14.464401245117188,,17.58541488647461,0.01
52,MetaDrive-test-conv-colab,78,91.5279137040452,53103,405,675.2729337215424,15.358226776123047,-15.621601104736328,12.221853256225586,0.01
53,MetaDrive-test-conv-colab,78,92.86408448352172,54229,414,690.2166471481323,16.182327270507812,-16.25882911682129,10.098569869995117,0.01
54,MetaDrive-test-conv-colab,78,95.63650663536347,55294,420,703.8432822227478,16.452775955200195,,17.95899200439453,0.02
55,MetaDrive-test-conv-colab,78,94.9650969320824,56058,426,714.2419950962067,18.34571075439453,,1.4111889600753784,0.02
56,MetaDrive-test-conv-colab,78,96.7862131549683,57060,433,727.3767373561859,17.158706665039062,,1.1946496963500977,0.02
57,MetaDrive-test-conv-colab,78,98.62041101570709,58084,439,740.8032350540161,19.665142059326172,,1.5712108612060547,0.02
58,MetaDrive-test-conv-colab,78,99.44442148841979,59081,447,754.0385434627533,18.88550567626953,-19.229360580444336,1.42465078830719,0.02
59,MetaDrive-test-conv-colab,78,98.32980843619808,60071,453,768.1145000457764,21.16177749633789,-21.589372634887695,15.172698974609375,0.02
60,MetaDrive-test-conv-colab,78,98.83976491979728,61049,460,780.8927488327026,21.54769515991211,-21.43633270263672,2.289605140686035,0.02
61,MetaDrive-test-conv-colab,78,98.77988579118977,62112,468,795.9491386413574,21.326967239379883,,3.126697063446045,0.02
62,MetaDrive-test-conv-colab,77,98.25888479173736,63144,475,810.7128829956055,23.601764678955078,,4.190491676330566,0.02
63,MetaDrive-test-conv-colab,77,95.67948454305412,64076,482,824.3187582492828,23.530195236206055,,1.358074426651001,0.02
64,MetaDrive-test-conv-colab,77,95.20381752004516,65024,489,839.1062030792236,21.840980529785156,,7.1598124504089355,0.02
65,MetaDrive-test-conv-colab,77,95.25368594716073,66024,496,852.4490151405334,23.053056716918945,,25.282135009765625,0.01
66,MetaDrive-test-conv-colab,77,92.06091415728935,67178,506,867.7757229804993,24.306224822998047,,47.19532012939453,0.01
67,MetaDrive-test-conv-colab,77,94.56910651188275,68028,513,879.9038841724396,27.219417572021484,,2.019176959991455,0.01
68,MetaDrive-test-conv-colab,77,93.86433343114669,69139,522,894.3674881458282,25.185657501220703,-25.590595245361328,1.4039517641067505,0.0
69,MetaDrive-test-conv-colab,77,96.022794932633,70047,529,907.5304067134857,25.844619750976562,-26.412822723388672,6.494742393493652,0.0
70,MetaDrive-test-conv-colab,77,92.51896536915265,71090,539,922.2171022891998,27.257129669189453,,7.271151542663574,0.0
71,MetaDrive-test-conv-colab,76,93.58825168230135,72060,547,936.5287342071533,28.749841690063477,,1.4843366146087646,0.0
72,MetaDrive-test-conv-colab,76,89.69439599273275,73094,557,951.3775851726532,28.740564346313477,,25.541702270507812,0.0
73,MetaDrive-test-conv-colab,76,90.99714324790293,74114,565,967.1619622707367,28.086549758911133,,4.311124801635742,0.0
74,MetaDrive-test-conv-colab,76,89.84148019796811,75056,573,979.8337314128876,27.48602294921875,,19.91876220703125,0.0
75,MetaDrive-test-conv-colab,76,91.43568411708736,76037,580,993.5710582733154,30.574251174926758,-30.443069458007812,8.076797485351562,0.0
76,MetaDrive-test-conv-colab,76,89.75195123461998,77076,590,1008.9501712322235,30.476438522338867,,35.67080307006836,0.0
77,MetaDrive-test-conv-colab,76,88.15128893507888,78128,599,1022.7451500892639,30.26655387878418,,3.5316901206970215,0.0
78,MetaDrive-test-conv-colab,76,88.34121337345488,79044,607,1035.239330291748,30.377304077148438,,3.0553033351898193,0.0
79,MetaDrive-test-conv-colab,76,90.19366461361966,80125,615,1050.9063563346863,31.74740982055664,-32.02089309692383,2.390287399291992,0.0
80,MetaDrive-test-conv-colab,76,88.30928895084072,81026,623,1065.1620080471039,32.91524124145508,,2.5710232257843018,0.0
81,MetaDrive-test-conv-colab,76,87.9500579843852,82071,633,1079.4705255031586,30.29095458984375,-30.618724822998047,17.901756286621094,0.0
82,MetaDrive-test-conv-colab,75,90.71160926366318,83145,641,1095.4668216705322,33.66274642944336,-33.95347595214844,2.3910627365112305,0.0
83,MetaDrive-test-conv-colab,75,90.53306889913594,84042,649,1107.2852575778961,31.245534896850586,,51.309181213378906,0.0
84,MetaDrive-test-conv-colab,75,94.22376572250977,85094,655,1122.7819249629974,32.29686737060547,,3.782898187637329,0.0
85,MetaDrive-test-conv-colab,75,94.39322142730447,86073,663,1136.7152576446533,34.23622512817383,-34.478050231933594,1.6052577495574951,0.0
86,MetaDrive-test-conv-colab,75,95.42276130649842,87060,670,1150.2457191944122,33.0902099609375,,88.18901062011719,0.0
87,MetaDrive-test-conv-colab,75,94.85094183648607,88058,678,1164.5499832630157,33.58403396606445,,14.871297836303711,0.01
88,MetaDrive-test-conv-colab,75,97.68564432761794,89006,684,1176.6151008605957,31.5972900390625,,4.942429542541504,0.01
89,MetaDrive-test-conv-colab,75,99.01000067733888,90042,691,1191.943107366562,35.65908432006836,,63.03211212158203,0.01
90,MetaDrive-test-conv-colab,75,99.70049311391665,91892,694,1218.6669611930847,31.568431854248047,,4.45876407623291,0.01
91,MetaDrive-test-conv-colab,75,99.39774708927632,92130,695,1221.5283741950989,33.827003479003906,,21.640182495117188,0.01
92,MetaDrive-test-conv-colab,75,102.48964213112126,93116,696,1237.6922380924225,35.7283935546875,,4.291476726531982,0.02
93,MetaDrive-test-conv-colab,75,105.06247947372131,94724,699,1261.5400366783142,35.23780059814453,,19.917552947998047,0.03
94,MetaDrive-test-conv-colab,74,106.2183331393781,95358,700,1273.3610565662384,34.09958267211914,,43.686912536621094,0.03
95,MetaDrive-test-conv-colab,74,104.34862673690151,96457,702,1291.174118757248,35.456451416015625,-35.623260498046875,3.1603760719299316,0.03
96,MetaDrive-test-conv-colab,74,104.31077780220832,97157,703,1303.1746459007263,36.594749450683594,-36.48687744140625,5.216846466064453,0.03
97,MetaDrive-test-conv-colab,74,105.22692659506428,98033,705,1315.7470803260803,33.454830169677734,-33.875831604003906,36.40538024902344,0.04
98,MetaDrive-test-conv-colab,74,104.08805073559473,99770,709,1342.9747545719147,38.179649353027344,,36.05348587036133,0.04
99,MetaDrive-test-conv-colab,74,103.03579703669361,100956,711,1363.7435245513916,31.33013916015625,,7.721525192260742,0.04
100,MetaDrive-test-conv-colab,74,104.72184918048738,101446,712,1370.2600321769714,36.261566162109375,,4.491113662719727,0.05
101,MetaDrive-test-conv-colab,74,108.56590418787138,102478,716,1384.2428426742554,33.12921142578125,,4.202489852905273,0.07
102,MetaDrive-test-conv-colab,73,107.95984397382881,103479,717,1399.1621067523956,35.24144744873047,-35.144630432128906,3.2876360416412354,0.07
103,MetaDrive-test-conv-colab,73,107.94856580770042,104203,718,1410.7382905483246,34.551605224609375,-35.43556213378906,63.258018493652344,0.07
104,MetaDrive-test-conv-colab,73,106.87186122758385,105013,719,1423.3255321979523,37.579505920410156,-38.97199630737305,108.58087158203125,0.07
105,MetaDrive-test-conv-colab,73,106.29188051641071,106905,723,1448.2347903251648,31.503915786743164,-31.80895233154297,7.216061592102051,0.07
106,MetaDrive-test-conv-colab,73,105.02351040292179,107906,724,1465.807472705841,34.807762145996094,,6.434868812561035,0.07
107,MetaDrive-test-conv-colab,73,107.46371767665269,108414,725,1473.1721847057343,34.452972412109375,,3.491004467010498,0.08
108,MetaDrive-test-conv-colab,73,112.9044873615107,109635,728,1491.7980983257294,29.471485137939453,-29.69686508178711,45.94190979003906,0.09
109,MetaDrive-test-conv-colab,73,113.92155860235566,110875,730,1512.15083694458,34.71629333496094,-33.37196350097656,7.815338611602783,0.09
110,MetaDrive-test-conv-colab,73,114.50075262312625,111034,731,1513.9711048603058,31.74936294555664,,60.94383239746094,0.09
111,MetaDrive-test-conv-colab,73,117.09306987205167,112139,734,1528.4344747066498,32.99580383300781,-34.34272766113281,25.43515396118164,0.1
112,MetaDrive-test-conv-colab,73,120.24340668811311,113030,736,1541.3235821723938,35.92243957519531,,39.7420768737793,0.1
113,MetaDrive-test-conv-colab,73,117.44322040638086,114109,741,1555.7479765415192,38.374290466308594,-38.087276458740234,4.131982803344727,0.1
114,MetaDrive-test-conv-colab,73,121.87363825565564,115227,745,1569.433032989502,36.616214752197266,-37.12677001953125,2.6211605072021484,0.11
115,MetaDrive-test-conv-colab,73,124.65761583688548,116537,748,1590.6627261638641,36.27552032470703,-36.713844299316406,4.522407054901123,0.12
116,MetaDrive-test-conv-colab,73,124.75071739471736,117797,751,1606.4513335227966,38.03710174560547,-38.49934768676758,26.473388671875,0.12
117,MetaDrive-test-conv-colab,73,124.52231076550719,118006,752,1609.6193571090698,31.70891571044922,,4.067893028259277,0.12
118,MetaDrive-test-conv-colab,73,124.37023072835805,119208,757,1622.8637297153473,34.73180389404297,,21.15811538696289,0.13
119,MetaDrive-test-conv-colab,73,127.3789891596668,120209,758,1636.3539299964905,34.7421989440918,-35.58561325073242,2.791759967803955,0.13
120,MetaDrive-test-conv-colab,73,127.1389651385785,121111,763,1649.4915997982025,31.33788299560547,-31.395355224609375,12.71010971069336,0.13
121,MetaDrive-test-conv-colab,73,126.1520490856069,122102,769,1662.084852695465,36.25271224975586,,5.490920066833496,0.13
122,MetaDrive-test-conv-colab,73,129.8324093315355,123205,774,1676.965121269226,31.903528213500977,-32.362518310546875,3.6099748611450195,0.13
123,MetaDrive-test-conv-colab,73,129.5498223600839,124859,779,1699.050260066986,38.126163482666016,-39.309688568115234,29.44524574279785,0.14
124,MetaDrive-test-conv-colab,73,131.63699548792275,125356,780,1704.916927576065,35.08082962036133,,28.541057586669922,0.15
125,MetaDrive-test-conv-colab,73,133.02000257070048,126166,782,1719.6109244823456,33.27225875854492,,9.521471977233887,0.15
126,MetaDrive-test-conv-colab,73,135.4697026030566,127811,787,1743.6572048664093,34.443504333496094,-35.3839111328125,8.535882949829102,0.16
127,MetaDrive-test-conv-colab,73,135.39551943283584,128135,789,1747.698618888855,35.83184814453125,-36.31272888183594,3.662046432495117,0.16
128,MetaDrive-test-conv-colab,73,137.12494734028093,129376,793,1767.123437166214,35.13977813720703,,5.552255630493164,0.16
129,MetaDrive-test-conv-colab,73,139.12564342170685,130106,795,1779.2809042930603,34.97281265258789,,6.923251152038574,0.17
130,MetaDrive-test-conv-colab,73,137.82050558555358,131329,798,1795.2890696525574,35.34808349609375,-35.65312957763672,3.545257568359375,0.17
131,MetaDrive-test-conv-colab,73,139.4195689055975,132087,800,1806.225775718689,34.412776947021484,-35.529815673828125,4.432050704956055,0.18
132,MetaDrive-test-conv-colab,73,145.36693269154873,133338,804,1822.0581703186035,36.155494689941406,,5.381466865539551,0.18
133,MetaDrive-test-conv-colab,73,142.81380455299927,134129,810,1833.8022060394287,37.82856750488281,-39.25472640991211,54.540489196777344,0.17
134,MetaDrive-test-conv-colab,73,144.8521863395938,135181,813,1848.3734712600708,35.33249282836914,-35.74033737182617,4.519281387329102,0.17
135,MetaDrive-test-conv-colab,73,142.72458069963406,136064,817,1862.627741575241,37.1674690246582,,14.803136825561523,0.15
136,MetaDrive-test-conv-colab,73,146.46773212890986,137287,823,1879.5125675201416,34.38685607910156,-34.30462646484375,7.504729270935059,0.16
137,MetaDrive-test-conv-colab,73,147.12492096991488,138043,825,1889.19895029068,33.88465881347656,-34.693359375,5.632113933563232,0.16
138,MetaDrive-test-conv-colab,72,143.26915995379014,139055,830,1906.656137228012,37.284549713134766,-37.07136154174805,10.796520233154297,0.15
139,MetaDrive-test-conv-colab,72,144.9047277474718,140031,832,1919.2135050296783,41.35762405395508,-41.27097702026367,3.484065532684326,0.15
140,MetaDrive-test-conv-colab,73,144.72810917760856,141117,836,1932.214205980301,34.99475860595703,-35.110740661621094,7.21232271194458,0.16
141,MetaDrive-test-conv-colab,72,147.2041709554071,142415,841,1951.0947215557098,36.00035858154297,-36.82963943481445,4.655954360961914,0.17
142,MetaDrive-test-conv-colab,72,147.25992261608656,143466,843,1965.336950302124,36.343894958496094,,12.50856876373291,0.17
143,MetaDrive-test-conv-colab,73,146.67992619431865,144277,847,1975.8846683502197,35.62276840209961,-35.2727165222168,11.461446762084961,0.17
144,MetaDrive-test-conv-colab,72,144.2298533711487,145525,851,1995.8057799339294,34.42784881591797,-34.23462677001953,3.6319477558135986,0.16
145,MetaDrive-test-conv-colab,72,144.5662587140689,146033,853,2004.0458600521088,35.81205749511719,-36.885040283203125,8.360170364379883,0.16
146,MetaDrive-test-conv-colab,72,144.75090098599148,147587,857,2031.836591720581,36.53401184082031,-37.33799743652344,42.29853820800781,0.15
147,MetaDrive-test-conv-colab,72,145.61559035755022,148603,860,2046.3849792480469,39.093772888183594,-38.58428192138672,11.005590438842773,0.16
148,MetaDrive-test-conv-colab,72,145.35903647098579,149147,862,2054.9307477474213,34.4617919921875,-35.30854034423828,5.39970588684082,0.16
149,MetaDrive-test-conv-colab,72,148.44440197861215,150135,865,2067.4756104946136,36.780975341796875,-37.247615814208984,13.19145679473877,0.16
150,MetaDrive-test-conv-colab,72,148.3214391986087,151010,867,2080.7426307201385,35.883453369140625,,13.455195426940918,0.16
151,MetaDrive-test-conv-colab,72,151.59632272573305,152622,871,2103.0022478103638,36.915740966796875,,8.484222412109375,0.17
152,MetaDrive-test-conv-colab,72,151.13769932529513,153001,873,2108.8929522037506,34.18070983886719,-34.13845443725586,1.9768518209457397,0.17
153,MetaDrive-test-conv-colab,72,148.6761440609557,154147,879,2123.507865190506,34.60736846923828,-34.53890609741211,3.6627964973449707,0.16
154,MetaDrive-test-conv-colab,72,146.0421738621323,155052,882,2134.290958404541,36.07170867919922,,21.140518188476562,0.16
155,MetaDrive-test-conv-colab,72,147.70018755512837,156186,886,2151.30974149704,35.916378021240234,,5.895431995391846,0.17
156,MetaDrive-test-conv-colab,72,146.8990395152911,157185,889,2165.27188038826,38.83653259277344,-38.97727966308594,40.395957946777344,0.17
157,MetaDrive-test-conv-colab,72,146.85607635725495,158239,893,2181.8163595199585,37.2453498840332,-38.139671325683594,4.3246259689331055,0.17
158,MetaDrive-test-conv-colab,72,146.40952814226074,159417,895,2203.2579596042633,32.97272491455078,-33.77504348754883,20.110218048095703,0.16
159,MetaDrive-test-conv-colab,72,146.19622774985285,160088,897,2212.3873550891876,34.96749496459961,,4.8680009841918945,0.15
160,MetaDrive-test-conv-colab,72,147.385163095317,161158,899,2227.953670978546,37.66459274291992,,6.163595199584961,0.15
161,MetaDrive-test-conv-colab,72,144.0854003533731,162098,903,2240.102880716324,35.73686218261719,,3.4177563190460205,0.14
162,MetaDrive-test-conv-colab,72,147.64129868598332,163167,906,2254.8305761814117,35.87750244140625,-35.63507080078125,6.457634925842285,0.16
163,MetaDrive-test-conv-colab,72,152.17999999672824,164249,909,2269.8819324970245,35.94354248046875,-36.17095184326172,4.157588481903076,0.16
164,MetaDrive-test-conv-colab,72,145.621155483817,165181,915,2283.922117471695,38.39593505859375,-37.883277893066406,4.605558395385742,0.15
165,MetaDrive-test-conv-colab,72,149.2759270690834,166153,918,2297.2675626277924,34.077186584472656,-34.48113250732422,8.362876892089844,0.16
166,MetaDrive-test-conv-colab,72,151.46150497284708,167069,921,2311.7261486053467,37.10954284667969,-36.959449768066406,2.622157573699951,0.16
167,MetaDrive-test-conv-colab,72,149.46108451435134,168016,925,2324.1104171276093,34.92109680175781,,23.77591896057129,0.15
168,MetaDrive-test-conv-colab,72,153.69798884963362,169257,928,2339.743150472641,35.13689041137695,-35.54135513305664,7.648282051086426,0.17
169,MetaDrive-test-conv-colab,72,157.6869732600569,170216,930,2352.2941019535065,37.38015365600586,,9.353887557983398,0.19
170,MetaDrive-test-conv-colab,72,157.40033727067413,171080,932,2364.4238607883453,37.62165832519531,,9.097650527954102,0.19
171,MetaDrive-test-conv-colab,72,159.5498332253702,172499,934,2386.287934064865,38.70795822143555,-39.18983459472656,4.097412586212158,0.19
172,MetaDrive-test-conv-colab,72,159.92438563075032,173073,936,2393.1960010528564,37.055335998535156,-37.495582580566406,13.045615196228027,0.2
173,MetaDrive-test-conv-colab,72,158.20537524503686,174645,942,2415.275269985199,40.77898406982422,-40.20345687866211,9.097423553466797,0.19
174,MetaDrive-test-conv-colab,72,159.80954216306313,175158,943,2422.0502455234528,35.698570251464844,,3.7427616119384766,0.2
175,MetaDrive-test-conv-colab,72,161.09350476639568,176200,946,2437.8253889083862,34.904029846191406,,2.3952064514160156,0.2
176,MetaDrive-test-conv-colab,72,161.68121321755368,177148,947,2448.537896633148,38.31834030151367,,9.950252532958984,0.21
177,MetaDrive-test-conv-colab,72,161.07044882033054,178175,951,2463.5410759449005,37.053531646728516,-37.78451156616211,2.179880142211914,0.21
178,MetaDrive-test-conv-colab,72,163.18132591008728,179062,954,2475.122499704361,35.04503631591797,,5.377562522888184,0.22
179,MetaDrive-test-conv-colab,72,167.28398060910095,180379,956,2496.6013028621674,38.05640411376953,-38.542484283447266,4.653558254241943,0.23
180,MetaDrive-test-conv-colab,72,169.416911529367,181181,957,2507.769653081894,37.81034851074219,-37.904869079589844,6.326611518859863,0.24
181,MetaDrive-test-conv-colab,72,172.60058241249462,182073,959,2520.472772359848,35.499168395996094,-35.61993408203125,6.08977746963501,0.25
182,MetaDrive-test-conv-colab,72,172.06656620506658,183010,962,2533.3604187965393,35.41341018676758,,4.946098327636719,0.25
183,MetaDrive-test-conv-colab,72,171.16026135883655,184087,965,2547.892665863037,35.357177734375,-35.70903015136719,4.632664680480957,0.25
184,MetaDrive-test-conv-colab,72,171.59864496485122,185013,969,2560.3703763484955,37.885093688964844,-38.182369232177734,4.442028045654297,0.25
185,MetaDrive-test-conv-colab,72,170.0441007040402,186344,973,2578.0978899002075,41.32904815673828,,7.505446910858154,0.25
186,MetaDrive-test-conv-colab,72,172.42077419239052,187847,976,2595.873542070389,39.693016052246094,-39.389163970947266,6.187530040740967,0.25
187,MetaDrive-test-conv-colab,72,175.2223624438987,188428,977,2603.520603656769,38.33966827392578,,4.2658562660217285,0.26
188,MetaDrive-test-conv-colab,72,173.85427946038718,189080,979,2615.6065397262573,37.2322998046875,,31.785608291625977,0.25
189,MetaDrive-test-conv-colab,72,173.83220998329472,190104,982,2628.5827226638794,34.53424835205078,,5.297231674194336,0.25
190,MetaDrive-test-conv-colab,72,170.87237174828815,191425,987,2648.696097135544,36.20204544067383,-36.61259460449219,3.054431438446045,0.23
191,MetaDrive-test-conv-colab,72,172.3119230131165,192738,989,2666.8078269958496,39.70916748046875,,3.9873571395874023,0.23
192,MetaDrive-test-conv-colab,72,173.08933824673332,193739,990,2677.9417259693146,38.4937744140625,-38.14079284667969,4.375645160675049,0.23
193,MetaDrive-test-conv-colab,72,171.69397959052813,194020,992,2681.778595685959,37.56073760986328,,11.870674133300781,0.23
194,MetaDrive-test-conv-colab,72,168.23213172199826,195249,995,2695.006331205368,39.12751770019531,-39.805267333984375,4.587157249450684,0.23
195,MetaDrive-test-conv-colab,72,165.6211106076819,196360,1000,2710.4559195041656,38.22214126586914,,14.074379920959473,0.23
196,MetaDrive-test-conv-colab,72,167.81101218197873,197254,1002,2723.420222759247,42.1751594543457,,9.325368881225586,0.24
197,MetaDrive-test-conv-colab,72,166.39846386651644,198080,1005,2735.063460826874,38.58696365356445,,3.0780982971191406,0.23
198,MetaDrive-test-conv-colab,72,166.1434519014703,199193,1007,2753.90584731102,35.656898498535156,-36.168067932128906,10.650005340576172,0.22
199,MetaDrive-test-conv-colab,72,166.58252499083676,200207,1010,2766.2041075229645,38.834617614746094,-38.38713073730469,8.49063491821289,0.23
200,MetaDrive-test-conv-colab,72,170.39603940294091,201300,1012,2780.1469490528107,41.12084197998047,,3.6793932914733887,0.24
201,MetaDrive-test-conv-colab,72,174.04992347661582,202103,1013,2792.184709072113,39.224510192871094,-39.76898193359375,5.656970024108887,0.25
202,MetaDrive-test-conv-colab,72,177.4621579513174,203140,1016,2805.2667214870453,37.92136764526367,,4.112953186035156,0.26
203,MetaDrive-test-conv-colab,72,176.23119432419168,204870,1020,2828.2709908485413,32.370079040527344,,26.730606079101562,0.26
204,MetaDrive-test-conv-colab,72,179.13010117291486,205687,1021,2838.5949771404266,36.50068664550781,-36.11919403076172,4.731814384460449,0.27
205,MetaDrive-test-conv-colab,72,178.0387954092759,206122,1022,2845.063461780548,39.74974060058594,,54.50291061401367,0.26
206,MetaDrive-test-conv-colab,72,180.50554345526336,207123,1023,2857.1993198394775,35.136112213134766,-35.2049446105957,12.003396034240723,0.26
207,MetaDrive-test-conv-colab,72,184.7431738221303,208343,1025,2876.721781730652,39.25230407714844,-39.26887130737305,3.814302682876587,0.27
208,MetaDrive-test-conv-colab,72,186.02860308455786,209359,1027,2889.0506060123444,39.072505950927734,-38.67613220214844,6.5039777755737305,0.27
209,MetaDrive-test-conv-colab,72,183.8772495082341,210037,1029,2897.980983018875,41.116477966308594,-41.422943115234375,40.11405944824219,0.25
210,MetaDrive-test-conv-colab,72,184.01196591432165,211624,1031,2925.438645362854,38.23992919921875,,15.028480529785156,0.25
211,MetaDrive-test-conv-colab,72,183.56359855794963,212068,1032,2930.457117795944,37.60391616821289,,5.926248550415039,0.25
212,MetaDrive-test-conv-colab,72,180.6470559084068,213019,1035,2942.305812597275,36.53038787841797,-36.7337646484375,20.15603256225586,0.23
213,MetaDrive-test-conv-colab,72,182.46175525632378,214020,1036,2952.6754021644592,39.81028747558594,,4.905088901519775,0.23
214,MetaDrive-test-conv-colab,72,184.15311521610278,215021,1037,2968.6238865852356,36.992549896240234,-37.614418029785156,7.110072135925293,0.23
215,MetaDrive-test-conv-colab,72,185.53624909763957,216022,1038,2983.51766705513,40.82645034790039,,7.65406608581543,0.23
216,MetaDrive-test-conv-colab,72,186.39309349732883,217269,1042,2997.354870557785,39.767799377441406,-40.28111267089844,7.304021835327148,0.23
217,MetaDrive-test-conv-colab,72,189.26998339981958,218947,1044,3023.044756412506,36.497074127197266,-36.856712341308594,2.3455567359924316,0.23
218,MetaDrive-test-conv-colab,72,190.3259833708422,219948,1045,3037.5785343647003,36.208003997802734,,34.356163024902344,0.23
219,MetaDrive-test-conv-colab,72,189.9328954791083,220083,1046,3039.6842234134674,38.35289764404297,-38.265804290771484,4.956957817077637,0.23
220,MetaDrive-test-conv-colab,72,192.9101370040878,221868,1048,3060.9503428936005,41.51317596435547,,3.539358615875244,0.23
221,MetaDrive-test-conv-colab,72,193.77897113445127,222137,1049,3064.7983796596527,37.39000701904297,-38.37009811401367,2.6670145988464355,0.23
222,MetaDrive-test-conv-colab,72,196.5027525939703,223961,1052,3090.4359595775604,37.57514190673828,-37.44158172607422,5.913570404052734,0.23
223,MetaDrive-test-conv-colab,72,197.66850876271633,224962,1053,3103.0301744937897,37.34101867675781,,9.028350830078125,0.23
224,MetaDrive-test-conv-colab,72,198.44343465255105,225312,1054,3109.980694293976,37.072898864746094,,1.7112030982971191,0.23
225,MetaDrive-test-conv-colab,72,193.09034297273973,226418,1057,3124.5901107788086,38.471099853515625,,44.64789962768555,0.22
226,MetaDrive-test-conv-colab,72,192.68056923907312,227272,1059,3134.423344373703,38.38203048706055,,6.301840782165527,0.22
227,MetaDrive-test-conv-colab,72,193.95759686235056,228965,1062,3162.0921676158905,35.587860107421875,-36.09310531616211,5.716300964355469,0.21
228,MetaDrive-test-conv-colab,72,194.89671955232603,229456,1063,3168.093073606491,37.67578125,,6.685154438018799,0.22
229,MetaDrive-test-conv-colab,72,195.73153218162358,230131,1065,3178.696324110031,37.13874053955078,-37.223846435546875,2.470653533935547,0.22
230,MetaDrive-test-conv-colab,72,197.6914662771012,231132,1066,3194.482065677643,36.91728210449219,,5.271673202514648,0.22
231,MetaDrive-test-conv-colab,72,199.68961800410656,232017,1068,3206.722687959671,38.803382873535156,-38.684410095214844,6.465335369110107,0.23
232,MetaDrive-test-conv-colab,72,199.90206976317378,233018,1069,3223.3466186523438,37.659423828125,,4.8279619216918945,0.23
233,MetaDrive-test-conv-colab,72,199.76012061006833,234063,1073,3237.147535085678,37.85380172729492,-38.211463928222656,5.297995090484619,0.23
234,MetaDrive-test-conv-colab,72,201.46302507432813,235277,1076,3253.7184720039368,37.58299255371094,-37.88652038574219,5.270722389221191,0.24
235,MetaDrive-test-conv-colab,72,200.84634361773954,236060,1078,3264.9531784057617,35.188392639160156,,81.4574966430664,0.24
236,MetaDrive-test-conv-colab,72,202.42127981166857,237301,1082,3280.433478116989,39.382606506347656,-39.92279815673828,3.2750802040100098,0.23
237,MetaDrive-test-conv-colab,72,202.4803008540565,238014,1086,3289.4908747673035,41.2322883605957,,2.8901283740997314,0.24
238,MetaDrive-test-conv-colab,72,203.5377505194265,239073,1088,3301.467080116272,38.31255340576172,-38.78492736816406,19.46189308166504,0.25
239,MetaDrive-test-conv-colab,72,206.05481649136317,240087,1090,3314.4652535915375,36.39899826049805,-36.481407165527344,5.713373184204102,0.26
240,MetaDrive-test-conv-colab,72,208.67805057674417,241294,1095,3330.312406539917,35.614810943603516,,4.1165571212768555,0.27
241,MetaDrive-test-conv-colab,72,211.02251348005694,242087,1097,3342.6028711795807,36.35450744628906,-36.20545196533203,6.146567344665527,0.27
242,MetaDrive-test-conv-colab,72,212.39729339520898,243088,1098,3352.9868907928467,39.827598571777344,,9.116743087768555,0.27
243,MetaDrive-test-conv-colab,72,214.30251521940394,244125,1100,3367.1153676509857,34.76146697998047,-34.7237663269043,5.354878902435303,0.27
244,MetaDrive-test-conv-colab,72,211.99691285238495,245138,1103,3380.3360364437103,39.941558837890625,,5.2613630294799805,0.26
245,MetaDrive-test-conv-colab,72,213.29382810467902,246144,1107,3392.4532499313354,38.709938049316406,,10.712715148925781,0.27
246,MetaDrive-test-conv-colab,72,211.77152571783833,247145,1108,3404.7151436805725,38.01228332519531,-38.56321716308594,3.5832858085632324,0.26
247,MetaDrive-test-conv-colab,72,212.3138976505178,248301,1111,3419.4545567035675,36.1251106262207,-36.069786071777344,4.752292156219482,0.26
248,MetaDrive-test-conv-colab,72,210.0261904131413,249010,1113,3429.1946461200714,38.556541442871094,,13.189066886901855,0.26
249,MetaDrive-test-conv-colab,72,212.7650998877304,250080,1115,3447.314995765686,37.988792419433594,,7.936383247375488,0.27
250,MetaDrive-test-conv-colab,72,212.71982421390877,251344,1118,3463.1039237976074,40.636436462402344,,31.198720932006836,0.27
251,MetaDrive-test-conv-colab,72,213.73233793467946,252022,1119,3472.4245064258575,39.092838287353516,,3.499255895614624,0.28
252,MetaDrive-test-conv-colab,72,205.85879222550102,253074,1124,3487.19296336174,37.39826965332031,,9.520411491394043,0.26
253,MetaDrive-test-conv-colab,72,194.86090029969145,254053,1130,3500.905648469925,39.50680923461914,-39.84352111816406,4.593845367431641,0.23
254,MetaDrive-test-conv-colab,72,192.87440204058115,255329,1135,3516.6300683021545,36.8585090637207,-36.98419189453125,13.58952522277832,0.23
255,MetaDrive-test-conv-colab,72,193.16891393610123,256291,1137,3529.32816362381,38.66960144042969,-39.87574768066406,31.66933250427246,0.24
256,MetaDrive-test-conv-colab,72,195.16724394411784,257428,1139,3544.0901312828064,37.78099822998047,,24.884687423706055,0.25
257,MetaDrive-test-conv-colab,72,196.0188264595862,258216,1140,3556.748302221298,37.180335998535156,,4.621023654937744,0.25
258,MetaDrive-test-conv-colab,72,194.60231046675668,259322,1143,3572.67968082428,34.56413269042969,,8.25199031829834,0.24
259,MetaDrive-test-conv-colab,72,192.9500142911973,260052,1145,3583.947872400284,39.96990966796875,,10.465375900268555,0.25
260,MetaDrive-test-conv-colab,72,194.3563650412256,261226,1147,3601.146077632904,36.05198669433594,,77.15278625488281,0.25
261,MetaDrive-test-conv-colab,72,195.55116582737924,262343,1149,3617.2037377357483,35.736900329589844,-35.39300537109375,11.485860824584961,0.26
262,MetaDrive-test-conv-colab,72,193.2763697338429,263342,1152,3630.798796892166,39.960044860839844,,2.6248245239257812,0.25
263,MetaDrive-test-conv-colab,72,193.18016412337133,264146,1154,3645.3930361270905,37.67345428466797,,5.427777290344238,0.25
264,MetaDrive-test-conv-colab,72,192.61780315130756,265004,1157,3656.4019873142242,35.45919418334961,,5.865934371948242,0.24
265,MetaDrive-test-conv-colab,72,194.97531258802402,266126,1159,3671.5746800899506,37.99906921386719,,15.986093521118164,0.25
266,MetaDrive-test-conv-colab,72,196.3704621852525,267563,1161,3690.686734199524,35.833274841308594,-35.525753021240234,11.392440795898438,0.26
267,MetaDrive-test-conv-colab,72,196.72236456445233,268165,1162,3699.6619288921356,38.57794189453125,-38.87873077392578,3.670009136199951,0.27
268,MetaDrive-test-conv-colab,72,195.17956549253827,269042,1165,3711.514171600342,35.21405792236328,,59.503074645996094,0.26
269,MetaDrive-test-conv-colab,72,192.6465094693957,270814,1169,3734.808037519455,39.39265441894531,,4.201716899871826,0.25
270,MetaDrive-test-conv-colab,72,193.91515070353032,271159,1170,3739.0241429805756,35.48924255371094,-36.29240417480469,6.062065601348877,0.25
271,MetaDrive-test-conv-colab,72,194.57862580412643,272133,1173,3753.044971704483,36.31352233886719,-36.93293762207031,32.152915954589844,0.25
272,MetaDrive-test-conv-colab,72,196.31837417549548,273061,1175,3763.9831874370575,36.69719696044922,-37.439701080322266,10.623517990112305,0.25
273,MetaDrive-test-conv-colab,72,192.82740160174436,274548,1180,3786.317947626114,40.697593688964844,,2.876145362854004,0.24
274,MetaDrive-test-conv-colab,72,192.1741705727559,275206,1182,3796.3034410476685,38.250205993652344,,4.309276580810547,0.24
275,MetaDrive-test-conv-colab,72,196.70582863263246,276016,1183,3806.8119015693665,38.54336929321289,,4.218867778778076,0.25
276,MetaDrive-test-conv-colab,72,200.57666213863962,277166,1185,3823.7285385131836,37.00585174560547,,7.168295383453369,0.26
277,MetaDrive-test-conv-colab,72,200.03882773416234,278338,1188,3840.762536048889,41.076236724853516,,10.580392837524414,0.26
278,MetaDrive-test-conv-colab,72,200.93881924540344,279098,1189,3853.1900787353516,38.114601135253906,,4.109173774719238,0.25
279,MetaDrive-test-conv-colab,72,203.89701753584797,280109,1191,3869.1828894615173,37.28727340698242,-37.93730926513672,6.000750541687012,0.26
280,MetaDrive-test-conv-colab,72,207.90735415842187,281033,1194,3881.1872992515564,40.04623794555664,-40.4163932800293,3.930946111679077,0.27
281,MetaDrive-test-conv-colab,72,208.89536496375825,282070,1196,3895.0790734291077,36.80567932128906,,7.907092094421387,0.28
282,MetaDrive-test-conv-colab,72,207.80154297140896,283280,1199,3917.1929879188538,37.34758758544922,,23.761184692382812,0.28
283,MetaDrive-test-conv-colab,72,208.03270829292262,284276,1202,3931.8149795532227,35.597068786621094,,3.8798608779907227,0.28
284,MetaDrive-test-conv-colab,72,210.02088487332753,285556,1206,3950.0750002861023,41.6891975402832,,3.4907000064849854,0.28
285,MetaDrive-test-conv-colab,72,208.30598912613513,286363,1209,3962.1512928009033,40.253700256347656,-40.7333984375,24.800418853759766,0.28
286,MetaDrive-test-conv-colab,72,205.71254043744935,287229,1213,3972.4847531318665,35.83976745605469,-36.08357238769531,13.520963668823242,0.27
287,MetaDrive-test-conv-colab,72,207.65924504112164,288459,1216,3989.443382024765,40.86763000488281,-41.493324279785156,4.061237335205078,0.28
288,MetaDrive-test-conv-colab,72,204.53980430820525,289171,1220,3999.0443308353424,37.10167694091797,-36.209693908691406,31.403553009033203,0.26
289,MetaDrive-test-conv-colab,72,205.54657703044577,290181,1223,4012.749141216278,39.323509216308594,-40.14458465576172,25.766525268554688,0.27
290,MetaDrive-test-conv-colab,72,207.1211820126474,291053,1227,4024.1284832954407,41.112342834472656,-40.874977111816406,7.073734760284424,0.27
291,MetaDrive-test-conv-colab,72,208.88064406543626,292108,1232,4037.325675010681,37.739341735839844,,4.497378349304199,0.28
292,MetaDrive-test-conv-colab,72,206.07718291208738,293067,1236,4050.950742959976,41.76118087768555,-41.853363037109375,7.398088455200195,0.27
293,MetaDrive-test-conv-colab,72,206.26292517658555,294158,1238,4069.059056997299,40.60309600830078,,4.788867473602295,0.27
294,MetaDrive-test-conv-colab,72,205.44341603944903,295659,1241,4091.748920917511,38.63621520996094,-38.382568359375,4.406978607177734,0.27
295,MetaDrive-test-conv-colab,72,199.78263029545732,296038,1244,4097.095091581345,38.59490966796875,,2.3936009407043457,0.25
296,MetaDrive-test-conv-colab,72,194.9844323649859,297218,1249,4113.289773464203,37.75554656982422,,8.886170387268066,0.24
297,MetaDrive-test-conv-colab,72,199.54510979397847,298433,1251,4131.666688919067,39.531768798828125,-39.76517868041992,3.896055221557617,0.26
298,MetaDrive-test-conv-colab,72,198.03573412836423,299185,1254,4144.099966287613,36.48992919921875,-36.902015686035156,3.8367443084716797,0.27
299,MetaDrive-test-conv-colab,72,196.31660781918504,300080,1258,4156.225132226944,40.65064239501953,,3.8115127086639404,0.26
300,MetaDrive-test-conv-colab,72,191.86289256518222,301731,1262,4182.20375418663,34.999717712402344,-35.578495025634766,4.197486400604248,0.24
301,MetaDrive-test-conv-colab,72,193.2896308988662,302472,1264,4191.675493717194,37.11872863769531,,6.611655235290527,0.25
302,MetaDrive-test-conv-colab,72,193.34041082338058,303308,1267,4201.6347324848175,33.253135681152344,,6.435089111328125,0.27
303,MetaDrive-test-conv-colab,72,194.62651215821825,304092,1269,4211.991460561752,36.981842041015625,,5.1176886558532715,0.28
304,MetaDrive-test-conv-colab,72,192.6160496187822,305364,1274,4230.314619064331,37.756866455078125,,9.847711563110352,0.28
305,MetaDrive-test-conv-colab,72,191.34571167207406,306157,1277,4242.2822523117065,40.963836669921875,-41.308990478515625,3.6535604000091553,0.27
306,MetaDrive-test-conv-colab,72,192.30574302656413,307097,1280,4255.909991979599,38.95637512207031,-39.1796989440918,4.744301795959473,0.27
307,MetaDrive-test-conv-colab,72,185.20434410485967,308391,1285,4275.388979911804,35.31292724609375,-35.60106658935547,3.7596988677978516,0.25
308,MetaDrive-test-conv-colab,72,184.75765740825557,309018,1286,4285.345677614212,37.32306671142578,,3.048893690109253,0.24
309,MetaDrive-test-conv-colab,72,184.8512465832385,310241,1290,4303.109740018845,37.21142578125,-37.42842102050781,4.766318321228027,0.25
310,MetaDrive-test-conv-colab,72,185.00676968605327,311064,1292,4314.825338125229,37.81774139404297,,2.8644754886627197,0.25
311,MetaDrive-test-conv-colab,72,178.979251379282,312382,1298,4334.240885734558,37.37303161621094,,4.115483283996582,0.23
312,MetaDrive-test-conv-colab,72,178.85178410274938,313116,1300,4346.646881580353,38.07759094238281,,11.72305679321289,0.23
313,MetaDrive-test-conv-colab,72,177.79912437265867,314168,1304,4361.461760997772,40.08920669555664,,7.462729454040527,0.22
314,MetaDrive-test-conv-colab,71,177.15256891699588,315026,1307,4375.639662265778,39.21956253051758,,3.807347297668457,0.21
315,MetaDrive-test-conv-colab,71,180.0835608285844,316246,1309,4398.058547735214,37.34968566894531,,8.613795280456543,0.22
316,MetaDrive-test-conv-colab,71,180.9915657434353,317247,1310,4414.375439405441,36.939292907714844,-37.98301696777344,44.43608474731445,0.22
317,MetaDrive-test-conv-colab,71,183.7090537525542,318146,1312,4426.120469093323,37.26169967651367,,6.6602253913879395,0.22
318,MetaDrive-test-conv-colab,71,182.56343618577827,319197,1315,4442.5584943294525,40.96880340576172,-40.325279235839844,6.895993709564209,0.2
319,MetaDrive-test-conv-colab,71,181.29725039496316,320091,1317,4457.793343544006,38.127418518066406,-37.91257858276367,2.7449092864990234,0.2
320,MetaDrive-test-conv-colab,71,185.9572188117082,321447,1320,4480.937990427017,35.80266571044922,-36.38861083984375,6.422149658203125,0.21
321,MetaDrive-test-conv-colab,71,185.34399691057118,322394,1322,4500.110548734665,37.699981689453125,,3.6378774642944336,0.2
322,MetaDrive-test-conv-colab,71,187.47067578505028,323007,1323,4509.461482286453,37.79340362548828,-38.064666748046875,23.959163665771484,0.21
323,MetaDrive-test-conv-colab,71,190.97568928295698,324366,1327,4528.152843236923,40.37143325805664,,12.388566970825195,0.22
324,MetaDrive-test-conv-colab,71,193.58550149669148,325580,1330,4548.170478820801,38.184486389160156,,14.369081497192383,0.21
325,MetaDrive-test-conv-colab,71,194.833351206843,326352,1332,4560.051296949387,36.250579833984375,,5.396709442138672,0.22
326,MetaDrive-test-conv-colab,71,194.48677288526878,327030,1334,4569.880018234253,38.01465606689453,,6.833324432373047,0.21
327,MetaDrive-test-conv-colab,71,199.88903227353046,328027,1336,4583.146667003632,37.87732696533203,-37.805381774902344,3.8824446201324463,0.22
328,MetaDrive-test-conv-colab,71,199.74815070846947,329205,1339,4599.228648662567,38.90234375,-39.35435104370117,2.807105779647827,0.23
329,MetaDrive-test-conv-colab,71,201.3826300366823,330193,1342,4615.742442369461,40.10029602050781,-40.403602600097656,3.1713056564331055,0.23
330,MetaDrive-test-conv-colab,71,205.94105177648441,331370,1344,4629.786663532257,39.61854934692383,,2.80502986907959,0.25
331,MetaDrive-test-conv-colab,71,209.89000289458676,332251,1347,4640.034607887268,37.277278900146484,-37.840911865234375,4.852451801300049,0.27
332,MetaDrive-test-conv-colab,71,210.45871205126292,333281,1349,4657.555562257767,37.40824508666992,-37.717041015625,13.306612014770508,0.26
333,MetaDrive-test-conv-colab,71,209.60022178639184,334490,1352,4673.8140280246735,37.67873764038086,,5.011052131652832,0.26
334,MetaDrive-test-conv-colab,71,209.4077565931804,335062,1354,4680.157627105713,35.94609069824219,,4.829672813415527,0.26
335,MetaDrive-test-conv-colab,71,211.3619741987321,336617,1358,4706.776561260223,38.683876037597656,-38.83000946044922,18.17831802368164,0.26
336,MetaDrive-test-conv-colab,71,213.949965706478,337019,1359,4712.388907194138,33.621253967285156,-34.48680877685547,7.9464592933654785,0.26
337,MetaDrive-test-conv-colab,71,213.2186703415973,338160,1362,4727.293189525604,33.30521011352539,,14.448827743530273,0.27
338,MetaDrive-test-conv-colab,71,217.30498420439315,339726,1364,4753.135685920715,38.137760162353516,,2.0731682777404785,0.27
339,MetaDrive-test-conv-colab,71,219.72170455040185,340727,1365,4768.20233631134,37.30438232421875,-38.257591247558594,5.434349536895752,0.27
340,MetaDrive-test-conv-colab,71,220.88487532291285,341276,1366,4775.615846157074,37.844966888427734,,7.9010162353515625,0.27
341,MetaDrive-test-conv-colab,71,222.8691215218074,342235,1368,4787.700195074081,38.98429870605469,-39.52190399169922,32.030826568603516,0.28
342,MetaDrive-test-conv-colab,71,223.55197893527074,343031,1370,4797.781576395035,41.08482360839844,-40.99744415283203,5.205165863037109,0.28
343,MetaDrive-test-conv-colab,71,226.52528168561176,344013,1372,4811.759145975113,37.228511810302734,-37.114688873291016,3.6356465816497803,0.3
344,MetaDrive-test-conv-colab,71,228.84187614715643,345108,1375,4826.3906037807465,37.165870666503906,,2.7991394996643066,0.3
345,MetaDrive-test-conv-colab,71,230.8381656579092,346631,1377,4857.455306529999,37.58423614501953,-37.28773498535156,7.528411388397217,0.3
346,MetaDrive-test-conv-colab,71,233.26476359913886,347484,1379,4869.634561300278,39.92977523803711,,11.902751922607422,0.31
347,MetaDrive-test-conv-colab,71,234.43470164692263,348155,1381,4878.611140727997,37.49351501464844,-37.82015609741211,4.165382385253906,0.32
348,MetaDrive-test-conv-colab,71,237.62731924553137,349106,1383,4893.387451171875,38.312644958496094,,14.627615928649902,0.33
349,MetaDrive-test-conv-colab,71,237.75653814190918,350282,1386,4910.431439638138,38.06752014160156,,3.9855220317840576,0.34
350,MetaDrive-test-conv-colab,71,238.61312744775626,351162,1388,4921.840950965881,37.7247314453125,,5.940411567687988,0.34
351,MetaDrive-test-conv-colab,71,240.84083636580806,352490,1390,4941.525376796722,38.18560028076172,,4.3431620597839355,0.35
352,MetaDrive-test-conv-colab,71,242.85309738715205,353778,1393,4965.051759958267,37.816993713378906,,5.4742326736450195,0.35
353,MetaDrive-test-conv-colab,71,242.29611234182553,354139,1395,4970.140620231628,34.650848388671875,-35.245914459228516,6.693181991577148,0.35
354,MetaDrive-test-conv-colab,71,246.7789567595914,355063,1397,4986.83696436882,37.19874572753906,-37.93919372558594,17.733440399169922,0.36
355,MetaDrive-test-conv-colab,71,245.93819577969927,356102,1400,5000.811247348785,39.382057189941406,,3.309443473815918,0.36
356,MetaDrive-test-conv-colab,71,249.2983195059444,357273,1402,5017.384594917297,37.64595413208008,-37.674827575683594,9.654677391052246,0.37
357,MetaDrive-test-conv-colab,71,250.5537823363937,358083,1404,5029.088812351227,36.86579895019531,-37.25029373168945,3.6261322498321533,0.37
358,MetaDrive-test-conv-colab,71,251.42102837149443,359316,1408,5043.7435965538025,38.06436538696289,,4.843073844909668,0.39
359,MetaDrive-test-conv-colab,71,249.66454535980748,360210,1411,5056.296357631683,40.203941345214844,,3.401150703430176,0.39
360,MetaDrive-test-conv-colab,71,250.5233865582836,361410,1414,5072.87099146843,39.665626525878906,,7.172304153442383,0.4
361,MetaDrive-test-conv-colab,71,247.99537268005105,362136,1417,5083.816721200943,37.70018768310547,,4.662127494812012,0.39
362,MetaDrive-test-conv-colab,71,252.50706105971287,363198,1419,5099.458804368973,38.33537292480469,,2.859147071838379,0.41
363,MetaDrive-test-conv-colab,71,251.5041133117898,364626,1422,5121.104920864105,39.40827941894531,,58.713226318359375,0.42
364,MetaDrive-test-conv-colab,71,251.5105173300821,365244,1423,5130.439489603043,38.127044677734375,,15.776707649230957,0.42
365,MetaDrive-test-conv-colab,71,247.17178478714126,366007,1427,5140.945638179779,38.57025909423828,-39.37506866455078,53.18935012817383,0.41
366,MetaDrive-test-conv-colab,71,248.49017251400616,367164,1430,5156.509320020676,36.91757583618164,,3.8739376068115234,0.42
367,MetaDrive-test-conv-colab,71,250.14323210351122,368486,1433,5175.719726324081,40.156497955322266,,3.6906697750091553,0.43
368,MetaDrive-test-conv-colab,71,252.65884523906442,369040,1434,5182.359292268753,41.2724723815918,,4.3661909103393555,0.44
369,MetaDrive-test-conv-colab,71,253.3486071853969,370176,1436,5197.563163995743,38.93914794921875,,22.576568603515625,0.45
370,MetaDrive-test-conv-colab,71,251.39016905476583,371542,1439,5219.342116117477,39.62525939941406,,12.683259010314941,0.45
371,MetaDrive-test-conv-colab,71,250.17052889386676,372390,1442,5230.999409914017,38.468589782714844,,8.041841506958008,0.44
372,MetaDrive-test-conv-colab,71,251.545164450407,373509,1444,5246.755489349365,37.792537689208984,-38.22028732299805,3.4382238388061523,0.44
373,MetaDrive-test-conv-colab,71,250.93194501657862,374127,1446,5256.073619127274,38.5306396484375,-38.23402404785156,3.8146607875823975,0.43
374,MetaDrive-test-conv-colab,71,247.9650902451453,375003,1449,5267.743137836456,38.06474685668945,-37.746864318847656,6.985335350036621,0.43
375,MetaDrive-test-conv-colab,71,244.80829456194888,376411,1453,5284.94793510437,39.88261413574219,-40.26160430908203,4.48979377746582,0.42
376,MetaDrive-test-conv-colab,71,247.8754807241046,377875,1456,5306.508474111557,36.59526062011719,-36.3006591796875,11.996719360351562,0.43
377,MetaDrive-test-conv-colab,71,248.25413791937336,378161,1457,5309.96882557869,37.75453567504883,-38.24459457397461,4.340301036834717,0.43
378,MetaDrive-test-conv-colab,71,240.04128315089613,379013,1462,5321.1807107925415,39.424163818359375,-39.97416305541992,3.630458354949951,0.41
379,MetaDrive-test-conv-colab,71,237.29615027652025,380324,1465,5337.416429281235,36.22975158691406,,42.311981201171875,0.42
380,MetaDrive-test-conv-colab,71,236.25278454373503,381242,1467,5350.652050256729,40.14945983886719,,17.13727378845215,0.41
381,MetaDrive-test-conv-colab,71,230.24996746210425,382162,1471,5362.966588020325,38.450103759765625,,4.236010551452637,0.38
382,MetaDrive-test-conv-colab,71,231.93713335201548,383347,1474,5377.636522054672,38.875579833984375,-39.25072479248047,3.5110230445861816,0.39
383,MetaDrive-test-conv-colab,71,231.1326734842596,384112,1476,5388.258118152618,37.630210876464844,,3.6348533630371094,0.39
384,MetaDrive-test-conv-colab,71,229.3736739037261,385446,1480,5405.700752496719,40.459110260009766,,3.505016565322876,0.39
385,MetaDrive-test-conv-colab,71,228.08095525271813,386094,1482,5413.551723241806,42.255584716796875,,9.669933319091797,0.39
386,MetaDrive-test-conv-colab,71,229.4535786474579,387597,1485,5431.928726196289,38.1920051574707,-38.44927978515625,2.776340961456299,0.39
387,MetaDrive-test-conv-colab,71,227.6750915932188,388622,1487,5444.77725148201,41.16575241088867,,3.086653709411621,0.38
388,MetaDrive-test-conv-colab,71,229.76854924544102,389319,1488,5456.653786659241,39.78455352783203,-39.688140869140625,10.101362228393555,0.39
389,MetaDrive-test-conv-colab,71,228.4736513399037,390320,1489,5467.507339000702,37.78608322143555,,4.1750640869140625,0.38
390,MetaDrive-test-conv-colab,71,229.80257432266708,391321,1490,5481.667751312256,38.064125061035156,-38.28630828857422,2.313978433609009,0.38
391,MetaDrive-test-conv-colab,71,233.00578342945153,392322,1491,5499.171648979187,39.242374420166016,,19.078235626220703,0.38
392,MetaDrive-test-conv-colab,71,235.3557508668887,393032,1492,5508.911313295364,37.14459991455078,,19.786537170410156,0.39
393,MetaDrive-test-conv-colab,71,233.04405445593892,394033,1493,5520.892087221146,40.003787994384766,-40.22132873535156,7.161616325378418,0.38
394,MetaDrive-test-conv-colab,71,234.63836093030454,395034,1494,5531.573672771454,36.58258056640625,,9.324806213378906,0.38
395,MetaDrive-test-conv-colab,71,236.02906606849172,396623,1496,5552.9036412239075,38.08777618408203,-38.283790588378906,4.628200531005859,0.37
396,MetaDrive-test-conv-colab,71,236.80397727787062,397624,1497,5564.733882188797,36.90338134765625,,15.462088584899902,0.37
397,MetaDrive-test-conv-colab,71,234.17763832444226,398080,1499,5570.915438890457,35.82659912109375,,61.322998046875,0.37
398,MetaDrive-test-conv-colab,71,230.4107134777293,399238,1502,5587.061760663986,40.893333435058594,,3.268775701522827,0.36
399,MetaDrive-test-conv-colab,71,230.81025591089795,400495,1504,5602.636211156845,38.32085037231445,-38.909820556640625,23.059734344482422,0.36
400,MetaDrive-test-conv-colab,71,230.41783390183735,401338,1506,5613.445784568787,36.502952575683594,,9.387646675109863,0.35
401,MetaDrive-test-conv-colab,71,232.44919491777569,402418,1508,5630.4139013290405,36.41877365112305,,135.26744079589844,0.35
402,MetaDrive-test-conv-colab,71,232.220878734563,403356,1511,5644.008825540543,40.411949157714844,,2.48873233795166,0.34
403,MetaDrive-test-conv-colab,71,232.45302374683789,404379,1513,5659.491034984589,41.25773620605469,-41.63560485839844,6.235918045043945,0.33
404,MetaDrive-test-conv-colab,71,230.7747554330234,405380,1514,5675.316638469696,38.216392517089844,,5.699896812438965,0.33
405,MetaDrive-test-conv-colab,71,232.13626885421778,406381,1515,5687.493768930435,37.98176956176758,-38.67265319824219,5.673175811767578,0.33
406,MetaDrive-test-conv-colab,71,234.39787700520526,407382,1516,5700.795855760574,34.309349060058594,,7.811723709106445,0.33
407,MetaDrive-test-conv-colab,71,236.7178434470048,408383,1517,5717.541102170944,34.23023223876953,-34.42047119140625,6.7585248947143555,0.33
408,MetaDrive-test-conv-colab,71,236.29807129845616,409384,1518,5729.294376134872,39.23208999633789,,6.6569743156433105,0.32
409,MetaDrive-test-conv-colab,71,233.93052790191865,410114,1521,5739.615695476532,38.92223358154297,,2.998605489730835,0.3
410,MetaDrive-test-conv-colab,71,231.83428990012118,411197,1523,5752.96625161171,41.995216369628906,-42.24974822998047,2.6510045528411865,0.29
411,MetaDrive-test-conv-colab,71,235.8310258171363,412229,1525,5771.151539802551,37.931373596191406,-38.153751373291016,23.424171447753906,0.3
412,MetaDrive-test-conv-colab,71,238.2193462252235,413116,1527,5784.318795204163,37.783470153808594,,7.365483283996582,0.31
413,MetaDrive-test-conv-colab,71,235.9497328529178,414179,1530,5801.5200181007385,39.64301300048828,-40.02826690673828,14.892965316772461,0.3
414,MetaDrive-test-conv-colab,71,237.42205507055056,415180,1531,5813.129034757614,40.04357147216797,,4.666191101074219,0.29
415,MetaDrive-test-conv-colab,71,238.4182195127488,416181,1532,5823.4884531497955,38.47311019897461,-38.15193176269531,3.1019434928894043,0.29
416,MetaDrive-test-conv-colab,71,231.28442785093858,417902,1536,5844.9893481731415,40.36376190185547,,11.395413398742676,0.25
417,MetaDrive-test-conv-colab,71,230.7922173920337,418903,1537,5855.170619487762,37.95631790161133,-38.70549392700195,5.973026275634766,0.24
418,MetaDrive-test-conv-colab,71,231.113698177268,419068,1538,5857.093221664429,40.91097640991211,,3.012235164642334,0.24
419,MetaDrive-test-conv-colab,71,233.5627866467587,420069,1539,5868.525945663452,35.14692306518555,-34.43512725830078,4.876577377319336,0.24
420,MetaDrive-test-conv-colab,71,233.12509424314732,421038,1542,5879.548183441162,41.85393524169922,,6.156534194946289,0.25
421,MetaDrive-test-conv-colab,71,231.09708018815894,422540,1544,5897.578436374664,37.70170593261719,,11.128799438476562,0.25
422,MetaDrive-test-conv-colab,71,230.77092403376187,423023,1546,5903.993816614151,38.509613037109375,-38.529903411865234,5.702932357788086,0.25
423,MetaDrive-test-conv-colab,71,231.97074595236833,424396,1548,5918.813531398773,39.72946548461914,,4.869096755981445,0.25
424,MetaDrive-test-conv-colab,71,232.60089304244747,425814,1552,5942.64840221405,39.06724548339844,,4.274947643280029,0.23
425,MetaDrive-test-conv-colab,71,232.71625784935466,426277,1553,5949.019749403,35.38846206665039,-35.58905029296875,6.135502815246582,0.22
426,MetaDrive-test-conv-colab,71,235.79549675862265,427066,1554,5960.693991184235,38.553550720214844,,7.832451820373535,0.23
427,MetaDrive-test-conv-colab,71,237.29554926341277,428161,1556,5975.059729814529,39.627769470214844,-40.01116943359375,3.543379306793213,0.24
428,MetaDrive-test-conv-colab,71,239.58955823470973,429324,1559,5990.793700456619,38.88129425048828,,5.589986324310303,0.25
429,MetaDrive-test-conv-colab,71,245.21408203617094,430765,1562,6013.545979261398,37.22526931762695,-37.064613342285156,9.1239595413208,0.25
430,MetaDrive-test-conv-colab,71,245.79212424655648,431666,1563,6029.494378566742,38.83994674682617,,2.272472381591797,0.25
431,MetaDrive-test-conv-colab,71,246.6572080043503,432123,1564,6035.691204547882,40.045745849609375,-39.87812042236328,5.873134613037109,0.26
432,MetaDrive-test-conv-colab,71,246.42173142913322,433347,1566,6050.817949295044,39.671302795410156,-40.191654205322266,5.119541168212891,0.26
433,MetaDrive-test-conv-colab,71,249.34962397033775,434142,1567,6062.167484283447,40.21186828613281,,7.8951287269592285,0.27
434,MetaDrive-test-conv-colab,71,252.67231062679818,435115,1569,6076.622079133987,40.49771499633789,-40.63513946533203,7.661577224731445,0.28
435,MetaDrive-test-conv-colab,71,257.02659444249275,436219,1571,6091.340159416199,39.685943603515625,-39.989234924316406,1.7999272346496582,0.29
436,MetaDrive-test-conv-colab,71,259.2518254050595,437635,1573,6113.217157363892,35.3173713684082,-35.79200744628906,7.1713151931762695,0.3
437,MetaDrive-test-conv-colab,71,253.3531400663583,438099,1576,6120.7800669670105,37.4551887512207,-37.60944366455078,3.9195616245269775,0.28
438,MetaDrive-test-conv-colab,71,257.8966563607292,439560,1578,6140.085646867752,35.10435485839844,,97.25762939453125,0.29
439,MetaDrive-test-conv-colab,71,254.87808812660612,440025,1580,6146.234354496002,38.587432861328125,-38.936492919921875,3.604112386703491,0.28
440,MetaDrive-test-conv-colab,71,253.80287914465953,441249,1583,6162.637614965439,38.89064025878906,-39.27260208129883,25.138702392578125,0.28
441,MetaDrive-test-conv-colab,71,250.93813097932187,442130,1586,6176.502871990204,38.4268798828125,,3.2528553009033203,0.26
442,MetaDrive-test-conv-colab,71,245.68839234150778,443004,1589,6189.580763101578,35.84876251220703,,4.655823230743408,0.24
443,MetaDrive-test-conv-colab,71,244.28553778270492,444068,1591,6206.93880033493,37.189659118652344,,2.8719701766967773,0.25
444,MetaDrive-test-conv-colab,71,245.73063878867535,445023,1592,6224.817234754562,38.083335876464844,-38.96879577636719,8.362310409545898,0.25
445,MetaDrive-test-conv-colab,71,245.03403983919975,446519,1595,6247.345034599304,43.31379699707031,-43.947120666503906,3.8929619789123535,0.27
446,MetaDrive-test-conv-colab,71,245.4275961601091,447002,1596,6253.783655405045,40.334712982177734,,4.451239585876465,0.28
447,MetaDrive-test-conv-colab,71,248.88672470618548,448447,1599,6272.19371008873,35.42142868041992,-35.46525573730469,7.252226829528809,0.3
448,MetaDrive-test-conv-colab,71,251.4528919922391,449298,1601,6287.883449316025,37.34650421142578,,3.4838457107543945,0.3
449,MetaDrive-test-conv-colab,71,252.79333103828515,450273,1603,6300.593773365021,40.18701934814453,-41.30650329589844,5.7517242431640625,0.31
450,MetaDrive-test-conv-colab,71,253.32342506287358,451587,1605,6320.06113576889,42.45459747314453,-41.830528259277344,17.662887573242188,0.32
451,MetaDrive-test-conv-colab,71,254.47106733775183,452172,1606,6328.423598051071,38.467613220214844,,3.3792431354522705,0.32
452,MetaDrive-test-conv-colab,71,256.65189175437797,453059,1607,6344.140580892563,37.99397659301758,-37.279449462890625,7.749299049377441,0.33
453,MetaDrive-test-conv-colab,71,258.7064793864914,454057,1609,6356.63446187973,38.82740020751953,-38.685577392578125,5.8670454025268555,0.34
454,MetaDrive-test-conv-colab,71,260.51158517816805,455188,1611,6370.324560880661,40.8044548034668,,6.667790412902832,0.36
455,MetaDrive-test-conv-colab,71,264.09775450938406,456519,1613,6391.221387624741,43.200477600097656,-43.113731384277344,12.681146621704102,0.37
456,MetaDrive-test-conv-colab,71,263.98472404870546,457237,1615,6399.924222707748,40.26982879638672,-39.90885543823242,4.801207542419434,0.38
457,MetaDrive-test-conv-colab,71,262.4119405010096,458622,1617,6421.985967159271,38.264034271240234,,63.177574157714844,0.39
458,MetaDrive-test-conv-colab,71,261.26262117122053,459387,1618,6434.7816388607025,35.950599670410156,-36.74619674682617,8.13510513305664,0.39
459,MetaDrive-test-conv-colab,71,264.5373597787424,460174,1619,6448.893486022949,39.29375457763672,,8.171762466430664,0.4
460,MetaDrive-test-conv-colab,71,266.7242751516886,461111,1621,6460.181850671768,41.675880432128906,-42.873409271240234,8.739532470703125,0.41
461,MetaDrive-test-conv-colab,71,267.1825421374539,462008,1622,6475.4852385520935,39.89295959472656,,3.1976284980773926,0.41
462,MetaDrive-test-conv-colab,71,270.3728288207839,463825,1624,6509.032851457596,40.08354187011719,-39.26963806152344,6.856917381286621,0.42
463,MetaDrive-test-conv-colab,71,269.39449580876084,464681,1625,6520.538823604584,39.500606536865234,-40.42303466796875,6.147507190704346,0.42
464,MetaDrive-test-conv-colab,71,269.0037669356701,465407,1627,6528.886916399002,40.69453430175781,-40.16163635253906,6.280991077423096,0.42
465,MetaDrive-test-conv-colab,71,273.2768824284203,466646,1629,6546.590834379196,40.94300842285156,,54.23435974121094,0.44
466,MetaDrive-test-conv-colab,71,273.22871911235626,467050,1630,6551.705080032349,39.907203674316406,,2.501657009124756,0.44
467,MetaDrive-test-conv-colab,71,272.871158521672,468051,1631,6570.054709196091,39.45527267456055,-39.1923828125,7.330315113067627,0.44
468,MetaDrive-test-conv-colab,71,275.25151285782863,469162,1633,6584.323527097702,39.26427459716797,,20.72309112548828,0.46
469,MetaDrive-test-conv-colab,71,278.02558974146064,470514,1635,6600.980182170868,42.35700225830078,,5.325892448425293,0.47
470,MetaDrive-test-conv-colab,71,276.8264307793301,471094,1636,6612.215061187744,41.04351806640625,,4.128711700439453,0.47
471,MetaDrive-test-conv-colab,71,280.168708787717,472181,1638,6626.83570599556,39.71199417114258,-39.342403411865234,7.437651634216309,0.48
472,MetaDrive-test-conv-colab,71,279.65868261187205,473182,1639,6643.394649267197,39.32390213012695,,5.719894886016846,0.48
473,MetaDrive-test-conv-colab,71,281.43391157464924,474045,1640,6659.659475326538,38.961204528808594,-39.521114349365234,7.4411234855651855,0.48
474,MetaDrive-test-conv-colab,71,284.2697532204445,475046,1641,6678.427744626999,39.15530776977539,,5.337196350097656,0.47
475,MetaDrive-test-conv-colab,71,284.458029922531,476607,1644,6699.523068904877,40.56901550292969,-40.82278060913086,3.6327662467956543,0.46
476,MetaDrive-test-conv-colab,71,286.4611674890954,477200,1645,6708.447776794434,43.92231750488281,,3.956556558609009,0.46
477,MetaDrive-test-conv-colab,71,287.8306501610788,478375,1647,6722.554072380066,39.82963562011719,-39.834861755371094,4.729496955871582,0.48
478,MetaDrive-test-conv-colab,71,287.3723976501522,479026,1649,6729.882303237915,41.206687927246094,,7.178928375244141,0.49
479,MetaDrive-test-conv-colab,71,293.0160918679574,480229,1651,6744.992812156677,41.23091125488281,-41.22896957397461,4.495654106140137,0.51
480,MetaDrive-test-conv-colab,71,290.91844871838634,481639,1653,6764.977256059647,38.29456329345703,-37.73698043823242,7.640659332275391,0.52
481,MetaDrive-test-conv-colab,71,288.64402643058,482264,1654,6773.4955701828,39.39496994018555,,9.600937843322754,0.52
482,MetaDrive-test-conv-colab,71,286.90248953499963,483399,1656,6793.263352394104,42.17552185058594,-41.99845504760742,5.289492607116699,0.5
483,MetaDrive-test-conv-colab,71,288.5350146338082,484214,1657,6804.686096429825,38.867340087890625,,14.858490943908691,0.51
484,MetaDrive-test-conv-colab,71,288.10476370963477,485181,1659,6816.528618812561,37.94688415527344,-37.99664306640625,7.401932716369629,0.51
485,MetaDrive-test-conv-colab,71,288.0001511452221,486541,1662,6833.144902706146,41.200294494628906,-40.79669189453125,3.969940185546875,0.52
486,MetaDrive-test-conv-colab,71,283.2368883283711,487739,1664,6849.055518865585,39.668609619140625,-40.749263763427734,2.821162223815918,0.5
487,MetaDrive-test-conv-colab,71,282.70498491379726,488294,1665,6855.511288642883,41.48335266113281,,3.8266453742980957,0.5
488,MetaDrive-test-conv-colab,71,282.4696496934856,489118,1666,6867.631512880325,40.34296417236328,,7.10319709777832,0.5
489,MetaDrive-test-conv-colab,71,281.07107940362573,490830,1669,6889.304224014282,37.945823669433594,,3.6124768257141113,0.5
490,MetaDrive-test-conv-colab,71,279.11570754302954,491044,1670,6892.320328712463,40.75519561767578,,4.0490946769714355,0.49
491,MetaDrive-test-conv-colab,71,279.165218151417,492353,1672,6912.878781795502,42.124122619628906,-42.25566864013672,22.42702293395996,0.5
492,MetaDrive-test-conv-colab,71,277.74257888082184,493133,1673,6924.67622089386,37.336830139160156,-38.02892303466797,5.983504295349121,0.49
493,MetaDrive-test-conv-colab,71,280.8130887966812,494315,1675,6942.407974720001,40.54248046875,-40.15743637084961,4.336958885192871,0.5
494,MetaDrive-test-conv-colab,71,282.1177298969735,495521,1677,6958.367411851883,38.7150764465332,-40.10771179199219,8.372072219848633,0.51
495,MetaDrive-test-conv-colab,71,281.5354454398629,496167,1679,6965.610838651657,36.291908264160156,-36.320899963378906,7.470166206359863,0.51
496,MetaDrive-test-conv-colab,71,283.4277287708604,497497,1682,6985.127044200897,40.82609939575195,-40.98374938964844,5.097187042236328,0.52
497,MetaDrive-test-conv-colab,71,284.75447726878207,498393,1684,6997.511249542236,42.37897491455078,-42.87612533569336,8.701811790466309,0.52
498,MetaDrive-test-conv-colab,71,286.4969616255696,499538,1686,7010.983513116837,38.27745056152344,,6.387443542480469,0.54
