TanmayH/CS269-RL-project-code/MetaDrive-test-dropout/td3/progress.csv
,log_dir,frame_per_second,episode_reward,total_steps,total_episodes,total_time,target_q,actor_loss,critic_loss,success_rate
0,MetaDrive-test-dropout,391,11.501931605806021,2001,2,5.114813804626465,,,,0.0
1,MetaDrive-test-dropout,366,8.546000515067867,3556,4,9.704486608505249,,,,0.0
2,MetaDrive-test-dropout,341,6.814879619141675,4103,5,12.000140190124512,,,,0.0
3,MetaDrive-test-dropout,298,8.642516590320916,5065,6,16.991987466812134,0.01814696192741394,-0.015490692108869553,0.004167702980339527,0.0
4,MetaDrive-test-dropout,186,0.05799379896594159,6005,31,32.17566895484924,-0.01705663651227951,0.005497889593243599,0.7963196635246277,0.0
5,MetaDrive-test-dropout,162,-0.2864561545849166,7119,36,43.87094569206238,0.021140236407518387,0.00505492091178894,0.003804589156061411,0.0
6,MetaDrive-test-dropout,150,-0.30081853189319496,8120,37,54.02711033821106,0.015374761074781418,,0.00421874038875103,0.0
7,MetaDrive-test-dropout,143,-0.2715666996456368,9121,38,63.59161567687988,0.013670514337718487,-0.010714186355471611,0.002410596702247858,0.0
8,MetaDrive-test-dropout,131,0.08956631156144826,10815,42,82.5438666343689,0.02850949391722679,-0.00496255699545145,0.006231926381587982,0.0
9,MetaDrive-test-dropout,128,0.0545035810570279,11816,43,92.11261582374573,-0.03326484188437462,,0.7913973927497864,0.0
10,MetaDrive-test-dropout,125,0.2114062514241624,12817,44,101.76986932754517,0.06159517168998718,-0.04396311193704605,0.009749284945428371,0.0
11,MetaDrive-test-dropout,122,0.46156836941996854,13612,45,110.95877122879028,0.050750911235809326,,0.004289101809263229,0.0
12,MetaDrive-test-dropout,120,0.5373941364671985,14890,49,123.86661076545715,0.08089946955442429,,0.0028174284379929304,0.0
13,MetaDrive-test-dropout,118,0.9922382191287129,15649,50,132.38718843460083,0.028088049963116646,-0.10617002099752426,0.7330437898635864,0.0
14,MetaDrive-test-dropout,117,1.0167419587587068,16097,51,137.17197966575623,0.10645453631877899,-0.11616942286491394,0.0027153906412422657,0.0
15,MetaDrive-test-dropout,113,1.7527129209117827,17277,61,152.53496670722961,0.14728033542633057,-0.1786380410194397,0.0032941699028015137,0.0
16,MetaDrive-test-dropout,110,3.0202698383849476,18073,69,163.4482626914978,0.18619906902313232,-0.20457857847213745,0.0030608042143285275,0.0
17,MetaDrive-test-dropout,106,4.2356743519964555,19061,84,179.00021719932556,0.2757844626903534,-0.2541654109954834,0.01578591763973236,0.0
18,MetaDrive-test-dropout,103,4.718787772890543,20059,104,194.54356956481934,0.2822033762931824,-0.38774484395980835,0.9302725791931152,0.0
19,MetaDrive-test-dropout,100,7.008392300231005,21048,123,209.08187007904053,0.5322728157043457,,0.020791802555322647,0.0
20,MetaDrive-test-dropout,98,9.570389268348148,22017,142,224.2074329853058,0.7318803071975708,-0.7791805267333984,0.024670416489243507,0.0
21,MetaDrive-test-dropout,96,12.424394566960231,23015,158,237.96269059181213,0.8383502960205078,-0.9963586926460266,2.3814468383789062,0.0
22,MetaDrive-test-dropout,95,15.898203764672207,24078,171,251.11025023460388,1.3583135604858398,,0.08514748513698578,0.0
23,MetaDrive-test-dropout,94,19.421926896230715,25021,183,264.7171926498413,1.4705549478530884,-1.730941891670227,3.2061991691589355,0.0
24,MetaDrive-test-dropout,93,23.019078011073,26009,196,278.8029417991638,2.166703701019287,-2.3243355751037598,0.14578720927238464,0.0
25,MetaDrive-test-dropout,92,26.19902282324014,27014,210,291.4026701450348,2.2379343509674072,,5.419022083282471,0.0
26,MetaDrive-test-dropout,91,31.23227190889389,28057,221,306.46503949165344,3.252249002456665,-3.225532054901123,0.2909213900566101,0.0
27,MetaDrive-test-dropout,90,34.43488276834982,29011,233,319.9807572364807,3.4769227504730225,-3.8175129890441895,3.407803535461426,0.0
28,MetaDrive-test-dropout,89,39.22690182621607,30061,243,334.7566261291504,4.691073417663574,-4.667301177978516,0.46044468879699707,0.0
29,MetaDrive-test-dropout,89,42.148903116812605,31009,254,346.25893473625183,5.050162315368652,-5.189264297485352,0.2319827377796173,0.0
30,MetaDrive-test-dropout,89,44.96668211407694,32082,265,359.00261402130127,5.735257148742676,,3.2889809608459473,0.0
31,MetaDrive-test-dropout,88,44.551455893953,33035,276,371.84539270401,6.220934867858887,-6.203670501708984,0.6069573760032654,0.0
32,MetaDrive-test-dropout,88,45.95526471657502,34099,288,386.3827579021454,7.08846378326416,-7.490921974182129,5.240978240966797,0.0
33,MetaDrive-test-dropout,87,50.162231173809175,35063,296,400.4123475551605,7.540716648101807,-8.170016288757324,8.373488426208496,0.0
34,MetaDrive-test-dropout,87,55.4686722594424,36032,303,412.8282895088196,8.202532768249512,,5.144426345825195,0.0
35,MetaDrive-test-dropout,86,57.024585368076366,37049,312,426.27890157699585,8.695928573608398,-9.380711555480957,19.625139236450195,0.0
36,MetaDrive-test-dropout,86,58.42103620249196,38039,321,438.01427960395813,9.371272087097168,-9.395549774169922,10.301572799682617,0.0
37,MetaDrive-test-dropout,86,62.95653118594932,39109,330,450.08721685409546,10.154632568359375,-10.300436973571777,0.39305251836776733,0.0
38,MetaDrive-test-dropout,86,64.42939095244346,40085,338,462.5683538913727,11.615205764770508,-11.684516906738281,0.4735995829105377,0.0
39,MetaDrive-test-dropout,86,66.61034629772114,41046,347,475.13154554367065,12.350626945495605,,1.0618385076522827,0.0
40,MetaDrive-test-dropout,85,69.9259799179491,42159,355,491.23716163635254,12.42970085144043,-12.541950225830078,0.814857006072998,0.0
41,MetaDrive-test-dropout,85,70.78791544698149,43048,363,501.3378236293793,12.994001388549805,,0.9666849374771118,0.0
42,MetaDrive-test-dropout,85,75.03871149368312,44123,372,514.8935110569,14.487712860107422,-14.34524917602539,1.6389551162719727,0.0
43,MetaDrive-test-dropout,85,76.61847075228692,45034,381,526.112725019455,14.078413009643555,,7.355218410491943,0.0
44,MetaDrive-test-dropout,85,79.23784387664791,46053,390,538.9296836853027,15.796199798583984,-15.53062629699707,1.9284124374389648,0.0
45,MetaDrive-test-dropout,85,79.6582697659158,47033,398,551.7316455841064,14.715070724487305,-14.845741271972656,7.501914024353027,0.0
46,MetaDrive-test-dropout,85,76.7734556617456,48047,408,563.838005065918,16.394601821899414,-15.83077621459961,2.17346453666687,0.0
47,MetaDrive-test-dropout,84,79.30592829123158,49017,415,578.991418838501,17.15444564819336,-17.92727279663086,20.915523529052734,0.0
48,MetaDrive-test-dropout,84,79.21178084232304,50093,425,593.3767807483673,16.54585838317871,-16.499568939208984,1.7457425594329834,0.0
49,MetaDrive-test-dropout,84,78.4970883373076,51058,434,604.9266011714935,18.185894012451172,,1.2021679878234863,0.0
50,MetaDrive-test-dropout,84,78.54303809967364,52006,443,616.7179236412048,18.27471160888672,,3.123106002807617,0.0
51,MetaDrive-test-dropout,84,77.2976736343276,53026,452,631.134533405304,19.784889221191406,,19.497468948364258,0.0
52,MetaDrive-test-dropout,83,77.55089913560434,54105,462,644.6329925060272,19.162006378173828,-19.528034210205078,2.601285457611084,0.0
53,MetaDrive-test-dropout,83,77.0386984979904,55053,471,656.491259098053,19.688156127929688,-19.96417999267578,16.90625,0.0
54,MetaDrive-test-dropout,83,77.56769570782015,56030,480,668.2125282287598,19.83767318725586,,2.3371152877807617,0.0
55,MetaDrive-test-dropout,83,76.78657593698351,57061,490,680.5330035686493,22.39290428161621,-22.848560333251953,1.0672824382781982,0.0
56,MetaDrive-test-dropout,83,75.28744922743006,58001,499,693.4011089801788,18.2574462890625,-19.01141357421875,33.146400451660156,0.0
57,MetaDrive-test-dropout,83,76.77047480106162,59086,509,708.5417182445526,21.674285888671875,,4.454071521759033,0.0
58,MetaDrive-test-dropout,83,74.71629326945946,60048,518,719.772189617157,22.762134552001953,,1.3720216751098633,0.0
59,MetaDrive-test-dropout,83,74.61654925400279,61084,528,732.5422332286835,21.55437660217285,,4.219017505645752,0.0
60,MetaDrive-test-dropout,83,74.58000328330941,62022,537,744.3024544715881,23.28252410888672,,3.3870649337768555,0.0
61,MetaDrive-test-dropout,83,74.83730986274968,63003,546,756.2735276222229,24.281780242919922,-24.851831436157227,3.0859973430633545,0.0
62,MetaDrive-test-dropout,83,76.48995171841808,64111,556,770.9511833190918,23.658334732055664,-23.700695037841797,1.6278584003448486,0.0
63,MetaDrive-test-dropout,83,75.04209320621095,65096,565,783.7702159881592,24.740575790405273,,2.753619909286499,0.0
64,MetaDrive-test-dropout,83,74.0939187873048,66082,575,795.4056487083435,25.772628784179688,,3.0905685424804688,0.0
65,MetaDrive-test-dropout,83,76.29125495923,67061,583,807.6888978481293,23.901744842529297,-24.103797912597656,4.608095169067383,0.0
66,MetaDrive-test-dropout,82,76.65907735630722,68088,593,820.429767370224,28.249717712402344,,1.4617979526519775,0.0
67,MetaDrive-test-dropout,82,75.36066515588399,69092,602,832.629123210907,25.15831756591797,,17.405981063842773,0.0
68,MetaDrive-test-dropout,82,77.50920665278336,70075,610,844.3619318008423,25.39112091064453,-24.962352752685547,6.346698760986328,0.0
69,MetaDrive-test-dropout,82,79.1553679740375,71023,618,856.9456598758698,26.1746883392334,-26.165348052978516,19.751127243041992,0.0
70,MetaDrive-test-dropout,82,81.2975508169639,72030,626,869.7017679214478,27.834835052490234,,3.053844928741455,0.0
71,MetaDrive-test-dropout,82,81.36561373701997,73041,635,883.1484799385071,28.039384841918945,-28.987295150756836,22.423662185668945,0.0
72,MetaDrive-test-dropout,82,79.53924422519634,74044,645,895.4372000694275,25.543228149414062,,4.688343048095703,0.0
73,MetaDrive-test-dropout,82,81.12882898667404,75052,653,908.6515827178955,26.224502563476562,,5.578371047973633,0.0
74,MetaDrive-test-dropout,82,79.77425448489237,76110,663,921.8981301784515,26.608367919921875,,5.142956256866455,0.0
75,MetaDrive-test-dropout,82,79.6346705517774,77061,672,933.2953405380249,26.81694793701172,-27.81532096862793,5.006654262542725,0.0
76,MetaDrive-test-dropout,82,79.82730481433005,78005,680,945.2697095870972,25.784381866455078,-26.14264488220215,4.346817970275879,0.0
77,MetaDrive-test-dropout,82,79.87553265240274,79069,689,960.012241601944,26.52103614807129,-26.486658096313477,5.516911029815674,0.0
78,MetaDrive-test-dropout,82,79.62784716410928,80040,698,971.8849191665649,27.875207901000977,,5.935286521911621,0.0
79,MetaDrive-test-dropout,82,79.60974023427809,81037,707,984.102810382843,30.54642105102539,-30.448516845703125,3.081437349319458,0.0
80,MetaDrive-test-dropout,82,77.369824621971,82123,717,998.6926901340485,24.933692932128906,-26.053146362304688,8.148321151733398,0.0
81,MetaDrive-test-dropout,82,75.40968714741015,83125,726,1011.2277781963348,31.46917152404785,-31.55565071105957,3.610995292663574,0.0
82,MetaDrive-test-dropout,82,76.23727838765832,84145,734,1024.7428002357483,27.05890655517578,-27.064090728759766,4.036836624145508,0.0
83,MetaDrive-test-dropout,82,76.87451811163916,85015,742,1035.3482053279877,30.81481170654297,-30.9598388671875,3.7872562408447266,0.0
84,MetaDrive-test-dropout,82,78.48858328776836,86027,749,1048.747002363205,26.345458984375,-26.730018615722656,5.541097640991211,0.0
85,MetaDrive-test-dropout,82,78.52428425134428,87008,758,1060.3112516403198,25.80895233154297,,11.491777420043945,0.0
86,MetaDrive-test-dropout,81,79.55715965975948,88042,766,1074.0579748153687,29.743091583251953,,3.4454843997955322,0.0
87,MetaDrive-test-dropout,81,81.09511956120863,89049,774,1087.1276051998138,28.048118591308594,-28.515777587890625,14.752401351928711,0.0
88,MetaDrive-test-dropout,81,81.45625731676013,90046,782,1099.5006217956543,28.585311889648438,,3.6514267921447754,0.0
89,MetaDrive-test-dropout,81,84.10752420546585,91091,789,1111.9531445503235,29.55640983581543,-29.00692367553711,4.052974700927734,0.0
90,MetaDrive-test-dropout,81,85.25555463336894,92099,797,1124.0467059612274,27.153987884521484,-27.477947235107422,3.706786870956421,0.0
91,MetaDrive-test-dropout,81,86.30169673536194,93033,805,1136.3858284950256,28.062297821044922,-27.766559600830078,7.202013969421387,0.0
92,MetaDrive-test-dropout,81,85.06489037103276,94062,814,1148.9142217636108,29.948394775390625,,4.495879173278809,0.0
93,MetaDrive-test-dropout,81,87.23286594079181,95083,822,1161.546020269394,30.3519229888916,-30.87362289428711,9.954742431640625,0.0
94,MetaDrive-test-dropout,81,85.06622659399339,96060,831,1175.0481250286102,28.938949584960938,,4.0264363288879395,0.0
95,MetaDrive-test-dropout,81,83.91878044394387,97019,840,1187.6408517360687,31.189979553222656,-31.414836883544922,9.918603897094727,0.0
96,MetaDrive-test-dropout,81,82.09335825768665,98007,849,1198.968825340271,27.500572204589844,-26.83584213256836,9.18118953704834,0.0
97,MetaDrive-test-dropout,81,85.37294878007607,99194,853,1215.1280946731567,29.505495071411133,,9.582413673400879,0.01
98,MetaDrive-test-dropout,81,88.95610196102109,100225,855,1230.0025861263275,27.622833251953125,-28.226898193359375,14.379830360412598,0.02
99,MetaDrive-test-dropout,81,92.26887759519494,101359,859,1243.0277409553528,29.675636291503906,-29.971797943115234,3.841953754425049,0.04
100,MetaDrive-test-dropout,81,95.19689824226778,102468,863,1257.8853404521942,29.744537353515625,,4.235348701477051,0.05
101,MetaDrive-test-dropout,81,99.02872513174967,103443,865,1272.0698499679565,30.447914123535156,-30.609928131103516,9.870735168457031,0.06
102,MetaDrive-test-dropout,81,99.78484694718748,104626,867,1289.013064622879,31.966779708862305,,5.9113359451293945,0.06
103,MetaDrive-test-dropout,81,101.2254668643549,105071,869,1293.7421102523804,27.213308334350586,-27.805877685546875,5.2104573249816895,0.06
104,MetaDrive-test-dropout,80,107.11054323040356,106573,872,1315.8545401096344,28.581954956054688,-28.37851333618164,6.61034631729126,0.08
105,MetaDrive-test-dropout,80,107.6039186751465,107038,874,1322.419777393341,30.85918617248535,,4.388318061828613,0.08
106,MetaDrive-test-dropout,80,107.98502985227942,108397,881,1341.8119533061981,28.306838989257812,-28.410709381103516,8.956220626831055,0.08
107,MetaDrive-test-dropout,80,109.98412114373505,109139,883,1354.6246535778046,27.64191436767578,-29.277767181396484,11.826465606689453,0.08
108,MetaDrive-test-dropout,80,114.4945643336683,110171,885,1367.882698059082,31.707733154296875,-31.72101593017578,5.076225757598877,0.09
109,MetaDrive-test-dropout,80,114.17618146722857,111252,890,1383.9361743927002,33.691593170166016,,4.764123916625977,0.09
110,MetaDrive-test-dropout,80,116.38797018236644,112104,893,1397.4515619277954,29.16331672668457,,4.529770851135254,0.09
111,MetaDrive-test-dropout,80,118.98488067737857,113329,897,1414.2367596626282,27.80062484741211,-28.212038040161133,5.276973724365234,0.1
112,MetaDrive-test-dropout,80,123.72187771445734,114436,900,1429.2055764198303,28.274093627929688,,4.236856460571289,0.1
113,MetaDrive-test-dropout,80,126.21830391666919,115194,902,1439.0700552463531,29.977497100830078,,6.0671467781066895,0.1
114,MetaDrive-test-dropout,79,130.27596201284186,116440,905,1459.1537454128265,32.48698043823242,,2.8279471397399902,0.11
115,MetaDrive-test-dropout,79,130.46261482496737,117004,907,1466.0749530792236,33.104488372802734,,5.913975715637207,0.11
116,MetaDrive-test-dropout,79,133.65082781902788,118183,912,1480.826200723648,31.017223358154297,-30.751644134521484,5.29589319229126,0.12
117,MetaDrive-test-dropout,79,134.7865133368014,119027,916,1490.4093101024628,33.99927520751953,-34.37248992919922,6.28476619720459,0.13
118,MetaDrive-test-dropout,79,139.4125302634456,120287,919,1508.1356072425842,32.336669921875,-33.034950256347656,8.98816967010498,0.14
119,MetaDrive-test-dropout,79,138.98701569842513,121046,924,1518.6292250156403,33.07168960571289,,4.294300556182861,0.14
120,MetaDrive-test-dropout,79,142.07588286256592,122017,927,1530.5021123886108,31.7305850982666,-31.548702239990234,4.378712177276611,0.15
121,MetaDrive-test-dropout,79,142.1965208342736,123193,932,1549.141005039215,31.941387176513672,-32.606536865234375,3.919135093688965,0.15
122,MetaDrive-test-dropout,79,145.5689293025853,124428,937,1565.02907538414,31.742813110351562,,20.095590591430664,0.16
123,MetaDrive-test-dropout,79,148.66303585715855,125117,939,1573.4067475795746,33.34151840209961,-32.67778778076172,7.228776454925537,0.17
124,MetaDrive-test-dropout,79,151.36713361166048,126024,941,1587.5917415618896,34.27743911743164,,9.927310943603516,0.17
125,MetaDrive-test-dropout,79,153.6186116052157,127032,944,1604.848994255066,34.798583984375,,4.816729545593262,0.17
126,MetaDrive-test-dropout,79,158.6309177896848,128980,947,1629.80140209198,36.150936126708984,,4.851838111877441,0.18
127,MetaDrive-test-dropout,79,158.85267570631459,129124,948,1631.485285282135,37.33457565307617,,6.807112693786621,0.18
128,MetaDrive-test-dropout,79,158.54644860942076,130768,953,1654.6563205718994,31.86764907836914,,3.1979596614837646,0.18
129,MetaDrive-test-dropout,79,155.58634595233534,131197,956,1660.501874446869,28.702632904052734,-29.659542083740234,46.079071044921875,0.17
130,MetaDrive-test-dropout,78,158.07613055229544,132185,958,1675.8785977363586,34.05746078491211,-34.76641845703125,28.749332427978516,0.17
131,MetaDrive-test-dropout,78,156.3548622684044,133288,960,1687.7456092834473,33.16673278808594,,9.789507865905762,0.16
132,MetaDrive-test-dropout,78,158.7153971630675,134279,962,1703.0552995204926,31.58367919921875,-32.268463134765625,11.321407318115234,0.17
133,MetaDrive-test-dropout,78,156.05048010423005,135570,965,1723.4746606349945,32.35121536254883,,3.6822547912597656,0.16
134,MetaDrive-test-dropout,78,156.14451248343244,136571,966,1740.3861889839172,35.7593879699707,-34.963470458984375,14.769965171813965,0.16
135,MetaDrive-test-dropout,78,156.11240540420434,137424,969,1753.4664478302002,31.380529403686523,,3.9198155403137207,0.16
136,MetaDrive-test-dropout,78,156.2342352790646,138443,971,1766.693041563034,35.70008850097656,-35.18228530883789,6.334333896636963,0.15
137,MetaDrive-test-dropout,78,153.25364349052342,139279,974,1776.8213329315186,30.654644012451172,-30.29217529296875,11.072907447814941,0.15
138,MetaDrive-test-dropout,78,155.7538894044865,140148,975,1788.166604757309,33.524192810058594,,3.9881725311279297,0.15
139,MetaDrive-test-dropout,78,158.87150474596967,141127,978,1802.372064590454,35.7201042175293,-35.936561584472656,5.749015808105469,0.16
140,MetaDrive-test-dropout,78,157.16240476281286,142065,982,1815.4205362796783,35.714027404785156,-35.7336311340332,5.92241096496582,0.16
141,MetaDrive-test-dropout,78,154.1645233060392,143024,985,1825.1947774887085,35.40892791748047,,6.258614540100098,0.16
142,MetaDrive-test-dropout,78,157.34701328305843,144378,988,1843.404504776001,36.31711959838867,,4.894856929779053,0.17
143,MetaDrive-test-dropout,78,157.06908521950956,145261,991,1854.146601676941,34.656192779541016,-34.800384521484375,3.355116844177246,0.17
144,MetaDrive-test-dropout,78,158.74439180184888,146753,994,1873.5761699676514,31.512611389160156,-31.830263137817383,4.708556175231934,0.18
145,MetaDrive-test-dropout,78,158.04984617064716,147075,995,1879.67333650589,31.533916473388672,-32.257232666015625,47.35314178466797,0.18
146,MetaDrive-test-dropout,78,158.5123371776642,148300,998,1894.8975949287415,33.77958679199219,,5.405835151672363,0.18
147,MetaDrive-test-dropout,78,156.12555343483547,149329,1001,1909.436428308487,36.972049713134766,-37.033119201660156,3.8610293865203857,0.18
148,MetaDrive-test-dropout,78,158.1864653921176,150383,1003,1924.53342294693,30.227556228637695,-29.822731018066406,8.182912826538086,0.19
149,MetaDrive-test-dropout,78,156.22184909719883,151384,1004,1936.6291618347168,34.05725860595703,,11.381749153137207,0.19
150,MetaDrive-test-dropout,78,156.30258585710396,152779,1006,1952.5940115451813,36.62797164916992,-37.01632308959961,4.274806976318359,0.18
151,MetaDrive-test-dropout,78,155.64333063225624,153780,1007,1964.515041589737,34.7581787109375,,3.658525228500366,0.18
152,MetaDrive-test-dropout,78,154.83340895734634,154008,1009,1967.1527738571167,33.56220245361328,,85.38998413085938,0.18
153,MetaDrive-test-dropout,78,156.0483245933452,155009,1010,1979.3821754455566,33.58810806274414,-34.401611328125,5.257399082183838,0.18
154,MetaDrive-test-dropout,78,155.6596605248718,156372,1015,1997.8363890647888,34.525489807128906,,4.177519798278809,0.16
155,MetaDrive-test-dropout,78,153.91107453728898,157046,1017,2009.829610824585,35.479103088378906,,7.302833080291748,0.15
156,MetaDrive-test-dropout,78,156.9211722377675,158121,1020,2023.486183166504,33.47118377685547,-33.856136322021484,5.4986348152160645,0.15
157,MetaDrive-test-dropout,78,159.65275768157147,159077,1023,2038.2440268993378,33.974143981933594,-33.65707778930664,52.19136428833008,0.15
158,MetaDrive-test-dropout,77,162.1643800414229,160256,1026,2055.6443462371826,37.07562255859375,,3.3662467002868652,0.15
159,MetaDrive-test-dropout,77,166.52967700333988,161249,1028,2071.236010313034,30.398181915283203,-31.14932632446289,61.34955596923828,0.15
160,MetaDrive-test-dropout,77,169.69043505257218,162214,1031,2083.053457260132,35.76085662841797,,3.0360350608825684,0.17
161,MetaDrive-test-dropout,77,171.69857217350844,163119,1033,2096.8988461494446,34.10702896118164,-34.49504089355469,4.115139484405518,0.17
162,MetaDrive-test-dropout,77,172.66004107953336,164521,1037,2117.8633325099945,30.49752426147461,-31.10404396057129,5.2733306884765625,0.17
163,MetaDrive-test-dropout,77,172.23356229861997,165261,1039,2127.4711768627167,34.83341979980469,-35.240875244140625,12.793891906738281,0.16
164,MetaDrive-test-dropout,77,172.69444031883296,166354,1042,2141.455488681793,35.260894775390625,,57.065555572509766,0.16
165,MetaDrive-test-dropout,77,171.72876119433462,167487,1046,2158.4115715026855,34.53282165527344,-34.543418884277344,4.072177886962891,0.16
166,MetaDrive-test-dropout,77,171.8869037779837,168304,1048,2172.6285367012024,30.729633331298828,,26.53866958618164,0.15
167,MetaDrive-test-dropout,77,175.35730867364472,169307,1051,2185.02507853508,33.78748321533203,-34.714439392089844,6.240603446960449,0.15
168,MetaDrive-test-dropout,77,174.34423369300657,170529,1054,2201.2905793190002,33.74870300292969,-33.87871551513672,1.8996434211730957,0.14
169,MetaDrive-test-dropout,77,177.96411520695486,171234,1055,2211.5018877983093,36.335445404052734,,4.739584922790527,0.15
170,MetaDrive-test-dropout,77,175.14071534999113,172270,1060,2226.640289545059,32.95085144042969,,5.045351028442383,0.14
171,MetaDrive-test-dropout,77,173.60058360534765,173048,1063,2238.426649093628,31.05310821533203,,29.742218017578125,0.13
172,MetaDrive-test-dropout,77,174.04548879218743,174277,1065,2253.2864475250244,33.4556770324707,-33.58467483520508,8.329702377319336,0.13
173,MetaDrive-test-dropout,77,175.04916004353063,175080,1068,2262.9409279823303,33.43754959106445,,5.20548152923584,0.14
174,MetaDrive-test-dropout,77,174.57073164165726,176494,1073,2282.4818890094757,32.71099853515625,,3.265322685241699,0.15
175,MetaDrive-test-dropout,77,170.39951091563904,177085,1076,2289.4241421222687,35.25908279418945,-35.31040954589844,6.927639007568359,0.14
176,MetaDrive-test-dropout,77,168.71239386105185,178016,1081,2300.917627811432,33.913917541503906,,5.683378219604492,0.13
177,MetaDrive-test-dropout,77,166.74944598117148,179026,1086,2314.6200563907623,32.81616973876953,,4.7818284034729,0.12
178,MetaDrive-test-dropout,77,162.27760490861436,180001,1091,2327.4107460975647,34.01191329956055,-34.64048767089844,5.84517765045166,0.11
179,MetaDrive-test-dropout,77,160.62659423352048,181010,1094,2340.8910558223724,30.857433319091797,,5.265275001525879,0.1
180,MetaDrive-test-dropout,77,162.88961058672965,182042,1097,2355.8280515670776,35.26188659667969,,4.14340877532959,0.11
181,MetaDrive-test-dropout,77,163.3058454493031,183404,1100,2375.274247646332,37.83452224731445,,4.264127731323242,0.12
182,MetaDrive-test-dropout,77,155.70228103335546,184109,1105,2384.2791080474854,34.473045349121094,-34.23447036743164,24.505521774291992,0.11
183,MetaDrive-test-dropout,77,156.93303198208298,185105,1109,2399.270971059799,37.284454345703125,-37.84058380126953,4.10887336730957,0.11
184,MetaDrive-test-dropout,77,161.7355316211541,186221,1111,2416.106116771698,36.36320114135742,-37.00587463378906,8.137648582458496,0.12
185,MetaDrive-test-dropout,77,166.07969457326016,187453,1113,2432.7381131649017,34.164039611816406,-34.30669403076172,6.225968360900879,0.14
186,MetaDrive-test-dropout,77,163.57610490955724,188011,1116,2439.291883468628,34.73969650268555,-34.59555435180664,8.515599250793457,0.14
187,MetaDrive-test-dropout,77,163.5991324611074,189069,1119,2452.236172437668,36.735015869140625,-37.25204086303711,5.813347816467285,0.15
188,MetaDrive-test-dropout,77,162.887412203245,190324,1123,2470.08314371109,36.564083099365234,,5.684072017669678,0.15
189,MetaDrive-test-dropout,77,158.70951121219179,191439,1127,2483.7969748973846,32.1435546875,-32.24414825439453,13.912239074707031,0.15
190,MetaDrive-test-dropout,77,159.52038391693645,192087,1129,2492.563521385193,36.16387176513672,-36.93451690673828,6.052822113037109,0.15
191,MetaDrive-test-dropout,76,157.66701481982307,193085,1132,2508.1992692947388,34.3935546875,-33.72853088378906,5.961368560791016,0.13
192,MetaDrive-test-dropout,76,158.90645888609316,194147,1136,2521.950049161911,36.76512145996094,-35.55377960205078,5.502422332763672,0.13
193,MetaDrive-test-dropout,77,156.14966807904574,195273,1139,2535.710020542145,31.041227340698242,-31.81709098815918,8.491064071655273,0.13
194,MetaDrive-test-dropout,76,152.95701554950168,196111,1143,2546.9862730503082,34.94648742675781,-35.36392593383789,11.380599975585938,0.13
195,MetaDrive-test-dropout,77,152.50156362417565,197297,1147,2561.1723787784576,37.41869354248047,-37.396488189697266,4.589984893798828,0.14
196,MetaDrive-test-dropout,77,155.66424909656422,198572,1150,2577.745822429657,34.13465881347656,,8.535207748413086,0.16
197,MetaDrive-test-dropout,77,154.60846700067884,199027,1153,2583.8580634593964,35.59305191040039,-35.37928009033203,6.4754557609558105,0.16
198,MetaDrive-test-dropout,77,151.97378075467256,200094,1156,2596.9643998146057,32.53559875488281,,6.204187393188477,0.16
199,MetaDrive-test-dropout,77,153.4399837829454,201322,1160,2612.421545267105,33.99087142944336,,45.511688232421875,0.17
200,MetaDrive-test-dropout,77,155.3545811088333,202259,1163,2624.9320352077484,35.8552360534668,-36.155296325683594,5.334343910217285,0.18
201,MetaDrive-test-dropout,77,152.7023474104426,203400,1167,2640.45046544075,35.56397247314453,,9.659990310668945,0.16
202,MetaDrive-test-dropout,77,155.52902689267478,204067,1169,2648.742178440094,36.85706329345703,-36.45730972290039,11.74461555480957,0.17
203,MetaDrive-test-dropout,77,152.968089563766,205226,1174,2662.8907968997955,33.52057647705078,,5.918994903564453,0.16
204,MetaDrive-test-dropout,77,153.68568003780268,206301,1178,2679.0307145118713,35.222198486328125,-35.131629943847656,7.374605178833008,0.16
205,MetaDrive-test-dropout,77,155.7659373776423,207295,1181,2690.8220250606537,35.58598709106445,-35.674537658691406,6.893149375915527,0.16
206,MetaDrive-test-dropout,77,158.7777479020986,208504,1184,2707.453687429428,37.91486358642578,,12.18287467956543,0.17
207,MetaDrive-test-dropout,76,161.96987169083985,209174,1186,2716.9666204452515,34.27589416503906,,8.148096084594727,0.17
208,MetaDrive-test-dropout,76,164.09775205140315,210025,1189,2728.8391580581665,38.51838684082031,-38.30059814453125,8.803973197937012,0.17
209,MetaDrive-test-dropout,76,167.06748732893274,211330,1193,2747.3950295448303,36.16883087158203,,13.454766273498535,0.18
210,MetaDrive-test-dropout,76,162.01729160172005,212068,1197,2758.1181795597076,34.703224182128906,,15.4690523147583,0.17
211,MetaDrive-test-dropout,76,162.2675411194444,213301,1200,2774.4438145160675,32.68357849121094,-32.56104278564453,4.105885982513428,0.16
212,MetaDrive-test-dropout,76,164.80016029433853,214135,1202,2788.6543567180634,37.842838287353516,-37.92007827758789,4.813353538513184,0.16
213,MetaDrive-test-dropout,76,169.21357291455638,215135,1204,2800.9629549980164,31.75060272216797,-32.01765441894531,10.688739776611328,0.17
214,MetaDrive-test-dropout,76,173.1528140126378,216163,1207,2812.55388712883,37.76658630371094,-38.520362854003906,25.397342681884766,0.18
215,MetaDrive-test-dropout,76,172.28424408583157,217266,1210,2828.0923931598663,36.16270446777344,,37.912864685058594,0.18
216,MetaDrive-test-dropout,76,167.94707796113983,218575,1213,2845.679239988327,36.384132385253906,-36.28654479980469,27.842857360839844,0.16
217,MetaDrive-test-dropout,76,170.36709676868998,219290,1215,2855.779126882553,39.08660888671875,,8.550586700439453,0.16
218,MetaDrive-test-dropout,76,171.5158602005276,220158,1218,2868.120471715927,31.85424041748047,,7.0994110107421875,0.16
219,MetaDrive-test-dropout,76,172.78743803865524,221166,1221,2882.0952911376953,31.375316619873047,,114.57689666748047,0.16
220,MetaDrive-test-dropout,76,172.56207748238478,222058,1223,2895.1241919994354,34.080528259277344,,44.27851867675781,0.16
221,MetaDrive-test-dropout,76,177.0725638251593,223496,1226,2914.4168162345886,36.38344955444336,,12.736957550048828,0.18
222,MetaDrive-test-dropout,76,176.4354436392083,224205,1228,2925.9095027446747,36.074790954589844,-37.128089904785156,61.89729309082031,0.17
223,MetaDrive-test-dropout,76,175.4756065038885,225329,1231,2942.5439846515656,36.554683685302734,-36.4083251953125,8.551568984985352,0.17
224,MetaDrive-test-dropout,76,177.47620761288934,226235,1234,2956.5361938476562,38.20709228515625,-38.883121490478516,5.044628143310547,0.17
225,MetaDrive-test-dropout,76,174.39694454365235,227292,1239,2969.280114889145,37.99263381958008,,7.092011451721191,0.17
226,MetaDrive-test-dropout,76,177.48345189068132,228246,1242,2979.8790922164917,35.58776092529297,,14.025331497192383,0.18
227,MetaDrive-test-dropout,76,176.23469983099542,229753,1247,3000.3805656433105,36.38414001464844,-36.443328857421875,6.797299385070801,0.18
228,MetaDrive-test-dropout,76,176.6199911390113,230045,1248,3003.8509504795074,33.09169387817383,-33.64484786987305,45.659996032714844,0.18
229,MetaDrive-test-dropout,76,174.02328037854267,231191,1252,3018.7584307193756,36.55096435546875,-36.808876037597656,9.55289077758789,0.17
230,MetaDrive-test-dropout,76,175.873350348731,232176,1254,3032.7022426128387,37.424659729003906,,9.40219783782959,0.18
231,MetaDrive-test-dropout,76,173.09186953533222,233143,1258,3045.69868683815,37.3990364074707,-37.638702392578125,16.692214965820312,0.16
232,MetaDrive-test-dropout,76,169.2892060621868,234067,1263,3055.833105325699,36.719200134277344,-36.45315170288086,10.663460731506348,0.15
233,MetaDrive-test-dropout,76,168.32243153797427,235065,1267,3070.27387881279,37.23285675048828,-36.980812072753906,6.790407180786133,0.15
234,MetaDrive-test-dropout,76,167.30878474161042,236025,1270,3081.946551799774,35.396263122558594,-34.389442443847656,7.970930576324463,0.15
235,MetaDrive-test-dropout,76,172.44668360761617,237632,1274,3102.801013946533,34.959774017333984,,7.361718654632568,0.17
236,MetaDrive-test-dropout,76,173.00793524943293,238147,1276,3109.673879623413,38.29402160644531,-38.52458572387695,5.9546709060668945,0.17
237,MetaDrive-test-dropout,76,175.63369152454092,239059,1278,3123.0996627807617,36.36790466308594,-36.58209991455078,9.666803359985352,0.18
238,MetaDrive-test-dropout,76,175.62157612599628,240491,1282,3142.017320394516,37.957763671875,-38.327392578125,5.530506134033203,0.19
239,MetaDrive-test-dropout,76,176.32426708860996,241341,1284,3154.150079727173,35.807071685791016,-35.533660888671875,6.6621479988098145,0.19
240,MetaDrive-test-dropout,76,176.8913365877312,242165,1286,3164.416768550873,38.64508056640625,-38.585479736328125,7.19869327545166,0.19
241,MetaDrive-test-dropout,76,178.6452797394984,243344,1289,3179.071362257004,37.32896423339844,,11.386404037475586,0.19
242,MetaDrive-test-dropout,76,178.80841746016526,244083,1291,3190.9155173301697,38.00389862060547,-37.85955810546875,9.326115608215332,0.18
243,MetaDrive-test-dropout,76,179.989923190476,245132,1295,3206.153391599655,40.66352844238281,,7.604985237121582,0.18
244,MetaDrive-test-dropout,76,179.00416844527302,246207,1299,3219.9677906036377,37.387779235839844,-38.07756805419922,7.564944267272949,0.17
245,MetaDrive-test-dropout,76,175.53113666458717,247341,1303,3232.739458322525,36.01197052001953,-36.14738845825195,8.684917449951172,0.16
246,MetaDrive-test-dropout,76,176.61105822536135,248317,1305,3244.317531108856,39.398399353027344,-39.034915924072266,4.045252323150635,0.17
247,MetaDrive-test-dropout,76,173.60991812250592,249173,1308,3257.222538471222,37.26692581176758,-37.0650520324707,9.451854705810547,0.16
248,MetaDrive-test-dropout,76,169.6918406022243,250214,1313,3271.2766375541687,36.68022918701172,,7.247738838195801,0.15
249,MetaDrive-test-dropout,76,167.2701517241876,251080,1317,3280.7737016677856,37.58203887939453,,17.402427673339844,0.16
250,MetaDrive-test-dropout,76,166.18844038879823,252083,1320,3294.8618137836456,35.92666244506836,-35.51554870605469,6.329995155334473,0.15
251,MetaDrive-test-dropout,76,169.03531369838464,253425,1323,3311.0273563861847,42.7145881652832,-43.093955993652344,23.070724487304688,0.16
252,MetaDrive-test-dropout,76,168.45908018341194,254050,1325,3318.243015527725,36.585105895996094,,9.152643203735352,0.16
253,MetaDrive-test-dropout,76,165.56375680079617,255424,1330,3335.3618609905243,41.70539093017578,,9.001805305480957,0.16
254,MetaDrive-test-dropout,76,166.4284969480616,256380,1332,3346.7385795116425,36.931819915771484,,7.29005765914917,0.17
255,MetaDrive-test-dropout,76,167.0757474078268,257021,1334,3355.0395653247833,36.94951248168945,-37.883033752441406,5.494874000549316,0.17
256,MetaDrive-test-dropout,76,169.4415221999476,258008,1338,3364.925357580185,35.93850326538086,,104.03436279296875,0.18
257,MetaDrive-test-dropout,76,167.76868886656564,259278,1343,3380.4972598552704,37.16984176635742,,7.807232856750488,0.16
258,MetaDrive-test-dropout,76,165.91408572897257,260144,1347,3391.7138328552246,39.772666931152344,,9.875231742858887,0.15
259,MetaDrive-test-dropout,76,166.88271086117956,261287,1350,3403.7831869125366,38.843833923339844,-39.406097412109375,7.109990119934082,0.15
260,MetaDrive-test-dropout,76,167.4546187913102,262050,1352,3412.5051815509796,39.31886291503906,,21.84608268737793,0.14
261,MetaDrive-test-dropout,76,166.96051227219726,263119,1355,3425.7186737060547,34.83967971801758,-34.68262481689453,61.01870346069336,0.14
262,MetaDrive-test-dropout,76,170.4579408768508,264025,1357,3435.0628023147583,36.4998664855957,-36.43507385253906,14.879559516906738,0.16
263,MetaDrive-test-dropout,76,173.76027255643012,265187,1360,3446.1748003959656,37.52891540527344,-37.5689582824707,19.633872985839844,0.17
264,MetaDrive-test-dropout,76,176.80154549737316,266214,1363,3458.1894297599792,34.23681640625,,5.856069564819336,0.18
265,MetaDrive-test-dropout,76,176.86321686969978,267214,1367,3470.955025434494,41.68168640136719,,8.853763580322266,0.18
266,MetaDrive-test-dropout,76,171.86530728942512,268030,1372,3481.4268300533295,39.796966552734375,,10.669939041137695,0.16
267,MetaDrive-test-dropout,77,171.0622758260588,269011,1375,3492.639071702957,36.51554870605469,-36.57616424560547,8.144588470458984,0.15
268,MetaDrive-test-dropout,76,167.99374085522587,270076,1379,3507.6445274353027,37.41450881958008,,14.292827606201172,0.14
269,MetaDrive-test-dropout,76,170.4859837203122,271019,1381,3520.365403175354,34.48432922363281,-34.292137145996094,10.646093368530273,0.15
270,MetaDrive-test-dropout,76,163.57634751382534,272171,1386,3535.939738035202,38.508522033691406,-38.033233642578125,8.75351619720459,0.13
271,MetaDrive-test-dropout,76,166.05012284485315,273217,1388,3550.4718589782715,40.251869201660156,-40.53520965576172,6.228488922119141,0.14
272,MetaDrive-test-dropout,76,165.84879761249712,274128,1390,3561.700676679611,36.38960266113281,,6.417036533355713,0.15
273,MetaDrive-test-dropout,76,170.34984238232056,275216,1392,3574.672792196274,38.55634307861328,,106.21684265136719,0.17
274,MetaDrive-test-dropout,77,171.5727396068574,276411,1396,3588.7597365379333,37.577693939208984,-38.07371520996094,9.283266067504883,0.19
275,MetaDrive-test-dropout,77,173.27245554031512,277671,1399,3605.226645231247,40.860198974609375,-41.191749572753906,6.087054252624512,0.2
276,MetaDrive-test-dropout,77,174.73628342332097,278223,1400,3611.2466559410095,39.54154968261719,-39.963966369628906,22.0626220703125,0.21
277,MetaDrive-test-dropout,77,174.5846997431858,279028,1403,3621.035719394684,37.2680549621582,,31.936676025390625,0.21
278,MetaDrive-test-dropout,77,173.8706225411589,280119,1407,3635.979845046997,37.29994583129883,-37.329673767089844,6.942356586456299,0.2
279,MetaDrive-test-dropout,77,170.54661476973226,281069,1412,3649.8841042518616,36.11457061767578,-36.34568786621094,9.816296577453613,0.2
280,MetaDrive-test-dropout,76,172.9170314444227,282164,1415,3665.455350637436,39.586822509765625,,7.537595272064209,0.2
281,MetaDrive-test-dropout,76,173.6073143067655,283231,1418,3680.743757724762,36.96892547607422,-37.13141632080078,23.269447326660156,0.19
282,MetaDrive-test-dropout,76,174.13987515558463,284091,1420,3691.699637889862,37.80728530883789,-37.988014221191406,13.606246948242188,0.2
283,MetaDrive-test-dropout,76,171.1286785208466,285053,1423,3705.228744983673,39.37646484375,-39.1298942565918,14.007503509521484,0.19
284,MetaDrive-test-dropout,76,173.9309797000088,286355,1426,3722.2703528404236,38.875946044921875,-39.04969024658203,7.911465167999268,0.19
285,MetaDrive-test-dropout,76,174.95897719579935,287206,1429,3732.4167535305023,38.42005157470703,,7.422714710235596,0.19
286,MetaDrive-test-dropout,76,175.21987128236316,288209,1431,3746.630112886429,36.10845947265625,-36.001705169677734,11.967842102050781,0.19
287,MetaDrive-test-dropout,76,172.95739928056796,289196,1435,3758.7424342632294,34.91419982910156,,16.094406127929688,0.18
288,MetaDrive-test-dropout,76,177.88280565672255,290409,1437,3773.2075822353363,38.57563018798828,-38.81548309326172,6.422491550445557,0.2
289,MetaDrive-test-dropout,76,179.65200323261405,291554,1439,3786.73943400383,35.03947448730469,,16.09608268737793,0.21
290,MetaDrive-test-dropout,76,179.36219711398178,292048,1441,3794.0879735946655,39.94612121582031,,7.1514177322387695,0.21
291,MetaDrive-test-dropout,76,180.528409443579,293225,1445,3808.211719274521,40.28861999511719,-38.64304733276367,11.823020935058594,0.21
292,MetaDrive-test-dropout,77,181.4966602771536,294038,1447,3816.4362111091614,38.92998504638672,,5.812037944793701,0.22
293,MetaDrive-test-dropout,77,181.4939716050785,295033,1450,3826.8803219795227,36.42686462402344,-36.323760986328125,12.680580139160156,0.22
294,MetaDrive-test-dropout,77,182.0818520196092,296254,1453,3843.482067346573,39.09181213378906,,6.518305778503418,0.22
295,MetaDrive-test-dropout,77,182.04175759878189,297512,1456,3857.6062030792236,39.123844146728516,,5.857485294342041,0.21
296,MetaDrive-test-dropout,77,179.98884427297088,298261,1459,3866.9549627304077,36.33717346191406,-36.92821502685547,10.505148887634277,0.2
297,MetaDrive-test-dropout,77,177.99760450490837,299060,1461,3877.440509557724,43.419498443603516,,9.298579216003418,0.18
298,MetaDrive-test-dropout,77,180.28485711474752,300325,1465,3894.2332904338837,36.89095687866211,-37.90869140625,6.428041458129883,0.18
299,MetaDrive-test-dropout,77,180.28867663955214,301215,1468,3905.9756486415863,39.66461944580078,-40.03083419799805,5.206844329833984,0.18
300,MetaDrive-test-dropout,77,182.66943134636185,302073,1470,3917.7516191005707,34.730003356933594,-35.941993713378906,10.875600814819336,0.19
301,MetaDrive-test-dropout,77,186.58562148801195,303333,1473,3931.8678295612335,38.44188690185547,-39.124237060546875,13.934608459472656,0.21
302,MetaDrive-test-dropout,77,188.67603266277914,304017,1474,3940.7445979118347,37.271095275878906,-37.241905212402344,6.982243537902832,0.22
303,MetaDrive-test-dropout,77,193.2466786922381,305614,1477,3966.586316347122,41.742462158203125,,18.671663284301758,0.23
304,MetaDrive-test-dropout,77,194.46373569689462,306171,1479,3974.6923451423645,36.434326171875,-37.046661376953125,10.096185684204102,0.23
305,MetaDrive-test-dropout,77,194.3945462180071,307179,1481,3986.7946474552155,37.17872619628906,-36.86431884765625,7.372497081756592,0.24
306,MetaDrive-test-dropout,77,198.42930871016034,308363,1484,4001.23216176033,34.697574615478516,-35.08466339111328,20.598447799682617,0.26
307,MetaDrive-test-dropout,76,201.55365563702037,309060,1485,4013.901200771332,41.589080810546875,,4.854819297790527,0.26
308,MetaDrive-test-dropout,77,196.57579612727804,310312,1489,4028.1441671848297,37.244834899902344,,11.241201400756836,0.25
309,MetaDrive-test-dropout,77,196.13621698100096,311003,1491,4036.8429412841797,39.346710205078125,-37.770973205566406,12.41379165649414,0.24
310,MetaDrive-test-dropout,77,195.9344980547273,312094,1494,4052.411390066147,36.048377990722656,,9.092113494873047,0.23
311,MetaDrive-test-dropout,77,197.60738947165154,313710,1497,4073.9699144363403,41.20374298095703,,11.420105934143066,0.23
312,MetaDrive-test-dropout,77,195.57968058087835,314182,1499,4079.7346296310425,39.662986755371094,,6.432984828948975,0.22
313,MetaDrive-test-dropout,77,197.94458549937852,315467,1502,4095.3178045749664,40.18684387207031,-40.55636215209961,5.837779998779297,0.22
314,MetaDrive-test-dropout,77,196.5435902947187,316178,1504,4102.907760381699,38.16713333129883,,6.047227382659912,0.23
315,MetaDrive-test-dropout,77,197.02518181671897,317006,1506,4114.362528324127,39.900794982910156,,5.670322418212891,0.23
316,MetaDrive-test-dropout,77,200.15421201405618,318254,1509,4130.841014385223,38.64104461669922,,17.102783203125,0.24
317,MetaDrive-test-dropout,77,202.28259727064483,319109,1511,4140.422269582748,37.3038444519043,-36.759822845458984,16.713558197021484,0.25
318,MetaDrive-test-dropout,77,203.0143931970962,320367,1515,4156.7835211753845,44.146759033203125,-44.69935607910156,6.188931465148926,0.26
319,MetaDrive-test-dropout,77,202.61357212086241,321141,1517,4164.716975927353,40.93248748779297,-41.1228141784668,8.237403869628906,0.27
320,MetaDrive-test-dropout,77,204.54614895781097,322125,1519,4180.411355018616,36.65948486328125,-37.00633239746094,9.323137283325195,0.27
321,MetaDrive-test-dropout,77,202.66958539133114,323284,1523,4197.664821624756,41.368316650390625,,7.189681053161621,0.26
322,MetaDrive-test-dropout,76,201.42667853210543,324067,1525,4210.259121656418,35.96010971069336,-36.911319732666016,16.737396240234375,0.25
323,MetaDrive-test-dropout,76,199.8528099623788,325163,1529,4226.350916624069,36.26552200317383,-36.645362854003906,79.11421203613281,0.25
324,MetaDrive-test-dropout,76,201.06967556954945,326545,1532,4249.755407333374,38.64793014526367,-38.49216079711914,13.389211654663086,0.25
325,MetaDrive-test-dropout,76,201.1207096310912,327011,1534,4256.301778793335,41.43632507324219,-41.07558059692383,4.777657508850098,0.25
326,MetaDrive-test-dropout,76,200.62833089372566,328473,1537,4273.269629240036,37.691017150878906,-38.15181350708008,9.618895530700684,0.25
327,MetaDrive-test-dropout,76,199.0073567056791,329283,1539,4283.07257938385,39.418819427490234,-39.48771667480469,6.547245025634766,0.24
328,MetaDrive-test-dropout,76,201.7752952274041,330341,1541,4294.230754375458,41.363773345947266,-41.66487121582031,10.070501327514648,0.26
329,MetaDrive-test-dropout,76,201.2673846115158,331019,1543,4305.893162250519,35.5853385925293,-36.647544860839844,10.433370590209961,0.26
330,MetaDrive-test-dropout,76,201.9049917837059,332129,1546,4320.643310546875,42.85423278808594,-42.19293975830078,5.952692031860352,0.26
331,MetaDrive-test-dropout,76,201.82452123611733,333003,1549,4335.276482820511,37.87274169921875,-38.573280334472656,6.942893028259277,0.26
332,MetaDrive-test-dropout,76,204.4377276902689,334153,1552,4347.674380302429,39.754981994628906,-39.793792724609375,9.369006156921387,0.27
333,MetaDrive-test-dropout,76,203.25886972757988,335433,1555,4363.467437505722,37.21985626220703,-36.138362884521484,29.86161231994629,0.28
334,MetaDrive-test-dropout,76,203.57918769628478,336375,1557,4374.771337509155,37.909175872802734,-38.36499786376953,9.387741088867188,0.28
335,MetaDrive-test-dropout,76,206.02719666337947,337396,1559,4386.510606050491,37.6121711730957,,6.546535968780518,0.29
336,MetaDrive-test-dropout,76,206.13615883131197,338523,1562,4399.5994873046875,40.72117233276367,-40.49755859375,68.88081359863281,0.3
337,MetaDrive-test-dropout,76,206.91464877463213,339086,1564,4409.164882183075,37.98247528076172,,5.7249298095703125,0.3
338,MetaDrive-test-dropout,76,208.05065422768698,340102,1566,4421.906454801559,38.0041618347168,,14.887323379516602,0.31
339,MetaDrive-test-dropout,76,209.7980826918186,341002,1568,4432.14643239975,35.33123016357422,,10.966026306152344,0.32
340,MetaDrive-test-dropout,76,205.64532766314355,342304,1572,4450.2888395786285,33.62445831298828,,9.635076522827148,0.3
341,MetaDrive-test-dropout,76,202.62162166048896,343474,1575,4464.042895793915,39.83064270019531,,7.156800270080566,0.29
342,MetaDrive-test-dropout,76,200.27595961427727,344398,1577,4478.2257788181305,40.2197265625,,16.408231735229492,0.28
343,MetaDrive-test-dropout,76,201.04396277213738,345156,1579,4490.270230770111,36.28099822998047,,23.165130615234375,0.28
344,MetaDrive-test-dropout,76,204.42759687998344,346527,1581,4511.091057538986,41.594730377197266,-40.880897521972656,18.753494262695312,0.28
345,MetaDrive-test-dropout,76,203.22599545346796,347152,1583,4519.395111322403,40.08967971801758,,6.392150402069092,0.27
346,MetaDrive-test-dropout,76,201.1136931843273,348110,1585,4529.601393222809,39.234169006347656,,11.092466354370117,0.28
347,MetaDrive-test-dropout,76,202.3230544757269,349290,1589,4544.018609046936,40.36528015136719,,5.419551849365234,0.27
348,MetaDrive-test-dropout,76,198.64710454721245,350177,1593,4555.36029791832,41.253047943115234,-41.04369354248047,10.286438941955566,0.27
349,MetaDrive-test-dropout,76,197.10736346452046,351247,1596,4572.129737138748,44.426902770996094,-44.74056625366211,12.120586395263672,0.26
350,MetaDrive-test-dropout,76,196.40054961573347,352507,1599,4588.121669769287,40.44633483886719,-40.116817474365234,11.305400848388672,0.26
351,MetaDrive-test-dropout,76,192.31934379071402,353022,1602,4594.588965415955,41.710147857666016,,8.364381790161133,0.25
352,MetaDrive-test-dropout,76,193.76282553978123,354274,1605,4610.524906396866,37.82444763183594,,10.176551818847656,0.25
353,MetaDrive-test-dropout,76,196.4892383964776,355261,1607,4621.147494792938,35.63580322265625,-35.95513916015625,59.69872283935547,0.27
354,MetaDrive-test-dropout,76,198.1245196740837,356777,1609,4646.576286077499,38.65123748779297,-38.72343444824219,6.817783832550049,0.26
355,MetaDrive-test-dropout,76,197.2688607504097,357020,1610,4650.7268233299255,37.07737731933594,,6.427055835723877,0.26
356,MetaDrive-test-dropout,76,199.73454236443249,358179,1612,4665.337424516678,33.71015167236328,-33.71571731567383,5.529403209686279,0.26
357,MetaDrive-test-dropout,76,197.68004681893407,359243,1616,4681.943623542786,39.982330322265625,-40.420127868652344,22.334091186523438,0.25
358,MetaDrive-test-dropout,76,196.5804273214488,360114,1618,4693.027774572372,40.642921447753906,,7.639854431152344,0.25
359,MetaDrive-test-dropout,76,197.5656272765854,361050,1621,4704.572122812271,38.24773406982422,,17.51494598388672,0.25
360,MetaDrive-test-dropout,76,200.00210298419125,362391,1623,4720.707233428955,40.537025451660156,-40.88093566894531,11.205902099609375,0.26
361,MetaDrive-test-dropout,76,199.38281040071234,363112,1625,4728.3097178936005,36.726627349853516,,6.968090057373047,0.27
362,MetaDrive-test-dropout,76,201.78778074743167,364113,1626,4746.866925001144,36.75020980834961,-36.75143051147461,6.663365840911865,0.27
363,MetaDrive-test-dropout,76,205.12531413102937,365351,1628,4770.395446777344,34.404624938964844,-35.186248779296875,18.314117431640625,0.27
364,MetaDrive-test-dropout,76,203.4960344996702,366006,1631,4779.815920591354,42.6552734375,,6.758459091186523,0.27
365,MetaDrive-test-dropout,76,202.28427407460586,367260,1634,4802.882328033447,38.76598358154297,,9.418715476989746,0.26
366,MetaDrive-test-dropout,76,200.61783632639202,368075,1636,4813.656435966492,41.58898162841797,-42.367332458496094,7.932570457458496,0.26
367,MetaDrive-test-dropout,76,198.86975451960575,369137,1639,4828.842834234238,41.01262664794922,-40.746238708496094,27.403093338012695,0.24
368,MetaDrive-test-dropout,76,199.19393470263947,370141,1641,4840.596957921982,41.857879638671875,-42.34846496582031,6.982834815979004,0.24
369,MetaDrive-test-dropout,76,200.34416980373226,371111,1644,4853.822034597397,41.076358795166016,-41.24863052368164,19.00289535522461,0.25
370,MetaDrive-test-dropout,76,201.5444283416427,372052,1646,4864.6145350933075,37.65470886230469,,34.893218994140625,0.26
371,MetaDrive-test-dropout,76,201.73114261908228,373262,1650,4881.01913189888,40.402366638183594,,8.262807846069336,0.26
372,MetaDrive-test-dropout,76,202.86673475082836,374025,1651,4893.801064491272,35.01009750366211,-34.27867126464844,8.839207649230957,0.26
373,MetaDrive-test-dropout,76,204.4031191561584,375201,1653,4906.27655339241,38.87174606323242,-38.57646179199219,12.713935852050781,0.26
374,MetaDrive-test-dropout,76,206.70017516079903,376194,1655,4917.049834251404,37.2198486328125,,7.343785762786865,0.27
375,MetaDrive-test-dropout,76,200.6467321400056,377203,1659,4930.960298538208,36.151485443115234,-35.11066818237305,11.382969856262207,0.25
376,MetaDrive-test-dropout,76,199.46425116739292,378164,1662,4942.738888263702,42.82341003417969,,5.652278900146484,0.24
377,MetaDrive-test-dropout,76,201.90468560718148,379308,1664,4956.941500663757,39.41899490356445,,8.157312393188477,0.26
378,MetaDrive-test-dropout,76,202.7772410557189,380616,1666,4977.7302260398865,39.91264343261719,,4.896553039550781,0.26
379,MetaDrive-test-dropout,76,205.57899148354159,381275,1667,4986.902629375458,38.94293975830078,-39.207733154296875,12.416783332824707,0.27
380,MetaDrive-test-dropout,76,203.73964190112304,382110,1670,4995.9594876766205,38.781158447265625,,9.143109321594238,0.26
381,MetaDrive-test-dropout,76,203.41677635174636,383007,1673,5007.398859739304,37.746299743652344,-37.5256462097168,23.793006896972656,0.26
382,MetaDrive-test-dropout,76,203.1847714969723,384018,1675,5020.385372400284,39.93772888183594,,6.669308662414551,0.26
383,MetaDrive-test-dropout,76,204.05146793435597,385290,1678,5039.488886117935,32.660728454589844,,15.346644401550293,0.27
384,MetaDrive-test-dropout,76,203.72170754556683,386124,1680,5049.529564142227,40.47895050048828,,25.276611328125,0.26
385,MetaDrive-test-dropout,76,202.69784415127546,387649,1683,5071.344478368759,39.399803161621094,-39.68119430541992,4.927662372589111,0.25
386,MetaDrive-test-dropout,76,202.16748270915426,388012,1684,5077.609496593475,41.21532440185547,,5.2853193283081055,0.24
387,MetaDrive-test-dropout,76,200.42729517383395,389198,1688,5091.583485126495,41.80612564086914,,7.287233829498291,0.23
388,MetaDrive-test-dropout,76,200.999630630791,390119,1691,5103.620464324951,41.80705261230469,-41.32794189453125,6.735350608825684,0.24
389,MetaDrive-test-dropout,76,203.43635971212626,391529,1695,5119.67839884758,42.64087677001953,-42.92253112792969,5.025917053222656,0.26
390,MetaDrive-test-dropout,76,202.98034361191912,392404,1698,5129.0615820884705,35.23644256591797,,14.820297241210938,0.27
391,MetaDrive-test-dropout,76,201.67693396309693,393003,1701,5136.419311761856,44.59113693237305,-44.564823150634766,9.695215225219727,0.26
392,MetaDrive-test-dropout,76,199.6412372741443,394135,1705,5151.4609706401825,45.098777770996094,-45.5458984375,6.197658538818359,0.25
393,MetaDrive-test-dropout,76,191.89466488320213,395434,1710,5167.485290765762,41.69902038574219,,5.24542236328125,0.23
394,MetaDrive-test-dropout,76,188.02194649701534,396109,1713,5175.417906045914,40.52140808105469,-39.684410095214844,10.856756210327148,0.22
395,MetaDrive-test-dropout,76,190.34764529048053,397183,1716,5188.971403598785,36.973384857177734,-37.68769073486328,6.140794277191162,0.23
396,MetaDrive-test-dropout,76,188.6718249918332,398451,1720,5206.703155517578,35.045631408691406,-34.600982666015625,4.049261093139648,0.23
397,MetaDrive-test-dropout,76,189.68145083567364,399696,1722,5225.49591755867,41.51106262207031,,26.914873123168945,0.23
398,MetaDrive-test-dropout,76,191.18723455820447,400601,1723,5244.027795791626,38.22147750854492,-38.710968017578125,9.999500274658203,0.23
399,MetaDrive-test-dropout,76,192.5103070560757,401187,1724,5250.27748465538,37.73012161254883,-38.01707458496094,19.91189193725586,0.23
400,MetaDrive-test-dropout,76,194.4281731184701,402627,1726,5271.3789439201355,41.010963439941406,-40.79227828979492,12.876337051391602,0.23
401,MetaDrive-test-dropout,76,192.01632919517488,403059,1727,5276.519329786301,42.0185661315918,-42.18791580200195,10.15064811706543,0.23
402,MetaDrive-test-dropout,76,193.41626931709695,404065,1730,5289.275518655777,35.47563171386719,-36.054649353027344,3.6160519123077393,0.24
403,MetaDrive-test-dropout,76,193.2250011790909,405035,1733,5302.294729232788,35.97850799560547,-35.67610168457031,8.02564811706543,0.24
404,MetaDrive-test-dropout,76,195.76941347357172,406128,1735,5323.245330572128,37.67988586425781,,4.31888484954834,0.24
405,MetaDrive-test-dropout,76,193.20602678700135,407365,1739,5340.330482959747,38.95201873779297,-38.626953125,11.161876678466797,0.23
406,MetaDrive-test-dropout,76,194.78314964703404,408288,1740,5354.465646028519,41.75969696044922,,37.11488723754883,0.23
407,MetaDrive-test-dropout,76,194.54433257386935,409095,1743,5363.798690795898,38.185821533203125,-38.40365982055664,6.772340774536133,0.22
408,MetaDrive-test-dropout,76,187.76281139472982,410068,1747,5375.890273809433,39.680870056152344,,18.96917152404785,0.19
409,MetaDrive-test-dropout,76,191.3521125120017,411208,1749,5393.031915903091,38.011077880859375,,8.350065231323242,0.2
410,MetaDrive-test-dropout,76,192.30492317087933,412380,1751,5412.155109643936,38.826904296875,,9.418301582336426,0.21
411,MetaDrive-test-dropout,76,189.49309969625102,413150,1753,5420.81804227829,36.79301452636719,,19.93682861328125,0.2
412,MetaDrive-test-dropout,76,189.19065357837223,414108,1756,5431.326615810394,33.829627990722656,,9.565290451049805,0.2
413,MetaDrive-test-dropout,76,191.77284390104126,415346,1759,5446.34724354744,42.55281066894531,,7.741045951843262,0.21
414,MetaDrive-test-dropout,76,195.07793544407406,416379,1761,5463.894748210907,38.32568359375,-38.300315856933594,27.68740463256836,0.21
415,MetaDrive-test-dropout,76,190.95343505898202,417242,1764,5474.4376266002655,35.95774841308594,,4.569525718688965,0.19
416,MetaDrive-test-dropout,76,188.94695582179693,418031,1766,5486.424709558487,38.6154899597168,-38.83857727050781,5.292729377746582,0.18
417,MetaDrive-test-dropout,76,187.43629172422524,419313,1770,5505.477806806564,39.642276763916016,-38.96515655517578,7.963279724121094,0.17
418,MetaDrive-test-dropout,76,189.1149354574029,420128,1772,5514.6854791641235,38.19753646850586,,9.002706527709961,0.18
419,MetaDrive-test-dropout,76,189.34689236750677,421383,1775,5532.020090103149,38.10513687133789,-38.110321044921875,16.13484764099121,0.17
420,MetaDrive-test-dropout,76,188.99084066842087,422153,1777,5543.234623908997,33.0151252746582,-33.435157775878906,9.5565185546875,0.16
421,MetaDrive-test-dropout,76,189.0772972732016,423647,1780,5560.472628593445,36.60475158691406,-37.28535461425781,11.764127731323242,0.18
422,MetaDrive-test-dropout,76,189.47948383280792,424051,1781,5565.195054292679,36.35521697998047,-36.93595886230469,12.577420234680176,0.18
423,MetaDrive-test-dropout,76,188.50938430228388,425083,1783,5584.712527513504,38.722938537597656,-38.77860641479492,16.207035064697266,0.18
424,MetaDrive-test-dropout,76,190.48449490213673,426076,1786,5595.674365758896,43.91025161743164,,5.375788688659668,0.19
425,MetaDrive-test-dropout,76,190.60125166527632,427157,1789,5609.47861123085,40.245574951171875,-40.99742889404297,8.11345386505127,0.2
426,MetaDrive-test-dropout,76,191.8216459846696,428437,1793,5623.717742443085,38.20225524902344,-37.76592254638672,25.79170036315918,0.2
427,MetaDrive-test-dropout,76,190.07544931129829,429383,1796,5633.98021364212,37.00666809082031,-37.11021423339844,4.503903388977051,0.19
428,MetaDrive-test-dropout,76,189.5485100456837,430224,1799,5643.204015016556,40.04309844970703,,7.5136942863464355,0.18
429,MetaDrive-test-dropout,76,191.38055063116602,431050,1801,5653.9162068367,40.37688446044922,,7.877556800842285,0.18
430,MetaDrive-test-dropout,76,192.99992428061356,432215,1804,5670.114372491837,38.265987396240234,-38.37430953979492,5.440957546234131,0.19
431,MetaDrive-test-dropout,76,196.10313166139142,433161,1806,5681.102731227875,41.791683197021484,-41.695735931396484,7.604319095611572,0.19
432,MetaDrive-test-dropout,76,199.04348286864067,434181,1808,5694.444489955902,38.05570983886719,-38.404571533203125,6.786431312561035,0.19
433,MetaDrive-test-dropout,76,202.3711225856565,435182,1809,5712.285645723343,39.100284576416016,,8.490225791931152,0.19
434,MetaDrive-test-dropout,76,200.58257967705487,436190,1812,5723.870884656906,40.48981475830078,,12.678445816040039,0.19
435,MetaDrive-test-dropout,76,198.94502212030832,437014,1816,5733.8027992248535,38.118186950683594,,8.900585174560547,0.18
436,MetaDrive-test-dropout,76,198.37402327593267,438281,1820,5751.1048176288605,39.36589050292969,-39.47627639770508,4.718725204467773,0.17
437,MetaDrive-test-dropout,76,196.52244480020437,439120,1822,5760.084164381027,34.5623893737793,,22.215436935424805,0.16
438,MetaDrive-test-dropout,76,194.92084287864898,440234,1824,5779.358221530914,37.799041748046875,,27.16033935546875,0.15
439,MetaDrive-test-dropout,76,190.7928120485068,441141,1827,5792.556572198868,40.470558166503906,-40.78242111206055,4.734623908996582,0.15
440,MetaDrive-test-dropout,76,190.6322245483286,442286,1831,5805.395805358887,42.51213836669922,,8.595958709716797,0.14
441,MetaDrive-test-dropout,76,186.36161676414005,443050,1835,5813.841911077499,40.21192932128906,,3.648879289627075,0.14
442,MetaDrive-test-dropout,76,182.28856376105068,444417,1840,5830.501820802689,36.304649353027344,-36.75706100463867,12.863260269165039,0.13
443,MetaDrive-test-dropout,76,185.82428813356768,445527,1842,5842.643235206604,41.871498107910156,-42.15425109863281,17.461246490478516,0.15
444,MetaDrive-test-dropout,76,186.98861329214589,446021,1843,5848.439265727997,36.811317443847656,-36.591346740722656,32.280479431152344,0.16
445,MetaDrive-test-dropout,76,187.63855705595415,447041,1846,5860.990295171738,38.066856384277344,-37.48719024658203,9.05757999420166,0.16
446,MetaDrive-test-dropout,76,186.80437846921532,448220,1849,5874.591858863831,37.2496337890625,,6.4636712074279785,0.15
447,MetaDrive-test-dropout,76,184.6665442728467,449081,1851,5883.867038965225,37.72956848144531,-38.452945709228516,8.414276123046875,0.15
448,MetaDrive-test-dropout,76,183.22097986236022,450771,1855,5909.673947095871,37.67536163330078,-37.65203857421875,3.652873992919922,0.13
449,MetaDrive-test-dropout,76,183.90518120575834,451110,1856,5913.106532096863,39.67112731933594,,16.46672248840332,0.13
450,MetaDrive-test-dropout,76,187.4790302258026,452255,1858,5925.62662935257,40.884239196777344,-41.49332046508789,6.086761951446533,0.15
451,MetaDrive-test-dropout,76,188.047882978013,453390,1860,5940.485687494278,35.749481201171875,,6.382481575012207,0.14
452,MetaDrive-test-dropout,76,188.8326035607354,454437,1862,5954.579589128494,44.682159423828125,-45.082420349121094,4.21885871887207,0.15
453,MetaDrive-test-dropout,76,186.4755909541197,455113,1865,5962.712946891785,37.522789001464844,-37.259796142578125,11.919543266296387,0.15
454,MetaDrive-test-dropout,76,185.68333940755633,456049,1868,5973.654920101166,41.026451110839844,-41.25191116333008,3.5617823600769043,0.15
455,MetaDrive-test-dropout,76,187.90971986217292,457157,1870,5988.107611179352,39.11239242553711,-37.675689697265625,7.468674182891846,0.16
456,MetaDrive-test-dropout,76,189.1573235859185,458240,1872,6001.47681593895,38.30513000488281,,13.990370750427246,0.16
457,MetaDrive-test-dropout,76,189.47688831725475,459094,1874,6011.681106567383,44.237274169921875,,27.157297134399414,0.17
458,MetaDrive-test-dropout,76,190.981037540552,460099,1876,6024.247842788696,42.33262634277344,-41.48933792114258,9.854873657226562,0.18
459,MetaDrive-test-dropout,76,190.97688394146576,461274,1878,6037.065957546234,36.877105712890625,,7.6717987060546875,0.19
460,MetaDrive-test-dropout,76,186.64918356132281,462467,1882,6053.144817829132,38.92500305175781,-39.39485168457031,21.291790008544922,0.18
461,MetaDrive-test-dropout,76,190.34168893815297,463284,1884,6062.9354882240295,38.92649459838867,,14.706354141235352,0.18
462,MetaDrive-test-dropout,76,191.7031385976887,464510,1887,6078.393763065338,36.16638946533203,,10.20538330078125,0.18
463,MetaDrive-test-dropout,76,188.4150814206028,465022,1890,6084.162216424942,41.176513671875,,21.342243194580078,0.17
464,MetaDrive-test-dropout,76,189.42147255708957,466336,1893,6101.144169807434,35.4841194152832,,6.019105911254883,0.16
465,MetaDrive-test-dropout,76,192.19133432973845,467670,1896,6116.482647180557,41.47499084472656,,15.218308448791504,0.16
466,MetaDrive-test-dropout,76,193.61446628812638,468377,1898,6127.219385385513,42.72807312011719,-42.39323425292969,12.305929183959961,0.16
467,MetaDrive-test-dropout,76,196.24440511029556,469022,1899,6134.528357028961,38.68042755126953,,7.8073410987854,0.17
468,MetaDrive-test-dropout,76,199.51370759317652,470158,1901,6148.305777788162,36.48589324951172,,7.6915740966796875,0.19
469,MetaDrive-test-dropout,76,201.4588632046606,471232,1903,6162.97353219986,40.0719108581543,,46.692325592041016,0.19
470,MetaDrive-test-dropout,76,199.73134568095028,472118,1906,6173.027147769928,41.69125747680664,,9.958744049072266,0.19
471,MetaDrive-test-dropout,76,199.4022420371797,473088,1908,6184.395816087723,37.89322280883789,,5.685580253601074,0.2
472,MetaDrive-test-dropout,76,200.21302582695483,474149,1910,6197.438258886337,36.367698669433594,-36.04231262207031,9.481712341308594,0.21
473,MetaDrive-test-dropout,76,203.83326870775872,475600,1915,6214.853302717209,36.36439514160156,,8.350156784057617,0.22
474,MetaDrive-test-dropout,76,203.3136265830288,476059,1916,6220.408438920975,38.91140365600586,-39.5633544921875,6.0178680419921875,0.23
475,MetaDrive-test-dropout,76,207.86555536290953,477735,1919,6246.2082862854,36.52460479736328,-37.030399322509766,5.685502052307129,0.24
476,MetaDrive-test-dropout,76,207.14829743043992,478069,1920,6249.663880348206,35.503204345703125,-35.928565979003906,36.36621856689453,0.24
477,MetaDrive-test-dropout,76,208.78940936072743,479340,1922,6269.134464025497,41.952789306640625,,5.215176582336426,0.25
478,MetaDrive-test-dropout,76,208.9162325437318,480354,1924,6281.335338830948,40.59607696533203,,20.53838348388672,0.26
479,MetaDrive-test-dropout,76,208.00003052169427,481089,1927,6291.448690652847,40.25536346435547,-40.38541030883789,29.45056915283203,0.26
480,MetaDrive-test-dropout,76,208.46805524020593,482388,1931,6303.821420431137,37.066192626953125,,6.34147834777832,0.27
481,MetaDrive-test-dropout,76,210.3039041577461,483201,1933,6316.230054855347,41.11832046508789,-40.85405731201172,34.65636444091797,0.27
482,MetaDrive-test-dropout,76,214.3888338978559,484143,1935,6326.967601060867,42.216590881347656,-42.59388732910156,5.478795051574707,0.28
483,MetaDrive-test-dropout,76,218.59967982783732,485453,1938,6340.684434175491,41.22248840332031,-41.35050964355469,9.440092086791992,0.3
484,MetaDrive-test-dropout,76,218.0497673164754,486077,1940,6352.3018481731415,42.44049072265625,-43.47186279296875,6.390386581420898,0.3
485,MetaDrive-test-dropout,76,213.96966976768192,487316,1944,6367.003708600998,37.83803939819336,,4.918869972229004,0.28
486,MetaDrive-test-dropout,76,215.67850387972769,488023,1945,6376.832852602005,38.23544692993164,-38.71828079223633,9.051092147827148,0.29
487,MetaDrive-test-dropout,76,218.58121643913742,489620,1948,6397.371069192886,41.01411437988281,,13.967676162719727,0.3
488,MetaDrive-test-dropout,76,220.1978193468214,490251,1949,6403.5903170108795,40.14607238769531,-40.279571533203125,5.804973125457764,0.31
489,MetaDrive-test-dropout,76,219.1473246369689,491263,1953,6413.921087265015,40.19045639038086,-40.042701721191406,9.278705596923828,0.3
490,MetaDrive-test-dropout,76,219.25251460514522,492206,1955,6426.393178224564,42.495296478271484,,12.03587818145752,0.31
491,MetaDrive-test-dropout,76,215.1304081496561,493064,1958,6439.260814666748,40.960411071777344,,7.1443681716918945,0.29
492,MetaDrive-test-dropout,76,216.7338764170272,494451,1960,6459.654686450958,40.661415100097656,-40.88180923461914,8.404075622558594,0.3
493,MetaDrive-test-dropout,76,214.85820447115265,495294,1962,6469.669047355652,39.157493591308594,,4.61622953414917,0.29
494,MetaDrive-test-dropout,76,218.47618333145448,496533,1966,6482.6373291015625,39.001373291015625,-38.025672912597656,33.072296142578125,0.3
495,MetaDrive-test-dropout,76,220.19563198215855,497070,1967,6488.859842300415,40.536376953125,,22.41122817993164,0.31
496,MetaDrive-test-dropout,76,216.3331208771391,498248,1971,6504.024596214294,41.07636260986328,,59.805023193359375,0.3
497,MetaDrive-test-dropout,76,214.61614030357282,499509,1974,6518.901755094528,38.61737060546875,-39.51280975341797,15.460227966308594,0.3
