TanmayH/CS269-RL-project-code/MetaDrive-testbn5/td3/progress.csv
,log_dir,frame_per_second,episode_reward,total_steps,total_episodes,total_time,actor_loss,critic_loss,target_q,success_rate
0,MetaDrive-testbn5,152,8.743652708431355,1062,2,6.971745014190674,,0.799095869064331,-0.04614658281207085,0.0
1,MetaDrive-testbn5,91,-1.9173252981020474,2780,28,30.516119241714478,,0.013618750497698784,0.014011980965733528,0.0
2,MetaDrive-testbn5,90,-1.9140421715800104,3781,29,41.70519304275513,-0.0422423854470253,0.7207575440406799,-0.036386698484420776,0.0
3,MetaDrive-testbn5,90,-1.9170485271776057,4782,30,53.05172157287598,,0.01621646247804165,0.04047812521457672,0.0
4,MetaDrive-testbn5,89,-1.9460586752127589,5907,32,65.80019664764404,-0.021336562931537628,0.4247349500656128,-0.006954655051231384,0.0
5,MetaDrive-testbn5,89,-1.8252415201230503,6908,33,77.3427381515503,,0.015447394922375679,0.05982186272740364,0.0
6,MetaDrive-testbn5,89,-1.8325635260306523,7909,34,88.32069396972656,-0.15577609837055206,0.024416107684373856,0.05935337394475937,0.0
7,MetaDrive-testbn5,89,-1.7121081839233874,8910,35,99.67890548706055,,0.5973782539367676,-0.05240761116147041,0.0
8,MetaDrive-testbn5,89,-1.8346846363898568,9710,36,108.14228391647339,,0.03830959275364876,0.044160209596157074,0.0
9,MetaDrive-testbn5,88,-1.7863057408716363,10711,37,120.37334990501404,-0.005522275809198618,0.5374231338500977,-0.04579710587859154,0.0
10,MetaDrive-testbn5,89,-1.7906175539633629,11712,38,131.07682085037231,,0.019484948366880417,0.024503715336322784,0.0
11,MetaDrive-testbn5,89,-1.6673462245979844,12713,39,141.3976652622223,-0.06424582004547119,0.00267445994541049,0.0388256311416626,0.0
12,MetaDrive-testbn5,89,-1.6452477054276433,13803,41,154.03461575508118,-0.025982260704040527,0.01562942937016487,0.009638067334890366,0.0
13,MetaDrive-testbn5,89,-1.7453410773662672,14266,42,158.66504788398743,,0.00042469747131690383,0.018498903140425682,0.0
14,MetaDrive-testbn5,90,-1.620747214737101,15267,43,169.61795115470886,-0.01313913706690073,0.00042080687126144767,0.020025888457894325,0.0
15,MetaDrive-testbn5,87,-1.8428091457348537,16029,58,182.2430613040924,-0.0292796827852726,0.0019041121704503894,0.04127978906035423,0.0
16,MetaDrive-testbn5,85,-2.1917066099522335,17034,84,198.76149582862854,,0.019044451415538788,-0.015866432338953018,0.0
17,MetaDrive-testbn5,84,-1.9426907644113254,18057,100,213.74239230155945,-0.19131749868392944,0.007740212604403496,0.11342916637659073,0.0
18,MetaDrive-testbn5,84,-2.000749808748339,19052,109,226.33765745162964,,0.004543955437839031,0.21598204970359802,0.0
19,MetaDrive-testbn5,84,-1.8826003220371295,20026,113,238.1037256717682,,0.5919555425643921,0.2192365676164627,0.0
20,MetaDrive-testbn5,84,-1.765496980983448,21108,115,249.59431147575378,,0.0092963557690382,0.3817824721336365,0.0
21,MetaDrive-testbn5,83,-1.655243934682654,22306,117,266.55629563331604,,0.005662150681018829,0.3545323610305786,0.0
22,MetaDrive-testbn5,83,-1.2359585197047698,23546,120,281.66336011886597,,0.019640585407614708,0.4853891432285309,0.0
23,MetaDrive-testbn5,83,-0.9451554437407604,24854,122,297.6022379398346,,0.019932612776756287,0.6076619029045105,0.0
24,MetaDrive-testbn5,83,-0.8779766433327745,25855,123,308.12921810150146,-0.6912183165550232,0.00469597615301609,0.6564090251922607,0.0
25,MetaDrive-testbn5,83,-0.7715884337747334,26856,124,322.5303521156311,,0.03654765710234642,0.7238157987594604,0.0
26,MetaDrive-testbn5,82,-0.20126408246982208,27048,128,325.99929642677307,,0.01973511278629303,0.7031968832015991,0.0
27,MetaDrive-testbn5,82,1.8274818745118788,28003,144,339.8469741344452,-0.8129912614822388,0.33060410618782043,0.6711039543151855,0.0
28,MetaDrive-testbn5,81,4.733785282045534,29104,160,356.8757758140564,,1.0200886726379395,0.8445868492126465,0.0
29,MetaDrive-testbn5,80,8.350459240462715,30012,176,371.30252504348755,,0.11318203806877136,1.022737979888916,0.0
30,MetaDrive-testbn5,80,10.931109590081192,31017,196,386.2314112186432,-1.0755014419555664,0.9158397912979126,1.2387162446975708,0.0
31,MetaDrive-testbn5,79,15.025097855330621,32073,213,403.7160151004791,-1.8002943992614746,0.07456958293914795,1.6866605281829834,0.0
32,MetaDrive-testbn5,78,18.78712578465569,33019,224,418.73530769348145,-2.1305480003356934,0.05097799003124237,2.041192054748535,0.0
33,MetaDrive-testbn5,78,21.532310215132124,34048,237,434.5144581794739,,2.216158390045166,2.2976956367492676,0.0
34,MetaDrive-testbn5,77,24.21469518405674,35027,249,451.1781530380249,-2.7572805881500244,0.1083308532834053,2.7178807258605957,0.0
35,MetaDrive-testbn5,76,29.4306235129217,36192,256,470.5985052585602,,2.661578416824341,2.9525208473205566,0.0
36,MetaDrive-testbn5,76,32.72930359596057,37097,260,484.61933517456055,-3.366291046142578,2.8761649131774902,3.4653451442718506,0.0
37,MetaDrive-testbn5,75,36.602823568701396,38069,263,501.00091886520386,-4.135471343994141,0.1265045553445816,3.965097188949585,0.0
38,MetaDrive-testbn5,75,40.06239625887797,39211,269,518.0150651931763,-4.522467136383057,0.05460032820701599,4.420047283172607,0.0
39,MetaDrive-testbn5,75,44.69742423504721,40161,272,533.2486245632172,-4.63921594619751,0.7351371049880981,4.548367023468018,0.0
40,MetaDrive-testbn5,74,50.98483083062843,41546,275,554.113995552063,,6.984072208404541,5.446924209594727,0.01
41,MetaDrive-testbn5,74,53.379401737006255,42232,277,564.4171004295349,,2.1398956775665283,5.250491142272949,0.01
42,MetaDrive-testbn5,74,56.57788750029611,43031,279,575.1170020103455,-7.242410659790039,3.1918785572052,6.588907241821289,0.01
43,MetaDrive-testbn5,74,60.757718419485926,44131,285,594.1828269958496,-7.4757537841796875,0.45871835947036743,7.018825531005859,0.01
44,MetaDrive-testbn5,74,64.63689608662848,45054,291,606.8893718719482,,0.3802194595336914,7.2435688972473145,0.01
45,MetaDrive-testbn5,74,68.97445425079857,46012,296,620.7712540626526,,0.32344287633895874,8.07623291015625,0.02
46,MetaDrive-testbn5,73,73.30623312407593,47068,302,638.9330716133118,,0.4841647446155548,8.639076232910156,0.02
47,MetaDrive-testbn5,73,80.14075991116772,48180,309,655.9620187282562,,8.613387107849121,8.794739723205566,0.02
48,MetaDrive-testbn5,73,82.06763500408267,49006,314,668.4671633243561,,0.4875730872154236,10.101547241210938,0.02
49,MetaDrive-testbn5,73,86.41817173290755,50141,325,684.5922100543976,-11.103471755981445,0.2456444650888443,10.796642303466797,0.02
50,MetaDrive-testbn5,73,89.40490374497296,51022,334,698.5262925624847,,9.186590194702148,10.368016242980957,0.02
51,MetaDrive-testbn5,72,93.26686236793533,52037,345,713.9064493179321,-11.856879234313965,0.41856178641319275,11.865035057067871,0.02
52,MetaDrive-testbn5,72,93.6391499060729,53085,353,730.8394210338593,-11.970695495605469,1.2655370235443115,12.169332504272461,0.02
53,MetaDrive-testbn5,72,89.90980293534139,54066,363,746.1172204017639,,10.831598281860352,11.885773658752441,0.02
54,MetaDrive-testbn5,72,86.49178727009529,55057,373,760.8747718334198,-14.279300689697266,0.32697945833206177,14.001144409179688,0.02
55,MetaDrive-testbn5,72,77.8025094504376,56028,383,775.5240614414215,,0.7730061411857605,14.902166366577148,0.01
56,MetaDrive-testbn5,72,74.67846952022838,57105,392,792.7623286247253,-15.135608673095703,0.44869670271873474,14.934690475463867,0.0
57,MetaDrive-testbn5,71,72.93622189082465,58074,402,807.0821852684021,,0.9135170578956604,14.455367088317871,0.0
58,MetaDrive-testbn5,71,69.93022540510677,59043,411,820.8342225551605,-15.642171859741211,0.6901696920394897,15.20724105834961,0.0
59,MetaDrive-testbn5,71,67.07432929106308,60031,422,834.6770639419556,-16.137664794921875,16.133699417114258,16.150726318359375,0.0
60,MetaDrive-testbn5,71,66.47807103278478,61011,433,849.0662240982056,-16.882335662841797,12.80832290649414,16.657976150512695,0.0
61,MetaDrive-testbn5,71,67.37040057867812,62079,443,865.7542481422424,-18.920621871948242,41.80280685424805,18.359498977661133,0.0
62,MetaDrive-testbn5,71,66.99113508327683,63020,450,880.9513087272644,,1.715477705001831,18.64999771118164,0.0
63,MetaDrive-testbn5,71,67.24117657297897,64171,461,897.9967777729034,-19.07508659362793,17.786495208740234,18.41336441040039,0.01
64,MetaDrive-testbn5,71,66.69495149109774,65032,469,909.7853832244873,,1.5464026927947998,19.25465965270996,0.01
65,MetaDrive-testbn5,71,68.03650710072206,66062,477,924.2423532009125,,0.9876505136489868,21.238052368164062,0.01
66,MetaDrive-testbn5,71,68.36587394973647,67014,485,937.7947859764099,,7.233092308044434,18.221696853637695,0.01
67,MetaDrive-testbn5,71,69.7265574912887,68144,494,954.7890710830688,,3.380514144897461,17.969524383544922,0.01
68,MetaDrive-testbn5,71,70.11096534800056,69259,503,973.3385417461395,-21.4107666015625,3.0919322967529297,21.639583587646484,0.01
69,MetaDrive-testbn5,71,69.20072487337374,70070,512,985.6307089328766,,1.5738329887390137,21.102834701538086,0.02
70,MetaDrive-testbn5,70,71.65756948681897,71103,516,1004.2925488948822,-21.37525177001953,45.953956604003906,20.905397415161133,0.02
71,MetaDrive-testbn5,70,73.95456782192733,72060,520,1018.9291169643402,,2.3714756965637207,22.36062240600586,0.02
72,MetaDrive-testbn5,70,78.2938036388018,73019,523,1032.9818716049194,-21.198448181152344,1.1797330379486084,21.0692195892334,0.04
73,MetaDrive-testbn5,70,81.93578859622065,74300,529,1051.920198917389,,3.0291261672973633,19.88983917236328,0.04
74,MetaDrive-testbn5,70,86.22589847563243,75235,532,1068.9377436637878,-24.678695678710938,1.7887822389602661,24.477130889892578,0.05
75,MetaDrive-testbn5,70,88.84343376753523,76184,534,1084.5301585197449,,1.522841215133667,24.49136734008789,0.05
76,MetaDrive-testbn5,70,92.035548232915,77002,537,1097.6710512638092,,19.165782928466797,22.809738159179688,0.06
77,MetaDrive-testbn5,70,95.41719170038532,78022,541,1114.5751008987427,,2.9867334365844727,22.978832244873047,0.06
78,MetaDrive-testbn5,69,98.95622759463885,79022,545,1131.8648784160614,,2.0068745613098145,24.68685531616211,0.07
79,MetaDrive-testbn5,69,100.31524337457137,80462,553,1152.2919306755066,,15.723221778869629,22.77978515625,0.07
80,MetaDrive-testbn5,69,104.53446379283558,81416,557,1171.4480888843536,,3.5289969444274902,24.595565795898438,0.07
81,MetaDrive-testbn5,69,109.38390474135602,82268,560,1182.3908269405365,,31.55109405517578,24.937362670898438,0.07
82,MetaDrive-testbn5,69,113.11593896662563,83329,563,1197.0432784557343,-27.189973831176758,3.652378559112549,26.66334342956543,0.08
83,MetaDrive-testbn5,69,115.54779226057445,84291,564,1214.2228872776031,-28.498817443847656,2.748223066329956,28.08028793334961,0.09
84,MetaDrive-testbn5,69,118.12881877286935,85293,571,1228.255774974823,-27.60524559020996,3.878697633743286,26.951541900634766,0.1
85,MetaDrive-testbn5,69,118.34330698699138,86079,576,1240.436538696289,-25.917295455932617,7.1521830558776855,25.541507720947266,0.1
86,MetaDrive-testbn5,68,121.45045285938328,87034,577,1265.6057081222534,,4.653587818145752,27.071922302246094,0.1
87,MetaDrive-testbn5,68,126.32565297491367,88456,584,1289.1691808700562,,2.6780881881713867,30.108909606933594,0.11
88,MetaDrive-testbn5,68,130.21035013040705,89281,585,1301.9915976524353,-28.95547866821289,4.343703746795654,29.15668296813965,0.12
89,MetaDrive-testbn5,68,133.23435860458295,90246,587,1315.1703259944916,,2.7408292293548584,29.006868362426758,0.14
90,MetaDrive-testbn5,68,136.19946558035795,91247,588,1337.692566871643,-28.928482055664062,7.387547492980957,28.41827392578125,0.14
91,MetaDrive-testbn5,68,138.49567410626577,92030,591,1349.2429065704346,,6.859234809875488,29.547035217285156,0.15
92,MetaDrive-testbn5,68,142.12862409685226,93170,594,1366.9041678905487,,3.672222137451172,28.53545379638672,0.15
93,MetaDrive-testbn5,68,144.02644738941822,94171,595,1384.2311401367188,-33.15882873535156,36.09745407104492,32.414581298828125,0.15
94,MetaDrive-testbn5,67,146.2669578998048,95261,597,1402.0789444446564,-31.836204528808594,4.722583770751953,31.266294479370117,0.15
95,MetaDrive-testbn5,67,152.37313007378643,96439,599,1419.7783679962158,-33.48173904418945,43.554664611816406,33.82333755493164,0.17
96,MetaDrive-testbn5,68,157.38221356010013,97227,602,1429.2041246891022,-32.82438278198242,5.405953407287598,31.833354949951172,0.19
97,MetaDrive-testbn5,67,161.89819592560747,98874,605,1458.8162021636963,,6.40065336227417,32.54551696777344,0.21
98,MetaDrive-testbn5,67,165.70048398986415,99477,606,1469.4154124259949,-32.14078903198242,23.545915603637695,32.730587005615234,0.22
99,MetaDrive-testbn5,67,172.06322591494242,100376,608,1482.2302606105804,,13.061214447021484,32.258567810058594,0.24
100,MetaDrive-testbn5,67,172.13705549806102,101687,613,1503.216732263565,-35.1038818359375,38.24947738647461,35.12077713012695,0.24
101,MetaDrive-testbn5,67,173.54050682817964,102001,614,1507.292944908142,-35.08967590332031,4.000219821929932,35.34839630126953,0.24
102,MetaDrive-testbn5,67,177.7782691635679,103530,619,1531.088306427002,,35.85932159423828,34.66582489013672,0.25
103,MetaDrive-testbn5,67,179.37532184316765,104261,620,1541.3677887916565,-38.19963073730469,6.180459022521973,37.4290771484375,0.26
104,MetaDrive-testbn5,67,180.52288106595043,105605,623,1559.400631904602,-34.90971374511719,5.252281188964844,34.38311767578125,0.26
105,MetaDrive-testbn5,67,182.9837404671174,106616,626,1574.7605471611023,,7.2051849365234375,32.85260772705078,0.27
106,MetaDrive-testbn5,67,185.4846118449471,107433,627,1586.0687654018402,-34.979915618896484,4.4858317375183105,34.72837829589844,0.28
107,MetaDrive-testbn5,67,187.47304760581235,108434,628,1606.712142944336,,4.3126726150512695,35.877357482910156,0.28
108,MetaDrive-testbn5,67,190.3880662366433,109650,630,1627.084506034851,,6.352015972137451,34.912689208984375,0.29
109,MetaDrive-testbn5,67,192.07676515113056,110293,631,1638.7729859352112,-37.41304016113281,2.568108081817627,36.666351318359375,0.29
110,MetaDrive-testbn5,66,195.2133584892506,111883,633,1670.2226269245148,-35.74574279785156,2.7666823863983154,35.112613677978516,0.29
111,MetaDrive-testbn5,67,195.2954611479271,112505,635,1678.4854497909546,-38.54886245727539,31.992069244384766,37.690269470214844,0.3
112,MetaDrive-testbn5,67,193.6535044126713,113290,639,1689.1543114185333,,59.13585662841797,34.604671478271484,0.3
113,MetaDrive-testbn5,66,193.44396007886982,114350,641,1709.6431427001953,,4.125638961791992,39.37763595581055,0.31
114,MetaDrive-testbn5,66,196.30439844133184,115555,644,1734.7986886501312,-35.83739471435547,3.7686238288879395,35.47074890136719,0.31
115,MetaDrive-testbn5,66,194.5514170717957,116203,646,1744.520509004593,-37.016143798828125,7.932002067565918,36.12452697753906,0.3
116,MetaDrive-testbn5,66,197.40715748093996,117274,650,1758.329715013504,,9.672490119934082,35.179443359375,0.32
117,MetaDrive-testbn5,66,202.93568224580787,118665,652,1780.9747264385223,-36.42336654663086,3.373880386352539,35.80999755859375,0.34
118,MetaDrive-testbn5,66,202.29892725377928,119075,653,1786.620655298233,-39.29467010498047,4.543134689331055,38.506343841552734,0.34
119,MetaDrive-testbn5,66,207.17157543610716,120338,656,1805.2282586097717,,35.11027145385742,38.4664192199707,0.36
120,MetaDrive-testbn5,66,206.21014683011487,121339,657,1821.9260721206665,-38.42035675048828,4.645423889160156,38.34175109863281,0.36
121,MetaDrive-testbn5,66,207.65694640959845,122825,660,1848.5195591449738,-39.69252014160156,5.746231555938721,39.50595474243164,0.37
122,MetaDrive-testbn5,66,212.1671204799526,123754,661,1865.7021119594574,,5.864118576049805,39.838470458984375,0.38
123,MetaDrive-testbn5,66,212.7600981396076,124351,662,1874.8383469581604,-38.311866760253906,6.303522109985352,37.41856384277344,0.38
124,MetaDrive-testbn5,66,211.68434652867043,125827,664,1902.588757276535,-40.330772399902344,3.840989351272583,40.29296875,0.37
125,MetaDrive-testbn5,66,212.63042129628852,126828,665,1919.604206085205,,5.391595363616943,39.885276794433594,0.37
126,MetaDrive-testbn5,66,215.37032752875322,127395,666,1927.5452780723572,-40.809513092041016,54.37332534790039,40.103275299072266,0.37
127,MetaDrive-testbn5,66,220.22371438527725,128550,669,1945.384596824646,,4.028356552124023,39.94581604003906,0.39
128,MetaDrive-testbn5,66,221.28688312619707,129068,670,1953.2617774009705,,77.70278930664062,38.543861389160156,0.4
129,MetaDrive-testbn5,65,224.32873975095634,130324,673,1981.503175497055,,4.340024948120117,41.379478454589844,0.39
130,MetaDrive-testbn5,65,227.51206394308676,131089,674,1997.1296429634094,-37.27349853515625,52.27582550048828,36.50156784057617,0.4
131,MetaDrive-testbn5,65,230.27760566977628,132376,676,2019.0414674282074,,164.1387481689453,38.54293441772461,0.41
132,MetaDrive-testbn5,65,230.1275889721941,133280,678,2036.7059423923492,,5.028228759765625,39.9216194152832,0.41
133,MetaDrive-testbn5,65,235.34539715317933,134277,680,2050.6884117126465,-39.589500427246094,5.17042350769043,39.20692825317383,0.43
134,MetaDrive-testbn5,65,237.5116271972495,135572,683,2070.6643736362457,,3.181452751159668,40.899559020996094,0.44
135,MetaDrive-testbn5,65,233.37796615917574,136150,685,2078.4090487957,,10.688544273376465,37.886741638183594,0.43
136,MetaDrive-testbn5,65,231.5070552401288,137282,688,2097.4382379055023,,5.434800148010254,40.869895935058594,0.43
137,MetaDrive-testbn5,65,232.31252546386554,138298,690,2111.6317660808563,,4.83906364440918,42.096221923828125,0.43
138,MetaDrive-testbn5,65,235.77728846042316,139234,692,2126.5623564720154,,8.995542526245117,44.50938415527344,0.44
139,MetaDrive-testbn5,65,237.55857966789657,140235,693,2145.7359108924866,-43.37437438964844,5.941074371337891,42.63964080810547,0.44
140,MetaDrive-testbn5,65,237.68860425626892,141155,696,2159.8348300457,-42.617469787597656,4.586518287658691,42.724609375,0.45
141,MetaDrive-testbn5,65,233.03868309685612,142378,700,2177.8637294769287,,5.700547695159912,44.811912536621094,0.43
142,MetaDrive-testbn5,65,234.49299099439256,143046,701,2192.2595448493958,,4.666727542877197,42.89342498779297,0.43
143,MetaDrive-testbn5,65,225.3394458251703,144020,706,2204.334323167801,,55.13861846923828,38.868106842041016,0.39
144,MetaDrive-testbn5,65,224.84074468935572,145163,708,2221.42716383934,-39.142478942871094,7.544433116912842,39.39509963989258,0.39
145,MetaDrive-testbn5,65,228.42764806479056,146026,710,2235.515295267105,,4.108730792999268,45.472930908203125,0.4
146,MetaDrive-testbn5,65,231.4147784312216,147027,711,2250.962533712387,-43.27871322631836,3.769031524658203,42.67788314819336,0.4
147,MetaDrive-testbn5,65,231.29770965191815,148221,714,2272.582508325577,-42.511287689208984,3.2364397048950195,42.471107482910156,0.4
148,MetaDrive-testbn5,65,231.64868428462006,149455,717,2293.9003517627716,-44.063865661621094,4.266976833343506,43.80109405517578,0.39
149,MetaDrive-testbn5,65,229.4603937881462,150560,719,2310.276062488556,,5.38779354095459,38.69727325439453,0.39
150,MetaDrive-testbn5,65,227.42980551901994,151001,720,2316.3657116889954,-43.540245056152344,3.1024088859558105,43.90441131591797,0.39
151,MetaDrive-testbn5,65,225.43949273947203,152122,724,2332.5931038856506,,62.701171875,44.56419372558594,0.38
152,MetaDrive-testbn5,65,227.51996357291418,153554,727,2358.7461156845093,,6.433697700500488,42.39440155029297,0.38
153,MetaDrive-testbn5,65,227.24088263005774,154035,728,2364.6393303871155,-42.682289123535156,4.732551097869873,41.83425521850586,0.39
154,MetaDrive-testbn5,65,225.0057975730949,155213,731,2383.602892637253,-44.24594497680664,2.623124599456787,43.39896011352539,0.38
155,MetaDrive-testbn5,64,222.86293083887463,156161,733,2402.6433851718903,-41.207061767578125,4.342005729675293,40.669219970703125,0.38
156,MetaDrive-testbn5,64,224.7272756387252,157406,735,2426.596969604492,,6.698274612426758,40.57867431640625,0.38
157,MetaDrive-testbn5,64,227.1401704205902,158219,738,2436.760274171829,-44.637184143066406,53.60883331298828,44.48119354248047,0.39
158,MetaDrive-testbn5,64,225.18856434015393,159195,741,2451.58713054657,-45.2092399597168,7.290433883666992,45.26471710205078,0.38
159,MetaDrive-testbn5,64,227.38478625675768,160408,744,2471.2720403671265,,5.179869651794434,42.93672180175781,0.4
160,MetaDrive-testbn5,64,229.30910823943393,161509,746,2491.5062260627747,-39.212791442871094,73.36021423339844,38.21448516845703,0.41
161,MetaDrive-testbn5,64,229.69541160252305,162295,747,2502.8865687847137,-41.75265121459961,8.72288703918457,40.90842819213867,0.41
162,MetaDrive-testbn5,64,232.88521791881755,163363,750,2518.569968700409,-43.16128158569336,6.580120086669922,43.178306579589844,0.41
163,MetaDrive-testbn5,64,231.62775418254222,164018,751,2529.5397193431854,,10.344184875488281,45.19708251953125,0.4
164,MetaDrive-testbn5,64,234.6646448911127,165259,753,2547.7119810581207,-40.9925537109375,7.4379730224609375,40.42974853515625,0.41
165,MetaDrive-testbn5,64,235.23853720064625,166294,755,2565.1722688674927,,4.784724235534668,44.14194107055664,0.41
166,MetaDrive-testbn5,64,235.1178510783359,167225,757,2579.5001838207245,-45.96065139770508,12.368457794189453,44.80974578857422,0.41
167,MetaDrive-testbn5,64,230.3755614787318,168779,761,2607.9754045009613,-45.66944122314453,5.54251766204834,44.960975646972656,0.4
168,MetaDrive-testbn5,64,230.37813618311998,169506,762,2621.422886133194,,55.79423522949219,46.49958038330078,0.4
169,MetaDrive-testbn5,64,228.56510770321415,170507,763,2636.1274540424347,-42.6876220703125,37.466583251953125,42.580543518066406,0.39
170,MetaDrive-testbn5,64,225.15409969556072,172001,767,2656.911552429199,-47.93689727783203,7.200706481933594,47.21609115600586,0.39
171,MetaDrive-testbn5,64,223.180739627412,173252,770,2675.002555847168,,11.01101016998291,42.97273254394531,0.36
172,MetaDrive-testbn5,64,224.8583142747184,174722,772,2701.9892790317535,,8.676605224609375,45.27944564819336,0.37
173,MetaDrive-testbn5,64,224.12573998201862,175013,773,2706.96297955513,-44.71693420410156,6.762851715087891,44.69066619873047,0.37
174,MetaDrive-testbn5,64,222.20559032854112,176177,776,2724.6646044254303,-45.59228515625,6.421449661254883,44.81201934814453,0.36
175,MetaDrive-testbn5,64,224.1247263565846,177253,778,2742.8256990909576,-47.71553039550781,7.278855800628662,47.27223205566406,0.37
176,MetaDrive-testbn5,64,220.72601424509034,178082,781,2753.5670280456543,,6.683018684387207,39.20152282714844,0.35
177,MetaDrive-testbn5,64,217.74915167209943,179078,784,2768.6026842594147,,6.084499359130859,42.167572021484375,0.33
178,MetaDrive-testbn5,64,215.677994112349,180661,787,2793.338347196579,-42.749610900878906,7.0232744216918945,42.373390197753906,0.33
179,MetaDrive-testbn5,64,216.38356905258627,181078,788,2798.5914731025696,,6.723223686218262,44.96875,0.33
180,MetaDrive-testbn5,64,213.40699458644318,182537,792,2821.1040391921997,-42.278564453125,5.025762557983398,41.9798698425293,0.33
181,MetaDrive-testbn5,64,211.75497296780702,183744,795,2840.9438276290894,,6.58551025390625,43.93047332763672,0.33
182,MetaDrive-testbn5,64,213.96183780443994,184745,796,2866.8524339199066,-43.88214111328125,7.996254920959473,43.52919006347656,0.33
183,MetaDrive-testbn5,64,216.4366153953525,185444,797,2877.811508655548,,4.742122650146484,43.95826721191406,0.34
184,MetaDrive-testbn5,64,217.18561616176368,186221,799,2887.4514474868774,-44.299476623535156,6.811152458190918,43.57792663574219,0.35
185,MetaDrive-testbn5,64,216.2970992602416,187275,802,2904.0043485164642,-46.26611328125,4.181129455566406,45.44930648803711,0.35
186,MetaDrive-testbn5,64,219.45261327162245,188161,803,2919.0902903079987,-48.01698303222656,10.247872352600098,47.28575134277344,0.36
187,MetaDrive-testbn5,64,222.9411282116984,189120,804,2934.703474521637,,6.272684574127197,44.830204010009766,0.37
188,MetaDrive-testbn5,64,225.5363694505134,190332,807,2953.271708726883,,6.198923587799072,42.76508712768555,0.38
189,MetaDrive-testbn5,64,223.78611682421757,191532,810,2970.85556268692,,4.2098283767700195,43.100582122802734,0.37
190,MetaDrive-testbn5,64,224.6046947541376,192281,811,2989.434459209442,-43.884857177734375,6.556072235107422,43.20104217529297,0.37
191,MetaDrive-testbn5,64,227.16512289760053,193282,812,3004.2753987312317,,5.790987014770508,44.63404083251953,0.37
192,MetaDrive-testbn5,64,225.86194986695045,194205,814,3015.891284227371,-46.78839111328125,10.634282112121582,48.15280532836914,0.38
193,MetaDrive-testbn5,64,228.54316714319194,195028,815,3027.6524159908295,,8.156330108642578,44.771583557128906,0.39
194,MetaDrive-testbn5,64,233.28464579335323,196637,817,3052.3543281555176,-48.58517074584961,4.012953758239746,47.93012237548828,0.41
195,MetaDrive-testbn5,64,235.95005591849534,197263,818,3063.0740406513214,-43.90747833251953,5.062784194946289,43.29957580566406,0.42
196,MetaDrive-testbn5,64,237.0379298033207,198319,820,3079.0994448661804,-44.13115692138672,6.369990348815918,44.30247497558594,0.41
197,MetaDrive-testbn5,64,241.3511379070273,199320,821,3101.3927252292633,,6.063916206359863,43.32990646362305,0.41
198,MetaDrive-testbn5,64,243.6832267262852,200231,823,3113.3177399635315,-47.00633239746094,6.069138050079346,46.66004943847656,0.42
199,MetaDrive-testbn5,64,243.6939928587126,201232,824,3127.2775435447693,,19.635454177856445,43.24589920043945,0.42
200,MetaDrive-testbn5,64,243.924888147609,202233,825,3146.2097413539886,-44.86227798461914,44.64068603515625,43.70677185058594,0.41
201,MetaDrive-testbn5,64,240.9812312909731,203340,827,3161.7924523353577,,5.568346977233887,45.156837463378906,0.4
202,MetaDrive-testbn5,64,238.67624620959495,204416,830,3177.542637825012,,5.652098178863525,44.559112548828125,0.4
203,MetaDrive-testbn5,64,239.23886158603855,205176,832,3188.225250005722,,9.356582641601562,46.85914993286133,0.4
204,MetaDrive-testbn5,64,239.7040714026772,206363,834,3205.310713291168,-42.84872817993164,26.297414779663086,41.565773010253906,0.41
205,MetaDrive-testbn5,64,238.15558713922889,207603,836,3223.1336286067963,-45.481834411621094,8.516891479492188,46.6116943359375,0.4
206,MetaDrive-testbn5,64,241.72187757219845,208174,837,3232.1370525360107,,8.622090339660645,42.46852111816406,0.41
207,MetaDrive-testbn5,64,239.00675808583867,209223,840,3250.074551343918,-46.407691955566406,7.180757522583008,46.793739318847656,0.4
208,MetaDrive-testbn5,64,241.41826341797582,210622,843,3270.0071229934692,,10.483564376831055,43.25908279418945,0.4
209,MetaDrive-testbn5,64,242.77106374237715,211740,845,3293.940263032913,,6.552296161651611,45.468292236328125,0.4
210,MetaDrive-testbn5,64,236.8982518779083,212027,847,3297.850590467453,-47.65036392211914,6.79808235168457,48.210941314697266,0.38
211,MetaDrive-testbn5,64,238.8784592814248,213014,849,3311.3981227874756,,4.74783992767334,46.04408264160156,0.39
212,MetaDrive-testbn5,64,229.02100015962753,214010,854,3325.097449541092,,87.7690200805664,45.706886291503906,0.37
213,MetaDrive-testbn5,64,232.82829030433493,215151,856,3342.35223531723,-47.1278190612793,8.000441551208496,46.98029327392578,0.39
214,MetaDrive-testbn5,64,234.44204866848236,216593,859,3363.8570008277893,-48.403968811035156,45.22943115234375,48.71672439575195,0.38
215,MetaDrive-testbn5,64,228.77100811035845,217895,862,3385.7023646831512,-45.80638122558594,7.598174571990967,45.05363464355469,0.36
216,MetaDrive-testbn5,64,228.60397616595662,218126,863,3389.357525587082,,9.329246520996094,40.72035217285156,0.36
217,MetaDrive-testbn5,64,232.2303849320806,219013,865,3406.174906730652,-44.24333190917969,8.755960464477539,44.657569885253906,0.37
218,MetaDrive-testbn5,64,233.5100606745185,220163,868,3422.61815738678,-46.97408676147461,14.40401840209961,46.95675277709961,0.38
219,MetaDrive-testbn5,64,234.0254979381042,221751,870,3445.1707468032837,-45.733116149902344,9.555791854858398,45.44855499267578,0.39
220,MetaDrive-testbn5,64,233.26376038335877,222752,871,3464.554265022278,,6.6620869636535645,44.70417022705078,0.38
221,MetaDrive-testbn5,64,234.61376831998226,223607,872,3479.567799091339,-44.65980529785156,10.045177459716797,44.52284240722656,0.39
222,MetaDrive-testbn5,64,237.05419630249568,224567,874,3492.484772205353,-45.283607482910156,8.63343620300293,44.884071350097656,0.4
223,MetaDrive-testbn5,64,235.79492306009377,225280,876,3502.677042245865,,69.63473510742188,39.813446044921875,0.4
224,MetaDrive-testbn5,64,235.93628241213924,226281,877,3526.3719465732574,-46.91436004638672,4.0425310134887695,46.08369827270508,0.4
225,MetaDrive-testbn5,64,234.4707787156472,227318,880,3543.150032043457,,8.57190990447998,47.85979461669922,0.4
226,MetaDrive-testbn5,64,236.6636883137362,228832,882,3568.63160777092,,50.83079147338867,42.042724609375,0.4
227,MetaDrive-testbn5,64,239.9735989994837,229397,883,3577.1476933956146,-44.82387161254883,12.092276573181152,45.38792037963867,0.41
228,MetaDrive-testbn5,64,240.70716124847704,230103,884,3588.577487707138,-42.112098693847656,6.316561222076416,42.27323913574219,0.42
229,MetaDrive-testbn5,64,244.4685621179128,231220,886,3604.07363820076,,10.525396347045898,44.56433868408203,0.43
230,MetaDrive-testbn5,64,248.0272930276963,232582,888,3630.451620578766,,6.8497185707092285,39.375587463378906,0.44
231,MetaDrive-testbn5,64,244.30081140479825,233896,892,3648.988089323044,,39.47443389892578,40.28081512451172,0.42
232,MetaDrive-testbn5,64,242.99507157177274,234124,894,3652.600061416626,,200.9873504638672,49.24292755126953,0.42
233,MetaDrive-testbn5,64,241.48647672068998,235658,897,3677.477684020996,,5.572887420654297,45.33456039428711,0.42
234,MetaDrive-testbn5,64,242.58612743805654,236172,898,3683.5861003398895,,10.847480773925781,40.47193145751953,0.43
235,MetaDrive-testbn5,64,244.02971933037378,237211,900,3699.965841293335,-43.22316360473633,5.155060768127441,43.08775329589844,0.43
236,MetaDrive-testbn5,64,238.26198037247195,238104,903,3714.398265838623,,4.380737781524658,44.31529998779297,0.42
237,MetaDrive-testbn5,64,238.10274470911477,239105,904,3735.40372300148,-49.100379943847656,12.827221870422363,49.598876953125,0.41
238,MetaDrive-testbn5,64,238.98168981818847,240310,906,3751.3538348674774,,4.920286178588867,41.25343322753906,0.42
239,MetaDrive-testbn5,64,242.95795073889818,241554,908,3771.311514854431,,9.640378952026367,44.7323112487793,0.43
240,MetaDrive-testbn5,64,242.79715658771184,242526,910,3785.3913111686707,,11.235380172729492,46.15403747558594,0.44
241,MetaDrive-testbn5,64,242.83504220380425,243137,911,3794.2777314186096,-42.2471923828125,3.7342636585235596,42.28791809082031,0.45
242,MetaDrive-testbn5,63,245.52272340921132,244930,913,3829.404951810837,,3.110464572906494,47.05845642089844,0.45
243,MetaDrive-testbn5,63,248.26811965240654,245748,914,3844.8817598819733,,79.57275390625,45.087310791015625,0.45
244,MetaDrive-testbn5,63,248.68750677397333,246749,915,3869.2089290618896,-45.49262619018555,14.777680397033691,45.16853332519531,0.44
245,MetaDrive-testbn5,63,243.95265398547954,247358,917,3876.329849720001,,8.829217910766602,47.333251953125,0.43
246,MetaDrive-testbn5,63,240.01389467636918,248447,920,3894.834238052368,-45.8974609375,64.06687927246094,44.492637634277344,0.42
247,MetaDrive-testbn5,63,238.3827001405169,249448,921,3909.954511165619,,8.388969421386719,44.607383728027344,0.42
248,MetaDrive-testbn5,63,239.98922797680737,250904,923,3936.0797629356384,,7.731265068054199,45.89557647705078,0.42
249,MetaDrive-testbn5,63,241.17021677757174,251592,924,3948.477404356003,,5.583356857299805,45.395084381103516,0.42
250,MetaDrive-testbn5,63,241.28945641491438,252217,925,3959.3787412643433,-41.46958923339844,4.675336837768555,41.068641662597656,0.43
251,MetaDrive-testbn5,63,243.52083455326078,253229,927,3975.000866174698,-44.73551559448242,13.644067764282227,45.04041290283203,0.44
252,MetaDrive-testbn5,63,245.56626375119842,254736,930,3996.661167383194,,11.848791122436523,43.03173065185547,0.44
253,MetaDrive-testbn5,63,247.18626676473076,255749,932,4010.887297153473,-48.01020812988281,8.749181747436523,47.40776824951172,0.45
254,MetaDrive-testbn5,63,245.99082939345496,256315,933,4021.019381046295,-44.42817687988281,5.957686901092529,44.915225982666016,0.44
255,MetaDrive-testbn5,63,245.31750313904243,257176,935,4036.493221759796,,6.201064586639404,47.247032165527344,0.43
256,MetaDrive-testbn5,63,244.65935330021645,258277,937,4052.8845822811127,-45.02445983886719,6.541958808898926,44.68341064453125,0.42
257,MetaDrive-testbn5,63,249.272482111827,259870,940,4080.69335770607,,123.17160034179688,42.523372650146484,0.43
258,MetaDrive-testbn5,63,248.29512780680412,260054,941,4083.44407248497,,99.77095794677734,42.89942169189453,0.43
259,MetaDrive-testbn5,63,248.01748796904968,261218,943,4099.5048949718475,,46.41703796386719,41.49534225463867,0.42
260,MetaDrive-testbn5,63,247.40278190992268,262414,946,4116.376692056656,,5.218430995941162,47.28723907470703,0.42
261,MetaDrive-testbn5,63,250.54675784285263,263224,947,4129.569299221039,,4.511693954467773,41.07112503051758,0.43
262,MetaDrive-testbn5,63,249.82095084690368,264282,949,4144.498317956924,,4.2400288581848145,47.54566192626953,0.42
263,MetaDrive-testbn5,63,251.61960046162105,265070,951,4156.845423460007,,10.915767669677734,47.771888732910156,0.43
264,MetaDrive-testbn5,63,255.63910696398455,266653,954,4182.150261878967,-44.8537712097168,4.56673526763916,44.708984375,0.43
265,MetaDrive-testbn5,63,253.99600568916773,267780,956,4198.274991035461,,7.492525100708008,50.21907043457031,0.42
266,MetaDrive-testbn5,63,254.96853365982707,268317,957,4206.7734270095825,-45.83572769165039,9.271873474121094,44.192771911621094,0.43
267,MetaDrive-testbn5,63,257.8621112873261,269780,959,4228.882445573807,,4.854429721832275,42.55280303955078,0.45
268,MetaDrive-testbn5,63,259.8459580696736,270254,960,4236.2628610134125,,13.477768898010254,43.7999267578125,0.46
269,MetaDrive-testbn5,63,259.3809378518162,271214,964,4251.494956493378,,10.890260696411133,45.99866485595703,0.47
270,MetaDrive-testbn5,63,254.9691315545627,272006,966,4261.2767996788025,,43.16301727294922,42.23762512207031,0.47
271,MetaDrive-testbn5,63,259.022797510062,273067,968,4277.217392683029,-42.17720031738281,61.13916015625,41.35026931762695,0.48
272,MetaDrive-testbn5,63,258.80564954571327,274245,971,4293.756699323654,-44.6804084777832,49.51539611816406,44.23965072631836,0.49
273,MetaDrive-testbn5,63,258.3007374717837,275246,972,4317.436897516251,,6.914207935333252,47.15185546875,0.48
274,MetaDrive-testbn5,63,258.95999977252796,276303,975,4331.628284692764,-46.486019134521484,8.080387115478516,45.59451675415039,0.48
275,MetaDrive-testbn5,63,258.34009898207574,277010,976,4341.160035133362,,26.134735107421875,47.381141662597656,0.48
276,MetaDrive-testbn5,63,259.34852861908087,278729,980,4369.564559459686,-43.905540466308594,7.709169387817383,44.393959045410156,0.48
277,MetaDrive-testbn5,63,261.35788340779914,279605,981,4384.513210058212,-42.910438537597656,45.62987518310547,42.75150680541992,0.49
278,MetaDrive-testbn5,63,262.0038604748093,280009,982,4389.144501447678,-46.905757904052734,8.625995635986328,46.52783203125,0.5
279,MetaDrive-testbn5,63,260.308012866373,281576,984,4417.572986125946,,8.212779998779297,43.35966873168945,0.48
280,MetaDrive-testbn5,63,260.2096766789451,282097,985,4424.809636592865,-46.086143493652344,10.768547058105469,45.61167907714844,0.48
281,MetaDrive-testbn5,63,260.2331233240589,283348,987,4445.321115493774,,10.135395050048828,46.34543228149414,0.48
282,MetaDrive-testbn5,63,258.6950356322258,284090,988,4457.09655547142,,6.379474639892578,48.45698165893555,0.48
283,MetaDrive-testbn5,63,265.5068471855735,285613,990,4480.775597572327,-41.831390380859375,7.675999164581299,42.440399169921875,0.5
284,MetaDrive-testbn5,63,265.8735956490259,286115,992,4486.541640758514,-47.830448150634766,7.651454925537109,48.062992095947266,0.51
285,MetaDrive-testbn5,63,266.84051371958856,287116,993,4502.7835919857025,,6.909846305847168,45.021690368652344,0.51
286,MetaDrive-testbn5,63,268.20164351571407,288313,996,4519.054313659668,-50.09242630004883,8.709587097167969,50.10643768310547,0.52
287,MetaDrive-testbn5,63,266.9651947672207,289047,998,4528.656573057175,-44.10719299316406,8.78786563873291,43.795074462890625,0.51
288,MetaDrive-testbn5,63,269.89761932360807,290497,1001,4547.418401002884,-44.16669464111328,14.568406105041504,43.51247024536133,0.52
289,MetaDrive-testbn5,63,269.53455964690306,291299,1003,4557.365070104599,-45.30304718017578,8.765157699584961,45.32939910888672,0.52
290,MetaDrive-testbn5,63,266.14494988973763,292072,1005,4567.646535396576,,4.1273345947265625,48.87787628173828,0.52
291,MetaDrive-testbn5,63,262.6351672030525,293233,1008,4583.983724594116,-43.7353401184082,6.619076728820801,43.45891571044922,0.5
292,MetaDrive-testbn5,63,260.1034615961784,294418,1010,4605.851680755615,,11.758781433105469,49.04904556274414,0.48
293,MetaDrive-testbn5,63,250.94993208248164,295075,1013,4614.171742916107,-46.61439514160156,6.611385345458984,45.63383483886719,0.46
294,MetaDrive-testbn5,63,248.88688181941555,296597,1015,4634.801114320755,-45.533416748046875,11.60897159576416,44.89009094238281,0.47
295,MetaDrive-testbn5,63,250.3359426997523,297536,1017,4649.619405031204,,4.793352127075195,48.00975799560547,0.47
296,MetaDrive-testbn5,63,250.89280718850037,298537,1018,4665.81307888031,-41.9691276550293,14.43995475769043,41.631690979003906,0.47
297,MetaDrive-testbn5,64,248.5361335688166,299220,1021,4674.363775730133,,5.970504283905029,45.96611785888672,0.47
298,MetaDrive-testbn5,64,247.85464894732533,300291,1023,4690.969350576401,-48.81608581542969,3.325122833251953,48.4654541015625,0.47
299,MetaDrive-testbn5,64,244.95899541904484,301063,1025,4703.072396039963,-44.60902404785156,12.083517074584961,44.78541946411133,0.47
300,MetaDrive-testbn5,64,244.50079175311245,302770,1028,4728.982825517654,,13.486821174621582,46.39599609375,0.47
301,MetaDrive-testbn5,63,243.0866115315361,303847,1030,4747.995507240295,-43.774749755859375,11.39418888092041,43.10565185546875,0.47
302,MetaDrive-testbn5,64,244.40613067278474,304334,1031,4754.213664293289,,6.242105960845947,48.20936584472656,0.48
303,MetaDrive-testbn5,64,243.7176483070968,305054,1032,4762.567423582077,,6.3480224609375,49.64247131347656,0.48
304,MetaDrive-testbn5,64,244.06835205660158,306244,1035,4778.231626033783,,9.813421249389648,45.517337799072266,0.5
305,MetaDrive-testbn5,64,245.01765967475265,307110,1036,4793.20870757103,,6.558901786804199,43.999610900878906,0.51
306,MetaDrive-testbn5,64,245.62827228330605,308220,1038,4809.415221691132,,67.03987121582031,48.27808380126953,0.51
307,MetaDrive-testbn5,64,246.99517334113065,309642,1040,4829.411360740662,,8.072196006774902,46.989253997802734,0.53
308,MetaDrive-testbn5,64,248.4965730966,310102,1041,4834.51614356041,,11.566793441772461,46.71706771850586,0.54
309,MetaDrive-testbn5,64,247.7979441055591,311085,1043,4848.112712621689,-51.497657775878906,10.238787651062012,50.67207717895508,0.54
310,MetaDrive-testbn5,64,249.58065466441494,312030,1045,4861.1686835289,,5.483333110809326,50.07697296142578,0.55
311,MetaDrive-testbn5,64,248.61247970565523,313453,1047,4881.221291780472,-47.64517593383789,9.774591445922852,47.669986724853516,0.54
312,MetaDrive-testbn5,64,248.1762890170872,314907,1049,4907.520000934601,-44.48878479003906,8.350300788879395,43.91630935668945,0.54
313,MetaDrive-testbn5,64,248.19513022956195,315018,1050,4908.916067123413,,8.116220474243164,42.04057312011719,0.54
314,MetaDrive-testbn5,64,247.48983563079088,316476,1053,4931.926453828812,,10.929933547973633,49.18208312988281,0.53
315,MetaDrive-testbn5,64,248.18271385947148,317087,1054,4941.439800977707,-47.28853225708008,12.431939125061035,46.35618209838867,0.54
316,MetaDrive-testbn5,64,244.51249908753778,318579,1058,4966.321357011795,-43.794281005859375,5.1853132247924805,43.406585693359375,0.52
317,MetaDrive-testbn5,64,243.57318839363086,319182,1059,4976.148717880249,,20.34687042236328,43.48210525512695,0.52
318,MetaDrive-testbn5,64,245.47358766814,320085,1060,4993.286856174469,-47.912261962890625,10.348215103149414,48.53845977783203,0.52
319,MetaDrive-testbn5,64,250.2991616651095,321752,1063,5022.4418795108795,,4.663078784942627,47.37816619873047,0.53
320,MetaDrive-testbn5,64,250.62472250610028,322502,1064,5033.5157122612,,10.27560806274414,45.6474723815918,0.53
321,MetaDrive-testbn5,64,253.84350483659975,323503,1065,5054.211824417114,-46.62549591064453,11.108453750610352,45.19036865234375,0.53
322,MetaDrive-testbn5,63,255.75274781766907,324284,1066,5067.24324297905,,7.30726432800293,50.335968017578125,0.53
323,MetaDrive-testbn5,63,256.2513818973152,325148,1067,5080.808954000473,,10.467911720275879,49.28409957885742,0.53
324,MetaDrive-testbn5,64,255.27220713234234,326106,1069,5092.523685455322,,5.999534606933594,47.584747314453125,0.52
325,MetaDrive-testbn5,64,257.08083408534475,327278,1071,5109.323589324951,,6.5446882247924805,46.468017578125,0.53
326,MetaDrive-testbn5,64,257.6676919204841,328471,1073,5124.490030050278,-46.62511444091797,9.76533031463623,46.1611328125,0.55
327,MetaDrive-testbn5,64,252.88707428422137,329252,1076,5137.314668893814,,60.82952880859375,44.84693145751953,0.53
328,MetaDrive-testbn5,64,255.0454151994889,330077,1077,5147.647411346436,-49.9397087097168,7.887749671936035,49.029273986816406,0.54
329,MetaDrive-testbn5,64,256.94815853245086,331693,1079,5171.356487035751,-49.27699661254883,44.36567687988281,48.74262237548828,0.55
330,MetaDrive-testbn5,64,252.55255668685857,332554,1081,5186.650918245316,,8.401753425598145,44.35957717895508,0.54
331,MetaDrive-testbn5,64,248.77978525955533,333272,1084,5196.931629419327,,12.537874221801758,47.50005340576172,0.54
332,MetaDrive-testbn5,64,247.9186352883384,334529,1087,5210.950116634369,-44.61058807373047,6.459306716918945,44.02803039550781,0.54
333,MetaDrive-testbn5,64,247.89413177655206,335190,1088,5221.306482791901,,18.37210464477539,48.7496337890625,0.54
334,MetaDrive-testbn5,64,246.2815940958497,336424,1090,5237.066986083984,,7.471634864807129,44.379051208496094,0.54
335,MetaDrive-testbn5,64,246.0203577220305,337028,1092,5249.161313056946,,7.978764057159424,45.70863342285156,0.53
336,MetaDrive-testbn5,64,246.15549770388125,338232,1095,5267.134762763977,,17.394367218017578,41.203880310058594,0.53
337,MetaDrive-testbn5,64,242.3901337469602,339380,1097,5288.583268880844,,6.006573677062988,43.76420974731445,0.51
338,MetaDrive-testbn5,64,245.9143998903371,340162,1099,5298.1444346904755,,134.81773376464844,46.03480911254883,0.52
339,MetaDrive-testbn5,64,243.01530693346905,341714,1101,5328.62873506546,,9.97403335571289,45.271484375,0.5
340,MetaDrive-testbn5,64,241.78211052009297,342205,1103,5335.593610048294,-49.58588409423828,52.299644470214844,49.758201599121094,0.49
341,MetaDrive-testbn5,64,243.0148871906935,343132,1104,5352.84320640564,,8.778831481933594,48.352935791015625,0.49
342,MetaDrive-testbn5,64,247.2778799935612,344616,1106,5376.728796958923,,15.296459197998047,46.98220443725586,0.5
343,MetaDrive-testbn5,64,250.23835977499454,345179,1107,5386.073727607727,-41.182594299316406,10.139168739318848,41.230690002441406,0.51
344,MetaDrive-testbn5,64,252.3937376708085,346131,1109,5399.495714426041,-46.46788787841797,5.075351715087891,46.502506256103516,0.51
345,MetaDrive-testbn5,64,253.0716814005091,347187,1111,5417.47034072876,-47.65625762939453,7.98138952255249,46.704429626464844,0.51
346,MetaDrive-testbn5,64,257.85768387785384,348289,1113,5430.979305744171,-49.60603713989258,123.8873519897461,49.03667449951172,0.53
347,MetaDrive-testbn5,64,257.9885586773823,349043,1114,5441.390665531158,-45.65830993652344,9.752775192260742,44.99943542480469,0.53
348,MetaDrive-testbn5,64,252.56665629739786,350268,1119,5457.750178098679,,11.702187538146973,48.25752639770508,0.52
349,MetaDrive-testbn5,64,255.82399663008894,351583,1121,5482.784000873566,-46.665565490722656,10.367563247680664,46.21120071411133,0.52
350,MetaDrive-testbn5,64,252.7922127316698,352279,1123,5492.283698558807,-47.13533020019531,4.858926773071289,47.623756408691406,0.51
351,MetaDrive-testbn5,64,254.32311443303647,353362,1125,5505.810339689255,,18.737783432006836,49.84518814086914,0.51
352,MetaDrive-testbn5,64,257.8154939712515,354060,1126,5515.35401725769,,2.956540584564209,49.44252014160156,0.52
353,MetaDrive-testbn5,64,255.17414533896186,355202,1128,5534.094885826111,,35.072994232177734,43.615116119384766,0.51
354,MetaDrive-testbn5,64,257.856213985823,356102,1129,5550.77815246582,,34.53241729736328,48.017234802246094,0.52
355,MetaDrive-testbn5,64,258.0779817472995,357319,1131,5569.390724658966,-49.077606201171875,14.460454940795898,48.8784065246582,0.52
356,MetaDrive-testbn5,64,259.4213514074196,358852,1133,5597.688272476196,,4.298862934112549,51.89314270019531,0.51
357,MetaDrive-testbn5,64,262.6561513027261,359527,1134,5606.613486528397,-45.06501388549805,6.828696250915527,44.38711929321289,0.52
358,MetaDrive-testbn5,64,258.40947874844534,360269,1136,5618.009798288345,-48.67017364501953,9.43624210357666,47.40453338623047,0.5
359,MetaDrive-testbn5,64,259.29090167960476,361270,1137,5640.674581289291,,10.68526840209961,46.22414016723633,0.49
360,MetaDrive-testbn5,64,258.8172830275125,362271,1138,5656.621726989746,-42.10101318359375,21.637447357177734,43.12914276123047,0.49
361,MetaDrive-testbn5,64,256.9325016393148,363721,1141,5675.400843143463,-48.1454963684082,124.45882415771484,47.89277648925781,0.48
362,MetaDrive-testbn5,64,254.15284073598278,364604,1144,5687.3832924366,,9.220348358154297,44.35026550292969,0.48
363,MetaDrive-testbn5,64,253.95312185524395,365145,1145,5694.00319480896,-46.735931396484375,34.15362548828125,45.650535583496094,0.48
364,MetaDrive-testbn5,64,254.77984393508987,366063,1146,5711.871118783951,-45.89057922363281,8.010902404785156,45.60131072998047,0.49
365,MetaDrive-testbn5,64,255.6339353591449,367039,1147,5728.560640573502,-43.071250915527344,5.5012736320495605,43.14976501464844,0.49
366,MetaDrive-testbn5,64,254.7486861300547,368040,1148,5740.738777399063,,12.712202072143555,48.046939849853516,0.48
367,MetaDrive-testbn5,64,258.70446720222316,369687,1150,5767.221959114075,-46.01634216308594,9.933673858642578,45.734092712402344,0.49
368,MetaDrive-testbn5,64,257.53908317364915,370041,1151,5771.670872211456,-48.56126403808594,110.2340087890625,48.293373107910156,0.49
369,MetaDrive-testbn5,64,254.12926489758877,371111,1154,5789.315944194794,-45.009620666503906,15.333311080932617,44.747920989990234,0.48
370,MetaDrive-testbn5,64,259.26150710869433,372537,1157,5808.367863416672,-46.199928283691406,35.676048278808594,45.66316223144531,0.51
371,MetaDrive-testbn5,64,254.62335933800875,373185,1159,5817.488352775574,-47.373939514160156,9.273414611816406,47.76188659667969,0.49
372,MetaDrive-testbn5,64,251.03745213707927,374211,1162,5833.596465110779,-47.41278839111328,6.332666397094727,46.92650604248047,0.47
373,MetaDrive-testbn5,64,251.95924826785733,375109,1163,5846.678042173386,-46.735069274902344,28.963340759277344,47.45545196533203,0.48
374,MetaDrive-testbn5,64,247.60139097946282,376089,1165,5861.296881437302,-47.89889907836914,5.184499740600586,47.908817291259766,0.48
375,MetaDrive-testbn5,64,243.6478480049113,377297,1168,5875.938719749451,-42.717079162597656,9.984367370605469,43.41410827636719,0.48
376,MetaDrive-testbn5,64,234.18906601141563,378099,1172,5886.39968752861,-44.94011688232422,10.093363761901855,45.26117706298828,0.44
377,MetaDrive-testbn5,64,236.95440095319063,379363,1174,5903.213006734848,-43.86208724975586,25.188312530517578,43.63642501831055,0.44
378,MetaDrive-testbn5,64,237.53925195466906,380112,1176,5912.989006519318,,7.323232173919678,46.790958404541016,0.45
379,MetaDrive-testbn5,64,235.34712756884676,381015,1178,5924.192612409592,-47.652427673339844,12.987390518188477,47.94845962524414,0.44
380,MetaDrive-testbn5,64,237.39387331483556,382417,1180,5951.573529720306,-44.36887741088867,8.372807502746582,44.876583099365234,0.44
381,MetaDrive-testbn5,64,236.38232790338498,383418,1181,5968.374326705933,,8.536930084228516,44.42828369140625,0.43
382,MetaDrive-testbn5,64,238.44978407623853,384081,1183,5978.567334651947,-45.47306823730469,6.87673282623291,44.966209411621094,0.43
383,MetaDrive-testbn5,64,239.08929940636833,385393,1185,5996.703655004501,-45.69526290893555,5.918194770812988,45.62983703613281,0.43
384,MetaDrive-testbn5,64,238.25985421557564,386301,1187,6010.442897319794,-45.023216247558594,7.243932723999023,44.470970153808594,0.42
385,MetaDrive-testbn5,64,236.7653434041993,387743,1189,6036.528901815414,-40.77436828613281,15.210681915283203,40.962242126464844,0.41
386,MetaDrive-testbn5,64,237.99703153081845,388744,1190,6057.9671223163605,,9.58002758026123,47.46223831176758,0.4
387,MetaDrive-testbn5,64,240.07898222335106,389429,1191,6069.295974493027,-43.65435028076172,7.637631416320801,44.12051773071289,0.4
388,MetaDrive-testbn5,64,236.77491161447986,390066,1193,6078.206287622452,,9.007030487060547,42.95942687988281,0.4
389,MetaDrive-testbn5,64,240.61475688421422,391510,1196,6096.955333948135,,56.72270965576172,43.93079376220703,0.41
390,MetaDrive-testbn5,64,240.34497239334996,392179,1197,6106.7554750442505,-40.649200439453125,13.794063568115234,40.7586669921875,0.41
391,MetaDrive-testbn5,64,240.34829931945487,393548,1199,6134.279484510422,,10.08613395690918,47.07227325439453,0.4
392,MetaDrive-testbn5,64,241.9021353913413,394040,1200,6140.370961904526,,15.283885955810547,40.667823791503906,0.41
393,MetaDrive-testbn5,64,243.85371326861977,395863,1202,6170.755984783173,-44.49577331542969,13.840548515319824,44.99406051635742,0.42
394,MetaDrive-testbn5,64,245.72775885155,396864,1203,6188.45266866684,,6.93375301361084,41.490509033203125,0.42
395,MetaDrive-testbn5,64,244.56836256914667,397517,1204,6198.560653924942,-45.55583572387695,6.627371788024902,44.97735595703125,0.42
396,MetaDrive-testbn5,64,244.06089719270142,398268,1205,6209.4719071388245,,10.861099243164062,42.425838470458984,0.42
397,MetaDrive-testbn5,64,241.46970395750722,399272,1207,6227.355756282806,,9.643277168273926,44.75229263305664,0.41
398,MetaDrive-testbn5,64,242.23921189114805,400348,1209,6243.085242033005,,8.649481773376465,45.31177520751953,0.41
399,MetaDrive-testbn5,64,243.28034215675754,401371,1211,6259.332474708557,-43.72353744506836,12.697139739990234,43.99635696411133,0.42
400,MetaDrive-testbn5,64,243.56887598725018,402797,1213,6282.393546104431,-41.70203399658203,8.47407341003418,41.06104278564453,0.41
401,MetaDrive-testbn5,64,242.67093440000784,403498,1215,6291.241030454636,,26.820960998535156,44.60083770751953,0.4
402,MetaDrive-testbn5,64,246.88130551477389,404499,1216,6306.160126447678,-42.65529251098633,5.625949859619141,42.1525764465332,0.4
403,MetaDrive-testbn5,64,249.14130000370537,405245,1217,6318.640755176544,-49.72537612915039,22.615182876586914,49.662696838378906,0.41
404,MetaDrive-testbn5,64,252.87184459125763,406618,1219,6339.515254974365,,43.87068557739258,42.67521667480469,0.42
405,MetaDrive-testbn5,64,253.70112703244698,407218,1220,6348.126923561096,,9.102684020996094,45.55718231201172,0.43
406,MetaDrive-testbn5,64,252.0559347769995,408480,1223,6368.101845979691,,6.153476715087891,42.01349639892578,0.43
407,MetaDrive-testbn5,64,249.67181428654357,409897,1225,6390.608563423157,-49.30990219116211,11.289793014526367,50.19347381591797,0.42
408,MetaDrive-testbn5,64,248.69390003396515,410500,1226,6397.9573097229,,29.589073181152344,48.596012115478516,0.42
409,MetaDrive-testbn5,64,252.08355160458896,411360,1227,6414.136194229126,,4.517471790313721,42.989891052246094,0.43
410,MetaDrive-testbn5,64,254.3193123002497,412173,1228,6424.6294231414795,-49.6986083984375,11.639188766479492,49.324913024902344,0.44
411,MetaDrive-testbn5,64,253.24380926209065,413585,1230,6444.926336050034,-43.5938720703125,19.51714515686035,44.80001449584961,0.44
412,MetaDrive-testbn5,64,253.14964009575607,414122,1231,6451.603479146957,,7.253447532653809,42.776527404785156,0.44
413,MetaDrive-testbn5,64,250.47387681993746,415612,1234,6469.922446966171,,29.781936645507812,47.55883026123047,0.44
414,MetaDrive-testbn5,64,251.63771722288743,416117,1235,6477.62691783905,-44.80387878417969,7.980275630950928,43.96611022949219,0.45
415,MetaDrive-testbn5,64,250.59101793761832,417350,1238,6494.000611543655,,4.814321517944336,44.93694305419922,0.46
416,MetaDrive-testbn5,64,252.25916726392938,418207,1239,6511.083998680115,-47.2130126953125,8.675674438476562,47.230140686035156,0.46
417,MetaDrive-testbn5,64,253.16477585151145,419279,1241,6524.123892784119,-47.51987075805664,10.767642974853516,46.86304473876953,0.47
418,MetaDrive-testbn5,64,257.16705010688423,420057,1243,6534.586519479752,-47.085628509521484,12.877225875854492,47.04779815673828,0.48
419,MetaDrive-testbn5,64,254.86340484083442,421020,1245,6554.527259111404,,7.666215896606445,45.52870178222656,0.46
420,MetaDrive-testbn5,64,251.93419733169264,422547,1248,6577.200754404068,-44.59879684448242,8.988229751586914,43.60441589355469,0.46
421,MetaDrive-testbn5,64,251.5323325115277,423248,1249,6586.8833594322205,,6.824862957000732,45.06471252441406,0.46
422,MetaDrive-testbn5,64,250.85587385575934,424536,1252,6605.38038110733,,7.268239498138428,47.13874816894531,0.47
423,MetaDrive-testbn5,64,250.57435974936493,425323,1254,6616.542021989822,-47.66091537475586,10.61219596862793,46.515647888183594,0.47
424,MetaDrive-testbn5,64,247.62807893390305,426265,1257,6630.105087757111,-42.52023696899414,17.304363250732422,42.18354797363281,0.44
425,MetaDrive-testbn5,64,252.10695358335607,427542,1259,6648.6749403476715,,6.962295055389404,46.04013442993164,0.46
426,MetaDrive-testbn5,64,253.39777552595126,428355,1261,6661.7639718055725,-42.387149810791016,8.805023193359375,42.784584045410156,0.47
427,MetaDrive-testbn5,64,249.24833813444206,429947,1264,6685.539538860321,-43.32555389404297,6.519313812255859,43.307395935058594,0.46
428,MetaDrive-testbn5,64,250.65107988251836,430326,1265,6691.698734045029,,6.556150436401367,45.0092887878418,0.46
429,MetaDrive-testbn5,64,253.99308380385494,431327,1266,6712.954552412033,-43.45888137817383,3.396831512451172,43.344764709472656,0.46
430,MetaDrive-testbn5,64,253.83687439709544,432530,1268,6732.775548696518,,6.195504665374756,46.419979095458984,0.45
431,MetaDrive-testbn5,64,254.91923545938138,433547,1272,6746.154921770096,-42.31443405151367,5.567762851715088,42.9864501953125,0.45
432,MetaDrive-testbn5,64,255.10090631728625,434376,1273,6758.23743724823,,8.359457015991211,39.980770111083984,0.46
433,MetaDrive-testbn5,64,256.4153050989161,435409,1275,6771.09583735466,-47.139892578125,6.394115447998047,47.234352111816406,0.46
434,MetaDrive-testbn5,64,258.1111389390359,436333,1276,6789.3946034908295,-42.8680419921875,4.070314884185791,42.899696350097656,0.46
435,MetaDrive-testbn5,64,259.23456958107136,437270,1277,6807.129413843155,,7.964237689971924,40.909122467041016,0.47
436,MetaDrive-testbn5,64,260.4357140903582,438084,1278,6819.790867567062,,9.485071182250977,38.71864318847656,0.47
437,MetaDrive-testbn5,64,262.5702213285375,439095,1280,6830.584083557129,-39.920166015625,7.705824375152588,39.87604522705078,0.49
438,MetaDrive-testbn5,64,264.7006588823622,440545,1282,6851.652214050293,-40.033912658691406,21.833580017089844,39.963348388671875,0.51
439,MetaDrive-testbn5,64,265.43562167933084,441661,1284,6874.517178297043,-44.891014099121094,7.302056789398193,43.912994384765625,0.5
440,MetaDrive-testbn5,64,264.0776061773333,442047,1285,6880.2040321826935,-45.220943450927734,10.666227340698242,45.15882110595703,0.49
441,MetaDrive-testbn5,64,265.3186912965322,443332,1287,6899.498170852661,,11.416492462158203,39.48352813720703,0.5
442,MetaDrive-testbn5,64,264.94128648281526,444418,1289,6914.69135928154,,7.787938117980957,43.38777160644531,0.5
443,MetaDrive-testbn5,64,264.64579706973916,445015,1290,6924.0499355793,-47.43873977661133,5.638463020324707,47.38965606689453,0.51
444,MetaDrive-testbn5,64,265.81021941730637,446190,1292,6941.278301239014,,6.175234794616699,46.73870849609375,0.51
445,MetaDrive-testbn5,64,268.1244082858867,447291,1294,6958.133020162582,-45.926429748535156,6.538867950439453,45.987091064453125,0.51
446,MetaDrive-testbn5,64,271.5511542690905,448212,1295,6973.912134170532,,4.776196002960205,43.8201904296875,0.52
447,MetaDrive-testbn5,64,270.089971348407,449087,1297,6986.435059309006,-48.256011962890625,6.132699966430664,47.771305084228516,0.52
448,MetaDrive-testbn5,64,269.4024896863964,450082,1299,7001.709827899933,,10.192317962646484,45.31859588623047,0.53
449,MetaDrive-testbn5,64,268.0414330363173,451660,1301,7023.56324839592,,6.6335344314575195,44.95198059082031,0.52
450,MetaDrive-testbn5,64,270.5459282223124,452324,1302,7031.536641597748,,9.647260665893555,42.18494415283203,0.53
451,MetaDrive-testbn5,64,268.75044596024213,453325,1303,7047.085421800613,-36.210575103759766,153.59912109375,35.32740783691406,0.53
452,MetaDrive-testbn5,64,268.01372893335247,454326,1304,7065.848353385925,,15.619209289550781,46.793067932128906,0.52
453,MetaDrive-testbn5,64,267.675638612351,455523,1306,7080.536960601807,-46.60494613647461,9.910080909729004,47.41650390625,0.52
454,MetaDrive-testbn5,64,266.6872294766548,456478,1308,7092.585830450058,,10.136503219604492,36.089134216308594,0.53
455,MetaDrive-testbn5,64,266.975650472478,457082,1309,7100.2085909843445,,6.381247520446777,46.206565856933594,0.54
456,MetaDrive-testbn5,64,267.1135446444577,458083,1310,7119.773736476898,-43.952293395996094,20.756235122680664,44.319427490234375,0.54
457,MetaDrive-testbn5,64,265.3264581012956,459084,1311,7132.437983989716,,6.356729030609131,42.05909729003906,0.53
458,MetaDrive-testbn5,64,262.16067470265256,460043,1313,7146.93706035614,-42.7467041015625,6.844851970672607,42.90109634399414,0.53
459,MetaDrive-testbn5,64,258.49730727319877,461023,1316,7161.179305076599,-39.262535095214844,9.588425636291504,38.72789001464844,0.54
460,MetaDrive-testbn5,64,255.63111683530053,462324,1318,7182.645750999451,,6.123809814453125,44.13853454589844,0.52
461,MetaDrive-testbn5,64,255.09477473660468,463231,1319,7192.101855993271,-45.6414794921875,5.416749000549316,44.95155334472656,0.52
462,MetaDrive-testbn5,64,253.64434317195943,464013,1321,7201.393838882446,-42.55889892578125,13.579865455627441,41.284942626953125,0.51
463,MetaDrive-testbn5,64,255.6731427876424,465029,1323,7216.025968313217,-44.27398681640625,9.606268882751465,45.19615173339844,0.51
464,MetaDrive-testbn5,64,255.50330790856117,466175,1326,7234.71751666069,-42.83503723144531,11.38504409790039,42.50080108642578,0.51
465,MetaDrive-testbn5,64,251.4296778118448,467595,1329,7253.8787932395935,-46.56922149658203,5.389743328094482,45.87421417236328,0.5
466,MetaDrive-testbn5,64,251.04408177642236,468319,1330,7266.601323366165,-46.85887908935547,6.82514762878418,47.47357940673828,0.49
467,MetaDrive-testbn5,64,251.59863384705375,469910,1332,7289.213391542435,,6.772351264953613,43.29632568359375,0.48
468,MetaDrive-testbn5,64,253.71858699570362,470561,1333,7297.080111980438,-41.011940002441406,6.495122909545898,40.367881774902344,0.49
469,MetaDrive-testbn5,64,253.55579668639726,471395,1334,7311.6193754673,-44.269126892089844,4.788755893707275,44.237998962402344,0.49
470,MetaDrive-testbn5,64,254.419038756084,472213,1335,7322.290863752365,-43.64309310913086,8.272276878356934,43.19451904296875,0.49
471,MetaDrive-testbn5,64,257.1386770324279,473987,1337,7348.529535293579,-46.85580062866211,44.73661804199219,46.41285705566406,0.49
472,MetaDrive-testbn5,64,255.90052347303634,474325,1338,7355.276887655258,-45.23558044433594,18.537139892578125,44.902931213378906,0.48
473,MetaDrive-testbn5,64,254.74870123437307,475464,1340,7371.467577695847,,12.355690002441406,43.72589874267578,0.48
474,MetaDrive-testbn5,64,254.97988904561302,476020,1341,7379.2447011470795,,9.305404663085938,43.90242004394531,0.48
475,MetaDrive-testbn5,64,253.2061113302217,477601,1344,7400.417582273483,-45.21095275878906,14.936761856079102,46.010047912597656,0.49
476,MetaDrive-testbn5,64,255.34178307517178,478101,1345,7407.330774784088,-42.08552551269531,6.913470268249512,42.19087219238281,0.5
477,MetaDrive-testbn5,64,256.77912613715745,479102,1346,7427.184915065765,,4.991068363189697,42.269222259521484,0.5
478,MetaDrive-testbn5,64,255.9897335864428,480290,1348,7443.435866117477,,8.617634773254395,43.836368560791016,0.49
479,MetaDrive-testbn5,64,256.25652267384163,481075,1350,7452.793780088425,-41.71593475341797,10.356706619262695,41.272987365722656,0.49
480,MetaDrive-testbn5,64,254.03923507256926,482596,1354,7475.019149303436,,6.171504974365234,41.75135803222656,0.48
481,MetaDrive-testbn5,64,257.1623170329528,483510,1355,7486.961372613907,,6.017768383026123,41.15716552734375,0.49
482,MetaDrive-testbn5,64,258.525656599376,484215,1356,7496.611992120743,-41.962677001953125,20.69062042236328,41.544227600097656,0.5
483,MetaDrive-testbn5,64,259.2716206223511,485565,1358,7517.798934459686,-45.170135498046875,6.0127973556518555,45.43223190307617,0.51
484,MetaDrive-testbn5,64,258.8108042086235,486340,1359,7531.6334109306335,,10.315314292907715,40.035125732421875,0.51
485,MetaDrive-testbn5,64,261.10209889643545,487765,1361,7549.849034070969,-42.806034088134766,7.925598621368408,41.804054260253906,0.51
486,MetaDrive-testbn5,64,261.3974244343998,488625,1362,7561.034419775009,-43.60198974609375,90.34962463378906,42.331939697265625,0.51
487,MetaDrive-testbn5,64,263.6307754656564,489078,1363,7566.842449903488,,6.282735824584961,42.22533416748047,0.52
488,MetaDrive-testbn5,64,265.43973246128746,490519,1365,7584.466075658798,-40.86915588378906,10.731706619262695,41.27289581298828,0.54
489,MetaDrive-testbn5,64,263.68014645713026,491463,1367,7597.499596118927,-37.78028869628906,20.36178207397461,37.317222595214844,0.55
490,MetaDrive-testbn5,64,263.6524757296939,492529,1370,7611.563595533371,-45.70789337158203,10.109207153320312,45.08945083618164,0.55
491,MetaDrive-testbn5,64,266.4546919491438,493638,1372,7629.850938796997,,16.15517234802246,40.47737503051758,0.55
492,MetaDrive-testbn5,64,267.04876518373027,494599,1373,7641.963383436203,-41.93939208984375,7.167344093322754,42.003143310546875,0.55
493,MetaDrive-testbn5,64,269.2895500512621,495583,1374,7653.7512328624725,-44.64455032348633,5.034663677215576,43.77721405029297,0.56
494,MetaDrive-testbn5,64,268.94734870255564,496418,1375,7663.781655788422,,10.088714599609375,44.88527297973633,0.56
495,MetaDrive-testbn5,64,267.4247753859851,497255,1376,7673.992271661758,-39.80451965332031,7.72359561920166,39.46455764770508,0.56
496,MetaDrive-testbn5,64,268.57445953749317,498256,1377,7693.871988534927,,28.193592071533203,42.020503997802734,0.55
497,MetaDrive-testbn5,64,268.1081163835821,499257,1378,7706.823086023331,-40.42138671875,5.067255020141602,40.00592803955078,0.54
498,MetaDrive-testbn5,64,269.89992098804606,500252,1379,7722.164466142654,,18.714038848876953,35.16640853881836,0.54
499,MetaDrive-testbn5,64,271.99964658950705,501950,1381,7748.139774560928,,16.687271118164062,36.22119903564453,0.53
500,MetaDrive-testbn5,64,270.52383603106324,502951,1382,7762.518983125687,-42.387542724609375,6.9118146896362305,42.12969207763672,0.52
501,MetaDrive-testbn5,64,273.94392450115083,503931,1383,7776.951349258423,-36.826656341552734,10.75429916381836,36.54450225830078,0.53
502,MetaDrive-testbn5,64,273.1772317905862,504932,1384,7794.678174495697,,5.611945152282715,42.069541931152344,0.53
503,MetaDrive-testbn5,64,274.54570030550144,505722,1385,7807.600398778915,,79.43104553222656,43.128047943115234,0.54
504,MetaDrive-testbn5,64,276.46769991152,506666,1386,7821.469190835953,,10.29127311706543,45.51158142089844,0.54
505,MetaDrive-testbn5,64,272.4284874312807,507767,1389,7836.007075071335,-43.19327163696289,6.281407356262207,42.85539245605469,0.53
506,MetaDrive-testbn5,64,272.16956024749464,508667,1390,7847.457404375076,-42.835853576660156,5.963263511657715,42.88123321533203,0.53
507,MetaDrive-testbn5,64,271.19086463512764,509200,1391,7853.022165298462,,9.83077621459961,42.57307052612305,0.54
508,MetaDrive-testbn5,64,269.7987342470097,510206,1393,7869.93013882637,,7.434744358062744,37.19599914550781,0.54
509,MetaDrive-testbn5,64,271.43119546956535,511026,1394,7881.449120283127,,10.626163482666016,40.226036071777344,0.55
510,MetaDrive-testbn5,64,272.09380476272787,512027,1395,7896.641711950302,-38.65949630737305,7.413306713104248,39.28643035888672,0.54
511,MetaDrive-testbn5,64,274.7545480066918,513484,1397,7914.065756559372,,4.542720794677734,44.78127670288086,0.55
512,MetaDrive-testbn5,64,272.8242611787406,514485,1398,7930.090056419373,-45.11213684082031,3.9513235092163086,44.46205139160156,0.54
513,MetaDrive-testbn5,64,275.94324105785824,515412,1399,7946.335075139999,,9.44559097290039,36.24469757080078,0.54
514,MetaDrive-testbn5,64,276.9204878075776,516283,1400,7959.352350473404,-38.41712951660156,6.717831134796143,38.03096008300781,0.54
515,MetaDrive-testbn5,64,277.4332874194147,517858,1402,7986.129860162735,,5.961451053619385,44.42506408691406,0.53
516,MetaDrive-testbn5,64,278.5857959012438,518630,1403,7994.942225217819,,17.588977813720703,43.11113357543945,0.54
517,MetaDrive-testbn5,64,278.59221401772714,519716,1405,8009.62158370018,,6.859600067138672,41.96420669555664,0.54
518,MetaDrive-testbn5,64,278.3188837300551,520717,1406,8020.221771478653,-36.29526901245117,26.638547897338867,36.51067352294922,0.53
519,MetaDrive-testbn5,64,280.5133241674837,521718,1407,8043.420857667923,,11.376617431640625,40.39823913574219,0.53
520,MetaDrive-testbn5,64,279.73120176111,522606,1408,8053.183518648148,,13.020515441894531,44.10047912597656,0.53
521,MetaDrive-testbn5,64,279.838800565248,523345,1409,8063.7467176914215,-41.688499450683594,7.191279411315918,41.66225051879883,0.53
522,MetaDrive-testbn5,64,279.05474660894447,524354,1412,8077.32707118988,,12.569061279296875,43.604454040527344,0.53
523,MetaDrive-testbn5,64,279.95216297030413,525316,1415,8089.290970087051,,11.40454387664795,43.11806106567383,0.53
524,MetaDrive-testbn5,64,282.3773787456527,526125,1416,8099.661118268967,-35.43899154663086,6.179069519042969,34.939247131347656,0.54
525,MetaDrive-testbn5,64,284.6490495279567,527126,1417,8116.4467351436615,,6.335788726806641,43.353912353515625,0.54
526,MetaDrive-testbn5,64,284.47154316611073,528191,1419,8128.741743326187,-37.73115539550781,16.624956130981445,37.20189666748047,0.55
527,MetaDrive-testbn5,65,287.8746860775437,529604,1421,8146.896942615509,,12.741157531738281,42.32685852050781,0.56
528,MetaDrive-testbn5,65,286.5766749515857,530096,1422,8152.124128580093,,13.778202056884766,42.484134674072266,0.56
529,MetaDrive-testbn5,65,289.1558837139931,531168,1424,8165.42146229744,,6.680525779724121,41.00640869140625,0.58
530,MetaDrive-testbn5,65,287.6047290257175,532078,1426,8178.149069070816,,92.68116760253906,44.24672317504883,0.57
531,MetaDrive-testbn5,65,288.58765740438247,533631,1429,8199.653011322021,-38.11531066894531,4.153059959411621,38.52756881713867,0.57
532,MetaDrive-testbn5,65,288.63066868728384,534197,1430,8206.028395652771,-40.188194274902344,6.709227085113525,39.68400573730469,0.58
533,MetaDrive-testbn5,65,287.82984752949994,535198,1431,8222.826484441757,,75.00312042236328,36.56812286376953,0.57
534,MetaDrive-testbn5,65,285.72869578758474,536089,1433,8232.74484872818,-40.175262451171875,8.746962547302246,39.94281768798828,0.58
535,MetaDrive-testbn5,65,282.51057574705715,537088,1435,8245.217066526413,,9.296307563781738,42.89635467529297,0.57
536,MetaDrive-testbn5,65,282.5181911859181,538230,1437,8262.810225963593,,4.7943434715271,39.60480499267578,0.59
537,MetaDrive-testbn5,65,283.13072607278735,539597,1439,8282.065972805023,-39.118709564208984,9.661699295043945,38.92054748535156,0.6
538,MetaDrive-testbn5,65,283.28078587748377,540202,1440,8291.6624147892,,2.8239896297454834,40.424556732177734,0.6
539,MetaDrive-testbn5,65,284.5473905331268,541637,1443,8317.111926555634,-40.64795684814453,2.3662822246551514,40.222862243652344,0.59
540,MetaDrive-testbn5,65,283.83284346962716,542099,1444,8322.242318630219,-37.88701629638672,101.0639877319336,36.72174072265625,0.59
541,MetaDrive-testbn5,65,287.92782105799955,543816,1446,8349.218717098236,,5.508352279663086,40.66433334350586,0.6
542,MetaDrive-testbn5,65,286.507026867608,544170,1447,8353.027157783508,,6.9299821853637695,39.08892822265625,0.6
543,MetaDrive-testbn5,65,287.87916266307553,545418,1449,8370.239521026611,,6.343184947967529,39.23564910888672,0.61
544,MetaDrive-testbn5,65,289.7869803305939,546555,1451,8386.239327430725,-39.99967956542969,8.282580375671387,39.464115142822266,0.62
545,MetaDrive-testbn5,65,292.74632222938993,547200,1452,8395.238287448883,,4.713510990142822,43.221824645996094,0.63
546,MetaDrive-testbn5,65,296.0002511338864,548377,1454,8410.402064323425,-37.744056701660156,3.3791439533233643,37.282135009765625,0.64
547,MetaDrive-testbn5,65,294.48815191828294,549378,1455,8428.536063432693,,6.83807373046875,42.393775939941406,0.63
548,MetaDrive-testbn5,65,295.0901108127835,550379,1456,8446.38423037529,-41.68727493286133,7.862593173980713,40.4612922668457,0.62
549,MetaDrive-testbn5,65,295.58234204814704,551080,1457,8457.884681224823,,10.495107650756836,40.19938278198242,0.62
550,MetaDrive-testbn5,65,297.2209603315412,552776,1459,8484.322394609451,,6.107626914978027,39.189430236816406,0.62
551,MetaDrive-testbn5,65,297.77305186936394,553198,1460,8491.422343969345,,11.82280158996582,35.91001892089844,0.62
552,MetaDrive-testbn5,65,295.16968876334295,554199,1461,8506.20406126976,-40.19029998779297,6.089326858520508,41.135826110839844,0.62
553,MetaDrive-testbn5,65,297.8831014974532,555517,1463,8531.006182909012,-39.1868896484375,21.826801300048828,38.92498016357422,0.62
554,MetaDrive-testbn5,65,297.6721416181323,556103,1464,8538.396318674088,-36.714351654052734,26.054380416870117,36.397483825683594,0.62
555,MetaDrive-testbn5,65,300.6101837069913,557287,1466,8556.791224002838,-37.341148376464844,10.637557983398438,37.828575134277344,0.63
556,MetaDrive-testbn5,65,299.21379127817295,558440,1468,8576.25493979454,,34.81427001953125,39.099937438964844,0.62
557,MetaDrive-testbn5,65,300.39013260491487,559441,1469,8592.602243185043,-39.94235610961914,9.025035858154297,39.736968994140625,0.62
558,MetaDrive-testbn5,65,295.11147820647454,560142,1472,8603.103387594223,,9.040650367736816,41.476932525634766,0.61
559,MetaDrive-testbn5,65,295.60968546761893,561143,1473,8621.67349267006,-42.405853271484375,4.34465217590332,43.037689208984375,0.6
560,MetaDrive-testbn5,65,293.5674049236814,562435,1476,8640.935506820679,-39.700523376464844,4.5357160568237305,39.18003845214844,0.57
561,MetaDrive-testbn5,65,291.01304202995857,563578,1478,8657.209671974182,,21.08383560180664,35.4642333984375,0.59
562,MetaDrive-testbn5,65,286.1093625608493,564179,1480,8666.370687246323,-37.269981384277344,6.855180740356445,37.306732177734375,0.57
563,MetaDrive-testbn5,65,283.98169954622733,565180,1481,8682.76848602295,,2.7945075035095215,37.511253356933594,0.57
564,MetaDrive-testbn5,65,279.2997040063828,566400,1484,8700.645020246506,,7.515020847320557,36.73360824584961,0.57
565,MetaDrive-testbn5,65,277.29041512854315,567490,1486,8719.532306909561,,4.220577239990234,37.59931945800781,0.56
566,MetaDrive-testbn5,65,280.23686444886874,568403,1487,8733.967895269394,-40.73039245605469,7.018366813659668,40.31090545654297,0.57
567,MetaDrive-testbn5,65,281.3033844592653,569280,1489,8748.20334815979,,15.550419807434082,39.569366455078125,0.57
568,MetaDrive-testbn5,65,277.9386180312839,570658,1492,8772.522724628448,,4.217833042144775,39.951698303222656,0.55
569,MetaDrive-testbn5,65,271.19979137086096,571429,1495,8786.206321239471,-40.21261215209961,7.676557540893555,38.85856246948242,0.54
570,MetaDrive-testbn5,65,271.7734108412615,572137,1496,8797.958642482758,-35.464988708496094,5.175432205200195,34.967750549316406,0.54
571,MetaDrive-testbn5,65,268.9482999454297,573262,1499,8813.440739393234,,8.056694030761719,36.72700500488281,0.55
572,MetaDrive-testbn5,65,262.05322033714725,574006,1502,8823.611430883408,,11.03707218170166,41.93257141113281,0.54
573,MetaDrive-testbn5,64,262.4821845439081,575714,1505,8858.498347759247,,3.534634590148926,40.29951095581055,0.53
574,MetaDrive-testbn5,64,263.7691150385813,576322,1506,8868.026941299438,,7.486907958984375,40.934547424316406,0.54
575,MetaDrive-testbn5,65,266.0609466394958,577462,1508,8883.17550611496,,5.772151470184326,40.43089294433594,0.55
576,MetaDrive-testbn5,64,267.69634681909054,578363,1509,8898.78374838829,-36.580467224121094,4.940124034881592,36.00225830078125,0.55
577,MetaDrive-testbn5,64,270.63704138252587,579152,1510,8913.541645288467,,3.047654628753662,40.41558074951172,0.56
578,MetaDrive-testbn5,64,274.9898239990286,580056,1511,8927.729817867279,,6.250682353973389,43.3712158203125,0.57
579,MetaDrive-testbn5,64,277.3094673740746,581061,1514,8944.099321365356,-41.375091552734375,176.30963134765625,40.183998107910156,0.58
580,MetaDrive-testbn5,64,277.25259058243296,582398,1516,8967.70563530922,,23.363597869873047,36.47343826293945,0.58
581,MetaDrive-testbn5,64,274.9882684843402,583813,1519,8990.206508636475,-39.673221588134766,4.243687152862549,39.74416732788086,0.57
582,MetaDrive-testbn5,64,272.05268424829234,584536,1521,9000.043144464493,,5.519189357757568,40.375701904296875,0.57
583,MetaDrive-testbn5,64,273.6331256002635,585397,1522,9015.79632616043,-41.95012664794922,4.282690525054932,41.30207824707031,0.57
584,MetaDrive-testbn5,64,272.8369509661002,586192,1524,9027.608638763428,,4.179220199584961,37.45424270629883,0.56
585,MetaDrive-testbn5,64,270.6341328018558,587031,1527,9039.917998313904,-37.00309753417969,5.104250431060791,37.03882598876953,0.55
586,MetaDrive-testbn5,64,274.75477322650323,588467,1529,9061.107200860977,-35.45600891113281,5.953713893890381,35.00048828125,0.56
587,MetaDrive-testbn5,64,275.154334323193,589069,1530,9069.256944417953,-37.9339599609375,62.01263427734375,37.916038513183594,0.56
588,MetaDrive-testbn5,64,269.28672349907106,590152,1534,9084.332798957825,,12.456363677978516,37.5018310546875,0.54
589,MetaDrive-testbn5,64,271.0032955815456,591283,1536,9103.331427812576,-42.662811279296875,17.569753646850586,41.62843704223633,0.54
590,MetaDrive-testbn5,64,272.09007600654945,592023,1537,9122.32983469963,-41.07911682128906,6.325356483459473,41.046817779541016,0.53
591,MetaDrive-testbn5,64,273.56364303950534,593642,1539,9148.226443767548,,16.418643951416016,42.09492111206055,0.53
592,MetaDrive-testbn5,64,273.02729040151405,594406,1541,9159.56815648079,,6.565025329589844,38.63160705566406,0.53
593,MetaDrive-testbn5,64,276.1997856829858,595217,1542,9174.339381217957,-39.62413024902344,8.954946517944336,40.58876037597656,0.54
594,MetaDrive-testbn5,64,276.396008857393,596532,1544,9193.532391786575,,3.631885528564453,39.35950469970703,0.54
595,MetaDrive-testbn5,64,275.7610453536423,597207,1545,9202.97112083435,-36.32261657714844,20.153308868408203,35.72615432739258,0.54
596,MetaDrive-testbn5,64,271.39302371091884,598259,1548,9219.075395345688,-40.00248718261719,10.073272705078125,39.36799621582031,0.52
597,MetaDrive-testbn5,64,272.39522745420237,599402,1550,9236.905960083008,,5.057239532470703,39.274234771728516,0.52
598,MetaDrive-testbn5,64,272.0266451803305,600273,1552,9249.447059631348,-37.34261703491211,4.388238430023193,37.48046875,0.52
599,MetaDrive-testbn5,64,270.215622518447,601335,1555,9262.538994550705,-38.3279914855957,12.114103317260742,38.040809631347656,0.52
600,MetaDrive-testbn5,64,268.4571138668062,602505,1557,9279.041860818863,-42.476478576660156,7.937202453613281,41.4835319519043,0.52
601,MetaDrive-testbn5,64,268.0113507202217,603083,1558,9286.705780029297,-42.91947937011719,4.950682163238525,41.815731048583984,0.52
602,MetaDrive-testbn5,64,267.1100610866569,604084,1559,9313.128770828247,,8.340295791625977,38.95674514770508,0.51
603,MetaDrive-testbn5,64,265.53688594600834,605090,1562,9329.421142339706,,5.290046215057373,37.21445083618164,0.5
604,MetaDrive-testbn5,64,264.68410749776797,606411,1564,9346.512803554535,-45.595741271972656,11.348738670349121,45.66606140136719,0.5
605,MetaDrive-testbn5,64,262.26957898898513,607009,1566,9354.672755002975,-35.11457824707031,11.732040405273438,35.369224548339844,0.49
606,MetaDrive-testbn5,64,265.0019654609673,608498,1568,9383.05630850792,,10.787771224975586,33.924583435058594,0.5
607,MetaDrive-testbn5,64,266.11054901795126,609323,1569,9394.775758981705,-39.1832275390625,7.234491348266602,38.72136306762695,0.51
608,MetaDrive-testbn5,64,269.7958261014348,610459,1571,9412.880932331085,-37.64818572998047,6.188086986541748,37.3546028137207,0.53
609,MetaDrive-testbn5,64,273.0336263975263,611460,1572,9430.72840833664,,17.9217472076416,35.962806701660156,0.53
610,MetaDrive-testbn5,64,273.99686242366175,612247,1573,9442.329551935196,-37.23080825805664,4.367523193359375,37.09592819213867,0.54
611,MetaDrive-testbn5,64,276.02091188898976,613068,1574,9457.865853309631,,7.782040596008301,37.2924919128418,0.55
612,MetaDrive-testbn5,64,277.2917003321301,614475,1576,9484.745609760284,-35.42149353027344,8.184130668640137,35.14359664916992,0.56
613,MetaDrive-testbn5,64,277.357636238558,615375,1578,9497.71540760994,-38.726776123046875,4.8349785804748535,39.00745391845703,0.56
614,MetaDrive-testbn5,64,279.18102319333383,616198,1580,9507.813887119293,,4.383139610290527,36.72663879394531,0.58
615,MetaDrive-testbn5,64,279.65261204524927,617199,1581,9525.49818277359,-37.1517448425293,7.757153511047363,37.15028381347656,0.58
616,MetaDrive-testbn5,64,283.4342158498689,618374,1583,9543.832619905472,,18.288406372070312,35.40113830566406,0.6
617,MetaDrive-testbn5,64,283.2686355316652,619378,1585,9558.246846437454,,18.991113662719727,37.10626220703125,0.6
618,MetaDrive-testbn5,64,280.60895603759656,620434,1587,9574.009023189545,,5.02659797668457,37.27635192871094,0.59
619,MetaDrive-testbn5,64,279.06048804450654,621085,1589,9582.634320497513,-35.653263092041016,3.731841564178467,35.05759811401367,0.59
620,MetaDrive-testbn5,64,281.2128976931126,622820,1592,9613.765286684036,,4.511407852172852,34.92529296875,0.59
621,MetaDrive-testbn5,64,283.9504705201492,623269,1593,9620.416089773178,-39.008148193359375,74.3385238647461,37.96528625488281,0.6
622,MetaDrive-testbn5,64,287.7891783647415,624636,1595,9641.175872564316,,9.350214004516602,39.82686233520508,0.62
623,MetaDrive-testbn5,64,287.38353439539173,625078,1596,9648.519327878952,,6.716494560241699,38.36347961425781,0.62
624,MetaDrive-testbn5,64,288.73816092045234,626079,1597,9667.468628168106,-33.78981018066406,10.044175148010254,33.25707244873047,0.62
625,MetaDrive-testbn5,64,290.10168916685916,627632,1600,9690.218906641006,,6.265771865844727,39.71514129638672,0.62
626,MetaDrive-testbn5,64,292.9229530445738,628323,1601,9700.231553077698,-35.49266815185547,8.610063552856445,35.49458312988281,0.63
627,MetaDrive-testbn5,64,292.8294984053645,629153,1603,9710.76263141632,-39.15635681152344,50.25968933105469,38.76486587524414,0.64
628,MetaDrive-testbn5,64,294.17280665249024,630437,1605,9729.17963719368,-35.00910186767578,38.12461471557617,34.3706169128418,0.66
629,MetaDrive-testbn5,64,293.64118819852564,631438,1606,9748.373309612274,,7.258679389953613,38.82627868652344,0.65
630,MetaDrive-testbn5,64,290.33146304982574,632382,1608,9761.241717338562,,170.27554321289062,37.7928581237793,0.64
631,MetaDrive-testbn5,64,289.45552367278776,633006,1609,9769.971636295319,,13.011448860168457,35.2978630065918,0.64
632,MetaDrive-testbn5,64,282.5169925241443,634169,1613,9787.92472410202,-32.77805709838867,5.040464401245117,32.70188522338867,0.62
633,MetaDrive-testbn5,64,283.06427370698106,635169,1614,9801.138154506683,-42.138710021972656,7.075786590576172,41.780479431152344,0.62
634,MetaDrive-testbn5,64,283.41531161511455,636360,1616,9820.745862007141,,8.704750061035156,35.955970764160156,0.61
635,MetaDrive-testbn5,64,286.2090005806978,637677,1618,9852.018859863281,-42.64826965332031,13.697253227233887,42.96173858642578,0.61
636,MetaDrive-testbn5,64,284.3141093908493,638094,1619,9856.397125959396,,5.217604160308838,36.99299621582031,0.61
637,MetaDrive-testbn5,64,286.98390782525445,639236,1621,9876.882287740707,,67.1107177734375,33.45094680786133,0.61
638,MetaDrive-testbn5,64,287.2702157153723,640213,1622,9893.68800520897,-34.28911590576172,5.771119117736816,34.534568786621094,0.61
639,MetaDrive-testbn5,64,287.421404886165,641224,1624,9907.03957414627,,5.626500129699707,34.90365982055664,0.61
640,MetaDrive-testbn5,64,287.98042482790714,642004,1626,9917.572271347046,,4.23861026763916,36.535369873046875,0.62
641,MetaDrive-testbn5,64,286.45344202196304,643314,1629,9933.460567951202,,7.654472351074219,38.43318176269531,0.62
642,MetaDrive-testbn5,64,284.54734818671056,644315,1630,9951.765762090683,-38.566314697265625,4.944787979125977,38.358707427978516,0.61
643,MetaDrive-testbn5,64,289.5516911851163,645803,1633,9976.96166563034,-36.445594787597656,6.62376594543457,36.34266662597656,0.61
644,MetaDrive-testbn5,64,291.14291053856266,646248,1634,9983.314616441727,,11.764286041259766,33.717533111572266,0.62
645,MetaDrive-testbn5,64,293.3294861998288,647217,1635,9999.783492565155,-36.10361862182617,4.961838722229004,36.13451385498047,0.62
646,MetaDrive-testbn5,64,293.7108647650978,648367,1637,10017.212274312973,-39.26862335205078,5.2169904708862305,38.80659866333008,0.63
647,MetaDrive-testbn5,64,293.6736431506894,649725,1639,10042.671731710434,-36.947967529296875,14.17431640625,36.769527435302734,0.62
648,MetaDrive-testbn5,64,295.9107635748172,650479,1640,10055.393642663956,-40.380672454833984,2.922804832458496,40.22776412963867,0.63
649,MetaDrive-testbn5,64,294.80993189290996,651763,1642,10074.342435598373,-35.67652893066406,3.053342819213867,35.55207443237305,0.62
650,MetaDrive-testbn5,64,293.9199275124055,652262,1643,10080.37933063507,,20.35730743408203,37.12675094604492,0.62
651,MetaDrive-testbn5,64,293.5992429406986,653263,1644,10099.23361992836,-34.41813659667969,6.173781394958496,34.31114959716797,0.61
652,MetaDrive-testbn5,64,291.066277065643,654264,1645,10113.971502780914,,5.289274215698242,38.11025619506836,0.6
653,MetaDrive-testbn5,64,293.8311843840541,655388,1647,10132.936646938324,,9.175378799438477,39.10625457763672,0.6
654,MetaDrive-testbn5,64,295.3936192568496,656173,1648,10148.289086341858,-39.654876708984375,5.132604598999023,39.61355972290039,0.6
655,MetaDrive-testbn5,64,295.250621383854,657682,1650,10178.749480724335,,22.679672241210938,40.41913604736328,0.6
656,MetaDrive-testbn5,64,295.67369003822836,658429,1651,10190.696426868439,-37.600189208984375,3.7180027961730957,37.62016296386719,0.6
657,MetaDrive-testbn5,64,297.0920524664511,659941,1653,10220.077326774597,-45.85807800292969,6.454113483428955,45.73684310913086,0.59
658,MetaDrive-testbn5,64,297.6118024082285,660787,1654,10234.021851539612,-39.779266357421875,7.304862022399902,39.397605895996094,0.59
659,MetaDrive-testbn5,64,297.29782342973454,661194,1655,10241.304364919662,,3.8308053016662598,39.462181091308594,0.58
660,MetaDrive-testbn5,64,295.54452191532766,662977,1657,10267.873451948166,-36.565818786621094,5.162121772766113,36.196128845214844,0.58
661,MetaDrive-testbn5,64,296.5524106707907,663946,1658,10288.239942073822,,8.138917922973633,40.259334564208984,0.58
662,MetaDrive-testbn5,64,296.4269421203016,664549,1659,10297.51520061493,-32.95057678222656,4.262568473815918,32.52281188964844,0.59
663,MetaDrive-testbn5,64,298.8748499143773,665946,1661,10318.635644674301,,14.36025619506836,37.89045715332031,0.6
664,MetaDrive-testbn5,64,300.25505851938374,666944,1662,10335.111944675446,,4.939155101776123,40.673667907714844,0.6
665,MetaDrive-testbn5,64,300.5579084187373,667588,1663,10346.405327558517,,8.927488327026367,34.58069610595703,0.6
666,MetaDrive-testbn5,64,300.14756292675696,668040,1664,10353.222561120987,,3.9029932022094727,28.830718994140625,0.6
667,MetaDrive-testbn5,64,302.36131975328516,669273,1666,10372.040040016174,-36.45521545410156,4.885493755340576,36.04729461669922,0.61
668,MetaDrive-testbn5,64,299.87724967238705,670528,1668,10394.573913574219,,6.278269290924072,35.71392059326172,0.6
669,MetaDrive-testbn5,64,299.53734650080804,671303,1669,10407.716336965561,-39.17936706542969,7.747506141662598,38.82462692260742,0.59
670,MetaDrive-testbn5,64,300.1492123928774,672978,1671,10434.387116909027,,102.21368408203125,38.560665130615234,0.58
671,MetaDrive-testbn5,64,299.1343268900835,673578,1672,10441.58144235611,,6.096444129943848,38.292320251464844,0.59
672,MetaDrive-testbn5,64,293.631095305501,674333,1674,10452.183154344559,-37.873077392578125,3.0736494064331055,38.3923454284668,0.58
673,MetaDrive-testbn5,64,292.05261767474656,675305,1676,10463.207671403885,-35.8741455078125,8.288204193115234,35.46010971069336,0.59
674,MetaDrive-testbn5,64,290.8311600264537,676041,1678,10475.796828508377,-40.292449951171875,8.591205596923828,40.78417205810547,0.58
675,MetaDrive-testbn5,64,290.83882894220767,677042,1679,10495.344895839691,,6.739010810852051,37.42332458496094,0.57
676,MetaDrive-testbn5,64,287.73574710966426,678005,1682,10508.479910373688,-40.107200622558594,5.882689952850342,39.43667221069336,0.56
677,MetaDrive-testbn5,64,285.11343965046274,679006,1683,10526.695504426956,,9.462454795837402,36.974815368652344,0.55
678,MetaDrive-testbn5,64,284.7744589415051,680294,1686,10545.99787735939,,4.953824043273926,32.74494934082031,0.55
679,MetaDrive-testbn5,64,284.9940919686215,681295,1687,10571.697493553162,-37.07498550415039,3.735708236694336,36.52801513671875,0.54
680,MetaDrive-testbn5,64,287.34162424168113,682148,1688,10589.703120231628,,8.750204086303711,30.552799224853516,0.54
681,MetaDrive-testbn5,64,285.907256942665,683222,1690,10606.220307826996,,13.23255443572998,42.0020751953125,0.53
682,MetaDrive-testbn5,64,287.3986370154082,684226,1692,10617.350670576096,,24.735740661621094,36.14891815185547,0.55
683,MetaDrive-testbn5,64,284.9545077320701,685907,1694,10641.536425590515,-37.92216491699219,3.1823177337646484,37.41458511352539,0.54
684,MetaDrive-testbn5,64,284.0907306186707,686239,1695,10645.05845618248,-34.86292266845703,4.306347846984863,34.517303466796875,0.54
685,MetaDrive-testbn5,64,284.8866528067009,687585,1698,10664.41862821579,-36.58441925048828,3.5505263805389404,36.879905700683594,0.55
686,MetaDrive-testbn5,64,281.46307638437634,688429,1700,10676.003680944443,-37.85940933227539,7.669733047485352,37.900665283203125,0.54
687,MetaDrive-testbn5,64,280.0091372224191,689434,1702,10691.625264644623,,4.2710652351379395,39.74701690673828,0.53
688,MetaDrive-testbn5,64,276.98763855492916,690762,1705,10713.888333559036,,6.893749713897705,37.033180236816406,0.51
689,MetaDrive-testbn5,64,275.071473518837,691130,1706,10718.671157360077,,8.64669418334961,33.05767822265625,0.51
690,MetaDrive-testbn5,64,277.75442177611626,692606,1708,10747.04206943512,,29.84247398376465,32.50757598876953,0.51
691,MetaDrive-testbn5,64,277.2772414039587,693501,1710,10759.655970335007,-35.153175354003906,5.038506031036377,35.48320770263672,0.51
692,MetaDrive-testbn5,64,277.36966724908933,694343,1711,10770.832384586334,-39.4378547668457,6.685599327087402,39.63941192626953,0.51
693,MetaDrive-testbn5,64,280.1857482335156,695042,1712,10782.582871437073,,5.128143787384033,36.782108306884766,0.52
694,MetaDrive-testbn5,64,279.8684532493019,696231,1715,10802.78512263298,-37.5638313293457,5.295769691467285,37.09524154663086,0.52
695,MetaDrive-testbn5,64,280.1559899375941,697024,1716,10817.10810637474,,7.02738094329834,32.598426818847656,0.52
696,MetaDrive-testbn5,64,281.95013326064435,698554,1719,10836.028990745544,,9.815174102783203,33.37312698364258,0.54
697,MetaDrive-testbn5,64,281.0709843596226,699139,1720,10844.596115112305,-31.015962600708008,6.194744110107422,30.51876449584961,0.54
698,MetaDrive-testbn5,64,280.35339177443075,700342,1722,10863.878086090088,,4.189509391784668,37.163143157958984,0.54
699,MetaDrive-testbn5,64,281.65286003132167,701173,1723,10874.79898262024,-41.04163360595703,2.9499001502990723,40.85346984863281,0.54
700,MetaDrive-testbn5,64,280.651842774911,702201,1725,10889.744273424149,-35.36975860595703,57.195655822753906,34.77939224243164,0.53
701,MetaDrive-testbn5,64,282.1899461587895,703202,1726,10903.841869354248,,3.608478307723999,34.746089935302734,0.53
702,MetaDrive-testbn5,64,282.02758253830467,704720,1729,10928.498017549515,,3.72403621673584,40.19042205810547,0.52
703,MetaDrive-testbn5,64,282.1334320729499,705445,1731,10937.57040810585,-31.354413986206055,3.1774120330810547,31.595380783081055,0.52
704,MetaDrive-testbn5,64,279.76225428468274,706886,1733,10961.167250394821,,9.503554344177246,35.39144515991211,0.51
705,MetaDrive-testbn5,64,279.93593917351814,707543,1734,10971.025624513626,-30.811336517333984,6.473015785217285,30.587146759033203,0.51
706,MetaDrive-testbn5,64,277.458762403603,708154,1735,10979.183742284775,,10.771919250488281,36.56233215332031,0.51
707,MetaDrive-testbn5,64,274.6161361393167,709443,1738,10998.121930837631,-35.200645446777344,10.108853340148926,35.41511917114258,0.5
708,MetaDrive-testbn5,64,273.34457450633965,710289,1739,11011.336923360825,-34.18655776977539,4.733060836791992,33.17177963256836,0.51
709,MetaDrive-testbn5,64,271.6718736964263,711137,1741,11024.398369073868,-34.95542907714844,5.334889888763428,35.00663757324219,0.51
710,MetaDrive-testbn5,64,271.2813051132123,712769,1744,11050.303440570831,-36.51899337768555,7.59428596496582,35.914100646972656,0.51
711,MetaDrive-testbn5,64,273.78917040417844,713770,1745,11065.937851190567,,17.774995803833008,32.112274169921875,0.51
712,MetaDrive-testbn5,64,274.00483520856733,714145,1746,11069.80263710022,-34.20838928222656,4.033535957336426,34.07406997680664,0.52
713,MetaDrive-testbn5,64,271.85003191763343,715645,1749,11093.627509117126,-31.864349365234375,8.324763298034668,31.546749114990234,0.52
714,MetaDrive-testbn5,64,271.06906312790886,716448,1750,11106.695312738419,,5.333481788635254,34.816158294677734,0.52
715,MetaDrive-testbn5,64,268.823913340066,717210,1752,11117.491844892502,,7.186101913452148,33.986595153808594,0.51
716,MetaDrive-testbn5,64,268.10217426132596,718794,1754,11146.701418161392,,4.643826007843018,34.84098815917969,0.51
717,MetaDrive-testbn5,64,269.5817254571727,719552,1755,11159.162219047546,,4.50355339050293,35.994384765625,0.51
718,MetaDrive-testbn5,64,269.10265622459633,720028,1756,11164.884909391403,,8.334108352661133,37.44463348388672,0.51
719,MetaDrive-testbn5,64,267.9254266248985,721898,1759,11196.234368085861,,12.62865161895752,38.237152099609375,0.51
720,MetaDrive-testbn5,64,265.5437046225559,722421,1761,11203.433127641678,-37.53736877441406,7.535124778747559,37.0653076171875,0.5
721,MetaDrive-testbn5,64,262.53021860763323,723521,1763,11220.310893774033,-36.4321403503418,13.344514846801758,35.701087951660156,0.49
722,MetaDrive-testbn5,64,263.8535698193811,724394,1764,11232.854123592377,,10.057741165161133,36.7458381652832,0.49
723,MetaDrive-testbn5,64,264.33253606071145,725351,1766,11244.408945083618,-35.92546844482422,7.483694076538086,35.43006896972656,0.49
724,MetaDrive-testbn5,64,265.2077179624109,726249,1768,11258.39853811264,-38.119354248046875,5.904748439788818,37.901485443115234,0.49
725,MetaDrive-testbn5,64,264.4975218586674,727250,1769,11274.268761873245,,6.876067161560059,37.66974639892578,0.49
726,MetaDrive-testbn5,64,257.33172198762253,728076,1773,11285.61730003357,,4.523988246917725,35.49609375,0.47
727,MetaDrive-testbn5,64,256.8472459330891,729087,1775,11300.735100507736,-40.15045928955078,40.145751953125,39.468353271484375,0.46
728,MetaDrive-testbn5,64,255.6885660310268,730116,1778,11315.802754163742,,5.0052947998046875,34.963523864746094,0.45
729,MetaDrive-testbn5,64,257.673207732222,731330,1780,11337.614668369293,,85.03179168701172,33.57635498046875,0.45
730,MetaDrive-testbn5,64,258.16626562620183,732137,1782,11350.78031206131,-30.715557098388672,35.19236755371094,29.89031410217285,0.45
731,MetaDrive-testbn5,64,259.0088136006164,733449,1784,11369.44606590271,-38.181663513183594,5.925032615661621,38.457786560058594,0.45
732,MetaDrive-testbn5,64,262.2829236363263,734136,1785,11378.992762804031,,3.7738850116729736,35.73843002319336,0.46
733,MetaDrive-testbn5,64,265.4121104218945,735850,1787,11403.73933172226,,6.615931987762451,37.06647872924805,0.48
734,MetaDrive-testbn5,64,264.89975984197423,736422,1788,11413.565380573273,,11.291890144348145,38.13587188720703,0.48
735,MetaDrive-testbn5,64,267.4231720430527,737423,1789,11435.699371814728,-32.20839309692383,5.849045276641846,31.39950180053711,0.48
736,MetaDrive-testbn5,64,265.63465864006923,738558,1791,11456.059765577316,,2.775219678878784,39.70387649536133,0.46
737,MetaDrive-testbn5,64,263.2295889898597,739268,1793,11465.956531763077,,7.060511112213135,30.416099548339844,0.44
738,MetaDrive-testbn5,64,267.10168055154367,740510,1795,11482.54786324501,,11.231842041015625,34.0218391418457,0.45
739,MetaDrive-testbn5,64,266.8856764231134,741289,1797,11492.348853588104,-33.15856170654297,15.815540313720703,33.13825988769531,0.45
740,MetaDrive-testbn5,64,268.37072591389057,742456,1799,11505.31562924385,,6.2048444747924805,35.812007904052734,0.45
741,MetaDrive-testbn5,64,269.8411563765642,743039,1800,11512.776486635208,-38.09801483154297,9.032816886901855,38.41315841674805,0.46
742,MetaDrive-testbn5,64,272.8648397373448,744723,1802,11540.36201953888,-37.31787872314453,3.548859119415283,36.811737060546875,0.47
743,MetaDrive-testbn5,64,272.9649936238486,745039,1803,11546.663177251816,-35.30018615722656,9.86311149597168,35.024009704589844,0.47
744,MetaDrive-testbn5,64,274.29072573119856,746179,1805,11563.789048910141,-33.83979034423828,3.740797996520996,33.611793518066406,0.48
745,MetaDrive-testbn5,64,276.2832343676904,747029,1806,11575.947224378586,-35.82421112060547,3.6672186851501465,35.435707092285156,0.49
746,MetaDrive-testbn5,64,274.42694035374234,748031,1808,11590.590413093567,-36.508140563964844,4.264103889465332,36.29222106933594,0.5
747,MetaDrive-testbn5,64,278.49757540847486,749597,1810,11616.260659694672,-36.13768768310547,7.828423500061035,36.0850830078125,0.5
748,MetaDrive-testbn5,64,278.05832185934645,750447,1811,11629.91358923912,-39.678672790527344,2.9679040908813477,39.244384765625,0.5
749,MetaDrive-testbn5,64,276.2951813059523,751142,1813,11639.762959718704,,4.2126030921936035,33.69172286987305,0.5
750,MetaDrive-testbn5,64,273.53542579464886,752449,1816,11658.803579092026,-32.544681549072266,13.827272415161133,32.43852233886719,0.49
751,MetaDrive-testbn5,64,272.4947928454204,753117,1817,11670.735556840897,-32.17179870605469,9.849849700927734,31.37856674194336,0.48
752,MetaDrive-testbn5,64,273.04429404894245,754587,1819,11695.96745967865,-36.561336517333984,3.8539304733276367,36.88975143432617,0.47
753,MetaDrive-testbn5,64,273.16877657067124,755152,1820,11701.945581197739,,5.078104019165039,36.675987243652344,0.47
754,MetaDrive-testbn5,64,267.33538659814855,756154,1823,11714.42982339859,,5.544943809509277,36.62895202636719,0.46
755,MetaDrive-testbn5,64,270.9614495648149,757155,1824,11736.361245393753,-41.52817153930664,5.220844268798828,41.04232406616211,0.46
756,MetaDrive-testbn5,64,266.7965350135713,758367,1828,11752.908587217331,-37.535335540771484,4.256232261657715,37.377479553222656,0.46
757,MetaDrive-testbn5,64,267.2338661465397,759536,1830,11774.273193359375,,3.182042360305786,37.41729736328125,0.46
758,MetaDrive-testbn5,64,267.75891926638496,760006,1831,11779.841470003128,,3.4170033931732178,36.164024353027344,0.47
759,MetaDrive-testbn5,64,263.8830933301523,761159,1835,11795.210299015045,-36.92449188232422,4.734667778015137,37.417823791503906,0.46
760,MetaDrive-testbn5,64,264.31140438213396,762413,1838,11812.861418247223,-39.067054748535156,4.094490051269531,38.80054473876953,0.47
761,MetaDrive-testbn5,64,264.90975325986636,763325,1839,11826.353060483932,-36.23487091064453,4.882020950317383,36.23188400268555,0.47
762,MetaDrive-testbn5,64,266.22781242130435,764061,1840,11836.24656009674,-36.61880111694336,16.946395874023438,36.846153259277344,0.47
763,MetaDrive-testbn5,64,267.6014931173833,765062,1841,11852.806657791138,,7.470798969268799,37.74488830566406,0.47
764,MetaDrive-testbn5,64,266.1976079479724,766355,1844,11871.13696551323,-39.37711715698242,8.104071617126465,38.451812744140625,0.46
765,MetaDrive-testbn5,64,265.94231473836805,767487,1846,11886.117705583572,-36.488563537597656,7.953644275665283,37.316192626953125,0.46
766,MetaDrive-testbn5,64,267.1982860976177,768671,1848,11904.610085487366,-39.34641647338867,47.25647735595703,38.48023223876953,0.46
767,MetaDrive-testbn5,64,265.89448968722087,769204,1849,11910.632190227509,,3.348681926727295,36.464271545410156,0.45
768,MetaDrive-testbn5,64,265.37749539666646,770299,1852,11924.673913002014,-34.88060760498047,13.586735725402832,34.09416198730469,0.46
769,MetaDrive-testbn5,64,263.6897814486693,771085,1854,11935.450436592102,-34.547218322753906,3.4792540073394775,34.74126434326172,0.46
770,MetaDrive-testbn5,64,261.46413347253167,772208,1856,11952.326661348343,,9.258779525756836,36.513221740722656,0.45
771,MetaDrive-testbn5,64,259.9601963327974,773477,1859,11969.903100013733,-37.11935043334961,2.6448893547058105,37.18242645263672,0.45
772,MetaDrive-testbn5,64,263.29607358174565,774570,1861,11983.186401844025,,20.488323211669922,36.029441833496094,0.47
773,MetaDrive-testbn5,64,260.14247341371424,775698,1863,12001.89961695671,,5.902554035186768,36.10181427001953,0.46
774,MetaDrive-testbn5,64,258.93991369816393,776191,1864,12007.255669116974,-39.34711837768555,7.068626880645752,39.18101501464844,0.46
775,MetaDrive-testbn5,64,259.52381144019057,777188,1865,12021.299547195435,,6.924361228942871,40.53617858886719,0.46
776,MetaDrive-testbn5,64,261.2448626226668,778258,1867,12036.029992103577,,3.355229616165161,38.620506286621094,0.47
777,MetaDrive-testbn5,64,262.1958910587423,779336,1869,12050.862222194672,,116.937255859375,36.25902557373047,0.48
778,MetaDrive-testbn5,64,265.05858745872456,780015,1870,12058.936074256897,-38.877201080322266,8.95721435546875,39.172088623046875,0.49
779,MetaDrive-testbn5,64,267.6785589686209,781338,1873,12077.347577095032,,5.0384440422058105,35.20569610595703,0.5
780,MetaDrive-testbn5,64,265.0211697368534,782059,1875,12087.627282857895,-36.967185974121094,6.305367469787598,36.74437713623047,0.49
781,MetaDrive-testbn5,64,262.9211148296223,783161,1878,12104.896384000778,-35.18435287475586,5.504617214202881,35.64845275878906,0.48
782,MetaDrive-testbn5,64,261.7770058100821,784078,1880,12117.02942943573,,6.985727787017822,35.843082427978516,0.49
783,MetaDrive-testbn5,64,264.31139261879645,785005,1881,12137.349199533463,-37.03690719604492,8.97341251373291,36.75387191772461,0.49
784,MetaDrive-testbn5,64,266.8593178432569,786754,1883,12172.74767947197,,7.827241897583008,30.877573013305664,0.49
785,MetaDrive-testbn5,64,269.61177813594446,787712,1884,12190.731131792068,,5.153425693511963,37.32307815551758,0.5
786,MetaDrive-testbn5,64,269.01218603220855,788459,1885,12201.351149082184,-38.69724655151367,3.0122599601745605,38.05617904663086,0.5
787,MetaDrive-testbn5,64,268.5727005562528,789047,1886,12209.163373231888,-37.18629455566406,7.936307430267334,37.09984588623047,0.5
788,MetaDrive-testbn5,64,269.84498901877515,790424,1888,12229.852256059647,,6.165430545806885,38.557342529296875,0.51
789,MetaDrive-testbn5,64,270.0574503007127,791393,1890,12243.549408435822,-34.727630615234375,7.62725305557251,34.46025848388672,0.53
790,MetaDrive-testbn5,64,270.2481651877952,792500,1892,12260.118393659592,,6.022727012634277,34.835472106933594,0.54
791,MetaDrive-testbn5,64,271.839556690256,793080,1893,12268.404748678207,,5.768625736236572,38.55705261230469,0.55
792,MetaDrive-testbn5,64,270.0228051237651,794584,1895,12287.946068048477,,5.740106105804443,31.671247482299805,0.55
793,MetaDrive-testbn5,64,272.17690024198646,795569,1897,12302.683940172195,-35.565895080566406,5.120630741119385,35.484458923339844,0.55
794,MetaDrive-testbn5,64,270.8659412949988,796035,1898,12310.19640827179,-37.68865966796875,5.775153636932373,37.422080993652344,0.54
795,MetaDrive-testbn5,64,271.8785458077894,797308,1900,12330.361999034882,,12.07310676574707,33.781639099121094,0.54
796,MetaDrive-testbn5,64,269.1059833897075,798404,1902,12344.16819858551,,3.7620530128479004,33.98042678833008,0.54
797,MetaDrive-testbn5,64,272.13868434750935,799149,1903,12357.598027944565,-34.487152099609375,5.4261274337768555,33.35969924926758,0.55
798,MetaDrive-testbn5,64,270.97524853776343,800067,1905,12369.029233932495,-35.356781005859375,8.761763572692871,35.43470764160156,0.54
799,MetaDrive-testbn5,64,268.6177476397729,801384,1908,12389.915795326233,,7.402685165405273,34.318138122558594,0.52
