TanmayH/CS269-RL-project-code/MetaDrive-Gen-LaneNum-v0/td3/progress.csv
,log_dir,frame_per_second,episode_reward,total_steps,total_episodes,total_time,target_q,actor_loss,critic_loss,success_rate
0,MetaDrive-Gen-LaneNum-v0,437,11.314503007209133,2001,2,4.576333045959473,,,,0.0
1,MetaDrive-Gen-LaneNum-v0,518,11.107641166642699,3002,3,5.78668999671936,,,,0.0
2,MetaDrive-Gen-LaneNum-v0,529,10.582599781539283,4003,4,7.55326509475708,,,,0.0
3,MetaDrive-Gen-LaneNum-v0,521,11.254465299518566,5004,5,9.601151943206787,,,,0.0
4,MetaDrive-Gen-LaneNum-v0,554,11.281499957848476,6005,6,10.822168111801147,,,,0.0
5,MetaDrive-Gen-LaneNum-v0,592,11.614808037847562,7006,7,11.819836139678955,,,,0.0
6,MetaDrive-Gen-LaneNum-v0,622,11.319257083730136,8007,8,12.858938217163086,,,,0.0
7,MetaDrive-Gen-LaneNum-v0,619,11.316632192541862,9008,9,14.537317276000977,,,,0.0
8,MetaDrive-Gen-LaneNum-v0,612,11.292662816546835,10009,10,16.3540620803833,0.009632425382733345,-0.016006415709853172,0.0025744882877916098,0.0
9,MetaDrive-Gen-LaneNum-v0,214,0.7371706943536311,11009,50,51.287761211395264,0.05570995435118675,-0.03767818212509155,0.009023870341479778,0.0
10,MetaDrive-Gen-LaneNum-v0,137,-0.3241651503132803,12222,68,89.10737800598145,0.0391978994011879,,0.19798368215560913,0.0
11,MetaDrive-Gen-LaneNum-v0,113,-0.7792658522069411,13033,85,114.98767805099487,-0.0034653106704354286,-0.012591899372637272,0.46755677461624146,0.0
12,MetaDrive-Gen-LaneNum-v0,95,-2.274470464560997,14018,112,147.3530011177063,0.045085374265909195,,0.16148701310157776,0.0
13,MetaDrive-Gen-LaneNum-v0,83,-2.3074844522127735,15049,137,180.1072199344635,0.041366711258888245,-0.09356324374675751,0.10294283181428909,0.0
14,MetaDrive-Gen-LaneNum-v0,75,-1.8259848138519308,16083,154,214.0244631767273,0.04074019938707352,-0.0914875939488411,0.14562839269638062,0.0
15,MetaDrive-Gen-LaneNum-v0,69,-1.2217611300271174,17016,168,243.16006016731262,-0.0005496982485055923,,0.12760968506336212,0.0
16,MetaDrive-Gen-LaneNum-v0,65,-0.17170061414010504,18025,178,274.9586989879608,0.03852355480194092,-0.05280865728855133,0.09402256458997726,0.0
17,MetaDrive-Gen-LaneNum-v0,61,0.4917718353880652,19262,184,314.24247121810913,0.1256413757801056,,0.04794785752892494,0.0
18,MetaDrive-Gen-LaneNum-v0,58,1.2398746209938019,20137,189,341.3510799407959,0.09098292142152786,-0.15807335078716278,0.04050442948937416,0.0
19,MetaDrive-Gen-LaneNum-v0,56,2.228245297702016,21037,191,371.3793270587921,0.06367858499288559,-0.08573416620492935,0.144187793135643,0.0
20,MetaDrive-Gen-LaneNum-v0,53,4.906924736317182,22733,197,424.39600110054016,0.4445614218711853,-0.4412364363670349,0.044749610126018524,0.0
21,MetaDrive-Gen-LaneNum-v0,52,6.554609619115119,23365,198,443.9146981239319,0.45978599786758423,-0.5527989268302917,0.06733303517103195,0.0
22,MetaDrive-Gen-LaneNum-v0,51,8.231931992809159,24036,206,466.1332221031189,0.5856510400772095,,0.33624494075775146,0.0
23,MetaDrive-Gen-LaneNum-v0,49,12.131895889247062,25275,213,506.1662781238556,0.8432604074478149,-1.0031077861785889,0.6394771933555603,0.0
24,MetaDrive-Gen-LaneNum-v0,48,16.418536572246197,26465,220,545.1314492225647,1.216119408607483,-1.3760640621185303,0.5918126702308655,0.01
25,MetaDrive-Gen-LaneNum-v0,47,19.96066169627832,27250,226,571.6600749492645,1.4675521850585938,,0.8135932683944702,0.01
26,MetaDrive-Gen-LaneNum-v0,46,24.91887317222794,28381,232,607.4266052246094,1.9718728065490723,-2.103442907333374,0.4083763360977173,0.02
27,MetaDrive-Gen-LaneNum-v0,46,27.846884700579523,29050,234,628.6094620227814,2.289677858352661,,0.4289616346359253,0.02
28,MetaDrive-Gen-LaneNum-v0,45,32.762442069551746,30102,242,663.3080592155457,2.736213207244873,,0.12363450229167938,0.02
29,MetaDrive-Gen-LaneNum-v0,44,38.50205879683845,31215,244,699.4182798862457,3.294581890106201,-3.4509334564208984,0.3054426312446594,0.03
30,MetaDrive-Gen-LaneNum-v0,44,43.04854592257146,32055,248,725.8421239852905,3.8346657752990723,-4.148216724395752,0.8181866407394409,0.04
31,MetaDrive-Gen-LaneNum-v0,43,50.01509794756394,33324,254,767.7445151805878,4.683566570281982,,1.1843504905700684,0.05
32,MetaDrive-Gen-LaneNum-v0,43,53.56588674812123,34110,261,793.101841211319,5.333683967590332,,0.24644459784030914,0.05
33,MetaDrive-Gen-LaneNum-v0,42,58.703634481411754,35126,264,825.0938591957092,5.95797061920166,,3.6839284896850586,0.06
34,MetaDrive-Gen-LaneNum-v0,42,62.451740441581606,36070,265,855.1001479625702,6.64971923828125,,0.49547481536865234,0.07
35,MetaDrive-Gen-LaneNum-v0,41,68.42628138404397,37116,268,888.0713212490082,7.377188205718994,,0.36061108112335205,0.08
36,MetaDrive-Gen-LaneNum-v0,41,74.14658580366006,38119,273,920.8771221637726,8.23066520690918,-8.284564971923828,1.7042582035064697,0.08
37,MetaDrive-Gen-LaneNum-v0,41,79.53074564252651,39015,275,951.31796002388,8.495841026306152,-8.810467720031738,1.5740816593170166,0.08
38,MetaDrive-Gen-LaneNum-v0,40,84.47380857655406,40072,280,985.1834120750427,9.411248207092285,,5.395951271057129,0.08
39,MetaDrive-Gen-LaneNum-v0,40,90.60905311958419,41333,285,1025.1763141155243,10.025075912475586,-10.472735404968262,1.3356032371520996,0.1
40,MetaDrive-Gen-LaneNum-v0,40,95.47761396403466,42029,288,1049.446016073227,10.579408645629883,-11.047354698181152,1.328986406326294,0.11
41,MetaDrive-Gen-LaneNum-v0,39,101.52917262782479,43125,294,1087.2195880413055,11.160292625427246,-11.476540565490723,0.6983415484428406,0.11
42,MetaDrive-Gen-LaneNum-v0,39,106.65526327841513,44123,297,1121.0460140705109,12.532346725463867,-12.98566722869873,0.7423123121261597,0.12
43,MetaDrive-Gen-LaneNum-v0,39,108.85312635579729,45147,302,1153.689189195633,12.394461631774902,-12.86182689666748,1.043299674987793,0.12
44,MetaDrive-Gen-LaneNum-v0,38,115.8343714423982,46186,307,1188.8062541484833,14.005465507507324,,0.8500787615776062,0.12
45,MetaDrive-Gen-LaneNum-v0,38,122.46249260250087,47139,311,1224.7580652236938,14.629190444946289,-14.69095230102539,4.312005043029785,0.12
46,MetaDrive-Gen-LaneNum-v0,38,128.78150608139455,48775,315,1281.2320609092712,15.455355644226074,-15.677688598632812,6.415063858032227,0.12
47,MetaDrive-Gen-LaneNum-v0,37,132.19558479282426,49257,317,1297.2514791488647,15.651320457458496,-16.25531578063965,5.592133522033691,0.13
48,MetaDrive-Gen-LaneNum-v0,37,135.81779040352785,50066,321,1325.3645770549774,16.32757568359375,,1.7758793830871582,0.12
49,MetaDrive-Gen-LaneNum-v0,37,142.83749222224648,51250,326,1366.39346909523,17.07961654663086,,1.1415789127349854,0.14
50,MetaDrive-Gen-LaneNum-v0,37,147.59876998555737,52061,331,1393.3755531311035,17.997333526611328,-18.324264526367188,1.8766919374465942,0.14
51,MetaDrive-Gen-LaneNum-v0,37,148.82190002094143,53105,338,1432.3527159690857,18.70317268371582,-18.9069881439209,3.021505355834961,0.14
52,MetaDrive-Gen-LaneNum-v0,36,148.4373265943524,54060,344,1466.2015261650085,19.32247543334961,,1.9779800176620483,0.14
53,MetaDrive-Gen-LaneNum-v0,36,153.0737005723264,55082,348,1503.0499169826508,19.760486602783203,,7.207448482513428,0.14
54,MetaDrive-Gen-LaneNum-v0,36,153.67647401495205,56016,354,1537.365581035614,21.262401580810547,,9.662237167358398,0.14
55,MetaDrive-Gen-LaneNum-v0,36,159.8052534149533,57144,361,1577.1421949863434,22.186792373657227,,10.7378511428833,0.14
56,MetaDrive-Gen-LaneNum-v0,36,151.6981541583069,58042,368,1607.0884239673615,21.976655960083008,,3.8999361991882324,0.11
57,MetaDrive-Gen-LaneNum-v0,35,147.90548654993574,59095,377,1644.4080641269684,22.506776809692383,-22.918466567993164,6.122382640838623,0.11
58,MetaDrive-Gen-LaneNum-v0,35,144.36879898958617,60273,386,1689.151738166809,22.411096572875977,-23.39041519165039,8.962942123413086,0.08
59,MetaDrive-Gen-LaneNum-v0,35,148.44097074838317,61222,389,1723.7050700187683,25.915742874145508,,2.410958766937256,0.1
60,MetaDrive-Gen-LaneNum-v0,35,148.87387376562222,62193,395,1757.0701551437378,24.707151412963867,-25.507957458496094,2.3971850872039795,0.11
61,MetaDrive-Gen-LaneNum-v0,35,148.26979283260957,63214,402,1794.3058099746704,26.224153518676758,,2.4748477935791016,0.11
62,MetaDrive-Gen-LaneNum-v0,35,151.82355663327198,64011,405,1820.0449709892273,26.280052185058594,-26.313085556030273,16.157638549804688,0.12
63,MetaDrive-Gen-LaneNum-v0,35,151.85588220549968,65084,410,1857.6493482589722,27.239334106445312,,8.034056663513184,0.14
64,MetaDrive-Gen-LaneNum-v0,34,151.51182292336517,66144,414,1893.2329499721527,27.973526000976562,,3.1286489963531494,0.16
65,MetaDrive-Gen-LaneNum-v0,34,155.45426072589362,67044,416,1923.6501021385193,27.785823822021484,,12.756692886352539,0.17
66,MetaDrive-Gen-LaneNum-v0,34,156.94526990492116,68341,419,1968.138643026352,29.776487350463867,-29.69277572631836,4.04707670211792,0.18
67,MetaDrive-Gen-LaneNum-v0,34,161.94495721581026,69271,421,1998.9329509735107,29.014272689819336,-29.043943405151367,5.640979290008545,0.2
68,MetaDrive-Gen-LaneNum-v0,34,163.19864917719843,70085,423,2027.5730690956116,30.407699584960938,-30.56899642944336,3.6527857780456543,0.21
69,MetaDrive-Gen-LaneNum-v0,34,167.16124073697628,71415,427,2075.797466278076,31.177032470703125,-32.3105583190918,5.807320594787598,0.23
70,MetaDrive-Gen-LaneNum-v0,34,170.6138980373849,72215,429,2104.275162220001,32.88530731201172,-33.429229736328125,3.7551920413970947,0.24
71,MetaDrive-Gen-LaneNum-v0,34,176.19470343180106,73413,434,2144.775166988373,31.903728485107422,-32.872894287109375,3.35255765914917,0.27
72,MetaDrive-Gen-LaneNum-v0,34,181.804739607895,74418,437,2178.23135304451,32.50584030151367,,3.2312002182006836,0.29
73,MetaDrive-Gen-LaneNum-v0,34,184.24077360407048,75045,439,2201.7229030132294,34.32114791870117,-34.78972244262695,10.726318359375,0.29
74,MetaDrive-Gen-LaneNum-v0,34,188.83435016598185,76157,441,2239.271145105362,34.14468002319336,-34.93730926513672,14.854696273803711,0.31
75,MetaDrive-Gen-LaneNum-v0,33,194.32548118293118,77330,444,2277.8165299892426,33.11671447753906,,24.505203247070312,0.33
76,MetaDrive-Gen-LaneNum-v0,33,192.08734920080934,78029,447,2301.5914800167084,35.07500076293945,-35.679813385009766,5.061737060546875,0.33
77,MetaDrive-Gen-LaneNum-v0,27,193.08273628843367,79113,453,2928.5798032283783,34.339508056640625,-34.65605163574219,12.980674743652344,0.34
78,MetaDrive-Gen-LaneNum-v0,25,198.1734076392106,80350,457,3093.888526201248,35.098575592041016,,13.239313125610352,0.36
79,MetaDrive-Gen-LaneNum-v0,26,202.3945702776547,81042,459,3114.652689218521,35.811790466308594,,4.55349063873291,0.38
80,MetaDrive-Gen-LaneNum-v0,26,208.51620811044984,82328,462,3152.935080051422,35.42070007324219,,9.719011306762695,0.41
81,MetaDrive-Gen-LaneNum-v0,26,213.49517729762522,83232,465,3179.6768791675568,37.72489929199219,,19.776809692382812,0.43
82,MetaDrive-Gen-LaneNum-v0,26,219.68252710200005,84375,468,3215.2085449695587,36.67060089111328,-37.432586669921875,8.061826705932617,0.44
83,MetaDrive-Gen-LaneNum-v0,26,224.60621429640685,85091,469,3237.829308986664,36.600868225097656,-36.4416618347168,12.16645622253418,0.45
84,MetaDrive-Gen-LaneNum-v0,26,229.09663113975887,86197,473,3274.118283033371,36.82432174682617,-37.24562072753906,10.571761131286621,0.45
85,MetaDrive-Gen-LaneNum-v0,26,232.95641591530332,87024,475,3299.192619085312,37.5400505065918,,17.16913414001465,0.47
86,MetaDrive-Gen-LaneNum-v0,26,239.5161261938826,88338,479,3340.130231142044,39.95659637451172,,5.808162689208984,0.49
87,MetaDrive-Gen-LaneNum-v0,26,248.04614327471845,89751,482,3383.8189392089844,38.385799407958984,-39.032562255859375,8.271720886230469,0.52
88,MetaDrive-Gen-LaneNum-v0,26,251.14279794213726,90314,483,3402.3876259326935,39.2067985534668,,14.382563591003418,0.53
89,MetaDrive-Gen-LaneNum-v0,25,253.0083377711687,91351,486,3595.6557099819183,39.4910888671875,-40.15544128417969,21.5943546295166,0.55
90,MetaDrive-Gen-LaneNum-v0,25,253.14429858015146,92300,489,3622.532007932663,39.384944915771484,,7.012035369873047,0.56
91,MetaDrive-Gen-LaneNum-v0,25,256.95474260604465,93272,491,3651.8999071121216,39.98352813720703,,5.8130292892456055,0.57
92,MetaDrive-Gen-LaneNum-v0,25,261.08408899766494,94517,495,3688.4581661224365,39.56748962402344,-40.6386604309082,5.651490211486816,0.58
93,MetaDrive-Gen-LaneNum-v0,25,267.5036390010834,95488,497,3718.406310081482,40.90559768676758,,12.008395195007324,0.6
94,MetaDrive-Gen-LaneNum-v0,25,271.81744397908903,96157,499,3738.54048204422,40.97262954711914,-42.27592468261719,5.162548065185547,0.62
95,MetaDrive-Gen-LaneNum-v0,25,277.98802242215567,97111,501,3768.5044360160828,41.32769775390625,-42.28786087036133,9.925863265991211,0.64
96,MetaDrive-Gen-LaneNum-v0,25,281.6427435151105,98341,504,3806.204977273941,42.221641540527344,-42.235450744628906,13.163217544555664,0.65
97,MetaDrive-Gen-LaneNum-v0,25,285.1624774999528,99249,506,3835.0002250671387,40.57255554199219,-40.95052719116211,11.585095405578613,0.67
98,MetaDrive-Gen-LaneNum-v0,25,288.1362847906396,100230,508,3866.2467970848083,41.38255310058594,,12.843206405639648,0.68
99,MetaDrive-Gen-LaneNum-v0,25,291.3895816394323,101168,510,3896.258763074875,41.038604736328125,,10.63222599029541,0.69
100,MetaDrive-Gen-LaneNum-v0,26,296.2236461525987,102638,513,3944.170342206955,42.12054443359375,,11.027713775634766,0.7
101,MetaDrive-Gen-LaneNum-v0,26,299.9272680187314,103569,515,3974.9370591640472,43.07061004638672,-42.96445083618164,4.998466968536377,0.72
102,MetaDrive-Gen-LaneNum-v0,26,300.4030449700987,104291,516,3999.5102751255035,44.015663146972656,-44.18690490722656,13.669321060180664,0.72
103,MetaDrive-Gen-LaneNum-v0,26,301.97529837239466,105076,518,4024.264799118042,43.233829498291016,,26.820537567138672,0.73
104,MetaDrive-Gen-LaneNum-v0,26,296.53174840470245,106259,522,4061.7448461055756,42.79042434692383,-43.51005172729492,6.5040693283081055,0.72
105,MetaDrive-Gen-LaneNum-v0,26,292.62929372403823,107199,525,4092.1912660598755,43.270111083984375,-43.63037872314453,13.000829696655273,0.7
106,MetaDrive-Gen-LaneNum-v0,26,294.60070521639335,108145,528,4122.340584993362,44.086483001708984,-44.962623596191406,22.32683753967285,0.72
107,MetaDrive-Gen-LaneNum-v0,26,290.53143804934876,109034,533,4150.494070053101,43.61381912231445,,19.77020263671875,0.71
108,MetaDrive-Gen-LaneNum-v0,26,288.32619293961454,110237,537,4189.603338003159,44.97275924682617,-45.680564880371094,16.233245849609375,0.71
109,MetaDrive-Gen-LaneNum-v0,26,291.46285286180114,111345,539,4226.414991140366,42.899925231933594,-44.45602035522461,18.852863311767578,0.72
110,MetaDrive-Gen-LaneNum-v0,26,290.7234263338176,112436,541,4262.215569972992,44.72032928466797,,9.194636344909668,0.72
111,MetaDrive-Gen-LaneNum-v0,26,289.3966295865011,113152,543,4286.144916057587,45.17345428466797,,9.134052276611328,0.71
112,MetaDrive-Gen-LaneNum-v0,26,289.0986648479443,114252,547,4321.2749881744385,43.66062927246094,,14.443954467773438,0.7
113,MetaDrive-Gen-LaneNum-v0,26,293.3973277588526,115075,550,4348.057017087936,44.2929801940918,-45.3425407409668,20.297508239746094,0.72
114,MetaDrive-Gen-LaneNum-v0,26,295.2170069451753,116193,553,4386.062832117081,44.443294525146484,-44.84484100341797,20.431373596191406,0.71
115,MetaDrive-Gen-LaneNum-v0,26,296.29435514304345,117023,555,4412.512990951538,43.895362854003906,-44.291290283203125,26.354917526245117,0.72
116,MetaDrive-Gen-LaneNum-v0,26,300.3573653993476,118600,558,4465.225478887558,43.780120849609375,,5.935388565063477,0.73
117,MetaDrive-Gen-LaneNum-v0,26,300.56416989579174,119045,559,4479.4575481414795,44.289424896240234,-45.278018951416016,20.819494247436523,0.73
118,MetaDrive-Gen-LaneNum-v0,26,302.2142058970737,120563,563,4530.42090010643,44.98996353149414,-46.520751953125,9.629877090454102,0.73
119,MetaDrive-Gen-LaneNum-v0,26,298.653513217181,121049,565,4546.456819057465,46.72096633911133,-46.755245208740234,17.51111602783203,0.71
120,MetaDrive-Gen-LaneNum-v0,26,297.56754681611415,122036,568,4578.346014022827,45.214698791503906,,5.527507781982422,0.72
121,MetaDrive-Gen-LaneNum-v0,26,299.1012608533457,123001,570,4609.954694986343,47.13983154296875,-48.023048400878906,8.803630828857422,0.73
122,MetaDrive-Gen-LaneNum-v0,26,303.0993698963882,124350,573,4655.16610622406,47.213478088378906,,5.355977535247803,0.76
123,MetaDrive-Gen-LaneNum-v0,26,302.8524440775939,125390,576,4689.410818099976,46.496826171875,,5.14213228225708,0.75
124,MetaDrive-Gen-LaneNum-v0,26,304.61687849740173,126224,578,4717.125922203064,45.40739822387695,,9.048439025878906,0.76
125,MetaDrive-Gen-LaneNum-v0,26,306.88544191089113,127297,580,4753.403090953827,46.37657165527344,-46.283905029296875,15.562561988830566,0.76
126,MetaDrive-Gen-LaneNum-v0,26,304.85874558284917,128036,582,4778.965688228607,45.92115783691406,,7.3309550285339355,0.75
127,MetaDrive-Gen-LaneNum-v0,26,307.50183763474564,129517,585,4829.215727090836,45.83815002441406,-46.278160095214844,8.600491523742676,0.75
128,MetaDrive-Gen-LaneNum-v0,26,303.18766213784244,130108,588,4848.967837095261,47.004188537597656,,9.80650520324707,0.73
129,MetaDrive-Gen-LaneNum-v0,26,303.22454206620137,131010,590,4878.655928134918,45.78121566772461,,27.017637252807617,0.73
130,MetaDrive-Gen-LaneNum-v0,26,307.4890643856967,132068,593,4913.062540054321,47.346431732177734,,8.609759330749512,0.75
131,MetaDrive-Gen-LaneNum-v0,26,303.6588060604152,133145,596,4948.204077005386,47.23710632324219,-48.07052230834961,5.690576553344727,0.73
132,MetaDrive-Gen-LaneNum-v0,26,299.10014683341535,134229,600,4984.12321305275,47.897560119628906,-48.20027542114258,4.030628204345703,0.71
133,MetaDrive-Gen-LaneNum-v0,26,297.5818699298092,135063,602,5011.790726184845,47.356590270996094,-48.109413146972656,21.580007553100586,0.7
134,MetaDrive-Gen-LaneNum-v0,26,296.20861241400524,136332,605,5054.87294793129,46.11511993408203,,13.136624336242676,0.7
135,MetaDrive-Gen-LaneNum-v0,26,290.15417612211263,137022,608,5077.991477966309,45.41756820678711,,18.339786529541016,0.68
136,MetaDrive-Gen-LaneNum-v0,27,287.1670988823494,138376,612,5123.258055925369,46.313743591308594,,36.370147705078125,0.67
137,MetaDrive-Gen-LaneNum-v0,27,285.93174068678354,139239,614,5151.976358175278,44.811519622802734,-45.1236686706543,38.301475524902344,0.66
138,MetaDrive-Gen-LaneNum-v0,27,280.14465745045703,140235,617,5185.572806119919,47.181785583496094,-48.403404235839844,8.401692390441895,0.65
139,MetaDrive-Gen-LaneNum-v0,27,281.57574122617393,141194,620,5218.1334500312805,46.92430114746094,,6.382936477661133,0.65
140,MetaDrive-Gen-LaneNum-v0,27,284.2023988939602,142255,622,5254.153089046478,46.59077453613281,-47.10234069824219,7.631893157958984,0.65
141,MetaDrive-Gen-LaneNum-v0,27,285.67322112207233,143321,625,5291.004235982895,45.5580940246582,-46.45222473144531,7.1364288330078125,0.64
142,MetaDrive-Gen-LaneNum-v0,27,286.45357396032176,144206,627,5320.706523180008,47.02288055419922,,8.612483978271484,0.64
143,MetaDrive-Gen-LaneNum-v0,27,290.8893162656685,145424,631,5365.524661064148,45.899654388427734,,10.873377799987793,0.65
144,MetaDrive-Gen-LaneNum-v0,27,294.60238109373546,146354,633,5401.095022201538,47.183380126953125,,8.271171569824219,0.66
145,MetaDrive-Gen-LaneNum-v0,27,296.31435757511,147155,635,5429.66419005394,48.10673141479492,-47.93118667602539,12.691307067871094,0.67
146,MetaDrive-Gen-LaneNum-v0,27,296.7602433990493,148001,637,5463.980890274048,46.86009216308594,-47.045631408691406,8.826343536376953,0.66
147,MetaDrive-Gen-LaneNum-v0,27,294.78355166785354,149232,640,5512.462650060654,46.838783264160156,,5.7357635498046875,0.66
148,MetaDrive-Gen-LaneNum-v0,27,295.4478169809996,150289,642,5551.560786008835,46.89276123046875,-48.01512145996094,14.591558456420898,0.66
149,MetaDrive-Gen-LaneNum-v0,27,300.916353161769,151562,645,5597.49777007103,48.398128509521484,,11.023414611816406,0.68
150,MetaDrive-Gen-LaneNum-v0,27,300.1229435523966,152214,647,5619.955394029617,46.32018280029297,,9.344549179077148,0.68
151,MetaDrive-Gen-LaneNum-v0,27,303.0247010959612,153366,650,5659.121574163437,47.045345306396484,,5.790403842926025,0.69
152,MetaDrive-Gen-LaneNum-v0,27,300.2352655940296,154175,653,5686.063383102417,47.13489532470703,-47.31897735595703,7.835267066955566,0.7
153,MetaDrive-Gen-LaneNum-v0,27,301.65858639467734,155178,655,5720.233836174011,46.871158599853516,,9.887142181396484,0.7
154,MetaDrive-Gen-LaneNum-v0,27,302.95007380851695,156377,657,5761.051594018936,45.58366394042969,-45.41183090209961,10.902687072753906,0.7
155,MetaDrive-Gen-LaneNum-v0,27,298.76890001220204,157072,659,5784.390780210495,47.996150970458984,,18.092695236206055,0.69
156,MetaDrive-Gen-LaneNum-v0,27,302.9926772932574,158652,662,5844.16831612587,46.213287353515625,,8.385865211486816,0.69
157,MetaDrive-Gen-LaneNum-v0,27,298.82851046460087,159181,664,5864.261644124985,47.21990203857422,-47.0210075378418,6.168674468994141,0.69
158,MetaDrive-Gen-LaneNum-v0,27,306.5479363866744,160578,666,5917.241221189499,45.14925003051758,,10.449380874633789,0.71
159,MetaDrive-Gen-LaneNum-v0,27,305.84078467614853,161337,668,5943.35803604126,46.00819778442383,-46.45301055908203,5.002629280090332,0.7
160,MetaDrive-Gen-LaneNum-v0,27,303.14075674223585,162026,670,5966.763612985611,45.9903564453125,,32.46228790283203,0.69
161,MetaDrive-Gen-LaneNum-v0,27,304.45920741909003,163070,672,6002.981019258499,45.83760452270508,,17.611968994140625,0.69
162,MetaDrive-Gen-LaneNum-v0,27,301.8607442042552,164219,676,6041.494059085846,46.49192810058594,-46.97416687011719,11.915241241455078,0.69
163,MetaDrive-Gen-LaneNum-v0,27,300.5703588755573,165416,679,6082.772132158279,46.18199920654297,,18.642465591430664,0.67
164,MetaDrive-Gen-LaneNum-v0,27,295.9715368672955,166144,682,6108.7317571640015,47.3819580078125,,7.571096897125244,0.66
165,MetaDrive-Gen-LaneNum-v0,27,294.593413849132,167446,685,6154.544909000397,46.947784423828125,,7.396752834320068,0.66
166,MetaDrive-Gen-LaneNum-v0,27,297.9407617266101,168176,687,6180.012367248535,49.389034271240234,,16.513080596923828,0.68
167,MetaDrive-Gen-LaneNum-v0,27,299.02178412949917,169091,689,6214.420010089874,48.27582931518555,-48.64464569091797,17.0916748046875,0.68
168,MetaDrive-Gen-LaneNum-v0,27,300.20278853806826,170447,692,6262.930222034454,46.72047805786133,-47.0320930480957,19.5555419921875,0.68
169,MetaDrive-Gen-LaneNum-v0,27,301.4355877880117,171414,694,6298.818134069443,47.76976776123047,,6.650289535522461,0.68
170,MetaDrive-Gen-LaneNum-v0,27,301.5265167201417,172211,697,6327.2433540821075,47.01566696166992,-47.84217834472656,9.422964096069336,0.7
171,MetaDrive-Gen-LaneNum-v0,27,304.5521449363119,173140,699,6360.50899887085,46.40066909790039,,12.673286437988281,0.71
172,MetaDrive-Gen-LaneNum-v0,27,300.96905256714024,174154,703,6399.201799869537,46.27766418457031,,6.423855781555176,0.7
173,MetaDrive-Gen-LaneNum-v0,27,302.0207110468512,175125,706,6436.989863157272,45.66887283325195,-46.22669982910156,62.383766174316406,0.69
174,MetaDrive-Gen-LaneNum-v0,27,307.8275108007143,176315,709,6485.979879140854,48.531009674072266,-49.1880989074707,13.67228889465332,0.71
175,MetaDrive-Gen-LaneNum-v0,27,305.0332844134846,177012,711,6513.261270046234,46.18289566040039,,5.63714599609375,0.7
176,MetaDrive-Gen-LaneNum-v0,27,306.4697960026016,178123,713,6555.202605009079,45.31584167480469,-46.33171463012695,8.10541820526123,0.7
177,MetaDrive-Gen-LaneNum-v0,27,308.03431361336845,179388,716,6604.010021209717,46.21662902832031,,22.249797821044922,0.71
178,MetaDrive-Gen-LaneNum-v0,27,309.50284349748557,180304,718,6636.154298067093,46.35520553588867,,6.499643802642822,0.71
179,MetaDrive-Gen-LaneNum-v0,27,310.85490825627664,181105,719,6665.788800001144,46.7109260559082,-46.38420867919922,12.570290565490723,0.71
180,MetaDrive-Gen-LaneNum-v0,27,310.9833374922625,182215,721,6705.247612953186,46.343902587890625,-47.23259735107422,23.213077545166016,0.71
181,MetaDrive-Gen-LaneNum-v0,27,313.50096477511465,183409,723,6746.323923110962,45.55125427246094,-46.35186004638672,15.254911422729492,0.72
182,MetaDrive-Gen-LaneNum-v0,27,310.8429265369392,184032,726,6767.830160140991,45.53046417236328,,5.964138031005859,0.71
183,MetaDrive-Gen-LaneNum-v0,27,310.6888250345861,185194,730,6807.616178035736,45.72697830200195,,13.535293579101562,0.7
184,MetaDrive-Gen-LaneNum-v0,27,307.1356310966984,186050,733,6837.886867046356,46.41328811645508,,8.53858757019043,0.68
185,MetaDrive-Gen-LaneNum-v0,27,304.8393820551039,187248,737,6879.870370149612,44.339202880859375,,9.622991561889648,0.67
186,MetaDrive-Gen-LaneNum-v0,25,305.10032329473995,188311,739,7380.524276971817,46.10391616821289,-46.358638763427734,6.602838516235352,0.66
187,MetaDrive-Gen-LaneNum-v0,24,305.12913994094066,189252,741,7592.238517999649,45.24250793457031,,7.61545467376709,0.66
188,MetaDrive-Gen-LaneNum-v0,24,305.08721328082834,190232,744,7622.740960121155,46.32600402832031,,8.349492073059082,0.66
189,MetaDrive-Gen-LaneNum-v0,24,306.1741887462973,191151,746,7651.038055896759,47.11756896972656,-46.875667572021484,7.686009407043457,0.67
190,MetaDrive-Gen-LaneNum-v0,24,306.01124583491304,192256,749,7831.384570121765,45.40353775024414,,9.84715461730957,0.66
191,MetaDrive-Gen-LaneNum-v0,24,306.0558932892352,193037,752,7855.727146148682,46.99651336669922,-46.73014450073242,17.965404510498047,0.65
192,MetaDrive-Gen-LaneNum-v0,24,306.83854247125186,194340,755,7895.248202085495,46.91074752807617,,9.460959434509277,0.65
193,MetaDrive-Gen-LaneNum-v0,24,299.0606764777882,195004,759,7915.733803987503,45.169578552246094,,23.457876205444336,0.63
194,MetaDrive-Gen-LaneNum-v0,20,299.7492675565025,196013,761,9572.778486013412,44.753135681152344,-44.70216751098633,25.916057586669922,0.63
195,MetaDrive-Gen-LaneNum-v0,20,298.0921419888793,197055,764,9607.066727876663,45.32676696777344,-45.0333251953125,13.261844635009766,0.63
196,MetaDrive-Gen-LaneNum-v0,20,295.35423005424053,198142,767,9641.747610092163,45.581398010253906,,6.894718647003174,0.63
197,MetaDrive-Gen-LaneNum-v0,20,293.5143584127249,199121,770,9671.635060071945,45.5180778503418,-45.3670768737793,16.6154842376709,0.62
198,MetaDrive-Gen-LaneNum-v0,20,289.78051412068396,200356,774,9708.722218990326,43.94029235839844,,28.04278564453125,0.62
199,MetaDrive-Gen-LaneNum-v0,20,290.44696920080827,201076,776,9732.190904140472,46.93311309814453,,7.785865783691406,0.62
200,MetaDrive-Gen-LaneNum-v0,20,294.23554143777693,202186,778,9767.447674274445,44.63963317871094,,18.611970901489258,0.63
201,MetaDrive-Gen-LaneNum-v0,20,296.1453028570747,203202,781,9797.828356027603,44.57387924194336,,14.390979766845703,0.65
202,MetaDrive-Gen-LaneNum-v0,20,296.75175278368596,204239,783,9831.911787033081,43.8791618347168,-44.674278259277344,11.749397277832031,0.64
203,MetaDrive-Gen-LaneNum-v0,20,294.0129522455056,205377,787,9868.237511873245,45.09797668457031,-44.48466491699219,24.021080017089844,0.62
204,MetaDrive-Gen-LaneNum-v0,20,294.38623823616246,206384,789,9902.393457889557,46.14562225341797,,13.421189308166504,0.62
205,MetaDrive-Gen-LaneNum-v0,20,290.65662201323136,207150,792,9928.799105167389,46.36015319824219,,9.423612594604492,0.62
206,MetaDrive-Gen-LaneNum-v0,20,294.28787522150765,208670,795,9979.843751907349,45.796634674072266,,5.554834365844727,0.63
207,MetaDrive-Gen-LaneNum-v0,20,293.9683130632779,209287,797,10002.464426994324,46.24147033691406,-47.42647171020508,9.331262588500977,0.62
208,MetaDrive-Gen-LaneNum-v0,20,289.63109406006294,210053,801,10029.15542602539,46.90947341918945,-47.66414260864258,9.02823257446289,0.6
209,MetaDrive-Gen-LaneNum-v0,20,293.9005479517998,211442,804,10076.66022014618,46.13855743408203,,8.337151527404785,0.62
210,MetaDrive-Gen-LaneNum-v0,20,289.64619991976497,212108,807,10100.52416419983,43.34413528442383,,6.375507354736328,0.6
211,MetaDrive-Gen-LaneNum-v0,21,288.04579094299476,213245,810,10138.070991039276,45.20408248901367,-45.601844787597656,7.254940032958984,0.59
212,MetaDrive-Gen-LaneNum-v0,21,289.9105923401693,214568,813,10189.693998098373,47.654815673828125,,8.259295463562012,0.58
213,MetaDrive-Gen-LaneNum-v0,21,284.7886927048975,215140,816,10208.83268404007,44.409523010253906,,7.067137718200684,0.57
214,MetaDrive-Gen-LaneNum-v0,21,285.49972490516814,216024,818,10239.72162604332,46.39280700683594,,6.8187665939331055,0.58
215,MetaDrive-Gen-LaneNum-v0,21,281.86406232307115,217222,821,10283.392284870148,45.29665756225586,,15.040220260620117,0.55
216,MetaDrive-Gen-LaneNum-v0,21,280.0346036428362,218228,824,10318.334700107574,46.46949768066406,,7.847939491271973,0.55
217,MetaDrive-Gen-LaneNum-v0,21,283.3171961772402,219301,826,10358.039078235626,44.23657989501953,-44.88538360595703,7.078285217285156,0.57
218,MetaDrive-Gen-LaneNum-v0,21,284.69310240613174,220436,829,10397.492670059204,43.05735778808594,,10.503156661987305,0.56
219,MetaDrive-Gen-LaneNum-v0,21,287.52935458398406,221122,831,10422.222810268402,46.004398345947266,,40.19036102294922,0.57
220,MetaDrive-Gen-LaneNum-v0,21,289.4288895763295,222386,835,10463.51457619667,46.366790771484375,,8.365165710449219,0.59
221,MetaDrive-Gen-LaneNum-v0,21,281.1094771065852,223353,839,10494.73173213005,45.026893615722656,-45.650184631347656,10.56761360168457,0.57
222,MetaDrive-Gen-LaneNum-v0,21,276.48081886728085,224328,843,10527.13522195816,44.75136184692383,,6.798069000244141,0.56
223,MetaDrive-Gen-LaneNum-v0,21,271.96001682919405,225062,846,10552.283853054047,44.66401290893555,,10.210615158081055,0.54
224,MetaDrive-Gen-LaneNum-v0,21,271.80717673405826,226159,849,10588.01299405098,46.82331466674805,-46.957550048828125,10.201238632202148,0.54
225,MetaDrive-Gen-LaneNum-v0,21,276.7936493772252,227298,851,10627.989681959152,46.769447326660156,,25.239559173583984,0.55
226,MetaDrive-Gen-LaneNum-v0,21,277.7989602558619,228196,853,10658.142012119293,44.52671432495117,,11.331023216247559,0.56
227,MetaDrive-Gen-LaneNum-v0,21,276.8673607945913,229121,855,10688.806782960892,44.12433624267578,-44.634891510009766,12.785673141479492,0.55
228,MetaDrive-Gen-LaneNum-v0,21,280.9800569216784,230282,858,10727.52830004692,43.687408447265625,,6.180137634277344,0.57
229,MetaDrive-Gen-LaneNum-v0,21,281.2040441524656,231214,861,10758.755939006805,45.106563568115234,,8.347038269042969,0.56
230,MetaDrive-Gen-LaneNum-v0,21,280.124023791313,232298,863,10797.403254032135,46.546531677246094,,7.896056652069092,0.55
231,MetaDrive-Gen-LaneNum-v0,21,279.12331634120704,233176,865,10826.973221063614,47.61952209472656,,9.488306045532227,0.55
232,MetaDrive-Gen-LaneNum-v0,21,282.31514988977216,234109,867,10859.31796002388,45.366661071777344,-45.8785400390625,6.522195816040039,0.56
233,MetaDrive-Gen-LaneNum-v0,21,286.2794831799947,235450,870,10905.881167173386,46.441864013671875,,8.021010398864746,0.57
234,MetaDrive-Gen-LaneNum-v0,21,286.2465724262506,236053,872,10926.516894102097,46.41032409667969,-47.24054718017578,15.007658004760742,0.56
235,MetaDrive-Gen-LaneNum-v0,21,289.73522772627047,237107,875,10962.880953073502,46.8308219909668,-47.093204498291016,5.577247619628906,0.56
236,MetaDrive-Gen-LaneNum-v0,21,282.5714985962658,238039,878,10994.290105104446,45.201297760009766,-45.373531341552734,11.013077735900879,0.54
237,MetaDrive-Gen-LaneNum-v0,21,284.77014849289895,239081,880,11029.914345026016,46.615150451660156,-47.38938522338867,9.062002182006836,0.53
238,MetaDrive-Gen-LaneNum-v0,21,284.3362629747621,240188,882,11068.393767118454,46.38877487182617,,5.560235977172852,0.52
239,MetaDrive-Gen-LaneNum-v0,21,287.16831616729036,241078,884,11098.906346082687,45.46321487426758,,35.58989715576172,0.53
240,MetaDrive-Gen-LaneNum-v0,21,291.48586191228935,242116,886,11136.367422103882,44.88904571533203,,44.53483581542969,0.55
241,MetaDrive-Gen-LaneNum-v0,21,291.6237374984095,243227,888,11174.919466972351,45.07475662231445,-45.53535842895508,25.54291534423828,0.54
242,MetaDrive-Gen-LaneNum-v0,21,290.8734312322421,244174,890,11206.329158306122,45.4370002746582,,22.76886749267578,0.53
243,MetaDrive-Gen-LaneNum-v0,21,294.34898486831196,245168,892,11241.25776720047,45.229736328125,,15.644587516784668,0.54
244,MetaDrive-Gen-LaneNum-v0,21,297.28646943595515,246512,894,11290.92085313797,46.13870620727539,,8.474909782409668,0.54
245,MetaDrive-Gen-LaneNum-v0,21,298.8927318403765,247674,896,11331.02142214775,45.61991500854492,,13.388326644897461,0.55
246,MetaDrive-Gen-LaneNum-v0,21,298.5351729870518,248079,897,11345.42065000534,45.024078369140625,-45.30607604980469,10.568004608154297,0.55
247,MetaDrive-Gen-LaneNum-v0,21,300.4489613587006,249114,900,11380.920372962952,46.052162170410156,,7.56539249420166,0.56
248,MetaDrive-Gen-LaneNum-v0,21,299.260604121668,250031,903,11413.327439069748,45.73247528076172,-46.228641510009766,28.255592346191406,0.56
249,MetaDrive-Gen-LaneNum-v0,21,301.65381215559376,251038,905,11449.511067152023,45.95335006713867,,13.582942962646484,0.57
250,MetaDrive-Gen-LaneNum-v0,21,295.45475745631916,252120,910,11487.53009724617,45.08481979370117,,15.794188499450684,0.56
251,MetaDrive-Gen-LaneNum-v0,21,298.04103606896496,253148,912,11524.378635168076,46.08734130859375,,13.744674682617188,0.58
252,MetaDrive-Gen-LaneNum-v0,21,299.1834821845411,254139,914,11558.013635158539,44.555381774902344,-44.995445251464844,12.245477676391602,0.57
253,MetaDrive-Gen-LaneNum-v0,22,303.2597789019742,255117,916,11592.501142024994,45.91941452026367,-45.990901947021484,18.44064712524414,0.57
254,MetaDrive-Gen-LaneNum-v0,22,304.0222519017374,256145,918,11628.09315109253,43.261104583740234,-44.3548583984375,13.007848739624023,0.57
255,MetaDrive-Gen-LaneNum-v0,22,302.6403985360788,257228,921,11665.561929941177,44.97865295410156,,9.351896286010742,0.59
256,MetaDrive-Gen-LaneNum-v0,22,297.4959608008098,258206,925,11698.087968111038,45.34005355834961,,32.876861572265625,0.57
257,MetaDrive-Gen-LaneNum-v0,22,298.9085658684905,259548,928,11744.53771018982,47.59794998168945,,12.442445755004883,0.57
258,MetaDrive-Gen-LaneNum-v0,22,299.19376573722127,260047,929,11763.692724943161,45.502037048339844,-45.537235260009766,5.96436882019043,0.58
259,MetaDrive-Gen-LaneNum-v0,22,299.40966023370294,261193,932,11805.989912033081,45.62877655029297,-45.19625473022461,21.71280288696289,0.58
260,MetaDrive-Gen-LaneNum-v0,22,298.5991142059301,262110,935,11839.117415189743,45.11188888549805,,34.543235778808594,0.58
261,MetaDrive-Gen-LaneNum-v0,22,305.0471916830047,263347,937,11884.182822227478,46.002593994140625,-46.831634521484375,14.876310348510742,0.59
262,MetaDrive-Gen-LaneNum-v0,22,306.18808386294984,264151,939,11913.256936073303,44.84701156616211,-45.50877380371094,5.681221961975098,0.6
263,MetaDrive-Gen-LaneNum-v0,22,311.88751933452596,265657,942,11969.388794183731,46.05590057373047,-46.17778778076172,10.57795524597168,0.6
264,MetaDrive-Gen-LaneNum-v0,22,313.9950717311269,266491,944,12001.483889102936,45.0863037109375,-45.36166763305664,9.180413246154785,0.6
265,MetaDrive-Gen-LaneNum-v0,22,313.38917756491753,267042,945,12021.033509254456,45.687049865722656,,10.715757369995117,0.6
266,MetaDrive-Gen-LaneNum-v0,22,316.55232656588623,268444,948,12073.691101074219,44.543975830078125,,16.71057891845703,0.61
267,MetaDrive-Gen-LaneNum-v0,22,314.9614210283717,269133,950,12098.94697713852,46.45109939575195,-46.48925018310547,8.80169677734375,0.6
268,MetaDrive-Gen-LaneNum-v0,22,315.45290128264753,270476,953,12147.363994121552,46.506813049316406,,7.088013648986816,0.58
269,MetaDrive-Gen-LaneNum-v0,22,315.5771458571787,271395,955,12181.832628965378,47.45368957519531,-47.90291976928711,8.869894027709961,0.58
270,MetaDrive-Gen-LaneNum-v0,22,311.25694446684054,272042,958,12205.490328073502,45.72486877441406,,10.342642784118652,0.56
271,MetaDrive-Gen-LaneNum-v0,22,313.94705461602973,273590,962,12263.444983005524,47.22483825683594,,7.652459144592285,0.58
272,MetaDrive-Gen-LaneNum-v0,22,311.59681388482045,274191,964,12285.206022977829,45.500701904296875,-46.279701232910156,10.40793514251709,0.57
273,MetaDrive-Gen-LaneNum-v0,22,310.1888532712381,275437,967,12330.111725091934,44.99090576171875,-45.579803466796875,11.67855453491211,0.56
274,MetaDrive-Gen-LaneNum-v0,22,309.27340839244334,276021,969,12351.195269107819,45.27363204956055,-45.58673858642578,28.46623992919922,0.56
275,MetaDrive-Gen-LaneNum-v0,22,307.4964060824715,277003,972,12386.790688991547,44.49951171875,-44.588584899902344,25.814407348632812,0.54
276,MetaDrive-Gen-LaneNum-v0,22,305.3153122368597,278458,977,12439.619243144989,46.35929870605469,,12.219388008117676,0.56
277,MetaDrive-Gen-LaneNum-v0,22,303.4046192239264,279100,979,12463.69687128067,47.17249298095703,,13.439453125,0.56
278,MetaDrive-Gen-LaneNum-v0,22,300.1202317056718,280025,982,12499.286473989487,46.782081604003906,-47.043609619140625,7.381083965301514,0.56
279,MetaDrive-Gen-LaneNum-v0,22,293.96447397352733,281206,986,12545.387867212296,46.24226379394531,,15.759973526000977,0.53
280,MetaDrive-Gen-LaneNum-v0,22,290.2249745448545,282043,989,12576.562858104706,46.0872917175293,-46.316070556640625,14.911008834838867,0.54
281,MetaDrive-Gen-LaneNum-v0,22,290.9760172386544,283227,991,12622.208591222763,46.87059783935547,-47.68557357788086,10.820014953613281,0.54
282,MetaDrive-Gen-LaneNum-v0,22,291.9964554403999,284309,993,12666.767765045166,46.661407470703125,-46.94504928588867,5.759039878845215,0.54
283,MetaDrive-Gen-LaneNum-v0,22,291.69172842674453,285367,995,12708.17231631279,45.80819320678711,-45.497928619384766,68.79518127441406,0.54
284,MetaDrive-Gen-LaneNum-v0,22,289.8417677646728,286200,997,12740.01188993454,44.99195098876953,,39.792083740234375,0.53
285,MetaDrive-Gen-LaneNum-v0,22,287.3635354639374,287006,1000,12770.984305143356,46.63426208496094,,19.83806610107422,0.52
286,MetaDrive-Gen-LaneNum-v0,22,288.5001802172572,288005,1003,12809.19156718254,45.60878372192383,-45.993900299072266,26.561328887939453,0.51
287,MetaDrive-Gen-LaneNum-v0,22,289.55270493893806,289107,1005,12851.160978078842,45.28922653198242,-45.78581237792969,19.898319244384766,0.51
288,MetaDrive-Gen-LaneNum-v0,22,295.2430419879715,290513,1008,12904.385025024414,45.89781188964844,-45.825382232666016,13.36497688293457,0.53
289,MetaDrive-Gen-LaneNum-v0,22,297.9506035403411,291181,1010,12930.36761713028,45.17181396484375,-45.37459182739258,7.06724214553833,0.54
290,MetaDrive-Gen-LaneNum-v0,22,297.9533789186533,292126,1012,12967.986277103424,47.46089553833008,,12.300657272338867,0.54
291,MetaDrive-Gen-LaneNum-v0,22,294.5986477028971,293310,1015,13013.920380115509,45.053680419921875,,12.914119720458984,0.56
292,MetaDrive-Gen-LaneNum-v0,22,291.34493948532025,294138,1018,13045.071274995804,45.330467224121094,,8.696294784545898,0.56
293,MetaDrive-Gen-LaneNum-v0,22,290.26580867522125,295067,1021,13080.34586405754,46.369354248046875,-46.56895065307617,8.168593406677246,0.56
294,MetaDrive-Gen-LaneNum-v0,22,295.23153096227327,296393,1024,13133.23549413681,45.00764083862305,-44.82017517089844,10.764436721801758,0.58
295,MetaDrive-Gen-LaneNum-v0,22,296.6635166507415,297018,1025,13157.327917098999,46.72443771362305,,28.76324462890625,0.58
296,MetaDrive-Gen-LaneNum-v0,22,293.90005011615557,298091,1028,13198.711400985718,44.49291229248047,-45.05028533935547,15.161273002624512,0.58
297,MetaDrive-Gen-LaneNum-v0,22,292.65642058149433,299074,1031,13237.46413898468,45.89426040649414,,7.303195953369141,0.58
298,MetaDrive-Gen-LaneNum-v0,22,294.6390770101427,300235,1034,13284.774598121643,46.072792053222656,-46.88610076904297,7.888283729553223,0.58
299,MetaDrive-Gen-LaneNum-v0,22,293.307729772483,301104,1036,13318.352669000626,45.3597526550293,,17.97724151611328,0.59
300,MetaDrive-Gen-LaneNum-v0,22,294.65665714819295,302227,1038,13363.287021160126,45.78143310546875,-46.94731903076172,14.835978507995605,0.59
301,MetaDrive-Gen-LaneNum-v0,22,295.3390334560574,303076,1040,13396.318922042847,47.76459884643555,,6.482926368713379,0.58
302,MetaDrive-Gen-LaneNum-v0,22,293.40850330773696,304144,1042,13438.685156106949,45.10838317871094,,14.885234832763672,0.59
303,MetaDrive-Gen-LaneNum-v0,22,294.5107192334199,305573,1045,13496.125219106674,45.37896728515625,-45.393165588378906,12.087545394897461,0.59
304,MetaDrive-Gen-LaneNum-v0,22,295.60681623401445,306050,1046,13514.351900100708,45.54518127441406,,20.872440338134766,0.59
305,MetaDrive-Gen-LaneNum-v0,22,290.76429376719284,307095,1050,13554.05288720131,45.286746978759766,-45.29718780517578,8.960477828979492,0.58
306,MetaDrive-Gen-LaneNum-v0,22,290.0536385279982,308387,1053,13602.355651140213,44.649681091308594,-45.12049102783203,12.79808235168457,0.59
307,MetaDrive-Gen-LaneNum-v0,22,289.52033140960134,309118,1055,13629.403944015503,45.64432144165039,,6.055280685424805,0.6
308,MetaDrive-Gen-LaneNum-v0,22,298.62386913023437,310554,1057,13687.635004997253,45.4012451171875,,8.312594413757324,0.61
309,MetaDrive-Gen-LaneNum-v0,22,299.5867398090663,311068,1058,13708.163717269897,47.032928466796875,,5.165340423583984,0.61
310,MetaDrive-Gen-LaneNum-v0,22,294.7709827791865,312083,1063,13747.682833909988,48.07529067993164,-48.39876937866211,10.956948280334473,0.59
311,MetaDrive-Gen-LaneNum-v0,22,292.48851447640294,313043,1066,13786.183234214783,45.83303451538086,-46.32048797607422,15.872858047485352,0.59
312,MetaDrive-Gen-LaneNum-v0,22,292.19202870673206,314186,1069,13829.85242819786,44.830360412597656,,36.102718353271484,0.58
313,MetaDrive-Gen-LaneNum-v0,22,295.5114244580885,315048,1071,13864.638063192368,45.09071350097656,,9.848432540893555,0.6
314,MetaDrive-Gen-LaneNum-v0,22,295.4348091849624,316158,1075,13908.455497026443,46.40687942504883,,9.687033653259277,0.61
315,MetaDrive-Gen-LaneNum-v0,22,295.50290085947,317285,1077,13953.848600149155,46.03617858886719,-47.133766174316406,7.361185073852539,0.6
316,MetaDrive-Gen-LaneNum-v0,22,295.85573361042117,318087,1079,13984.85268998146,46.579925537109375,-47.208255767822266,6.691305637359619,0.6
317,MetaDrive-Gen-LaneNum-v0,22,299.76047177005194,319187,1081,14028.182757139206,45.822200775146484,-45.877838134765625,5.957146167755127,0.61
318,MetaDrive-Gen-LaneNum-v0,22,301.239278383943,320112,1083,14064.364022016525,46.58123779296875,,13.306417465209961,0.63
319,MetaDrive-Gen-LaneNum-v0,22,304.54632472536355,321188,1086,14104.950495958328,45.527488708496094,,13.067495346069336,0.65
320,MetaDrive-Gen-LaneNum-v0,22,304.63128216980147,322280,1089,14147.55262708664,45.525753021240234,,19.627540588378906,0.64
321,MetaDrive-Gen-LaneNum-v0,22,300.46960798503466,323008,1091,14176.8579351902,45.36216735839844,,15.332605361938477,0.63
322,MetaDrive-Gen-LaneNum-v0,22,297.5344912868683,324225,1094,14223.787288188934,46.97418212890625,-47.40947341918945,7.4919891357421875,0.62
323,MetaDrive-Gen-LaneNum-v0,22,297.12248793254025,325211,1096,14263.139297008514,45.774192810058594,-46.66769027709961,7.111579895019531,0.62
324,MetaDrive-Gen-LaneNum-v0,22,301.2553985080533,326441,1099,14310.06748008728,45.66632080078125,-46.22319793701172,15.222673416137695,0.64
325,MetaDrive-Gen-LaneNum-v0,22,301.89346338209185,327291,1101,14342.467903137207,45.845184326171875,-45.96836853027344,9.122121810913086,0.64
326,MetaDrive-Gen-LaneNum-v0,22,298.35859964797686,328008,1104,14369.833020210266,45.73933792114258,,12.690092086791992,0.63
327,MetaDrive-Gen-LaneNum-v0,22,295.2572064377743,329116,1107,14413.156361103058,46.756980895996094,,7.025948524475098,0.61
328,MetaDrive-Gen-LaneNum-v0,22,296.32902293090285,330193,1110,14454.254929304123,45.03750228881836,-44.97007751464844,8.301143646240234,0.61
329,MetaDrive-Gen-LaneNum-v0,22,296.3617711597389,331461,1113,14502.334133148193,46.280433654785156,-46.82212448120117,21.855201721191406,0.61
330,MetaDrive-Gen-LaneNum-v0,22,292.50950496871087,332250,1116,14534.0213971138,46.72513961791992,,10.470974922180176,0.58
331,MetaDrive-Gen-LaneNum-v0,22,289.8697146037404,333046,1119,14565.638832092285,46.30567932128906,,18.120681762695312,0.57
332,MetaDrive-Gen-LaneNum-v0,22,291.55218393013513,334131,1122,14606.934091091156,45.03403091430664,-46.117435455322266,10.554340362548828,0.58
333,MetaDrive-Gen-LaneNum-v0,22,293.1023709306222,335541,1124,14663.925781011581,47.60115432739258,-47.13823318481445,9.582023620605469,0.58
334,MetaDrive-Gen-LaneNum-v0,22,292.63997214761775,336045,1125,14682.968836069107,47.20799255371094,-48.16551971435547,11.243240356445312,0.58
335,MetaDrive-Gen-LaneNum-v0,22,294.0249134650805,337294,1129,14730.144428014755,46.274375915527344,,33.39675521850586,0.58
336,MetaDrive-Gen-LaneNum-v0,22,293.22025185692235,338442,1131,14776.129656076431,44.6434211730957,,16.25043487548828,0.58
337,MetaDrive-Gen-LaneNum-v0,22,296.89586907764306,339307,1132,14813.274250030518,43.3001708984375,-43.532535552978516,9.020389556884766,0.59
338,MetaDrive-Gen-LaneNum-v0,22,296.01651076314283,340135,1134,14847.389966011047,43.71699905395508,-43.91209411621094,10.212240219116211,0.58
339,MetaDrive-Gen-LaneNum-v0,22,297.49352460242744,341243,1136,14889.9332280159,46.0622673034668,-46.1800422668457,15.953116416931152,0.58
340,MetaDrive-Gen-LaneNum-v0,22,296.19791868924733,342001,1138,14919.192214012146,45.333160400390625,-45.25139236450195,22.53243064880371,0.58
341,MetaDrive-Gen-LaneNum-v0,22,299.18861335438305,343175,1140,14965.973845005035,46.52203369140625,-47.10508728027344,10.949935913085938,0.6
342,MetaDrive-Gen-LaneNum-v0,22,292.82781662214484,344133,1144,15002.720560073853,45.48020935058594,-45.67512893676758,10.29951286315918,0.58
343,MetaDrive-Gen-LaneNum-v0,22,293.0653228938989,345219,1146,15046.650249004364,46.345970153808594,-47.109710693359375,6.252769470214844,0.58
344,MetaDrive-Gen-LaneNum-v0,22,293.46008937754794,346225,1149,15086.170065879822,44.38957214355469,-44.81953811645508,9.347333908081055,0.59
345,MetaDrive-Gen-LaneNum-v0,22,294.5438826260281,347373,1152,15132.274159193039,43.84796905517578,-44.079345703125,8.38066291809082,0.59
346,MetaDrive-Gen-LaneNum-v0,22,293.32531085161355,348077,1154,15160.008134126663,44.09975051879883,-44.24520492553711,8.48822021484375,0.59
347,MetaDrive-Gen-LaneNum-v0,22,289.8870439260688,349453,1157,15219.653046131134,47.21784591674805,-47.48884582519531,11.309211730957031,0.6
348,MetaDrive-Gen-LaneNum-v0,22,291.06175684735064,350104,1159,15246.533357143402,45.306739807128906,,10.440055847167969,0.61
349,MetaDrive-Gen-LaneNum-v0,22,293.76181863126095,351022,1161,15288.967440128326,45.03643798828125,,7.158518314361572,0.62
350,MetaDrive-Gen-LaneNum-v0,22,299.276961287714,352033,1163,15338.01847410202,45.984642028808594,-46.52495193481445,27.9537410736084,0.63
351,MetaDrive-Gen-LaneNum-v0,22,304.2507222834659,353092,1165,15386.24207520485,46.71005630493164,,6.418399810791016,0.65
352,MetaDrive-Gen-LaneNum-v0,22,305.7613202419886,354217,1167,15434.796437978745,46.260196685791016,-47.06784439086914,20.69225311279297,0.65
353,MetaDrive-Gen-LaneNum-v0,22,302.6498486628081,355180,1170,15474.959326982498,44.28654479980469,,7.554133415222168,0.65
354,MetaDrive-Gen-LaneNum-v0,22,304.909512369276,356412,1173,15523.041869163513,45.98693084716797,,10.903608322143555,0.66
355,MetaDrive-Gen-LaneNum-v0,22,307.28247820028713,357027,1174,15548.758538007736,44.28599548339844,-44.433074951171875,11.045831680297852,0.66
356,MetaDrive-Gen-LaneNum-v0,22,304.7871732922614,358078,1178,15590.333780050278,44.173675537109375,,10.166358947753906,0.67
357,MetaDrive-Gen-LaneNum-v0,22,302.64043651810624,359470,1181,15645.411853075027,44.874935150146484,,8.810617446899414,0.66
358,MetaDrive-Gen-LaneNum-v0,22,302.0727199148796,360039,1182,15668.068972110748,44.73276901245117,-45.19038391113281,8.261041641235352,0.66
359,MetaDrive-Gen-LaneNum-v0,22,298.72570532254974,361424,1188,15721.125328063965,44.15868377685547,,7.684211254119873,0.65
360,MetaDrive-Gen-LaneNum-v0,22,300.8604848769644,362288,1190,15755.932407140732,45.03171157836914,,10.762557983398438,0.65
361,MetaDrive-Gen-LaneNum-v0,23,298.06397323052215,363284,1193,15793.768441200256,46.019805908203125,,11.5921630859375,0.63
362,MetaDrive-Gen-LaneNum-v0,23,297.5199313256769,364695,1195,15852.498326063156,47.460941314697266,-47.77067184448242,13.855111122131348,0.63
363,MetaDrive-Gen-LaneNum-v0,23,297.17940333272696,365159,1196,15870.715341091156,45.167049407958984,-45.36019515991211,8.187309265136719,0.63
364,MetaDrive-Gen-LaneNum-v0,23,298.8568134383451,366016,1198,15904.831042051315,44.224857330322266,,11.702077865600586,0.63
365,MetaDrive-Gen-LaneNum-v0,23,300.1244365094508,367356,1200,15960.205264091492,47.256675720214844,,19.10896110534668,0.62
366,MetaDrive-Gen-LaneNum-v0,23,303.4671345272859,368422,1202,16001.643100976944,46.99101638793945,,9.46755599975586,0.64
367,MetaDrive-Gen-LaneNum-v0,23,302.11045469350665,369225,1205,16032.429171085358,43.49948501586914,-44.00835418701172,15.05313491821289,0.64
368,MetaDrive-Gen-LaneNum-v0,23,300.61594300324947,370249,1208,16072.041800022125,47.09297180175781,-48.1239013671875,11.71182632446289,0.65
369,MetaDrive-Gen-LaneNum-v0,23,299.07286882397057,371283,1212,16111.39344215393,45.93593978881836,-46.299842834472656,14.52626895904541,0.63
370,MetaDrive-Gen-LaneNum-v0,23,301.14617103883717,372312,1214,16152.369269132614,44.00027084350586,,7.2557220458984375,0.64
371,MetaDrive-Gen-LaneNum-v0,23,307.6097912385232,373553,1216,16203.226287126541,45.882266998291016,-45.67854690551758,11.85777473449707,0.66
372,MetaDrive-Gen-LaneNum-v0,23,309.71188288152905,374292,1217,16232.575280189514,46.244606018066406,,15.311765670776367,0.67
373,MetaDrive-Gen-LaneNum-v0,23,314.69716310554776,375070,1218,16265.147586107254,47.168609619140625,,18.134235382080078,0.68
374,MetaDrive-Gen-LaneNum-v0,23,317.337411853324,376042,1220,16303.226915121078,46.24746322631836,,9.254436492919922,0.68
375,MetaDrive-Gen-LaneNum-v0,23,307.4717037442138,377097,1224,16343.467751264572,47.9092903137207,-48.25812911987305,11.953124046325684,0.64
376,MetaDrive-Gen-LaneNum-v0,23,307.71172771873466,378407,1228,16394.418952941895,43.75922775268555,-44.34110641479492,25.563827514648438,0.64
377,MetaDrive-Gen-LaneNum-v0,23,306.33177286112334,379167,1230,16423.979659080505,45.4567985534668,-45.71514129638672,10.011022567749023,0.64
378,MetaDrive-Gen-LaneNum-v0,23,304.67609624568047,380146,1232,16462.583935022354,44.66166305541992,,10.780831336975098,0.64
379,MetaDrive-Gen-LaneNum-v0,23,305.6143775377266,381026,1234,16497.177772045135,46.533294677734375,,42.53553771972656,0.64
380,MetaDrive-Gen-LaneNum-v0,23,299.0449265029647,382384,1238,16548.573033094406,46.93235397338867,,9.818689346313477,0.62
381,MetaDrive-Gen-LaneNum-v0,23,297.3328313891019,383172,1240,16580.287153959274,46.65764236450195,,8.95289421081543,0.61
382,MetaDrive-Gen-LaneNum-v0,23,304.2058975408412,384349,1242,16627.839836120605,45.360939025878906,-45.7777099609375,7.7333173751831055,0.63
383,MetaDrive-Gen-LaneNum-v0,23,307.2010644621009,385568,1244,16675.585361242294,42.91105651855469,,15.084060668945312,0.64
384,MetaDrive-Gen-LaneNum-v0,23,307.61404903537306,386435,1245,16711.200309991837,47.22371292114258,-47.3001708984375,7.19453239440918,0.64
385,MetaDrive-Gen-LaneNum-v0,23,309.98732141858204,387367,1247,16747.98760008812,46.68940734863281,-46.937469482421875,9.945159912109375,0.64
386,MetaDrive-Gen-LaneNum-v0,23,306.8631498518482,388173,1249,16780.09503507614,44.00346374511719,-44.61323928833008,9.876876831054688,0.63
387,MetaDrive-Gen-LaneNum-v0,23,309.3813603335889,389337,1251,16826.25243115425,45.57954788208008,-45.61357116699219,24.39911651611328,0.64
388,MetaDrive-Gen-LaneNum-v0,23,314.9733821120815,390533,1253,16874.86324930191,45.03849792480469,-45.42591094970703,4.856374263763428,0.65
389,MetaDrive-Gen-LaneNum-v0,23,312.4864512911558,391295,1255,16903.88947415352,45.777584075927734,-45.750152587890625,11.48870849609375,0.65
390,MetaDrive-Gen-LaneNum-v0,23,311.48820851267095,392191,1257,16939.587000131607,45.003482818603516,-44.887062072753906,22.645483016967773,0.64
391,MetaDrive-Gen-LaneNum-v0,23,314.5195299475047,393731,1259,17000.181829214096,43.463706970214844,-43.23451614379883,8.238874435424805,0.64
392,MetaDrive-Gen-LaneNum-v0,23,314.7350817805106,394539,1260,17033.15642118454,44.881568908691406,-45.471778869628906,8.444259643554688,0.64
393,MetaDrive-Gen-LaneNum-v0,23,311.5849008479811,395749,1262,17077.455274105072,46.77596664428711,-46.659271240234375,9.845812797546387,0.64
394,MetaDrive-Gen-LaneNum-v0,23,309.273946090171,396316,1264,17099.233633995056,45.71782684326172,,22.47064971923828,0.64
395,MetaDrive-Gen-LaneNum-v0,23,308.7278442452259,397324,1266,17137.639015197754,46.972625732421875,,14.972270965576172,0.65
396,MetaDrive-Gen-LaneNum-v0,23,310.6363258780056,398290,1268,17175.371470212936,43.37112808227539,,8.348881721496582,0.66
397,MetaDrive-Gen-LaneNum-v0,23,310.51321381608756,399670,1270,17226.624900102615,44.25092315673828,,8.559542655944824,0.65
398,MetaDrive-Gen-LaneNum-v0,23,312.6957012606994,400263,1271,17249.941125154495,46.162010192871094,-47.5826530456543,8.382612228393555,0.65
399,MetaDrive-Gen-LaneNum-v0,23,313.7673563500219,401475,1273,17299.520343065262,44.95661163330078,-45.38978576660156,15.870229721069336,0.63
400,MetaDrive-Gen-LaneNum-v0,23,311.0966361243479,402947,1277,17356.226204156876,45.63765335083008,-46.14679718017578,14.198418617248535,0.63
401,MetaDrive-Gen-LaneNum-v0,23,311.71937311019593,403948,1278,17393.069160938263,44.21198654174805,,9.436999320983887,0.62
402,MetaDrive-Gen-LaneNum-v0,23,310.0358891454743,404307,1279,17407.52455306053,42.17331314086914,-42.4840202331543,17.035568237304688,0.61
403,MetaDrive-Gen-LaneNum-v0,23,309.6745999978653,405404,1283,17449.5022149086,45.63690185546875,,7.529274940490723,0.61
404,MetaDrive-Gen-LaneNum-v0,23,313.4202465226713,406026,1284,17474.68462896347,44.529754638671875,,10.424478530883789,0.62
405,MetaDrive-Gen-LaneNum-v0,23,312.93646127231904,407010,1287,17512.562126159668,46.91346740722656,,17.26226806640625,0.62
406,MetaDrive-Gen-LaneNum-v0,23,309.1000536891645,408402,1292,17564.833166122437,44.30236053466797,,5.689902305603027,0.62
407,MetaDrive-Gen-LaneNum-v0,23,306.45147861556745,409260,1295,17596.68095612526,45.43366241455078,,18.300975799560547,0.62
408,MetaDrive-Gen-LaneNum-v0,23,307.12001636251216,410270,1297,17636.32391309738,46.27824020385742,,10.109512329101562,0.63
409,MetaDrive-Gen-LaneNum-v0,23,300.569671935353,411095,1300,17668.25536417961,45.937583923339844,-46.21619415283203,13.231679916381836,0.62
410,MetaDrive-Gen-LaneNum-v0,23,297.98274419026507,412168,1303,17710.675425052643,45.54669189453125,,18.039100646972656,0.61
411,MetaDrive-Gen-LaneNum-v0,23,298.19799025463124,413251,1306,17752.85584306717,46.069496154785156,-47.21578598022461,9.523996353149414,0.61
412,MetaDrive-Gen-LaneNum-v0,23,299.51276611548093,414045,1308,17783.041554927826,46.90163040161133,-46.876930236816406,6.567735195159912,0.62
413,MetaDrive-Gen-LaneNum-v0,23,301.69371180490083,415127,1311,17824.807552099228,44.46587371826172,-43.980987548828125,11.834831237792969,0.63
414,MetaDrive-Gen-LaneNum-v0,23,301.25297405113434,416069,1313,17861.16179203987,45.265933990478516,-46.38703155517578,8.634836196899414,0.64
415,MetaDrive-Gen-LaneNum-v0,23,293.4549614964146,417005,1316,17898.623004198074,44.067726135253906,-44.135345458984375,7.088242530822754,0.62
416,MetaDrive-Gen-LaneNum-v0,23,295.0969946540253,418006,1317,17941.158164024353,47.14076614379883,,15.796545028686523,0.61
417,MetaDrive-Gen-LaneNum-v0,23,291.85745834487074,419262,1321,17989.017993927002,45.46454620361328,,5.778201103210449,0.62
418,MetaDrive-Gen-LaneNum-v0,23,296.102423674888,420352,1323,18033.01003909111,44.67063903808594,,30.347997665405273,0.64
419,MetaDrive-Gen-LaneNum-v0,23,298.398037296184,421138,1326,18063.287005901337,44.19850540161133,,18.179141998291016,0.66
420,MetaDrive-Gen-LaneNum-v0,23,299.1914685703031,422680,1328,18122.599878311157,46.03166198730469,,10.9088134765625,0.64
421,MetaDrive-Gen-LaneNum-v0,23,299.6610731821572,423148,1329,18139.904906988144,44.386234283447266,,24.056859970092773,0.63
422,MetaDrive-Gen-LaneNum-v0,23,298.7743926122141,424005,1331,18175.93280506134,44.85145568847656,-44.81294250488281,10.868555068969727,0.61
423,MetaDrive-Gen-LaneNum-v0,23,296.05211478907654,425202,1334,18223.476773262024,44.9002799987793,,6.821571350097656,0.61
424,MetaDrive-Gen-LaneNum-v0,23,295.7381509754997,426369,1338,18268.85813808441,43.51200485229492,-44.46572494506836,5.870474338531494,0.61
425,MetaDrive-Gen-LaneNum-v0,23,295.7319661677942,427276,1340,18304.948616981506,44.382965087890625,,16.648265838623047,0.61
426,MetaDrive-Gen-LaneNum-v0,23,293.0986006462793,428016,1342,18334.484881162643,47.09311294555664,,7.796146392822266,0.6
427,MetaDrive-Gen-LaneNum-v0,23,288.28482846419234,429243,1345,18382.139002084732,47.14460372924805,-47.500633239746094,8.862205505371094,0.6
428,MetaDrive-Gen-LaneNum-v0,23,288.27069232755224,430253,1347,18421.75892806053,45.86848449707031,-46.09021759033203,11.624597549438477,0.61
429,MetaDrive-Gen-LaneNum-v0,23,287.83052987910736,431176,1350,18455.67246413231,46.89390182495117,,7.90498161315918,0.62
430,MetaDrive-Gen-LaneNum-v0,23,286.2771928469471,432044,1352,18490.6989030838,42.49839782714844,,47.09314727783203,0.62
431,MetaDrive-Gen-LaneNum-v0,23,284.08507162130957,433144,1355,18532.68781900406,44.907135009765625,,17.664016723632812,0.61
432,MetaDrive-Gen-LaneNum-v0,23,279.4460442560875,434186,1358,18572.828027248383,43.82973861694336,,19.90323829650879,0.61
433,MetaDrive-Gen-LaneNum-v0,23,276.79941430147994,435001,1360,18603.50486087799,44.458824157714844,-44.45437240600586,10.823511123657227,0.6
434,MetaDrive-Gen-LaneNum-v0,23,279.66706052168144,436206,1363,18649.849946260452,45.08277130126953,,8.92575454711914,0.62
435,MetaDrive-Gen-LaneNum-v0,23,276.08689407877836,437026,1366,18684.80171108246,46.17522430419922,,8.685699462890625,0.6
436,MetaDrive-Gen-LaneNum-v0,23,277.3299304011959,438498,1369,18747.910789251328,46.32091522216797,,26.901336669921875,0.6
437,MetaDrive-Gen-LaneNum-v0,23,273.6461577765385,439383,1372,18780.935841083527,47.42919158935547,-47.574886322021484,8.778865814208984,0.61
438,MetaDrive-Gen-LaneNum-v0,23,273.0997201665426,440216,1374,18812.123778104782,47.457645416259766,,9.532586097717285,0.62
439,MetaDrive-Gen-LaneNum-v0,23,275.39137829500703,441172,1377,18849.344341039658,45.9446907043457,,8.62130355834961,0.63
440,MetaDrive-Gen-LaneNum-v0,23,275.5554386631995,442373,1380,18899.22074007988,45.62289047241211,-45.21062088012695,5.702298164367676,0.64
441,MetaDrive-Gen-LaneNum-v0,23,279.3284213278285,443006,1381,18924.212418079376,44.854183197021484,,33.170719146728516,0.65
442,MetaDrive-Gen-LaneNum-v0,23,281.6924618057104,444348,1384,18977.557373046875,44.666778564453125,,8.866622924804688,0.66
443,MetaDrive-Gen-LaneNum-v0,23,282.62295938421903,445258,1386,19016.369948863983,45.6203727722168,,20.602191925048828,0.66
444,MetaDrive-Gen-LaneNum-v0,23,283.75856723597184,446314,1389,19060.807729244232,47.50143814086914,,21.377906799316406,0.66
445,MetaDrive-Gen-LaneNum-v0,23,286.246909938028,447064,1391,19092.159411907196,42.80427932739258,,7.220922470092773,0.65
446,MetaDrive-Gen-LaneNum-v0,23,288.71115804064607,448354,1394,19148.93831205368,45.60289764404297,,5.628345966339111,0.65
447,MetaDrive-Gen-LaneNum-v0,23,288.0436171391095,449181,1396,19183.219048023224,46.89399337768555,-46.45685577392578,9.563549041748047,0.65
448,MetaDrive-Gen-LaneNum-v0,23,291.7873578266323,450038,1398,19219.367962121964,46.897640228271484,,18.449737548828125,0.66
449,MetaDrive-Gen-LaneNum-v0,23,294.9271800920365,451538,1401,19285.435855150223,45.30295181274414,,9.951324462890625,0.67
450,MetaDrive-Gen-LaneNum-v0,23,297.9132220153587,452521,1403,19331.49386715889,46.76314163208008,-47.56562042236328,14.511611938476562,0.68
451,MetaDrive-Gen-LaneNum-v0,23,301.9440885152811,453277,1404,19363.720046043396,44.71275329589844,-45.39533996582031,5.4430108070373535,0.69
452,MetaDrive-Gen-LaneNum-v0,23,304.2160532381306,454373,1406,19414.094760894775,46.05459213256836,-46.0982666015625,9.725639343261719,0.69
453,MetaDrive-Gen-LaneNum-v0,23,299.981583768749,455130,1410,19445.972164154053,46.72684097290039,,9.741981506347656,0.67
454,MetaDrive-Gen-LaneNum-v0,23,296.15055989288044,456157,1413,19493.080802202225,46.631935119628906,-46.54557800292969,9.621912002563477,0.65
455,MetaDrive-Gen-LaneNum-v0,23,293.72911563283407,457254,1417,19541.268244981766,47.40906524658203,,9.20624828338623,0.66
456,MetaDrive-Gen-LaneNum-v0,23,295.7409280364217,458107,1419,19579.02636694908,46.33964538574219,-45.67912673950195,12.374532699584961,0.67
457,MetaDrive-Gen-LaneNum-v0,23,299.1914930321676,459348,1421,19640.09380197525,44.35660934448242,,14.983351707458496,0.67
458,MetaDrive-Gen-LaneNum-v0,23,296.9423660137703,460161,1423,19675.301237106323,47.244171142578125,-47.96409606933594,9.419525146484375,0.67
459,MetaDrive-Gen-LaneNum-v0,23,300.15862249286636,461095,1425,19713.031666994095,45.43898010253906,-46.38796615600586,10.44046688079834,0.68
460,MetaDrive-Gen-LaneNum-v0,23,295.28747085772625,462242,1429,19758.158133983612,46.51354217529297,,18.040599822998047,0.69
461,MetaDrive-Gen-LaneNum-v0,23,296.5399431543799,463431,1431,19806.69955420494,47.21269989013672,-47.337928771972656,11.798821449279785,0.71
462,MetaDrive-Gen-LaneNum-v0,23,299.09101010552484,464048,1432,19831.967982053757,44.80828857421875,,10.828898429870605,0.72
463,MetaDrive-Gen-LaneNum-v0,23,296.1555276559258,465248,1435,19882.07925605774,46.16265869140625,,15.106548309326172,0.7
464,MetaDrive-Gen-LaneNum-v0,23,301.2759735166412,466600,1438,19939.877593040466,46.568321228027344,,7.654111862182617,0.71
465,MetaDrive-Gen-LaneNum-v0,23,301.46737537634493,467054,1439,19959.67639398575,45.96968078613281,,17.972843170166016,0.71
466,MetaDrive-Gen-LaneNum-v0,23,299.99651821204213,468209,1443,20012.20460319519,44.163448333740234,-43.79966735839844,9.084275245666504,0.71
467,MetaDrive-Gen-LaneNum-v0,23,297.2606366735886,469279,1446,20056.451699972153,43.87694549560547,-44.39598846435547,7.123058319091797,0.7
468,MetaDrive-Gen-LaneNum-v0,23,294.70082945942283,470380,1450,20097.50222015381,46.67116928100586,,37.36863708496094,0.68
469,MetaDrive-Gen-LaneNum-v0,23,294.7578252027928,471252,1452,20129.961116313934,42.41936492919922,,56.18559265136719,0.66
470,MetaDrive-Gen-LaneNum-v0,23,294.4545535116028,472209,1454,20166.027685165405,44.50661849975586,-44.82697296142578,6.937801837921143,0.66
471,MetaDrive-Gen-LaneNum-v0,23,297.4846753191435,473075,1456,20197.7579600811,45.50962829589844,-46.09137725830078,16.279808044433594,0.67
472,MetaDrive-Gen-LaneNum-v0,23,293.9752906530129,474344,1461,20244.889468193054,46.22114562988281,,7.512249946594238,0.66
473,MetaDrive-Gen-LaneNum-v0,23,295.9000900524718,475311,1463,20279.950369119644,46.90336608886719,-47.799835205078125,20.734130859375,0.66
474,MetaDrive-Gen-LaneNum-v0,23,297.7452693259012,476261,1465,20315.206227064133,45.67115783691406,-45.87250900268555,11.382369995117188,0.66
475,MetaDrive-Gen-LaneNum-v0,23,301.4208279825696,477279,1467,20353.26160621643,46.812129974365234,-46.80186462402344,23.383983612060547,0.66
476,MetaDrive-Gen-LaneNum-v0,23,299.8581140921864,478264,1469,20389.983621120453,46.1083869934082,,7.569258213043213,0.66
477,MetaDrive-Gen-LaneNum-v0,23,302.4696579592449,479058,1470,20421.68997001648,46.67319107055664,,8.859150886535645,0.66
478,MetaDrive-Gen-LaneNum-v0,23,300.8880302521686,480372,1474,20469.006114006042,46.31858825683594,,6.9633307456970215,0.65
479,MetaDrive-Gen-LaneNum-v0,23,302.513379096579,481356,1477,20505.553814172745,46.47304916381836,,15.831602096557617,0.66
480,MetaDrive-Gen-LaneNum-v0,23,302.20148153621574,482001,1479,20529.992456912994,47.174659729003906,-47.4516487121582,9.205772399902344,0.66
481,MetaDrive-Gen-LaneNum-v0,23,295.3756986028813,483295,1483,20576.604451179504,44.66958999633789,-44.87530517578125,30.41109848022461,0.64
482,MetaDrive-Gen-LaneNum-v0,23,293.86291582346,484341,1486,20613.811685085297,41.267242431640625,-41.35976791381836,7.977977275848389,0.65
483,MetaDrive-Gen-LaneNum-v0,23,294.91806224385897,485322,1489,20649.340516090393,44.89508056640625,,8.083240509033203,0.66
484,MetaDrive-Gen-LaneNum-v0,23,293.9568694205274,486193,1491,20680.28392124176,46.406368255615234,-46.121219635009766,13.52029800415039,0.67
485,MetaDrive-Gen-LaneNum-v0,23,292.0203461946778,487148,1494,20715.734310150146,46.65174865722656,,9.95132064819336,0.66
486,MetaDrive-Gen-LaneNum-v0,23,295.0247618805476,488275,1496,20759.07084918022,44.27332305908203,-44.45413589477539,7.101861953735352,0.67
487,MetaDrive-Gen-LaneNum-v0,23,296.04047935187117,489520,1498,20807.031531095505,45.602317810058594,,9.362791061401367,0.67
488,MetaDrive-Gen-LaneNum-v0,23,294.5025844683138,490359,1500,20838.813262224197,45.768619537353516,-45.988712310791016,20.660863876342773,0.66
489,MetaDrive-Gen-LaneNum-v0,23,286.58867446142,491052,1503,20865.64070701599,45.75478744506836,,6.356257915496826,0.64
490,MetaDrive-Gen-LaneNum-v0,23,282.90065868783853,492301,1506,20914.840996026993,46.76597595214844,-46.96607971191406,9.932052612304688,0.63
491,MetaDrive-Gen-LaneNum-v0,23,288.8627985214718,493225,1508,20950.037950992584,46.025291442871094,-45.56884002685547,24.043209075927734,0.65
492,MetaDrive-Gen-LaneNum-v0,23,289.55421411705504,494097,1510,20983.860487937927,46.99574279785156,-47.173187255859375,16.54827117919922,0.65
493,MetaDrive-Gen-LaneNum-v0,23,289.15675639230744,495048,1513,21019.115049123764,46.38179016113281,,11.895328521728516,0.66
494,MetaDrive-Gen-LaneNum-v0,23,293.8569030793814,496187,1516,21059.703453063965,45.774044036865234,-46.13260269165039,10.736818313598633,0.68
495,MetaDrive-Gen-LaneNum-v0,23,287.5247618258941,497516,1520,21108.59418106079,46.41996383666992,,9.798630714416504,0.66
496,MetaDrive-Gen-LaneNum-v0,23,288.36198712868077,498096,1521,21130.41165804863,45.802764892578125,,6.686283111572266,0.66
497,MetaDrive-Gen-LaneNum-v0,23,288.4603130159486,499289,1524,21173.5773229599,45.20488739013672,-45.36733627319336,14.52778434753418,0.66
498,MetaDrive-Gen-LaneNum-v0,23,289.9465004610771,500238,1526,21216.48299908638,47.29987716674805,,24.228256225585938,0.66
499,MetaDrive-Gen-LaneNum-v0,23,286.9523261462066,501310,1530,21259.62103009224,45.74917984008789,,10.052074432373047,0.66
500,MetaDrive-Gen-LaneNum-v0,23,287.249823004629,502215,1532,21297.90942311287,45.92618942260742,-45.644378662109375,9.492801666259766,0.66
501,MetaDrive-Gen-LaneNum-v0,23,291.7848088476893,503379,1534,21345.911993026733,45.871578216552734,-45.85579299926758,10.93285083770752,0.68
502,MetaDrive-Gen-LaneNum-v0,23,289.8270105324591,504054,1536,21373.232377052307,47.130455017089844,,17.436145782470703,0.67
503,MetaDrive-Gen-LaneNum-v0,23,289.94041241825556,505383,1539,21427.668975114822,47.0230712890625,-47.75483703613281,8.155660629272461,0.67
504,MetaDrive-Gen-LaneNum-v0,23,294.7963644026171,506447,1541,21471.45454120636,46.426231384277344,-46.368980407714844,15.653302192687988,0.68
505,MetaDrive-Gen-LaneNum-v0,23,294.19954428468355,507097,1543,21496.04516506195,46.18655776977539,-45.78758239746094,8.693406105041504,0.69
506,MetaDrive-Gen-LaneNum-v0,23,297.162377407456,508461,1546,21553.320051908493,48.44399642944336,-48.628395080566406,8.78598403930664,0.69
507,MetaDrive-Gen-LaneNum-v0,23,298.53700377216063,509076,1547,21580.130273103714,47.746559143066406,,11.542903900146484,0.69
508,MetaDrive-Gen-LaneNum-v0,23,304.80904733181933,510055,1549,21620.678812980652,47.773895263671875,-48.02458190917969,10.652726173400879,0.71
509,MetaDrive-Gen-LaneNum-v0,23,306.1663670211151,511239,1551,21670.171751976013,48.24517059326172,-48.990272521972656,10.019046783447266,0.72
510,MetaDrive-Gen-LaneNum-v0,23,304.5274514250707,512673,1555,21730.340793132782,49.610015869140625,-49.19125747680664,8.36509895324707,0.71
511,MetaDrive-Gen-LaneNum-v0,23,307.1642967275368,513492,1556,21766.292587041855,46.09421157836914,,14.453706741333008,0.71
512,MetaDrive-Gen-LaneNum-v0,23,305.44446676399707,514074,1558,21790.593457221985,46.65093231201172,,9.213838577270508,0.71
513,MetaDrive-Gen-LaneNum-v0,23,311.6760612405297,515215,1561,21836.04662513733,45.645729064941406,-45.23405456542969,6.910159111022949,0.73
514,MetaDrive-Gen-LaneNum-v0,23,308.91462081998145,516074,1563,21867.95881128311,46.45672607421875,,10.153167724609375,0.72
515,MetaDrive-Gen-LaneNum-v0,23,306.28336479262185,517274,1566,21913.75592494011,47.341880798339844,,45.32460021972656,0.72
516,MetaDrive-Gen-LaneNum-v0,23,309.6025062878707,518330,1568,21954.951168060303,45.300289154052734,,7.930474758148193,0.73
517,MetaDrive-Gen-LaneNum-v0,23,305.1011820362322,519023,1570,21980.993932008743,48.094844818115234,-48.01222229003906,6.078746795654297,0.72
518,MetaDrive-Gen-LaneNum-v0,23,304.8474801323803,520419,1574,22035.613336086273,45.47605895996094,-45.53316116333008,7.192198753356934,0.72
519,MetaDrive-Gen-LaneNum-v0,23,306.0716089693635,521263,1576,22067.642246246338,45.261775970458984,-44.787532806396484,9.389362335205078,0.72
520,MetaDrive-Gen-LaneNum-v0,23,304.4648376224146,522147,1578,22100.19787120819,47.961181640625,-47.987056732177734,16.23210906982422,0.71
521,MetaDrive-Gen-LaneNum-v0,23,309.7645345093498,523130,1580,22137.841958284378,47.02485275268555,,11.798757553100586,0.73
522,MetaDrive-Gen-LaneNum-v0,23,309.6111216172773,524615,1584,22194.2565639019,47.44977951049805,-47.542789459228516,15.103259086608887,0.72
523,MetaDrive-Gen-LaneNum-v0,23,310.4528140031095,525081,1585,22211.71872997284,45.82978820800781,-45.91684341430664,8.842315673828125,0.72
524,MetaDrive-Gen-LaneNum-v0,23,309.1772537274017,526052,1588,22251.165542125702,45.11431884765625,,36.48710250854492,0.72
525,MetaDrive-Gen-LaneNum-v0,23,312.82204022757185,527484,1591,22310.1517701149,46.96516036987305,,8.323527336120605,0.72
526,MetaDrive-Gen-LaneNum-v0,23,314.9130327346251,528240,1593,22339.653063058853,47.00462341308594,,8.592225074768066,0.73
527,MetaDrive-Gen-LaneNum-v0,23,313.33429920307253,529383,1596,22384.79325222969,47.81299591064453,-47.65515899658203,10.98363971710205,0.73
528,MetaDrive-Gen-LaneNum-v0,23,306.1326089560016,530200,1600,22414.09030508995,46.01738357543945,,7.891432762145996,0.72
529,MetaDrive-Gen-LaneNum-v0,23,309.73620728837113,531135,1602,22450.14425611496,45.815364837646484,-46.280391693115234,9.05224609375,0.73
530,MetaDrive-Gen-LaneNum-v0,23,317.76750470547876,532526,1604,22507.41751408577,44.318870544433594,,5.889824390411377,0.75
531,MetaDrive-Gen-LaneNum-v0,23,312.25833653053445,533124,1607,22529.60249710083,46.61668395996094,,7.834523677825928,0.74
532,MetaDrive-Gen-LaneNum-v0,23,310.3356172128075,534011,1610,22562.665342092514,47.09653854370117,-46.890045166015625,5.854325294494629,0.74
533,MetaDrive-Gen-LaneNum-v0,23,313.2820595826011,535044,1613,22603.405479192734,45.579734802246094,,10.41514778137207,0.74
534,MetaDrive-Gen-LaneNum-v0,23,311.1189415081693,536003,1616,22640.149888038635,46.59402084350586,-47.06527328491211,10.766960144042969,0.73
535,MetaDrive-Gen-LaneNum-v0,23,310.0101663498353,537031,1620,22680.130115032196,44.499332427978516,-43.99717712402344,9.686269760131836,0.72
536,MetaDrive-Gen-LaneNum-v0,23,312.0353701903034,538599,1623,22745.830121040344,46.168418884277344,-46.83806228637695,12.157630920410156,0.72
537,MetaDrive-Gen-LaneNum-v0,23,310.4994267106544,539008,1624,22761.23797917366,44.73060607910156,,39.298927307128906,0.72
538,MetaDrive-Gen-LaneNum-v0,23,310.32719038288207,540061,1628,22802.249267101288,47.03798294067383,-47.804229736328125,9.988506317138672,0.72
539,MetaDrive-Gen-LaneNum-v0,23,310.76783785369014,541360,1631,22850.615806102753,47.27085876464844,,12.98433780670166,0.71
540,MetaDrive-Gen-LaneNum-v0,23,311.8504614754023,542072,1632,22878.745583057404,47.42338943481445,,9.163551330566406,0.71
541,MetaDrive-Gen-LaneNum-v0,23,305.6587371796991,543004,1635,22906.185972929,48.11381912231445,,4.68649435043335,0.7
542,MetaDrive-Gen-LaneNum-v0,23,304.3829866490146,544136,1639,22940.073573112488,45.897674560546875,,9.424246788024902,0.69
543,MetaDrive-Gen-LaneNum-v0,23,300.20432256342673,545559,1643,22985.958923101425,46.47529602050781,-47.67898178100586,12.287303924560547,0.67
544,MetaDrive-Gen-LaneNum-v0,23,300.9436583257808,546033,1644,23000.1372590065,46.23371887207031,-46.868778228759766,6.240267753601074,0.67
545,MetaDrive-Gen-LaneNum-v0,23,301.7521976069089,547011,1646,23030.67097401619,47.423377990722656,-47.73148727416992,7.14379358291626,0.68
546,MetaDrive-Gen-LaneNum-v0,23,297.7580514696733,548056,1649,23063.1557431221,46.738258361816406,,12.862347602844238,0.67
547,MetaDrive-Gen-LaneNum-v0,23,294.0075932991493,549183,1652,23097.081372976303,45.88438034057617,-46.25252914428711,44.18269348144531,0.67
548,MetaDrive-Gen-LaneNum-v0,23,296.3431345570159,550281,1655,23131.97478199005,47.06647872924805,-47.43470764160156,15.24455451965332,0.68
549,MetaDrive-Gen-LaneNum-v0,23,295.2570257469391,551284,1658,23164.007085084915,45.153831481933594,,6.92940616607666,0.67
550,MetaDrive-Gen-LaneNum-v0,23,297.66481735636626,552312,1660,23196.708799123764,46.946842193603516,,9.716743469238281,0.67
551,MetaDrive-Gen-LaneNum-v0,23,297.882861344432,553217,1662,23225.30893588066,48.10725784301758,-47.75551986694336,12.5216064453125,0.67
552,MetaDrive-Gen-LaneNum-v0,23,296.13719681748466,554095,1665,23253.572578191757,47.80177307128906,-48.4124641418457,6.633908271789551,0.68
553,MetaDrive-Gen-LaneNum-v0,23,291.34815799506055,555197,1668,23290.40784907341,46.735145568847656,-47.524600982666016,33.58633804321289,0.67
554,MetaDrive-Gen-LaneNum-v0,23,293.3510663184007,556399,1671,23329.478135108948,44.539512634277344,-44.89884948730469,9.639607429504395,0.68
555,MetaDrive-Gen-LaneNum-v0,23,289.2865651450835,557178,1675,23353.754232168198,46.926048278808594,,13.760282516479492,0.67
556,MetaDrive-Gen-LaneNum-v0,23,287.8095689582709,558149,1678,23385.613600969315,45.43981170654297,-45.63328552246094,7.482778072357178,0.66
557,MetaDrive-Gen-LaneNum-v0,23,286.5311266948522,559005,1680,23413.12046098709,46.22686767578125,-46.515628814697266,12.383620262145996,0.66
558,MetaDrive-Gen-LaneNum-v0,23,282.90180778771503,560007,1684,23445.405007123947,46.645965576171875,-46.52194595336914,11.173479080200195,0.65
559,MetaDrive-Gen-LaneNum-v0,23,285.9073322902362,561302,1687,23485.946807146072,46.617332458496094,,11.07247257232666,0.66
560,MetaDrive-Gen-LaneNum-v0,23,284.9944943712209,562301,1690,23517.12485408783,49.0301513671875,-49.209678649902344,13.881441116333008,0.65
561,MetaDrive-Gen-LaneNum-v0,23,282.78427202084936,563078,1692,23541.26048517227,42.50305938720703,,17.869483947753906,0.65
562,MetaDrive-Gen-LaneNum-v0,23,284.5291833343679,564304,1695,23581.876585006714,46.59046173095703,,24.21692657470703,0.66
563,MetaDrive-Gen-LaneNum-v0,23,286.8287580639516,565138,1697,23607.0044028759,47.517784118652344,,7.862499237060547,0.67
564,MetaDrive-Gen-LaneNum-v0,23,287.2312680363235,566369,1701,23646.168454885483,44.63665771484375,-44.94667434692383,9.157598495483398,0.66
565,MetaDrive-Gen-LaneNum-v0,23,286.05705301215886,567230,1703,23672.80430006981,46.14976501464844,,14.023052215576172,0.66
566,MetaDrive-Gen-LaneNum-v0,23,288.2385954739329,568405,1705,23711.995299100876,48.72380065917969,-49.72853088378906,16.237442016601562,0.67
567,MetaDrive-Gen-LaneNum-v0,23,288.51232989767175,569302,1707,23739.52259206772,46.27643585205078,,8.926892280578613,0.67
568,MetaDrive-Gen-LaneNum-v0,23,289.3246209635027,570047,1709,23763.483366250992,47.05997085571289,-48.28022384643555,9.11752986907959,0.67
569,MetaDrive-Gen-LaneNum-v0,23,289.8808996201382,571151,1712,23798.797391176224,48.72315979003906,-48.428855895996094,14.146940231323242,0.67
570,MetaDrive-Gen-LaneNum-v0,24,292.23335722289085,572341,1715,23836.44468808174,47.00161361694336,-48.470802307128906,17.43433380126953,0.68
571,MetaDrive-Gen-LaneNum-v0,24,295.8044613194774,573179,1717,23862.159033060074,46.45363998413086,-47.379737854003906,12.168514251708984,0.69
572,MetaDrive-Gen-LaneNum-v0,24,296.8833044087754,574137,1720,23891.076334238052,46.09107208251953,-46.32392120361328,7.224580764770508,0.7
573,MetaDrive-Gen-LaneNum-v0,24,298.36404873689355,575178,1722,23922.478136062622,45.60818099975586,,19.136043548583984,0.7
574,MetaDrive-Gen-LaneNum-v0,24,293.96462326897046,576179,1726,23952.80677008629,45.98787307739258,-45.79721450805664,14.345473289489746,0.69
575,MetaDrive-Gen-LaneNum-v0,24,298.1243949852968,577277,1729,23986.315572977066,47.55200958251953,-47.74882507324219,6.438737869262695,0.7
576,MetaDrive-Gen-LaneNum-v0,24,295.1047842052935,578533,1732,24025.580018043518,47.326416015625,-48.25705337524414,7.091631889343262,0.7
577,MetaDrive-Gen-LaneNum-v0,24,294.0064733334923,579376,1734,24053.394638061523,47.39482116699219,,25.546159744262695,0.69
578,MetaDrive-Gen-LaneNum-v0,24,300.55337060873006,580526,1737,24089.692922115326,48.22743606567383,,7.025847434997559,0.71
579,MetaDrive-Gen-LaneNum-v0,24,301.0071220235145,581156,1738,24112.92879629135,48.65647888183594,,11.660625457763672,0.72
580,MetaDrive-Gen-LaneNum-v0,24,304.58005796830014,582003,1740,24139.39363193512,45.158531188964844,-45.5503044128418,8.556415557861328,0.73
581,MetaDrive-Gen-LaneNum-v0,24,304.9808783357751,583264,1743,24180.243111133575,44.74124526977539,,9.80359935760498,0.74
582,MetaDrive-Gen-LaneNum-v0,24,303.90337644499135,584066,1745,24205.860605955124,46.31725311279297,,19.70378875732422,0.73
583,MetaDrive-Gen-LaneNum-v0,24,308.59105219917393,585282,1747,24246.576481103897,47.84933090209961,,6.964114665985107,0.74
584,MetaDrive-Gen-LaneNum-v0,24,303.20127950567274,586402,1751,24282.801807165146,47.61127853393555,,19.42194938659668,0.72
585,MetaDrive-Gen-LaneNum-v0,24,299.8463828203868,587130,1754,24304.752898216248,46.96840286254883,,8.22933578491211,0.72
586,MetaDrive-Gen-LaneNum-v0,24,297.1641544884989,588213,1757,24339.641592025757,48.43588638305664,-48.90985870361328,6.7308549880981445,0.72
587,MetaDrive-Gen-LaneNum-v0,24,297.7596397627445,589554,1760,24385.131493091583,48.445404052734375,,28.944683074951172,0.71
588,MetaDrive-Gen-LaneNum-v0,24,297.7258770727022,590485,1762,24415.823185920715,45.70493698120117,-45.808738708496094,22.43187141418457,0.71
589,MetaDrive-Gen-LaneNum-v0,24,295.8407601069971,591058,1764,24433.94630908966,46.82854461669922,,17.865985870361328,0.7
590,MetaDrive-Gen-LaneNum-v0,24,297.7941483280822,592006,1767,24464.741168260574,45.34515380859375,,6.78001594543457,0.7
591,MetaDrive-Gen-LaneNum-v0,24,298.36264475533926,593233,1770,24504.41538619995,48.12519454956055,-48.3240966796875,9.862625122070312,0.7
592,MetaDrive-Gen-LaneNum-v0,24,301.12903075168043,594253,1772,24537.367875099182,47.12305450439453,-46.590476989746094,15.631254196166992,0.71
593,MetaDrive-Gen-LaneNum-v0,24,304.1170531689759,595287,1775,24570.780617952347,44.99971008300781,-45.17933654785156,8.072432518005371,0.72
594,MetaDrive-Gen-LaneNum-v0,24,306.14299126253337,596434,1777,24609.66138124466,45.84834289550781,,9.001754760742188,0.73
595,MetaDrive-Gen-LaneNum-v0,24,301.8930840766518,597120,1780,24630.656456947327,46.329769134521484,,6.9674224853515625,0.72
596,MetaDrive-Gen-LaneNum-v0,24,305.0959753784395,598237,1783,24664.728564977646,47.362152099609375,-47.92655944824219,9.046006202697754,0.74
597,MetaDrive-Gen-LaneNum-v0,24,307.3461286863226,599008,1785,24690.774652957916,45.78691864013672,,8.443248748779297,0.74
598,MetaDrive-Gen-LaneNum-v0,24,309.80992661863894,600279,1788,24731.071753025055,48.66748809814453,-48.89649963378906,9.985893249511719,0.75
599,MetaDrive-Gen-LaneNum-v0,24,306.79438697019236,601354,1791,24764.61625123024,46.72950744628906,,5.976141452789307,0.74
600,MetaDrive-Gen-LaneNum-v0,24,304.01857160983604,602328,1794,24794.830716133118,47.19089126586914,,11.56987190246582,0.74
601,MetaDrive-Gen-LaneNum-v0,24,303.0967218638259,603290,1796,24825.484914064407,47.75165939331055,,10.359577178955078,0.74
602,MetaDrive-Gen-LaneNum-v0,24,302.1017438952768,604274,1798,24857.726468086243,48.00199890136719,,21.49370574951172,0.74
603,MetaDrive-Gen-LaneNum-v0,24,306.1656548683385,605071,1800,24884.33384013176,47.37445831298828,-47.771915435791016,6.092182159423828,0.75
604,MetaDrive-Gen-LaneNum-v0,24,301.58851310949046,606084,1803,24916.733653068542,46.574031829833984,,8.520272254943848,0.73
605,MetaDrive-Gen-LaneNum-v0,24,298.70648496584823,607137,1806,24950.074585199356,48.11591339111328,-47.824546813964844,23.232698440551758,0.72
606,MetaDrive-Gen-LaneNum-v0,24,304.2398440416415,608248,1808,24986.159729242325,47.35022735595703,,11.911018371582031,0.73
607,MetaDrive-Gen-LaneNum-v0,24,304.47149683349545,609359,1811,25023.67250108719,46.10096740722656,-46.55830001831055,7.953056335449219,0.73
608,MetaDrive-Gen-LaneNum-v0,24,302.95113536039133,610105,1813,25046.69359612465,45.839622497558594,-45.81641387939453,33.69416809082031,0.73
609,MetaDrive-Gen-LaneNum-v0,24,301.51835033071353,611013,1815,25075.80925512314,48.44858169555664,-48.5630989074707,11.566868782043457,0.73
610,MetaDrive-Gen-LaneNum-v0,24,301.7227131357247,612421,1818,25121.290678977966,47.02378463745117,-47.650089263916016,8.479694366455078,0.73
611,MetaDrive-Gen-LaneNum-v0,24,301.9258948613654,613148,1820,25144.029284238815,47.27326202392578,,10.261171340942383,0.73
612,MetaDrive-Gen-LaneNum-v0,24,298.8398522349895,614425,1825,25185.50917005539,48.928531646728516,-49.87975311279297,11.432046890258789,0.72
613,MetaDrive-Gen-LaneNum-v0,24,296.65059641387046,615172,1827,25210.038129091263,49.043949127197266,,13.225078582763672,0.71
614,MetaDrive-Gen-LaneNum-v0,24,295.8264516450458,616214,1830,25244.62631392479,48.09811019897461,,12.987051010131836,0.71
615,MetaDrive-Gen-LaneNum-v0,24,290.6785877427414,617101,1834,25277.53971004486,46.027137756347656,-46.185062408447266,8.391477584838867,0.7
616,MetaDrive-Gen-LaneNum-v0,24,289.64006685156954,618237,1837,25318.639084100723,48.97309112548828,-49.97331237792969,9.314193725585938,0.7
617,MetaDrive-Gen-LaneNum-v0,24,289.713725851018,619298,1839,25770.155699014664,47.6494255065918,,11.58256721496582,0.7
618,MetaDrive-Gen-LaneNum-v0,23,290.9322344597989,620093,1840,25876.008531093597,48.60144805908203,-49.27841567993164,21.540515899658203,0.7
619,MetaDrive-Gen-LaneNum-v0,23,292.52004674408107,621076,1842,26545.76308822632,44.59309005737305,,15.297574996948242,0.7
620,MetaDrive-Gen-LaneNum-v0,23,294.90036968013396,622179,1844,26583.40099620819,45.66070556640625,-46.098148345947266,10.216354370117188,0.71
621,MetaDrive-Gen-LaneNum-v0,23,291.515175713246,623068,1846,26755.60149717331,46.86450958251953,,29.099899291992188,0.71
622,MetaDrive-Gen-LaneNum-v0,23,294.3805516412814,624303,1849,26795.50820708275,47.4378776550293,-47.493526458740234,25.321483612060547,0.71
623,MetaDrive-Gen-LaneNum-v0,23,294.6381683403581,625121,1851,26821.26447701454,46.1829833984375,-45.496795654296875,11.320314407348633,0.72
