TanmayH/CS269-RL-project-code/MetaDrive-test-noise-reduction-td3-1000/td3/progress.csv
,log_dir,frame_per_second,episode_reward,total_steps,total_episodes,total_time,actor_loss,critic_loss,target_q,success_rate
0,MetaDrive-test-noise-reduction-td3-1000,524,5.575995540048577,1038,2,1.9787609577178955,,0.0007313619717024267,0.01074947789311409,0.0
1,MetaDrive-test-noise-reduction-td3-1000,139,-0.8486495770161261,2025,36,14.531521081924438,-0.10978749394416809,0.8319187760353088,0.07080567628145218,0.0
2,MetaDrive-test-noise-reduction-td3-1000,110,-1.4966566362466385,3388,67,30.793225049972534,,0.07518434524536133,0.10126908123493195,0.0
3,MetaDrive-test-noise-reduction-td3-1000,105,-1.5374060920394714,4005,77,38.01354694366455,-0.11388792842626572,0.04351366311311722,0.12510432302951813,0.0
4,MetaDrive-test-noise-reduction-td3-1000,100,-0.522142888661291,5035,101,50.086280822753906,-0.21812564134597778,0.04370635002851486,0.15170858800411224,0.0
5,MetaDrive-test-noise-reduction-td3-1000,97,1.17913814975543,6650,112,68.16574597358704,,1.9376122951507568,0.2677455544471741,0.0
6,MetaDrive-test-noise-reduction-td3-1000,96,1.7392088843327884,7025,118,72.64906191825867,-0.5227025747299194,0.40067434310913086,0.41777873039245605,0.0
7,MetaDrive-test-noise-reduction-td3-1000,94,5.190275715349062,8242,132,87.1057538986206,,1.1726388931274414,0.49564188718795776,0.0
8,MetaDrive-test-noise-reduction-td3-1000,94,8.22870049646316,9301,140,98.6466760635376,-1.1737983226776123,1.1033082008361816,0.9667601585388184,0.0
9,MetaDrive-test-noise-reduction-td3-1000,93,10.509574526226483,10047,147,107.30884981155396,-1.4297823905944824,0.20975464582443237,1.4669978618621826,0.0
10,MetaDrive-test-noise-reduction-td3-1000,93,15.113791179076713,11038,156,118.6208131313324,,1.666637659072876,1.843395471572876,0.0
11,MetaDrive-test-noise-reduction-td3-1000,91,20.768797607247674,12127,161,132.0640709400177,-2.2607333660125732,0.8438063859939575,2.3380682468414307,0.0
12,MetaDrive-test-noise-reduction-td3-1000,90,25.80892514544005,13100,167,145.12093806266785,,0.5714304447174072,2.7817797660827637,0.0
13,MetaDrive-test-noise-reduction-td3-1000,90,30.7228592309737,14145,176,156.98733282089233,-3.586719036102295,0.20576395094394684,3.6820597648620605,0.0
14,MetaDrive-test-noise-reduction-td3-1000,89,35.752901263028456,15054,185,167.67287707328796,,0.41149812936782837,4.496138572692871,0.0
15,MetaDrive-test-noise-reduction-td3-1000,89,41.96712478396999,16191,194,180.83333492279053,-5.197694778442383,0.3018266558647156,4.996530532836914,0.0
16,MetaDrive-test-noise-reduction-td3-1000,89,46.800890617167084,17046,202,190.76425194740295,,0.23130863904953003,6.108034133911133,0.0
17,MetaDrive-test-noise-reduction-td3-1000,89,51.414502475115015,18040,211,201.0118269920349,,9.28399658203125,5.937228202819824,0.0
18,MetaDrive-test-noise-reduction-td3-1000,89,56.454189665835855,19049,218,213.25538206100464,-7.452083587646484,3.8664309978485107,7.277264595031738,0.0
19,MetaDrive-test-noise-reduction-td3-1000,89,61.17026098305314,20072,226,224.97177982330322,,3.9933128356933594,8.086612701416016,0.0
20,MetaDrive-test-noise-reduction-td3-1000,89,65.55607030294031,21031,234,236.28717589378357,-9.536035537719727,0.9610501527786255,9.610443115234375,0.0
21,MetaDrive-test-noise-reduction-td3-1000,88,69.23646364366142,22046,242,248.618891954422,,6.546056747436523,9.988032341003418,0.0
22,MetaDrive-test-noise-reduction-td3-1000,88,72.27652637944955,23078,253,260.79184198379517,,14.848188400268555,10.929300308227539,0.0
23,MetaDrive-test-noise-reduction-td3-1000,88,71.20184258338126,24117,261,272.9236800670624,-11.36124324798584,0.5460227131843567,11.230855941772461,0.0
24,MetaDrive-test-noise-reduction-td3-1000,88,73.17163573980693,25073,268,283.7410979270935,-13.079270362854004,0.38398879766464233,12.793155670166016,0.0
25,MetaDrive-test-noise-reduction-td3-1000,88,74.6052838996608,26051,278,295.1161777973175,-13.594255447387695,1.593479871749878,13.434220314025879,0.0
26,MetaDrive-test-noise-reduction-td3-1000,88,77.61799792051188,27020,284,306.4438178539276,,11.445785522460938,13.604106903076172,0.0
27,MetaDrive-test-noise-reduction-td3-1000,88,79.04617006417261,28011,293,317.9059069156647,-15.696746826171875,18.796144485473633,15.632254600524902,0.0
28,MetaDrive-test-noise-reduction-td3-1000,88,79.45495854249386,29023,301,329.2829797267914,-16.155006408691406,0.8724050521850586,16.215930938720703,0.01
29,MetaDrive-test-noise-reduction-td3-1000,88,81.1489386872508,30063,311,341.4441599845886,-17.7359619140625,1.5822685956954956,17.119586944580078,0.01
30,MetaDrive-test-noise-reduction-td3-1000,87,79.46378322928837,31105,321,353.6797728538513,-16.510833740234375,23.086772918701172,16.135940551757812,0.01
31,MetaDrive-test-noise-reduction-td3-1000,88,79.63253752090881,32021,330,363.7734708786011,-19.68533706665039,1.745840072631836,19.75340461730957,0.01
32,MetaDrive-test-noise-reduction-td3-1000,88,77.41116709619445,33086,340,375.9202969074249,,1.186329960823059,18.931241989135742,0.01
33,MetaDrive-test-noise-reduction-td3-1000,88,79.90368145699328,34009,347,386.2618770599365,-21.11241912841797,1.636663556098938,21.319623947143555,0.01
34,MetaDrive-test-noise-reduction-td3-1000,87,78.35174931378052,35008,358,398.16568398475647,,48.48500061035156,21.122867584228516,0.01
35,MetaDrive-test-noise-reduction-td3-1000,87,76.50904378667188,36037,367,409.7396957874298,-20.854001998901367,42.79236602783203,20.30459976196289,0.01
36,MetaDrive-test-noise-reduction-td3-1000,88,75.97094195960292,37153,377,421.50662994384766,-21.618453979492188,0.7548632621765137,20.904052734375,0.01
37,MetaDrive-test-noise-reduction-td3-1000,88,73.34402786215973,38023,386,430.96014285087585,-22.924461364746094,26.852153778076172,22.076343536376953,0.01
38,MetaDrive-test-noise-reduction-td3-1000,88,74.4934571494562,39100,395,442.87856888771057,,1.434110164642334,23.562177658081055,0.01
39,MetaDrive-test-noise-reduction-td3-1000,88,73.1963341558022,40041,402,453.1004219055176,-23.410083770751953,9.871138572692871,22.22979736328125,0.0
40,MetaDrive-test-noise-reduction-td3-1000,88,73.92557914030269,41214,412,465.827486038208,,67.9296646118164,22.428537368774414,0.0
41,MetaDrive-test-noise-reduction-td3-1000,88,73.24678075602492,42109,422,476.15499091148376,-25.350452423095703,2.3205935955047607,24.714757919311523,0.0
42,MetaDrive-test-noise-reduction-td3-1000,88,73.95026709300318,43097,431,487.53241896629333,-25.843303680419922,2.2845277786254883,25.429075241088867,0.0
43,MetaDrive-test-noise-reduction-td3-1000,88,75.31671057367376,44133,439,500.57159876823425,-27.727670669555664,2.8763082027435303,27.09387969970703,0.0
44,MetaDrive-test-noise-reduction-td3-1000,88,71.63063357830615,45079,450,511.2752089500427,-27.186843872070312,1.8360339403152466,27.299776077270508,0.0
45,MetaDrive-test-noise-reduction-td3-1000,88,71.82884398480611,46043,459,522.3800168037415,-26.609819412231445,21.38633918762207,25.094205856323242,0.0
46,MetaDrive-test-noise-reduction-td3-1000,88,72.12229036541325,47008,469,533.6792769432068,,3.2531991004943848,25.77200698852539,0.0
47,MetaDrive-test-noise-reduction-td3-1000,88,70.27131606737123,48063,480,545.512598991394,-25.74589729309082,14.699576377868652,25.667068481445312,0.0
48,MetaDrive-test-noise-reduction-td3-1000,87,70.0563789102834,49052,490,557.5286290645599,,7.991937160491943,29.349018096923828,0.0
49,MetaDrive-test-noise-reduction-td3-1000,88,69.1097660809565,50067,500,568.5089380741119,-28.6980037689209,41.601890563964844,28.043092727661133,0.0
50,MetaDrive-test-noise-reduction-td3-1000,88,70.1503966990768,51074,508,579.544606924057,,2.682340621948242,28.20665740966797,0.0
51,MetaDrive-test-noise-reduction-td3-1000,88,70.10394464805742,52031,515,590.179450750351,-29.11911392211914,2.686715602874756,29.554094314575195,0.0
52,MetaDrive-test-noise-reduction-td3-1000,88,72.13591653154859,53099,523,601.6713538169861,-31.39594841003418,50.66001892089844,31.180675506591797,0.0
53,MetaDrive-test-noise-reduction-td3-1000,88,74.86910815591193,54042,529,613.2255358695984,,3.103233814239502,30.31053924560547,0.0
54,MetaDrive-test-noise-reduction-td3-1000,87,76.09384191521171,55128,535,626.6930289268494,,1.6799440383911133,31.845809936523438,0.0
55,MetaDrive-test-noise-reduction-td3-1000,87,78.69159285392277,56198,541,638.6571400165558,,4.982971668243408,30.943883895874023,0.0
56,MetaDrive-test-noise-reduction-td3-1000,88,79.18479426901146,57199,542,648.6979060173035,-30.437911987304688,6.628612518310547,29.485145568847656,0.0
57,MetaDrive-test-noise-reduction-td3-1000,88,82.78060397555353,58024,545,657.7633967399597,,2.318695545196533,33.42324447631836,0.01
58,MetaDrive-test-noise-reduction-td3-1000,87,87.21974419680237,59414,548,675.9956028461456,,5.859273910522461,32.24598693847656,0.01
59,MetaDrive-test-noise-reduction-td3-1000,87,89.9336313812642,60216,551,685.1633558273315,,4.117024898529053,28.864795684814453,0.01
60,MetaDrive-test-noise-reduction-td3-1000,87,94.77812047642576,61318,555,698.4506528377533,,4.159863471984863,31.33218765258789,0.01
61,MetaDrive-test-noise-reduction-td3-1000,87,97.22253057913221,62177,557,708.4434428215027,-32.40901184082031,3.90401291847229,32.28313446044922,0.02
62,MetaDrive-test-noise-reduction-td3-1000,87,101.5000630864425,63436,559,722.4705438613892,,10.923752784729004,31.02726173400879,0.04
63,MetaDrive-test-noise-reduction-td3-1000,87,103.267890309761,64054,561,728.8989489078522,,4.248922348022461,30.641460418701172,0.04
64,MetaDrive-test-noise-reduction-td3-1000,87,106.01983717078144,65094,565,740.2291209697723,,63.96219253540039,32.77527618408203,0.04
65,MetaDrive-test-noise-reduction-td3-1000,88,110.71211775789445,66143,568,750.8742101192474,-33.59667205810547,29.78313446044922,32.238807678222656,0.06
66,MetaDrive-test-noise-reduction-td3-1000,88,115.16359900527492,67098,571,761.8980278968811,,22.54022979736328,35.283321380615234,0.07
67,MetaDrive-test-noise-reduction-td3-1000,88,117.8798793133568,68017,575,770.9965078830719,-33.31372833251953,5.007352828979492,33.098541259765625,0.08
68,MetaDrive-test-noise-reduction-td3-1000,88,120.66415094471779,69136,580,783.7781319618225,,3.190213441848755,35.244075775146484,0.09
69,MetaDrive-test-noise-reduction-td3-1000,88,122.5823259983553,70002,583,793.9707248210907,,4.8380255699157715,34.49461364746094,0.09
70,MetaDrive-test-noise-reduction-td3-1000,88,126.99318756572683,71203,586,808.441508769989,-34.56686019897461,14.250596046447754,35.28858184814453,0.09
71,MetaDrive-test-noise-reduction-td3-1000,88,130.5416935910115,72326,588,821.7574610710144,,3.822446346282959,36.49953079223633,0.1
72,MetaDrive-test-noise-reduction-td3-1000,88,134.37789677927194,73258,590,831.8986999988556,,32.60541534423828,37.50121307373047,0.11
73,MetaDrive-test-noise-reduction-td3-1000,88,135.73231679461873,74259,591,841.9915640354156,-35.80878448486328,6.684421539306641,35.33045196533203,0.11
74,MetaDrive-test-noise-reduction-td3-1000,88,135.08849812335004,75260,592,851.5021250247955,,21.83438491821289,35.94746780395508,0.11
75,MetaDrive-test-noise-reduction-td3-1000,88,138.64707010949695,76188,594,860.5126779079437,,3.324883460998535,37.960269927978516,0.13
76,MetaDrive-test-noise-reduction-td3-1000,88,142.11209265174028,77045,596,869.6195709705353,-35.52928161621094,2.5455989837646484,35.16633605957031,0.14
77,MetaDrive-test-noise-reduction-td3-1000,88,145.79964392801904,78024,599,879.8890519142151,,7.270178318023682,37.07050704956055,0.15
78,MetaDrive-test-noise-reduction-td3-1000,88,152.81175052295242,79567,602,897.6821279525757,-36.100791931152344,51.075416564941406,36.177547454833984,0.17
79,MetaDrive-test-noise-reduction-td3-1000,88,155.77567129364832,80034,603,902.284857749939,,3.0907678604125977,39.50043487548828,0.18
80,MetaDrive-test-noise-reduction-td3-1000,88,157.53851857345603,81035,604,915.9951949119568,-36.13218688964844,8.322488784790039,36.83573913574219,0.18
81,MetaDrive-test-noise-reduction-td3-1000,88,160.69656992952488,82150,606,928.6566579341888,,33.0743408203125,37.55508041381836,0.19
82,MetaDrive-test-noise-reduction-td3-1000,88,165.37664981131013,83198,608,939.9984309673309,,37.04155731201172,38.288944244384766,0.21
83,MetaDrive-test-noise-reduction-td3-1000,88,164.52579356703228,84199,609,949.9360320568085,-40.549049377441406,8.604400634765625,41.09720230102539,0.21
84,MetaDrive-test-noise-reduction-td3-1000,88,168.47386414881558,85291,612,961.7008938789368,-36.71516418457031,5.669373035430908,36.724037170410156,0.22
85,MetaDrive-test-noise-reduction-td3-1000,88,174.6567145833464,86514,614,977.9400320053101,,4.134698390960693,38.811344146728516,0.23
86,MetaDrive-test-noise-reduction-td3-1000,88,176.9571778886839,87264,615,987.3179788589478,,4.09760046005249,41.17374038696289,0.24
87,MetaDrive-test-noise-reduction-td3-1000,88,176.97304973541014,88265,616,1000.3519999980927,-38.096588134765625,6.712390899658203,38.54267120361328,0.24
88,MetaDrive-test-noise-reduction-td3-1000,88,181.5881324799699,89701,618,1016.655622959137,-38.85185623168945,2.6248981952667236,38.68949508666992,0.26
89,MetaDrive-test-noise-reduction-td3-1000,88,184.07401319518024,90165,619,1021.2510299682617,-42.67253112792969,10.922462463378906,42.999359130859375,0.27
90,MetaDrive-test-noise-reduction-td3-1000,88,188.80467599164925,91497,622,1037.4934117794037,-39.40890884399414,5.514065742492676,39.094696044921875,0.27
91,MetaDrive-test-noise-reduction-td3-1000,88,192.38571888575788,92220,624,1045.7636258602142,,47.438323974609375,40.256839752197266,0.28
92,MetaDrive-test-noise-reduction-td3-1000,87,195.4199226369138,93862,626,1067.025691986084,,5.598939418792725,40.971961975097656,0.28
93,MetaDrive-test-noise-reduction-td3-1000,87,196.6734360867602,94863,627,1080.0664639472961,-38.30963897705078,5.502775192260742,37.48008346557617,0.28
94,MetaDrive-test-noise-reduction-td3-1000,87,198.39532561350188,95263,628,1084.4844207763672,-36.37088394165039,7.935647964477539,36.826148986816406,0.29
95,MetaDrive-test-noise-reduction-td3-1000,87,201.63919046520098,96446,630,1099.8130388259888,,3.275818347930908,38.77376937866211,0.31
96,MetaDrive-test-noise-reduction-td3-1000,87,206.90179599384493,97532,632,1111.8666110038757,,5.165313243865967,40.64336395263672,0.33
97,MetaDrive-test-noise-reduction-td3-1000,87,209.73905055791022,98212,633,1120.5916030406952,,6.505510330200195,39.089080810546875,0.34
98,MetaDrive-test-noise-reduction-td3-1000,87,212.91394226751575,99022,634,1132.1708190441132,,5.014870643615723,41.46131896972656,0.35
99,MetaDrive-test-noise-reduction-td3-1000,87,219.15014375214662,100367,636,1147.0518968105316,-39.3052978515625,6.139398574829102,38.97871398925781,0.37
100,MetaDrive-test-noise-reduction-td3-1000,87,222.3050121383632,101235,638,1156.9200718402863,-39.1118278503418,8.532094955444336,39.70488739013672,0.38
101,MetaDrive-test-noise-reduction-td3-1000,87,225.28308116721655,102144,640,1167.1530261039734,,5.3513078689575195,37.647953033447266,0.39
102,MetaDrive-test-noise-reduction-td3-1000,87,224.22386976103843,103145,641,1178.8587629795074,-40.85150146484375,6.04084587097168,41.218994140625,0.39
103,MetaDrive-test-noise-reduction-td3-1000,87,225.72811447972356,104029,643,1189.0902531147003,-42.45864486694336,36.530879974365234,42.16600799560547,0.4
104,MetaDrive-test-noise-reduction-td3-1000,87,225.20237218045003,105224,646,1203.8960988521576,,9.372211456298828,41.871707916259766,0.39
105,MetaDrive-test-noise-reduction-td3-1000,87,226.07859693071308,106218,649,1216.2304039001465,,59.254608154296875,40.89102554321289,0.4
106,MetaDrive-test-noise-reduction-td3-1000,87,227.7823606257588,107219,650,1228.4951899051666,-42.74677658081055,11.34906005859375,41.49663162231445,0.4
107,MetaDrive-test-noise-reduction-td3-1000,87,227.56297530896956,108113,651,1241.2052040100098,-42.22346496582031,5.643341064453125,41.73754119873047,0.4
108,MetaDrive-test-noise-reduction-td3-1000,86,233.03856079597918,109420,653,1259.146556854248,,5.820333480834961,47.03417205810547,0.42
109,MetaDrive-test-noise-reduction-td3-1000,86,230.96599143103683,110529,655,1273.173957824707,-40.96316909790039,17.174800872802734,40.711387634277344,0.42
110,MetaDrive-test-noise-reduction-td3-1000,86,231.62585818978877,111415,657,1282.6572930812836,-40.86610412597656,4.191854476928711,40.534732818603516,0.43
111,MetaDrive-test-noise-reduction-td3-1000,86,230.52012353182386,112733,659,1298.5516350269318,-40.51381301879883,7.194100379943848,40.851261138916016,0.42
112,MetaDrive-test-noise-reduction-td3-1000,86,231.72438279142455,113087,660,1302.5195639133453,-42.871952056884766,4.876121520996094,42.86202621459961,0.42
113,MetaDrive-test-noise-reduction-td3-1000,86,235.21923571900777,114492,663,1319.3085250854492,,7.863689422607422,41.56370162963867,0.44
114,MetaDrive-test-noise-reduction-td3-1000,86,239.5001143871366,115968,665,1339.8864109516144,,104.7979507446289,40.24567413330078,0.45
115,MetaDrive-test-noise-reduction-td3-1000,86,243.16273192926963,116854,666,1350.2042770385742,,12.721585273742676,39.60881805419922,0.46
116,MetaDrive-test-noise-reduction-td3-1000,86,241.54335385731133,117523,668,1357.5912981033325,-39.082706451416016,6.758543014526367,39.1845703125,0.45
117,MetaDrive-test-noise-reduction-td3-1000,86,240.45984574007736,118051,670,1364.7237799167633,-43.83857345581055,51.94208526611328,43.76636505126953,0.45
118,MetaDrive-test-noise-reduction-td3-1000,86,240.302016500283,119060,674,1377.7207188606262,,5.821321964263916,43.497127532958984,0.43
119,MetaDrive-test-noise-reduction-td3-1000,86,245.6452511407291,120420,677,1393.915685892105,,14.462047576904297,43.93311309814453,0.45
120,MetaDrive-test-noise-reduction-td3-1000,86,250.13014203407786,121853,679,1412.1429529190063,-40.19280242919922,6.752993583679199,40.36668014526367,0.46
121,MetaDrive-test-noise-reduction-td3-1000,86,249.8555219305007,122132,680,1415.6777148246765,,36.410667419433594,36.345279693603516,0.46
122,MetaDrive-test-noise-reduction-td3-1000,86,251.79939647652657,123132,682,1428.3976440429688,,89.39019012451172,37.473087310791016,0.46
123,MetaDrive-test-noise-reduction-td3-1000,86,255.7507241769061,124216,684,1441.9311759471893,,4.51607608795166,42.10393524169922,0.48
124,MetaDrive-test-noise-reduction-td3-1000,85,256.7847211385122,125071,687,1454.495018005371,-41.1348762512207,8.417032241821289,40.91183853149414,0.49
125,MetaDrive-test-noise-reduction-td3-1000,85,253.62638216322955,126146,690,1469.3963649272919,,10.523311614990234,37.08131790161133,0.48
126,MetaDrive-test-noise-reduction-td3-1000,85,257.2503939036468,127666,693,1492.7651960849762,,66.84251403808594,43.10498809814453,0.48
127,MetaDrive-test-noise-reduction-td3-1000,85,257.64633022931065,128298,694,1503.03142786026,,57.62482452392578,42.439002990722656,0.47
128,MetaDrive-test-noise-reduction-td3-1000,85,260.6525637634891,129450,696,1522.725725889206,,10.781394958496094,42.35292434692383,0.48
129,MetaDrive-test-noise-reduction-td3-1000,84,264.5657815261725,130451,697,1542.3595728874207,-40.58289337158203,15.438879013061523,40.06193542480469,0.48
130,MetaDrive-test-noise-reduction-td3-1000,84,260.9994390090618,131353,700,1555.3979539871216,-42.24240493774414,5.335125923156738,41.94763946533203,0.47
131,MetaDrive-test-noise-reduction-td3-1000,84,256.83444100868365,132791,704,1576.539253950119,-41.02106475830078,60.24207305908203,41.29334259033203,0.45
132,MetaDrive-test-noise-reduction-td3-1000,84,259.34605036611117,133633,705,1587.4454898834229,-41.2564811706543,10.064483642578125,40.85175323486328,0.46
133,MetaDrive-test-noise-reduction-td3-1000,84,260.1046790805138,134384,706,1597.382847070694,,11.049072265625,39.192413330078125,0.46
134,MetaDrive-test-noise-reduction-td3-1000,84,260.8295190231519,135313,708,1609.4054248332977,-46.30573272705078,6.4040985107421875,46.45621109008789,0.46
135,MetaDrive-test-noise-reduction-td3-1000,83,264.6027013758016,136953,711,1632.431531906128,-42.3360595703125,54.57936477661133,41.443912506103516,0.48
136,MetaDrive-test-noise-reduction-td3-1000,83,264.78853462147276,137358,712,1637.22442984581,,4.3344573974609375,48.47577667236328,0.48
137,MetaDrive-test-noise-reduction-td3-1000,83,261.63044634157865,138739,715,1655.9376320838928,-47.56816864013672,7.550315856933594,47.122501373291016,0.48
138,MetaDrive-test-noise-reduction-td3-1000,83,264.8442406158498,139491,716,1666.3268008232117,-44.64364242553711,76.1865234375,44.277442932128906,0.49
139,MetaDrive-test-noise-reduction-td3-1000,83,263.9726287367672,140492,717,1680.3069367408752,,11.217033386230469,41.42262268066406,0.48
140,MetaDrive-test-noise-reduction-td3-1000,83,262.16986583635475,141604,719,1695.6345307826996,,5.636443138122559,46.13816833496094,0.47
141,MetaDrive-test-noise-reduction-td3-1000,83,265.2123303359564,142201,720,1703.7159497737885,-40.34221267700195,6.354517936706543,40.50005340576172,0.48
142,MetaDrive-test-noise-reduction-td3-1000,83,267.02884137010244,143516,722,1721.1689977645874,,8.10059928894043,43.05287170410156,0.49
143,MetaDrive-test-noise-reduction-td3-1000,83,267.370693201822,144176,723,1729.473308801651,,8.490184783935547,45.62298583984375,0.49
144,MetaDrive-test-noise-reduction-td3-1000,83,270.29277016522786,145028,724,1741.8350739479065,,11.416736602783203,41.06460189819336,0.5
145,MetaDrive-test-noise-reduction-td3-1000,83,269.99351479763607,146029,725,1756.8747909069061,-47.67329406738281,8.014946937561035,47.17633056640625,0.5
146,MetaDrive-test-noise-reduction-td3-1000,82,271.303989119053,147889,727,1783.8719019889832,-41.958805084228516,17.86419677734375,41.99793243408203,0.51
147,MetaDrive-test-noise-reduction-td3-1000,82,271.79707099907444,148890,728,1799.054594039917,,6.339111328125,44.78789138793945,0.5
148,MetaDrive-test-noise-reduction-td3-1000,82,272.826993643837,149773,729,1812.8925907611847,-42.92269515991211,4.398473739624023,42.62020492553711,0.5
149,MetaDrive-test-noise-reduction-td3-1000,82,273.534551548338,150443,730,1823.6053659915924,-46.57273483276367,10.230419158935547,46.045433044433594,0.49
150,MetaDrive-test-noise-reduction-td3-1000,82,273.1556176580745,151444,731,1837.430720090866,,4.576849460601807,45.41964340209961,0.48
151,MetaDrive-test-noise-reduction-td3-1000,82,268.68782586948913,152178,733,1846.4602808952332,,9.393166542053223,42.049156188964844,0.47
152,MetaDrive-test-noise-reduction-td3-1000,82,259.49047513466377,153443,736,1862.3059871196747,-45.9996223449707,6.361032009124756,45.7414436340332,0.44
153,MetaDrive-test-noise-reduction-td3-1000,82,261.83741506632646,154612,738,1878.6877629756927,,9.932924270629883,45.96086883544922,0.45
154,MetaDrive-test-noise-reduction-td3-1000,82,264.6010324256931,155008,739,1883.816603899002,,6.669398784637451,45.73277282714844,0.46
155,MetaDrive-test-noise-reduction-td3-1000,82,261.9507569760629,156214,743,1899.9789760112762,,11.443941116333008,44.679439544677734,0.46
156,MetaDrive-test-noise-reduction-td3-1000,82,262.1222903326547,157215,744,1911.529695034027,-41.506980895996094,11.880881309509277,42.3233528137207,0.46
157,MetaDrive-test-noise-reduction-td3-1000,82,262.4354708374793,158132,746,1923.706598997116,,8.67873764038086,45.422340393066406,0.47
158,MetaDrive-test-noise-reduction-td3-1000,82,264.01655858468916,159861,749,1947.0681631565094,-44.35567092895508,8.502358436584473,44.76811218261719,0.47
159,MetaDrive-test-noise-reduction-td3-1000,82,262.5984114063512,160068,750,1949.7613549232483,,92.67875671386719,44.778472900390625,0.47
160,MetaDrive-test-noise-reduction-td3-1000,81,263.2066464051148,161069,751,1966.338110923767,-43.094573974609375,7.734234809875488,42.47689437866211,0.47
161,MetaDrive-test-noise-reduction-td3-1000,81,262.6216904535854,162070,752,1984.6579110622406,,9.134597778320312,49.066497802734375,0.46
162,MetaDrive-test-noise-reduction-td3-1000,81,263.4918055447949,163172,755,1998.8963508605957,,11.08969497680664,43.065155029296875,0.46
163,MetaDrive-test-noise-reduction-td3-1000,81,265.7210095527394,164582,757,2017.2386350631714,,10.486225128173828,44.197261810302734,0.46
164,MetaDrive-test-noise-reduction-td3-1000,81,264.9852759054067,165106,758,2023.6528980731964,,11.09220027923584,44.397911071777344,0.45
165,MetaDrive-test-noise-reduction-td3-1000,81,266.79626197040506,166105,760,2036.2040131092072,-43.488834381103516,12.577335357666016,43.20006561279297,0.47
166,MetaDrive-test-noise-reduction-td3-1000,81,264.1089637967748,167283,763,2051.58526802063,-43.8427734375,8.366216659545898,44.673667907714844,0.46
167,MetaDrive-test-noise-reduction-td3-1000,81,263.18388707503647,168184,765,2064.2359297275543,,9.748279571533203,47.967166900634766,0.46
168,MetaDrive-test-noise-reduction-td3-1000,81,263.9832849865013,169165,767,2076.1615369319916,-45.54848098754883,5.8554840087890625,45.4461784362793,0.47
169,MetaDrive-test-noise-reduction-td3-1000,81,265.84597890222125,170493,769,2093.048738718033,-46.400543212890625,11.337688446044922,46.15978240966797,0.48
170,MetaDrive-test-noise-reduction-td3-1000,81,267.6027103866549,171049,770,2100.1749000549316,-43.90733337402344,8.038314819335938,42.82432174682617,0.49
171,MetaDrive-test-noise-reduction-td3-1000,81,271.05359076862874,172033,772,2113.9770209789276,-43.830535888671875,10.867870330810547,43.7631950378418,0.5
172,MetaDrive-test-noise-reduction-td3-1000,81,269.5617789291569,173445,776,2132.750701904297,-46.01594161987305,30.307289123535156,46.363643646240234,0.5
173,MetaDrive-test-noise-reduction-td3-1000,81,269.9138229825903,174012,777,2140.702395915985,,35.701751708984375,45.20719909667969,0.5
174,MetaDrive-test-noise-reduction-td3-1000,81,268.4631967792037,175284,780,2156.34725689888,,7.905950546264648,47.42897415161133,0.5
175,MetaDrive-test-noise-reduction-td3-1000,81,263.7963435082139,176159,783,2167.49054479599,-47.46675109863281,7.079685211181641,47.53741455078125,0.5
176,MetaDrive-test-noise-reduction-td3-1000,81,265.943024877099,177693,785,2189.3500039577484,-46.9813346862793,11.791508674621582,46.42901611328125,0.51
177,MetaDrive-test-noise-reduction-td3-1000,81,268.2150307143745,178694,786,2202.5635347366333,,7.213226795196533,48.56211853027344,0.51
178,MetaDrive-test-noise-reduction-td3-1000,81,267.873674848846,179435,787,2212.1226019859314,-46.58143615722656,5.56861686706543,45.9432487487793,0.51
179,MetaDrive-test-noise-reduction-td3-1000,81,267.6894432009645,180153,789,2221.51291179657,-48.31659698486328,11.058509826660156,48.85042953491211,0.51
180,MetaDrive-test-noise-reduction-td3-1000,80,270.52461949229337,181154,790,2236.748472929001,,86.25949096679688,44.22396469116211,0.51
181,MetaDrive-test-noise-reduction-td3-1000,80,272.2065548665347,182184,792,2250.961066007614,,8.003166198730469,47.469017028808594,0.52
182,MetaDrive-test-noise-reduction-td3-1000,80,272.3810379346606,183532,794,2270.62859082222,,7.705743312835693,46.88286209106445,0.53
183,MetaDrive-test-noise-reduction-td3-1000,80,272.480358260268,184120,795,2278.8526458740234,,23.02239990234375,47.375125885009766,0.53
184,MetaDrive-test-noise-reduction-td3-1000,80,268.7395711586421,185466,797,2296.7897429466248,,6.161602973937988,44.946067810058594,0.53
185,MetaDrive-test-noise-reduction-td3-1000,80,274.23806189102953,186649,799,2314.8696959018707,-47.33965301513672,8.365701675415039,46.914798736572266,0.54
186,MetaDrive-test-noise-reduction-td3-1000,80,274.58033922324523,187400,800,2326.1751317977905,,7.8036603927612305,49.699432373046875,0.54
187,MetaDrive-test-noise-reduction-td3-1000,80,277.0838661115094,188404,802,2339.0629308223724,,18.411413192749023,44.62841796875,0.55
188,MetaDrive-test-noise-reduction-td3-1000,80,280.3616350462537,189834,804,2359.862412929535,,33.19300079345703,47.22843933105469,0.57
189,MetaDrive-test-noise-reduction-td3-1000,80,279.97023941022803,190566,805,2369.0622007846832,,5.969738483428955,47.832618713378906,0.57
190,MetaDrive-test-noise-reduction-td3-1000,80,277.7209780926958,191567,806,2381.615134000778,-41.48091506958008,9.147735595703125,41.05708312988281,0.56
191,MetaDrive-test-noise-reduction-td3-1000,80,276.90829266603146,192101,807,2388.4446029663086,-45.38399124145508,70.58296203613281,44.158451080322266,0.55
192,MetaDrive-test-noise-reduction-td3-1000,80,274.959414861055,193270,809,2403.694235801697,,7.780769348144531,45.03187942504883,0.54
193,MetaDrive-test-noise-reduction-td3-1000,80,273.82245988939013,194901,812,2429.7293140888214,-50.55867004394531,10.465888023376465,50.94434356689453,0.53
194,MetaDrive-test-noise-reduction-td3-1000,80,273.5402333736493,195448,813,2437.5841081142426,,7.815749168395996,50.46902847290039,0.52
195,MetaDrive-test-noise-reduction-td3-1000,80,272.74776183543304,196115,815,2446.7173459529877,-43.41790008544922,8.236886024475098,43.139892578125,0.51
196,MetaDrive-test-noise-reduction-td3-1000,80,271.55423480556203,197116,816,2461.8021450042725,,7.104102611541748,50.297882080078125,0.5
197,MetaDrive-test-noise-reduction-td3-1000,80,272.82004017163877,198014,818,2473.7702050209045,,32.790985107421875,44.3470344543457,0.5
198,MetaDrive-test-noise-reduction-td3-1000,80,270.47143668772156,199015,819,2487.5592420101166,-48.520267486572266,99.08541107177734,46.514488220214844,0.49
199,MetaDrive-test-noise-reduction-td3-1000,80,269.1996265907129,200218,821,2502.421915769577,,15.433408737182617,45.32762145996094,0.49
200,MetaDrive-test-noise-reduction-td3-1000,79,271.1134714079082,201173,822,2516.3833079338074,-43.04038619995117,10.004018783569336,42.42743682861328,0.5
201,MetaDrive-test-noise-reduction-td3-1000,79,273.09404255441893,202028,823,2529.747946023941,,7.615530014038086,46.84052658081055,0.5
202,MetaDrive-test-noise-reduction-td3-1000,79,269.7845760930232,203029,824,2545.5157980918884,-44.448089599609375,14.865020751953125,45.409645080566406,0.49
203,MetaDrive-test-noise-reduction-td3-1000,79,269.16345381445115,204030,825,2558.4762239456177,,36.59998321533203,42.7527961730957,0.49
204,MetaDrive-test-noise-reduction-td3-1000,79,267.4373517626842,205007,827,2571.4025478363037,-48.62351608276367,5.591953277587891,48.33416748046875,0.49
205,MetaDrive-test-noise-reduction-td3-1000,79,266.4661262718455,206030,829,2584.953938961029,,16.164836883544922,44.37848663330078,0.5
206,MetaDrive-test-noise-reduction-td3-1000,79,266.744171553382,207207,832,2599.1409718990326,-49.51543426513672,6.683045387268066,49.32197570800781,0.52
207,MetaDrive-test-noise-reduction-td3-1000,79,269.2987103718144,208711,834,2617.994036912918,-49.06584548950195,58.946754455566406,47.485469818115234,0.52
208,MetaDrive-test-noise-reduction-td3-1000,79,271.50579822522326,209260,835,2624.7045798301697,,5.652230739593506,48.23484802246094,0.53
209,MetaDrive-test-noise-reduction-td3-1000,79,272.93384284409035,210261,836,2639.408915042877,-43.78609848022461,27.235042572021484,43.44734191894531,0.53
210,MetaDrive-test-noise-reduction-td3-1000,79,270.1695019852571,211220,838,2651.9253697395325,,18.1070556640625,49.52226638793945,0.52
211,MetaDrive-test-noise-reduction-td3-1000,79,270.55283955012834,212153,839,2665.8112530708313,-48.74794006347656,11.006669044494629,49.04481506347656,0.52
212,MetaDrive-test-noise-reduction-td3-1000,79,273.8837587197568,213699,841,2684.8976850509644,-45.49609375,6.635186195373535,45.648681640625,0.53
213,MetaDrive-test-noise-reduction-td3-1000,79,275.6612518201156,214700,842,2701.6632709503174,,8.14925479888916,49.5241813659668,0.53
214,MetaDrive-test-noise-reduction-td3-1000,79,275.28794893182317,215091,843,2706.3163599967957,-51.27586364746094,10.677868843078613,50.590545654296875,0.53
215,MetaDrive-test-noise-reduction-td3-1000,79,277.2388765855549,216920,845,2730.1752808094025,,9.071501731872559,49.621063232421875,0.53
216,MetaDrive-test-noise-reduction-td3-1000,79,278.5129729004577,217378,846,2736.308411836624,,11.04549789428711,51.350311279296875,0.54
217,MetaDrive-test-noise-reduction-td3-1000,79,280.92456050972913,218677,848,2752.955356836319,-48.908851623535156,9.905227661132812,48.191287994384766,0.55
218,MetaDrive-test-noise-reduction-td3-1000,79,280.4919967233318,219505,850,2764.5597739219666,-43.24726486206055,8.770792007446289,42.79194259643555,0.56
219,MetaDrive-test-noise-reduction-td3-1000,79,280.6026593946924,220559,852,2777.9628999233246,-48.26766586303711,5.620787620544434,48.25627517700195,0.58
220,MetaDrive-test-noise-reduction-td3-1000,79,282.37304835396316,221376,853,2789.966787815094,,6.966740608215332,48.749874114990234,0.59
221,MetaDrive-test-noise-reduction-td3-1000,79,284.90115493693384,222829,855,2811.8357298374176,-47.72520065307617,6.154864311218262,47.783355712890625,0.59
222,MetaDrive-test-noise-reduction-td3-1000,79,283.382924282282,223335,856,2818.4199888706207,-50.17070770263672,81.39341735839844,49.95553970336914,0.58
223,MetaDrive-test-noise-reduction-td3-1000,79,283.37589813861666,224129,857,2828.0571069717407,-49.66814422607422,17.55962371826172,48.82823181152344,0.58
224,MetaDrive-test-noise-reduction-td3-1000,79,284.04435141631006,225274,859,2842.7131950855255,,9.649896621704102,48.24113082885742,0.58
225,MetaDrive-test-noise-reduction-td3-1000,79,284.53233195754257,226275,860,2859.7685329914093,-47.621368408203125,8.939987182617188,47.97880935668945,0.57
226,MetaDrive-test-noise-reduction-td3-1000,79,284.4374742429225,227042,862,2869.5333428382874,,9.661481857299805,45.44086456298828,0.57
227,MetaDrive-test-noise-reduction-td3-1000,79,284.6716215829038,228043,863,2884.2882199287415,-49.84480285644531,7.729929447174072,49.81654357910156,0.57
228,MetaDrive-test-noise-reduction-td3-1000,79,285.07965938161556,229695,866,2906.6250360012054,-48.101409912109375,10.458009719848633,47.81852722167969,0.57
229,MetaDrive-test-noise-reduction-td3-1000,79,286.79255409430783,230574,867,2918.5600068569183,,6.838676452636719,49.604454040527344,0.57
230,MetaDrive-test-noise-reduction-td3-1000,78,286.89421741133685,231176,868,2926.8777689933777,,31.144012451171875,47.95577621459961,0.57
231,MetaDrive-test-noise-reduction-td3-1000,78,288.33421448664046,232651,871,2945.6913039684296,-48.264522552490234,12.600814819335938,49.05953598022461,0.57
232,MetaDrive-test-noise-reduction-td3-1000,78,286.32412571777394,233393,873,2954.86052775383,-51.691566467285156,5.773831367492676,51.490291595458984,0.57
233,MetaDrive-test-noise-reduction-td3-1000,78,291.3454089388919,234812,875,2976.1254239082336,,6.2236433029174805,50.205780029296875,0.59
234,MetaDrive-test-noise-reduction-td3-1000,78,289.56706077011665,235094,876,2979.63730096817,,7.295936107635498,48.159027099609375,0.58
235,MetaDrive-test-noise-reduction-td3-1000,78,290.56708541867414,236734,878,3005.854831933975,,10.784427642822266,45.40288162231445,0.57
236,MetaDrive-test-noise-reduction-td3-1000,78,292.0711697644431,237306,879,3013.4875049591064,,5.365756034851074,48.793060302734375,0.57
237,MetaDrive-test-noise-reduction-td3-1000,78,294.70053758928054,238499,881,3029.0046100616455,-50.65931701660156,17.60838508605957,49.78099060058594,0.58
238,MetaDrive-test-noise-reduction-td3-1000,78,294.90209838511515,239375,883,3040.4217698574066,-45.81193161010742,13.136509895324707,46.754581451416016,0.58
239,MetaDrive-test-noise-reduction-td3-1000,78,292.48774918866724,240075,885,3049.6116259098053,-47.768550872802734,9.33875560760498,47.28840255737305,0.57
240,MetaDrive-test-noise-reduction-td3-1000,78,290.45088913561153,241551,889,3069.2906827926636,-50.04938507080078,15.210058212280273,50.54094696044922,0.57
241,MetaDrive-test-noise-reduction-td3-1000,78,285.74823820368283,242429,891,3083.476201057434,-54.17564010620117,8.555252075195312,53.736473083496094,0.56
242,MetaDrive-test-noise-reduction-td3-1000,78,284.0809252724246,243259,893,3095.0247209072113,-51.07411575317383,8.8143949508667,50.33383560180664,0.56
243,MetaDrive-test-noise-reduction-td3-1000,78,281.3753031038028,244087,895,3106.6514418125153,-50.54364013671875,9.293668746948242,50.969207763671875,0.54
244,MetaDrive-test-noise-reduction-td3-1000,78,282.4053084617429,245468,897,3125.9831869602203,,10.239917755126953,46.85845184326172,0.55
245,MetaDrive-test-noise-reduction-td3-1000,78,282.6207894776199,246469,898,3140.2053639888763,-49.64522171020508,7.479725360870361,49.7567253112793,0.55
246,MetaDrive-test-noise-reduction-td3-1000,78,281.66570238799557,247259,899,3151.3765828609467,-49.338661193847656,45.53377914428711,48.0639533996582,0.55
247,MetaDrive-test-noise-reduction-td3-1000,78,278.06818441794564,248689,902,3169.994738817215,-45.61314392089844,15.05223274230957,44.974918365478516,0.54
248,MetaDrive-test-noise-reduction-td3-1000,78,275.19560814854367,249511,904,3180.01611995697,-50.46726989746094,10.608846664428711,50.48383331298828,0.53
249,MetaDrive-test-noise-reduction-td3-1000,78,272.30044133965146,250105,906,3188.305491924286,-52.62621307373047,9.513120651245117,52.13191223144531,0.52
250,MetaDrive-test-noise-reduction-td3-1000,78,275.5567078901339,251438,908,3206.01735496521,,10.082316398620605,48.5457649230957,0.53
251,MetaDrive-test-noise-reduction-td3-1000,78,272.8834682520374,252935,911,3225.60511803627,-48.50911331176758,7.211861610412598,48.99204635620117,0.51
252,MetaDrive-test-noise-reduction-td3-1000,78,272.26769005562613,253751,912,3237.676151037216,-45.244300842285156,27.457408905029297,44.35991287231445,0.51
253,MetaDrive-test-noise-reduction-td3-1000,78,272.5127259248027,254329,914,3245.5131027698517,-49.31713104248047,20.926050186157227,48.590824127197266,0.52
254,MetaDrive-test-noise-reduction-td3-1000,78,272.63458411828697,255087,915,3259.7742037773132,-45.115577697753906,4.380654335021973,44.81151580810547,0.52
255,MetaDrive-test-noise-reduction-td3-1000,78,274.8194930517329,256268,917,3276.0971949100494,,12.516139030456543,48.53464126586914,0.54
256,MetaDrive-test-noise-reduction-td3-1000,78,270.9501205286896,257541,920,3293.4024047851562,-49.967647552490234,12.681753158569336,50.785884857177734,0.54
257,MetaDrive-test-noise-reduction-td3-1000,78,266.5421159199758,258078,922,3300.3811089992523,,35.017250061035156,50.0403938293457,0.52
258,MetaDrive-test-noise-reduction-td3-1000,78,264.8623698217618,259079,923,3316.191163778305,-50.397064208984375,18.606319427490234,49.695159912109375,0.51
259,MetaDrive-test-noise-reduction-td3-1000,78,267.4316095108299,260380,925,3334.399365901947,,23.35959815979004,52.57066345214844,0.53
260,MetaDrive-test-noise-reduction-td3-1000,78,270.36667816940786,261841,927,3355.42045378685,-45.644798278808594,9.32650375366211,45.956024169921875,0.53
261,MetaDrive-test-noise-reduction-td3-1000,78,269.76788578237984,262309,928,3361.991129875183,-46.82777404785156,21.117586135864258,47.047542572021484,0.53
262,MetaDrive-test-noise-reduction-td3-1000,78,267.76731844023107,263009,930,3371.53644490242,-46.78285217285156,13.87617301940918,47.313934326171875,0.51
263,MetaDrive-test-noise-reduction-td3-1000,77,270.9842869041342,264377,932,3393.4001779556274,-45.3619270324707,13.569397926330566,45.230308532714844,0.51
264,MetaDrive-test-noise-reduction-td3-1000,77,272.29126946680043,265263,933,3407.6462910175323,-55.8320198059082,7.986021041870117,55.68909454345703,0.51
265,MetaDrive-test-noise-reduction-td3-1000,77,271.81860131698795,266301,935,3421.0025668144226,-48.2243537902832,11.781536102294922,48.706764221191406,0.52
266,MetaDrive-test-noise-reduction-td3-1000,77,270.64570984513256,267314,937,3434.3265478610992,,8.644392013549805,46.716705322265625,0.53
267,MetaDrive-test-noise-reduction-td3-1000,77,273.16915345965964,268107,938,3444.161399126053,-52.217491149902344,13.592052459716797,52.21832275390625,0.54
268,MetaDrive-test-noise-reduction-td3-1000,77,268.832630889383,269288,941,3459.666354894638,,13.961318969726562,50.94236373901367,0.52
269,MetaDrive-test-noise-reduction-td3-1000,77,268.94268585244384,270152,943,3472.850180864334,,14.89419937133789,51.86463165283203,0.52
270,MetaDrive-test-noise-reduction-td3-1000,77,269.58782411511595,271717,945,3501.558670759201,-41.252784729003906,19.711030960083008,41.95683670043945,0.51
271,MetaDrive-test-noise-reduction-td3-1000,77,267.80125333867915,272538,947,3513.241868019104,,43.175323486328125,52.59964370727539,0.49
272,MetaDrive-test-noise-reduction-td3-1000,77,265.138257177022,273331,949,3524.3200640678406,-51.60653305053711,18.155052185058594,50.8465690612793,0.48
273,MetaDrive-test-noise-reduction-td3-1000,77,266.17480370671893,274021,950,3533.7710299491882,-53.379295349121094,8.633771896362305,52.720947265625,0.48
274,MetaDrive-test-noise-reduction-td3-1000,77,267.2615863604096,275366,952,3554.2840020656586,,22.8265380859375,53.863304138183594,0.48
275,MetaDrive-test-noise-reduction-td3-1000,77,264.3042045792952,276169,954,3567.565883874893,-51.57438278198242,7.309520721435547,51.41598129272461,0.47
276,MetaDrive-test-noise-reduction-td3-1000,77,263.91310283731485,277355,956,3585.5816779136658,-53.82803726196289,9.465177536010742,53.117610931396484,0.49
277,MetaDrive-test-noise-reduction-td3-1000,77,264.32357722112954,278545,958,3601.656811952591,-52.5636100769043,14.58437728881836,51.914974212646484,0.5
278,MetaDrive-test-noise-reduction-td3-1000,77,263.50802117370347,279139,959,3610.8556847572327,-52.1640739440918,6.613526344299316,51.42131423950195,0.5
279,MetaDrive-test-noise-reduction-td3-1000,77,263.67342740668096,280242,961,3629.415599822998,,13.982664108276367,48.101680755615234,0.51
280,MetaDrive-test-noise-reduction-td3-1000,77,261.3322512415202,281377,965,3645.3284709453583,-51.51948165893555,10.974798202514648,51.17684555053711,0.5
281,MetaDrive-test-noise-reduction-td3-1000,77,253.8571429293174,282471,967,3661.0266168117523,-50.97373580932617,8.779598236083984,50.76567077636719,0.48
282,MetaDrive-test-noise-reduction-td3-1000,77,253.27838031214745,283067,968,3670.3641448020935,-48.623863220214844,14.934255599975586,48.3576545715332,0.48
283,MetaDrive-test-noise-reduction-td3-1000,77,250.7075424655992,284120,971,3688.073021888733,,10.341856002807617,51.27101516723633,0.47
284,MetaDrive-test-noise-reduction-td3-1000,77,252.38810119140726,285101,973,3702.382213830948,-47.55389404296875,12.76650619506836,48.04080581665039,0.47
285,MetaDrive-test-noise-reduction-td3-1000,76,250.6970872074439,286441,975,3722.0037939548492,-48.96508026123047,10.890220642089844,48.904388427734375,0.46
286,MetaDrive-test-noise-reduction-td3-1000,76,250.22029185122122,287272,977,3733.1145589351654,,158.12815856933594,53.12546920776367,0.45
287,MetaDrive-test-noise-reduction-td3-1000,76,248.33226787060772,288517,980,3750.004112958908,-54.300048828125,14.113399505615234,53.6389045715332,0.46
288,MetaDrive-test-noise-reduction-td3-1000,76,248.24043422453565,289512,982,3763.2564187049866,,2.692464590072632,49.557186126708984,0.46
289,MetaDrive-test-noise-reduction-td3-1000,76,248.8992449594703,290278,983,3773.7449219226837,,13.578186988830566,49.97967529296875,0.46
290,MetaDrive-test-noise-reduction-td3-1000,76,248.99711187815478,291067,985,3783.567259788513,-43.432464599609375,8.376392364501953,43.18186569213867,0.45
291,MetaDrive-test-noise-reduction-td3-1000,76,252.32280961843296,292198,987,3797.533903837204,,28.105670928955078,49.380226135253906,0.46
292,MetaDrive-test-noise-reduction-td3-1000,76,249.86102446638574,293053,990,3809.190659046173,-46.72064971923828,11.152674674987793,47.423606872558594,0.44
293,MetaDrive-test-noise-reduction-td3-1000,76,251.83896438114175,294574,992,3832.53510594368,,5.891971588134766,51.01676559448242,0.44
294,MetaDrive-test-noise-reduction-td3-1000,76,254.19810721621172,295284,993,3843.2201018333435,,7.076812744140625,48.81207275390625,0.44
295,MetaDrive-test-noise-reduction-td3-1000,76,255.5446560213548,296262,995,3857.2027258872986,,8.8131103515625,50.22721481323242,0.45
296,MetaDrive-test-noise-reduction-td3-1000,76,257.15134081105674,297608,997,3875.483853816986,,12.273504257202148,48.58858108520508,0.45
297,MetaDrive-test-noise-reduction-td3-1000,76,257.74472578797696,298179,998,3882.6676590442657,-50.48455047607422,11.16397762298584,50.82398223876953,0.46
298,MetaDrive-test-noise-reduction-td3-1000,76,259.3440717568541,299577,1000,3901.8205959796906,-54.43457794189453,15.035953521728516,53.861351013183594,0.47
299,MetaDrive-test-noise-reduction-td3-1000,76,262.35699589487405,300362,1001,3913.492894887924,,16.319324493408203,50.39562225341797,0.48
300,MetaDrive-test-noise-reduction-td3-1000,76,263.35683627309373,301509,1003,3928.335672855377,-50.02134323120117,11.345710754394531,49.228172302246094,0.49
301,MetaDrive-test-noise-reduction-td3-1000,76,260.69055711040994,302182,1005,3936.934088945389,,4.502275466918945,56.02167510986328,0.49
302,MetaDrive-test-noise-reduction-td3-1000,76,262.45749688173703,303484,1007,3954.0145349502563,,124.88320922851562,44.81867980957031,0.5
303,MetaDrive-test-noise-reduction-td3-1000,76,264.5850590806828,304482,1008,3969.4210019111633,,9.807991027832031,52.321876525878906,0.51
304,MetaDrive-test-noise-reduction-td3-1000,76,266.7280354985182,305494,1010,3982.8872990608215,,23.66237449645996,49.567230224609375,0.52
305,MetaDrive-test-noise-reduction-td3-1000,76,269.20547970179234,306678,1012,3998.379849910736,,6.883765697479248,49.19850540161133,0.54
306,MetaDrive-test-noise-reduction-td3-1000,76,273.3608129869641,307625,1013,4012.1233537197113,-49.049766540527344,10.920294761657715,48.66447448730469,0.55
307,MetaDrive-test-noise-reduction-td3-1000,76,271.36160648878484,308476,1015,4022.2459421157837,,11.080793380737305,57.54048156738281,0.55
308,MetaDrive-test-noise-reduction-td3-1000,76,269.86830096715494,309961,1017,4044.4813628196716,-45.60434341430664,10.901861190795898,46.516021728515625,0.54
309,MetaDrive-test-noise-reduction-td3-1000,76,272.1492634556766,310380,1018,4049.6788668632507,,12.319110870361328,48.125205993652344,0.55
310,MetaDrive-test-noise-reduction-td3-1000,76,272.26025339761617,311341,1020,4061.2921237945557,-55.31478500366211,6.266007423400879,54.388458251953125,0.56
311,MetaDrive-test-noise-reduction-td3-1000,76,273.9348790101227,312195,1022,4073.6426277160645,-52.61336135864258,19.2727108001709,51.78001022338867,0.56
312,MetaDrive-test-noise-reduction-td3-1000,76,270.529360618235,313361,1025,4089.774500846863,-50.37313461303711,12.098230361938477,49.28316879272461,0.55
313,MetaDrive-test-noise-reduction-td3-1000,76,265.2530355548153,314535,1027,4106.340956926346,-50.27328109741211,8.828649520874023,50.01309585571289,0.54
314,MetaDrive-test-noise-reduction-td3-1000,76,266.141518483588,315367,1028,4117.196448087692,-51.176029205322266,13.265806198120117,50.521949768066406,0.54
315,MetaDrive-test-noise-reduction-td3-1000,76,266.0052458304824,316017,1030,4124.913831949234,-53.653804779052734,22.893543243408203,53.14801788330078,0.54
316,MetaDrive-test-noise-reduction-td3-1000,76,259.58242793272154,317157,1033,4140.486821889877,-57.482112884521484,8.335495948791504,57.839385986328125,0.52
317,MetaDrive-test-noise-reduction-td3-1000,76,261.14170722799855,318055,1034,4153.9135727882385,-50.859840393066406,95.67002868652344,50.451576232910156,0.52
318,MetaDrive-test-noise-reduction-td3-1000,76,261.0629456904538,319481,1036,4173.765602111816,-47.95866394042969,9.868690490722656,46.76029586791992,0.51
319,MetaDrive-test-noise-reduction-td3-1000,76,258.04376087802035,320155,1038,4182.110554933548,-54.994483947753906,11.470416069030762,55.23126983642578,0.5
320,MetaDrive-test-noise-reduction-td3-1000,76,260.6140481698152,321067,1040,4193.901858091354,-53.99537658691406,7.912100791931152,52.48681640625,0.5
321,MetaDrive-test-noise-reduction-td3-1000,76,257.16753493331066,322584,1044,4213.0956518650055,,20.855304718017578,51.83359909057617,0.5
322,MetaDrive-test-noise-reduction-td3-1000,76,256.4091172527665,323585,1045,4230.8690848350525,-52.21940994262695,13.795625686645508,53.161895751953125,0.5
323,MetaDrive-test-noise-reduction-td3-1000,76,259.5512053954407,324419,1046,4243.760139942169,-53.493587493896484,9.975578308105469,52.84068298339844,0.51
324,MetaDrive-test-noise-reduction-td3-1000,76,261.4794932246924,325301,1048,4255.660434007645,-47.50615310668945,160.45208740234375,46.937808990478516,0.52
325,MetaDrive-test-noise-reduction-td3-1000,76,262.1873268034404,326312,1050,4268.8018407821655,,8.129949569702148,56.38719177246094,0.52
326,MetaDrive-test-noise-reduction-td3-1000,76,262.12337821743296,327047,1051,4279.421135902405,-54.59577941894531,8.995233535766602,54.639503479003906,0.52
327,MetaDrive-test-noise-reduction-td3-1000,76,261.0400551590347,328860,1054,4306.882232904434,,24.387683868408203,56.985164642333984,0.51
328,MetaDrive-test-noise-reduction-td3-1000,76,259.32653245298576,329256,1055,4312.837215900421,,11.341445922851562,52.39039993286133,0.5
329,MetaDrive-test-noise-reduction-td3-1000,76,257.19275236605216,330448,1058,4329.250541687012,,11.307945251464844,54.87646484375,0.48
330,MetaDrive-test-noise-reduction-td3-1000,76,253.58502562239926,331323,1060,4341.159419775009,-54.814414978027344,13.129356384277344,53.96365737915039,0.47
331,MetaDrive-test-noise-reduction-td3-1000,76,255.58910085012678,332334,1062,4353.940941810608,,9.482748985290527,56.57389831542969,0.48
332,MetaDrive-test-noise-reduction-td3-1000,76,259.13676346096173,333201,1063,4366.5046100616455,-54.463050842285156,8.826510429382324,54.07819747924805,0.48
333,MetaDrive-test-noise-reduction-td3-1000,76,260.6013501383757,334588,1066,4386.025710821152,,27.21808624267578,48.63117599487305,0.49
334,MetaDrive-test-noise-reduction-td3-1000,76,260.29905825184363,335223,1068,4395.156617879868,-56.54470443725586,6.807826519012451,56.238407135009766,0.48
335,MetaDrive-test-noise-reduction-td3-1000,76,260.7654275947774,336296,1070,4411.424316883087,,10.647369384765625,49.78549575805664,0.48
336,MetaDrive-test-noise-reduction-td3-1000,76,262.4977965435839,337137,1071,4423.038686037064,-46.28739547729492,9.690707206726074,46.85353088378906,0.49
337,MetaDrive-test-noise-reduction-td3-1000,76,260.9114051392847,338023,1073,4434.733220815659,-51.84762191772461,43.10267639160156,51.768062591552734,0.49
338,MetaDrive-test-noise-reduction-td3-1000,76,258.08485150672476,339218,1076,4450.198453903198,,18.034584045410156,50.53836441040039,0.5
339,MetaDrive-test-noise-reduction-td3-1000,76,263.14485686360996,340832,1078,4473.318692922592,,7.377755165100098,50.90835189819336,0.52
340,MetaDrive-test-noise-reduction-td3-1000,76,263.6049340527334,341461,1079,4481.729147911072,-51.80802536010742,16.715084075927734,51.661712646484375,0.52
341,MetaDrive-test-noise-reduction-td3-1000,76,261.6082264721861,342186,1081,4491.122616052628,,9.031221389770508,51.290855407714844,0.51
342,MetaDrive-test-noise-reduction-td3-1000,76,260.01968625851947,343469,1083,4508.415205955505,-54.624732971191406,8.764253616333008,54.04204559326172,0.5
343,MetaDrive-test-noise-reduction-td3-1000,76,260.4400715556817,344133,1084,4517.1504628658295,-55.50996398925781,12.471939086914062,54.91222381591797,0.51
344,MetaDrive-test-noise-reduction-td3-1000,76,263.00382152234465,345842,1086,4543.403743982315,,132.94522094726562,52.45398712158203,0.51
345,MetaDrive-test-noise-reduction-td3-1000,76,264.6406801041848,346464,1087,4551.88668179512,,11.99098014831543,53.593170166015625,0.52
346,MetaDrive-test-noise-reduction-td3-1000,76,264.34480070244075,347027,1089,4559.3931567668915,-54.081932067871094,7.2095746994018555,55.09713363647461,0.52
347,MetaDrive-test-noise-reduction-td3-1000,76,264.73573824611793,348028,1090,4574.309036970139,,26.167396545410156,54.48589324951172,0.52
348,MetaDrive-test-noise-reduction-td3-1000,76,261.30920907870643,349660,1093,4595.035709857941,,18.94300651550293,51.64805221557617,0.53
349,MetaDrive-test-noise-reduction-td3-1000,76,263.04467306182175,350210,1094,4601.969374895096,,10.455497741699219,55.445030212402344,0.53
350,MetaDrive-test-noise-reduction-td3-1000,76,260.1191468946799,351409,1096,4617.519833803177,-52.88262939453125,6.64286994934082,52.72459030151367,0.51
351,MetaDrive-test-noise-reduction-td3-1000,76,258.670891836239,352438,1098,4631.683100938797,,6.339810371398926,50.65717697143555,0.5
352,MetaDrive-test-noise-reduction-td3-1000,76,258.4427878638529,353067,1099,4639.3447008132935,-55.20928192138672,10.504955291748047,55.31024932861328,0.5
353,MetaDrive-test-noise-reduction-td3-1000,76,255.36955133708125,354205,1101,4656.260568857193,-53.5098991394043,8.393726348876953,52.754276275634766,0.49
354,MetaDrive-test-noise-reduction-td3-1000,76,256.078763937177,355309,1103,4671.62167096138,-53.18168258666992,11.894844055175781,54.013057708740234,0.48
355,MetaDrive-test-noise-reduction-td3-1000,76,258.6075345473336,357000,1105,4696.524370908737,,12.077683448791504,57.15056610107422,0.48
356,MetaDrive-test-noise-reduction-td3-1000,75,251.10088782656229,358098,1108,4712.059825897217,,5.929426193237305,53.773590087890625,0.46
357,MetaDrive-test-noise-reduction-td3-1000,75,250.7052546596051,359206,1110,4726.7278509140015,,15.426591873168945,53.91509246826172,0.46
358,MetaDrive-test-noise-reduction-td3-1000,75,248.50116886163624,360318,1112,4744.718355894089,,9.259814262390137,54.500911712646484,0.44
359,MetaDrive-test-noise-reduction-td3-1000,75,245.59542764169598,361188,1114,4756.196161985397,,26.482866287231445,49.543819427490234,0.43
360,MetaDrive-test-noise-reduction-td3-1000,75,243.86974557980878,362670,1117,4775.735285997391,,8.12005615234375,51.67376708984375,0.43
361,MetaDrive-test-noise-reduction-td3-1000,75,245.65035951631947,363647,1118,4790.040729761124,-52.8924674987793,29.210229873657227,52.515289306640625,0.43
362,MetaDrive-test-noise-reduction-td3-1000,75,245.53827119115192,364077,1119,4796.000027894974,-51.73106002807617,8.782352447509766,52.007423400878906,0.42
363,MetaDrive-test-noise-reduction-td3-1000,75,243.2113522276088,365252,1121,4813.986312866211,,7.349063873291016,54.964820861816406,0.41
364,MetaDrive-test-noise-reduction-td3-1000,75,241.6871893865787,366175,1123,4826.1054129600525,-48.74243927001953,12.613117218017578,48.56092071533203,0.41
365,MetaDrive-test-noise-reduction-td3-1000,75,242.9106306119151,367048,1125,4836.612420797348,,23.482872009277344,50.879398345947266,0.42
366,MetaDrive-test-noise-reduction-td3-1000,75,246.820486565935,368826,1127,4863.638523817062,,12.614412307739258,51.019447326660156,0.43
367,MetaDrive-test-noise-reduction-td3-1000,75,246.41992312189697,369526,1128,4872.145963907242,,7.704161643981934,49.572509765625,0.43
368,MetaDrive-test-noise-reduction-td3-1000,75,247.21909325480715,370015,1129,4878.073859930038,-52.822509765625,11.708456039428711,51.799171447753906,0.43
369,MetaDrive-test-noise-reduction-td3-1000,75,250.3390274671097,371016,1130,4894.2946717739105,,18.855606079101562,49.71840286254883,0.43
370,MetaDrive-test-noise-reduction-td3-1000,75,250.01741466075913,372255,1133,4911.496913909912,-51.846046447753906,115.08084106445312,51.079158782958984,0.44
371,MetaDrive-test-noise-reduction-td3-1000,75,247.58440665244558,373572,1135,4927.8558757305145,,124.5547103881836,50.6220703125,0.43
372,MetaDrive-test-noise-reduction-td3-1000,75,247.6884555244052,374553,1136,4941.076378822327,-51.41004180908203,49.081459045410156,50.82476043701172,0.43
373,MetaDrive-test-noise-reduction-td3-1000,75,249.59657117101705,375098,1137,4949.995455980301,,11.082592010498047,54.863922119140625,0.43
374,MetaDrive-test-noise-reduction-td3-1000,75,250.7545892522673,376547,1139,4974.688710927963,-47.25114059448242,13.890440940856934,47.59307861328125,0.43
375,MetaDrive-test-noise-reduction-td3-1000,75,255.02375230083567,377665,1141,4991.771935939789,-49.62293243408203,17.279727935791016,50.17430877685547,0.44
376,MetaDrive-test-noise-reduction-td3-1000,75,254.6882255932885,378394,1142,5003.241634845734,,9.368255615234375,51.718807220458984,0.44
377,MetaDrive-test-noise-reduction-td3-1000,75,255.40623410227008,379877,1144,5026.806168079376,-55.09293746948242,7.63384485244751,54.97710418701172,0.44
378,MetaDrive-test-noise-reduction-td3-1000,75,255.56608569883895,380566,1145,5036.564568758011,,8.948246955871582,49.7373046875,0.45
379,MetaDrive-test-noise-reduction-td3-1000,75,253.1357482053943,381336,1147,5048.603990077972,,13.006189346313477,47.010963439941406,0.44
380,MetaDrive-test-noise-reduction-td3-1000,75,251.8535408411277,382171,1148,5064.686498880386,-55.257301330566406,7.619976043701172,55.26836395263672,0.43
381,MetaDrive-test-noise-reduction-td3-1000,75,251.44879910497156,383953,1150,5089.761069774628,-51.019683837890625,11.617709159851074,50.61410903930664,0.43
382,MetaDrive-test-noise-reduction-td3-1000,75,251.55528328413322,384749,1151,5101.699482917786,-54.68938064575195,7.070974349975586,53.73792266845703,0.43
383,MetaDrive-test-noise-reduction-td3-1000,75,255.00528315106305,385719,1152,5116.815948009491,-53.51399230957031,9.707612991333008,52.23612976074219,0.44
384,MetaDrive-test-noise-reduction-td3-1000,75,253.411179846916,386514,1154,5128.6643850803375,,9.636306762695312,52.75339126586914,0.44
385,MetaDrive-test-noise-reduction-td3-1000,75,254.44758058275423,387025,1155,5137.436017990112,-50.939598083496094,7.637531280517578,51.01816940307617,0.44
386,MetaDrive-test-noise-reduction-td3-1000,75,258.9089118945595,388026,1156,5155.713949918747,,10.589029312133789,51.24142837524414,0.44
387,MetaDrive-test-noise-reduction-td3-1000,75,256.33866670747994,389086,1159,5171.626191854477,,10.7355318069458,49.84260940551758,0.44
388,MetaDrive-test-noise-reduction-td3-1000,75,258.09184421456945,390087,1160,5188.533038854599,-51.865867614746094,12.948019027709961,52.047115325927734,0.43
389,MetaDrive-test-noise-reduction-td3-1000,75,260.4378983904721,391456,1162,5208.518903017044,,15.184286117553711,57.52574157714844,0.44
390,MetaDrive-test-noise-reduction-td3-1000,75,257.15180803456275,392430,1165,5222.037453889847,,8.143519401550293,50.71806335449219,0.44
391,MetaDrive-test-noise-reduction-td3-1000,75,258.9697469915684,393562,1167,5241.783281803131,,7.086158752441406,49.32863998413086,0.43
392,MetaDrive-test-noise-reduction-td3-1000,75,259.6908300770949,394245,1168,5251.514302015305,-46.38637161254883,5.911696434020996,46.6512336730957,0.44
393,MetaDrive-test-noise-reduction-td3-1000,75,260.74054995656354,395224,1170,5266.171874046326,,9.606744766235352,51.6910514831543,0.44
394,MetaDrive-test-noise-reduction-td3-1000,75,260.4358312922248,396021,1172,5277.438237905502,-50.20292282104492,19.059253692626953,50.897666931152344,0.44
395,MetaDrive-test-noise-reduction-td3-1000,75,260.60162426541797,397022,1173,5293.3753979206085,,16.436969757080078,51.877952575683594,0.43
396,MetaDrive-test-noise-reduction-td3-1000,74,260.7072805565332,398486,1176,5314.9663989543915,,10.619210243225098,51.23858642578125,0.42
397,MetaDrive-test-noise-reduction-td3-1000,74,260.7459671891788,399375,1177,5327.3547539711,-47.93070602416992,13.049592971801758,48.484764099121094,0.42
398,MetaDrive-test-noise-reduction-td3-1000,74,256.57192832743027,400119,1179,5340.14450097084,-50.532413482666016,15.608111381530762,49.70647430419922,0.4
399,MetaDrive-test-noise-reduction-td3-1000,74,257.2860476037869,401099,1180,5357.504795789719,-52.807735443115234,160.907470703125,51.80472183227539,0.4
400,MetaDrive-test-noise-reduction-td3-1000,74,259.54430357163,402237,1182,5373.175169944763,-51.69112014770508,14.350020408630371,51.199256896972656,0.4
401,MetaDrive-test-noise-reduction-td3-1000,74,257.02542030973257,403694,1184,5394.475576162338,,6.493304252624512,46.25811767578125,0.39
402,MetaDrive-test-noise-reduction-td3-1000,74,252.23875802480464,404984,1186,5413.107500076294,,5.215328216552734,50.08429718017578,0.38
403,MetaDrive-test-noise-reduction-td3-1000,74,253.743084532865,405978,1187,5428.574873924255,,9.276082038879395,49.06574630737305,0.38
404,MetaDrive-test-noise-reduction-td3-1000,74,253.41374492384904,406093,1188,5430.620610952377,-50.39060592651367,6.829291820526123,51.02252197265625,0.38
405,MetaDrive-test-noise-reduction-td3-1000,74,256.24749598713,407862,1190,5458.822124958038,,15.859452247619629,52.34434127807617,0.39
406,MetaDrive-test-noise-reduction-td3-1000,74,257.49081320450676,408456,1191,5466.971293926239,,13.005013465881348,47.08224868774414,0.39
407,MetaDrive-test-noise-reduction-td3-1000,74,258.1399940663611,409457,1192,5482.4845089912415,-53.660274505615234,5.615644454956055,52.98552322387695,0.38
408,MetaDrive-test-noise-reduction-td3-1000,74,259.6575576681153,410380,1193,5496.9938287734985,,19.657468795776367,50.79877853393555,0.39
409,MetaDrive-test-noise-reduction-td3-1000,74,259.2627844214652,411189,1195,5508.3330409526825,-54.954994201660156,10.853113174438477,54.92951583862305,0.4
410,MetaDrive-test-noise-reduction-td3-1000,74,261.05608031047643,412184,1196,5524.028542041779,,44.19868469238281,45.60985565185547,0.41
411,MetaDrive-test-noise-reduction-td3-1000,74,260.38139793228225,413305,1198,5540.667984962463,-55.54009246826172,7.345005035400391,55.28934860229492,0.41
412,MetaDrive-test-noise-reduction-td3-1000,74,257.121717878221,414030,1200,5551.10243678093,,7.423162460327148,52.97191619873047,0.4
413,MetaDrive-test-noise-reduction-td3-1000,74,260.0805577598375,415263,1202,5568.0289747715,-49.148616790771484,9.52651596069336,48.64576721191406,0.42
414,MetaDrive-test-noise-reduction-td3-1000,74,257.7585927230729,416264,1203,5583.303568840027,,99.34493255615234,47.20994186401367,0.41
415,MetaDrive-test-noise-reduction-td3-1000,74,255.4967040397277,417002,1205,5593.920129060745,,19.578475952148438,49.920066833496094,0.4
416,MetaDrive-test-noise-reduction-td3-1000,74,262.44904214071727,418733,1207,5623.311514854431,-49.20866394042969,27.803688049316406,49.543983459472656,0.41
417,MetaDrive-test-noise-reduction-td3-1000,74,261.90936292526226,419734,1208,5639.157683849335,,9.671515464782715,43.77944564819336,0.4
418,MetaDrive-test-noise-reduction-td3-1000,74,263.07250523905213,420359,1209,5649.437608003616,-51.27778625488281,8.563722610473633,50.21969223022461,0.4
419,MetaDrive-test-noise-reduction-td3-1000,74,262.9149813971672,421133,1211,5661.324866056442,-49.71864318847656,14.127264976501465,48.38237380981445,0.39
420,MetaDrive-test-noise-reduction-td3-1000,74,262.6811187346399,422314,1213,5680.25360584259,,6.966951370239258,47.60679626464844,0.39
421,MetaDrive-test-noise-reduction-td3-1000,74,263.3770480722283,423248,1215,5694.471924066544,,15.634952545166016,48.700782775878906,0.4
422,MetaDrive-test-noise-reduction-td3-1000,74,264.7028750394519,424127,1216,5709.086667060852,-49.345821380615234,19.651138305664062,50.8425407409668,0.4
423,MetaDrive-test-noise-reduction-td3-1000,74,265.03218688471463,425009,1217,5725.2290868759155,-49.65711975097656,22.025920867919922,49.15236282348633,0.39
424,MetaDrive-test-noise-reduction-td3-1000,74,265.06773095144206,426503,1219,5748.990225791931,-48.85649490356445,8.763860702514648,49.240081787109375,0.4
425,MetaDrive-test-noise-reduction-td3-1000,74,267.35395376584177,427087,1220,5757.03661108017,-53.92521667480469,7.20590353012085,54.19686508178711,0.41
426,MetaDrive-test-noise-reduction-td3-1000,74,267.0585230048014,428838,1223,5786.127395868301,,8.681962966918945,54.02388381958008,0.41
427,MetaDrive-test-noise-reduction-td3-1000,74,266.5431614760713,429418,1225,5794.069991827011,,8.46926212310791,51.48203659057617,0.4
428,MetaDrive-test-noise-reduction-td3-1000,74,266.13026183035913,430059,1226,5802.5005350112915,-52.58625411987305,13.296890258789062,51.8460578918457,0.39
429,MetaDrive-test-noise-reduction-td3-1000,74,265.98976042415137,431715,1228,5831.1671187877655,-52.48308563232422,101.23878479003906,51.68764877319336,0.39
430,MetaDrive-test-noise-reduction-td3-1000,73,262.94471326915203,432880,1230,5854.553119897842,,16.32831573486328,54.966888427734375,0.39
431,MetaDrive-test-noise-reduction-td3-1000,73,263.7833895599146,433346,1231,5861.466347932816,,9.668381690979004,47.68812561035156,0.39
432,MetaDrive-test-noise-reduction-td3-1000,73,265.20569005451256,434500,1233,5879.059373140335,,7.871370792388916,52.21065139770508,0.4
433,MetaDrive-test-noise-reduction-td3-1000,73,266.8194150349794,435906,1235,5902.65416097641,,8.177345275878906,48.4554443359375,0.41
434,MetaDrive-test-noise-reduction-td3-1000,73,266.3195299919511,436451,1236,5911.764930009842,-51.07394027709961,13.43851375579834,51.71747589111328,0.4
435,MetaDrive-test-noise-reduction-td3-1000,73,266.02016736769275,437379,1237,5924.213699102402,-48.198944091796875,14.678050994873047,47.54848861694336,0.4
436,MetaDrive-test-noise-reduction-td3-1000,73,266.59784465000297,438042,1238,5934.242266893387,,12.19621467590332,53.07316589355469,0.39
437,MetaDrive-test-noise-reduction-td3-1000,73,267.1057707740149,439043,1239,5951.031087875366,-48.372718811035156,35.41490936279297,47.87760543823242,0.39
438,MetaDrive-test-noise-reduction-td3-1000,73,264.4998241813323,440584,1242,5972.385365009308,,7.308700084686279,46.07581329345703,0.39
439,MetaDrive-test-noise-reduction-td3-1000,73,266.00530689335494,441301,1243,5983.522659778595,-57.46221160888672,14.810944557189941,56.461578369140625,0.38
440,MetaDrive-test-noise-reduction-td3-1000,73,264.1221773518616,442625,1245,6003.628226995468,-51.413291931152344,19.900680541992188,51.78549575805664,0.37
441,MetaDrive-test-noise-reduction-td3-1000,73,264.0225869479222,443745,1247,6023.783704042435,-52.140663146972656,16.52469253540039,51.94736099243164,0.37
442,MetaDrive-test-noise-reduction-td3-1000,73,264.99588586363876,444411,1248,6033.644851922989,-49.172943115234375,9.159937858581543,47.99292755126953,0.38
443,MetaDrive-test-noise-reduction-td3-1000,73,263.28145750808795,445082,1249,6045.001118898392,,6.3533935546875,43.36270523071289,0.37
444,MetaDrive-test-noise-reduction-td3-1000,73,263.81075442045625,446083,1250,6061.840206861496,-52.957664489746094,99.88835144042969,50.83030700683594,0.37
445,MetaDrive-test-noise-reduction-td3-1000,73,261.93572404144106,447701,1253,6087.899847984314,-47.13442611694336,13.259330749511719,46.649986267089844,0.37
446,MetaDrive-test-noise-reduction-td3-1000,73,260.91094429350983,448257,1254,6096.661762952805,-48.178382873535156,151.6534423828125,46.859039306640625,0.36
447,MetaDrive-test-noise-reduction-td3-1000,73,262.0908665827845,449258,1255,6116.720818996429,,12.371808052062988,49.264217376708984,0.36
448,MetaDrive-test-noise-reduction-td3-1000,73,260.0430989190052,450087,1256,6129.112114906311,-50.309226989746094,8.235445022583008,49.63821029663086,0.37
449,MetaDrive-test-noise-reduction-td3-1000,73,264.23848966492193,451537,1258,6153.076326847076,-50.46158981323242,10.13349723815918,50.62346267700195,0.38
450,MetaDrive-test-noise-reduction-td3-1000,73,262.0549405221707,452437,1260,6166.962909936905,-55.55756378173828,13.132195472717285,55.17940139770508,0.38
451,MetaDrive-test-noise-reduction-td3-1000,73,259.9095522597015,453534,1262,6183.76765704155,,7.419060707092285,48.455013275146484,0.36
452,MetaDrive-test-noise-reduction-td3-1000,73,263.5804542586343,454158,1263,6193.931011915207,,12.495988845825195,56.32179641723633,0.37
453,MetaDrive-test-noise-reduction-td3-1000,73,266.02689635475997,455743,1265,6218.156783819199,-50.445194244384766,10.308025360107422,49.58867645263672,0.37
454,MetaDrive-test-noise-reduction-td3-1000,73,266.2390026248875,456520,1266,6233.016219854355,,8.609428405761719,47.49494934082031,0.37
455,MetaDrive-test-noise-reduction-td3-1000,73,262.5938331737982,457577,1269,6247.735380887985,-45.65193176269531,28.707237243652344,44.88053512573242,0.37
456,MetaDrive-test-noise-reduction-td3-1000,73,263.21635170512747,458149,1270,6256.638855934143,-52.845703125,14.231155395507812,52.5809211730957,0.36
457,MetaDrive-test-noise-reduction-td3-1000,73,264.2376542196833,459212,1272,6273.824414968491,,5.576867580413818,50.18021774291992,0.36
458,MetaDrive-test-noise-reduction-td3-1000,73,265.70929049007333,460534,1274,6294.647253036499,,9.875226974487305,49.90867614746094,0.38
459,MetaDrive-test-noise-reduction-td3-1000,73,267.95316458871037,461241,1275,6305.687504768372,-47.37534713745117,10.899018287658691,47.058921813964844,0.38
460,MetaDrive-test-noise-reduction-td3-1000,73,267.3364738137888,462686,1277,6328.467632770538,,156.49942016601562,54.47001266479492,0.38
461,MetaDrive-test-noise-reduction-td3-1000,73,268.8517238408899,463694,1279,6344.3574249744415,,10.178308486938477,43.0706787109375,0.39
462,MetaDrive-test-noise-reduction-td3-1000,73,268.99987096857353,464246,1280,6351.94489979744,,13.966529846191406,50.09663391113281,0.4
463,MetaDrive-test-noise-reduction-td3-1000,73,269.9815130555706,465106,1281,6365.569594860077,,10.639074325561523,45.4514274597168,0.41
464,MetaDrive-test-noise-reduction-td3-1000,72,270.39948131284467,466260,1283,6387.747628927231,,11.591819763183594,44.86072540283203,0.41
465,MetaDrive-test-noise-reduction-td3-1000,72,272.47098074183776,467109,1284,6401.2754719257355,-51.245914459228516,8.287120819091797,51.11379623413086,0.41
466,MetaDrive-test-noise-reduction-td3-1000,72,269.92490614218707,468173,1287,6417.085498809814,-47.041141510009766,13.107744216918945,46.14407730102539,0.41
467,MetaDrive-test-noise-reduction-td3-1000,72,272.07294034669843,469745,1289,6441.893882751465,-46.22737121582031,30.416250228881836,46.43190383911133,0.4
468,MetaDrive-test-noise-reduction-td3-1000,72,270.2903120822585,470098,1290,6447.541965723038,,9.115045547485352,44.986549377441406,0.4
469,MetaDrive-test-noise-reduction-td3-1000,72,267.9406864116314,471126,1292,6463.883149862289,,11.644689559936523,51.402671813964844,0.4
470,MetaDrive-test-noise-reduction-td3-1000,72,267.8456027814449,472556,1294,6486.225323915482,,6.56345272064209,47.38273620605469,0.4
471,MetaDrive-test-noise-reduction-td3-1000,72,263.5416324532045,473364,1297,6498.163459777832,,46.89825439453125,49.27705383300781,0.38
472,MetaDrive-test-noise-reduction-td3-1000,72,263.86033110071384,474309,1299,6511.874559879303,-53.93466567993164,13.68781566619873,52.75042724609375,0.38
473,MetaDrive-test-noise-reduction-td3-1000,72,264.8898420777326,475116,1300,6524.434164047241,,9.356982231140137,47.09534454345703,0.38
474,MetaDrive-test-noise-reduction-td3-1000,72,260.6030533545953,476017,1303,6538.894815921783,-49.41756057739258,8.387145042419434,48.96124267578125,0.36
475,MetaDrive-test-noise-reduction-td3-1000,72,262.6251084887818,477161,1305,6557.4489369392395,-47.53105926513672,32.94860076904297,47.29114532470703,0.37
476,MetaDrive-test-noise-reduction-td3-1000,72,256.11631952811524,478426,1307,6580.007224082947,,11.2216796875,48.794532775878906,0.36
477,MetaDrive-test-noise-reduction-td3-1000,72,256.2329752365172,479706,1309,6597.725047111511,,8.455885887145996,51.10898208618164,0.38
478,MetaDrive-test-noise-reduction-td3-1000,72,257.6904049678785,480282,1310,6606.043884038925,,13.23257827758789,54.39613723754883,0.39
479,MetaDrive-test-noise-reduction-td3-1000,72,259.1749809981021,481121,1311,6619.690419912338,-49.76213455200195,13.72061538696289,49.28739929199219,0.4
480,MetaDrive-test-noise-reduction-td3-1000,72,261.85189415769037,482926,1313,6656.072545051575,,8.144378662109375,52.80852508544922,0.4
481,MetaDrive-test-noise-reduction-td3-1000,72,264.45532295530177,483791,1314,6669.980414867401,-50.92744827270508,11.566410064697266,50.31327819824219,0.4
482,MetaDrive-test-noise-reduction-td3-1000,72,265.2241411009227,484751,1315,6685.156009912491,-46.86006164550781,38.916072845458984,48.06764221191406,0.4
483,MetaDrive-test-noise-reduction-td3-1000,72,260.7152783349248,485438,1317,6695.3807508945465,,9.326183319091797,49.713417053222656,0.4
484,MetaDrive-test-noise-reduction-td3-1000,72,260.67024422574286,486283,1318,6710.352822065353,-50.089263916015625,106.71747589111328,48.912010192871094,0.4
485,MetaDrive-test-noise-reduction-td3-1000,72,260.40155088194825,487714,1321,6736.806416988373,,8.844622611999512,50.42082214355469,0.38
486,MetaDrive-test-noise-reduction-td3-1000,72,259.6721932558746,488062,1322,6742.664087057114,,13.85228157043457,50.63491439819336,0.37
487,MetaDrive-test-noise-reduction-td3-1000,72,261.3999521221379,489026,1324,6758.022305011749,,7.796280860900879,48.74657440185547,0.37
488,MetaDrive-test-noise-reduction-td3-1000,72,262.3392904488371,490143,1326,6775.435415029526,-54.77396011352539,10.486764907836914,55.11037826538086,0.37
489,MetaDrive-test-noise-reduction-td3-1000,72,260.5599835246875,491361,1328,6795.29451084137,-48.76052474975586,26.265779495239258,47.8773307800293,0.36
490,MetaDrive-test-noise-reduction-td3-1000,72,262.11333327271836,492210,1329,6810.27538895607,,11.50837516784668,47.400779724121094,0.36
491,MetaDrive-test-noise-reduction-td3-1000,72,262.8741920897358,493571,1331,6830.578552007675,-52.39042663574219,8.988405227661133,52.094852447509766,0.36
492,MetaDrive-test-noise-reduction-td3-1000,72,263.68774227612926,494420,1332,6843.412300109863,,11.432859420776367,50.469032287597656,0.35
493,MetaDrive-test-noise-reduction-td3-1000,72,263.39285508208434,495421,1333,6861.535565137863,-47.17062759399414,13.224672317504883,46.49064636230469,0.34
494,MetaDrive-test-noise-reduction-td3-1000,72,263.83720210055884,496306,1334,6873.07018494606,,16.877588272094727,52.71852111816406,0.34
495,MetaDrive-test-noise-reduction-td3-1000,72,264.3775976218056,497273,1335,6892.849490880966,-55.57793045043945,24.95134925842285,53.7259521484375,0.33
496,MetaDrive-test-noise-reduction-td3-1000,72,265.4310431992983,498029,1336,6905.509248018265,-52.61114501953125,31.68297576904297,52.283470153808594,0.34
497,MetaDrive-test-noise-reduction-td3-1000,72,261.818014904482,499647,1339,6931.901455879211,-47.39013671875,7.1434149742126465,47.13238525390625,0.34
