TanmayH/CS269-RL-project-code/MetaDrive-test-rand-v1/td3/progress.csv
,log_dir,frame_per_second,episode_reward,total_steps,total_episodes,total_time,actor_loss,critic_loss,target_q,success_rate
0,MetaDrive-test-rand-v1,198,25.028362353994396,1074,1,5.421700716018677,,0.008693375624716282,0.03074905090034008,0.0
1,MetaDrive-test-rand-v1,120,-1.7107317667932413,3352,33,27.798036098480225,,0.776888906955719,-0.011766299605369568,0.0
2,MetaDrive-test-rand-v1,121,-2.0240255849389324,4148,36,34.10255479812622,,0.023887963965535164,0.05335569381713867,0.0
3,MetaDrive-test-rand-v1,122,-1.9996801219651723,5387,37,43.87157607078552,-0.04266124963760376,0.7578245401382446,-0.04847702383995056,0.0
4,MetaDrive-test-rand-v1,123,-2.0841665445965933,6373,38,51.58855223655701,0.007880885154008865,0.5316062569618225,-0.06405872851610184,0.0
5,MetaDrive-test-rand-v1,123,-2.181858532914948,8420,43,67.95446944236755,,0.007048481144011021,-0.008531032130122185,0.0
6,MetaDrive-test-rand-v1,120,-1.3118792021484875,9071,51,75.30024099349976,0.025251584127545357,0.0244908407330513,-0.009186501614749432,0.0
7,MetaDrive-test-rand-v1,117,0.9244322376478908,10018,68,85.15272402763367,,0.0204940065741539,0.11818550527095795,0.0
8,MetaDrive-test-rand-v1,113,2.043609595837457,11001,95,96.99414396286011,-0.4347105026245117,0.028369691222906113,0.30140942335128784,0.0
9,MetaDrive-test-rand-v1,109,4.744832864256294,12011,119,109.38849306106567,-0.7092070579528809,1.0585527420043945,0.49725908041000366,0.0
10,MetaDrive-test-rand-v1,108,8.414190011075661,13018,142,120.1400101184845,,0.050154805183410645,0.877589225769043,0.0
11,MetaDrive-test-rand-v1,106,9.806615406257748,14052,166,131.62891554832458,,1.2069947719573975,1.2768425941467285,0.0
12,MetaDrive-test-rand-v1,105,12.617493978727795,15008,185,142.02414870262146,,2.8260610103607178,1.5226390361785889,0.0
13,MetaDrive-test-rand-v1,104,15.569021043624002,16062,206,154.0914478302002,,1.9034881591796875,2.2069010734558105,0.0
14,MetaDrive-test-rand-v1,103,15.023858206513802,17004,227,164.08048748970032,,0.19691511988639832,2.7247872352600098,0.0
15,MetaDrive-test-rand-v1,102,17.460044530162364,18036,245,175.62284135818481,,4.345484256744385,3.1203105449676514,0.0
16,MetaDrive-test-rand-v1,101,21.336909480115743,19041,259,187.05537700653076,-3.690171957015991,2.707399368286133,3.6332106590270996,0.0
17,MetaDrive-test-rand-v1,101,25.601267902860513,20059,272,197.49909901618958,-4.663005828857422,0.39372795820236206,4.458345413208008,0.0
18,MetaDrive-test-rand-v1,101,29.727452595373435,21052,285,208.2646415233612,,0.48858216404914856,5.362469673156738,0.0
19,MetaDrive-test-rand-v1,100,34.290802862825245,22067,297,219.13667154312134,-5.769848823547363,5.143061637878418,5.564562797546387,0.0
20,MetaDrive-test-rand-v1,100,38.95470307473693,23036,307,229.63608050346375,,4.1201629638671875,6.678834438323975,0.0
21,MetaDrive-test-rand-v1,99,45.91055984108815,24070,317,242.1210913658142,,4.6852803230285645,7.31857442855835,0.0
22,MetaDrive-test-rand-v1,99,51.9882797537509,25061,327,252.7899293899536,-8.681793212890625,0.2671169340610504,8.378849983215332,0.0
23,MetaDrive-test-rand-v1,99,57.743257444156804,26098,338,262.63084959983826,,0.441697895526886,9.106526374816895,0.0
24,MetaDrive-test-rand-v1,99,61.69101817540113,27095,348,273.27093267440796,-10.689870834350586,4.447161674499512,9.826910018920898,0.0
25,MetaDrive-test-rand-v1,99,67.61650539138601,28090,356,283.49354553222656,,5.489936828613281,11.070131301879883,0.0
26,MetaDrive-test-rand-v1,98,72.19028273857643,29035,364,293.6686019897461,-12.929315567016602,20.191204071044922,12.170316696166992,0.0
27,MetaDrive-test-rand-v1,98,73.29206649696098,30095,375,304.9408640861511,-12.95242691040039,2.806957721710205,13.08431625366211,0.0
28,MetaDrive-test-rand-v1,98,79.10199590957863,31095,382,316.38293528556824,-13.47598934173584,13.2114896774292,13.193902969360352,0.0
29,MetaDrive-test-rand-v1,97,80.13345889410277,32038,391,327.2608163356781,,7.228987693786621,13.889227867126465,0.0
30,MetaDrive-test-rand-v1,97,82.04579245752694,33086,401,337.66477942466736,,9.353375434875488,15.393465995788574,0.0
31,MetaDrive-test-rand-v1,97,81.80584417753069,34092,411,349.1028506755829,,9.203084945678711,15.597633361816406,0.0
32,MetaDrive-test-rand-v1,97,83.10429603551303,35003,420,359.6588354110718,-16.19976234436035,1.4207587242126465,16.347742080688477,0.0
33,MetaDrive-test-rand-v1,97,82.76859008056888,36040,431,370.1995539665222,,0.8622758388519287,17.01370620727539,0.0
34,MetaDrive-test-rand-v1,97,83.08996412107496,37029,439,380.13237380981445,-19.341459274291992,1.8080263137817383,18.903039932250977,0.0
35,MetaDrive-test-rand-v1,97,83.90125015450201,38001,448,391.0822744369507,-18.833255767822266,4.3079118728637695,18.958194732666016,0.0
36,MetaDrive-test-rand-v1,97,83.50927671834957,39059,457,401.83790850639343,-18.718050003051758,27.07892608642578,17.78083038330078,0.0
37,MetaDrive-test-rand-v1,97,85.28084258505476,40388,465,415.81148624420166,,11.329755783081055,20.887666702270508,0.0
38,MetaDrive-test-rand-v1,96,89.44744188635762,41661,468,433.53169441223145,-19.811830520629883,3.1210620403289795,19.297101974487305,0.01
39,MetaDrive-test-rand-v1,94,94.50403073555442,42911,470,452.77177357673645,-19.73403549194336,4.885568141937256,19.900562286376953,0.02
40,MetaDrive-test-rand-v1,94,98.27547053685052,43514,471,459.83889389038086,,3.1909117698669434,22.065156936645508,0.03
41,MetaDrive-test-rand-v1,94,99.66785544977432,44043,472,467.7201852798462,-21.976871490478516,2.0526537895202637,21.507692337036133,0.03
42,MetaDrive-test-rand-v1,92,103.39866359712485,45530,477,490.0225987434387,,18.82425308227539,22.281864166259766,0.04
43,MetaDrive-test-rand-v1,92,101.21774605054287,46022,480,494.96721720695496,,3.08380389213562,20.315322875976562,0.04
44,MetaDrive-test-rand-v1,92,104.88627339924874,47187,483,509.5787842273712,-22.802366256713867,15.989194869995117,22.09261131286621,0.06
45,MetaDrive-test-rand-v1,92,108.85145311190625,48275,488,522.0930790901184,-25.146398544311523,3.2670741081237793,25.492435455322266,0.06
46,MetaDrive-test-rand-v1,92,110.80586930658906,49139,492,532.7153174877167,-27.162416458129883,7.010199546813965,26.320533752441406,0.06
47,MetaDrive-test-rand-v1,92,113.23743802298176,50070,498,542.1143906116486,,3.310105800628662,25.214004516601562,0.07
48,MetaDrive-test-rand-v1,92,116.61892812723089,51177,504,552.7891128063202,-26.635005950927734,4.237162113189697,26.49488639831543,0.08
49,MetaDrive-test-rand-v1,92,120.24306487527892,52613,509,569.9559197425842,-27.930889129638672,4.132147789001465,27.548309326171875,0.1
50,MetaDrive-test-rand-v1,92,121.06528820956956,53093,513,575.1412856578827,-25.598705291748047,24.653886795043945,24.85544204711914,0.1
51,MetaDrive-test-rand-v1,91,125.12945466932526,54142,515,589.6529641151428,,9.563913345336914,27.85325050354004,0.1
52,MetaDrive-test-rand-v1,91,126.58455830900952,55189,520,600.3974821567535,-26.164323806762695,4.9278764724731445,25.910375595092773,0.11
53,MetaDrive-test-rand-v1,91,130.70883344895816,56308,524,613.9279892444611,,21.483163833618164,25.00213050842285,0.11
54,MetaDrive-test-rand-v1,91,135.93448981007126,57134,525,625.5631604194641,,6.9234137535095215,30.323474884033203,0.12
55,MetaDrive-test-rand-v1,91,140.92006119809852,58228,528,637.7183644771576,,26.41460418701172,28.69609832763672,0.14
56,MetaDrive-test-rand-v1,91,143.47251863773795,59008,533,645.549542427063,,11.471856117248535,26.316116333007812,0.15
57,MetaDrive-test-rand-v1,91,147.32777889293723,60070,536,658.2234590053558,,5.641942024230957,26.867774963378906,0.16
58,MetaDrive-test-rand-v1,91,147.8612101073512,61043,542,668.9195821285248,-27.407133102416992,7.841627597808838,26.398849487304688,0.16
59,MetaDrive-test-rand-v1,91,150.7199132613513,62160,547,681.4959485530853,,20.910606384277344,28.167652130126953,0.17
60,MetaDrive-test-rand-v1,90,151.8208745816046,63503,552,698.0646646022797,-30.061555862426758,29.23203468322754,29.485584259033203,0.17
61,MetaDrive-test-rand-v1,90,153.594619023748,64325,554,708.5298094749451,-31.897743225097656,6.223664283752441,30.667465209960938,0.18
62,MetaDrive-test-rand-v1,90,156.04025341952615,65010,557,715.3452606201172,,42.86161804199219,30.757888793945312,0.18
63,MetaDrive-test-rand-v1,91,158.91055111072762,66153,563,726.845986366272,-31.272418975830078,5.282059669494629,31.0782527923584,0.19
64,MetaDrive-test-rand-v1,90,155.0908654553856,67170,568,739.0177474021912,,4.84423828125,30.858089447021484,0.19
65,MetaDrive-test-rand-v1,90,151.54087130026443,68413,571,752.7527322769165,-26.784791946411133,6.326468467712402,26.861268997192383,0.19
66,MetaDrive-test-rand-v1,90,152.46575768100539,69584,576,764.7348742485046,,26.277809143066406,29.873348236083984,0.2
67,MetaDrive-test-rand-v1,90,151.50148535119132,70196,577,772.649011850357,,3.207653045654297,34.8983039855957,0.2
68,MetaDrive-test-rand-v1,90,156.52873934703146,71500,581,787.1716403961182,,13.698654174804688,30.07503890991211,0.22
69,MetaDrive-test-rand-v1,90,157.39580799657858,72486,583,799.8637428283691,,6.894164562225342,34.000282287597656,0.22
70,MetaDrive-test-rand-v1,90,158.45292959022947,73266,586,808.6486954689026,,5.267464637756348,33.86677551269531,0.23
71,MetaDrive-test-rand-v1,90,160.24995544283374,74013,588,816.1752750873566,-30.74594497680664,83.62564849853516,30.31406593322754,0.25
72,MetaDrive-test-rand-v1,90,162.8225893993177,75254,591,828.7656533718109,,23.21109390258789,38.20137023925781,0.27
73,MetaDrive-test-rand-v1,90,163.92503023222497,76146,595,837.3011744022369,,5.592060089111328,33.60192108154297,0.28
74,MetaDrive-test-rand-v1,90,164.5249719005637,77197,598,850.9712860584259,-33.22582244873047,7.145406246185303,32.66383361816406,0.28
75,MetaDrive-test-rand-v1,90,169.7089223006333,78277,601,865.1229069232941,-35.944183349609375,7.738797187805176,36.04619216918945,0.29
76,MetaDrive-test-rand-v1,90,170.51795975606976,79446,604,879.6539125442505,,6.821782112121582,38.97688674926758,0.29
77,MetaDrive-test-rand-v1,90,169.15965876492876,80058,608,885.5868492126465,,21.4537353515625,32.99217224121094,0.28
78,MetaDrive-test-rand-v1,90,169.7591027380023,81015,613,896.1428339481354,-37.58080291748047,36.518707275390625,36.996490478515625,0.28
79,MetaDrive-test-rand-v1,90,167.6786740855524,82359,618,910.6588020324707,-37.06562042236328,8.178028106689453,37.639404296875,0.28
80,MetaDrive-test-rand-v1,90,169.77108115700295,84043,621,930.0700781345367,-38.52565002441406,6.069988250732422,37.87763977050781,0.29
81,MetaDrive-test-rand-v1,90,166.06593291999997,85562,626,948.7824563980103,,47.01222229003906,40.00293731689453,0.29
82,MetaDrive-test-rand-v1,89,164.71378106670997,86261,628,958.6189844608307,-35.48638153076172,5.355805397033691,35.474571228027344,0.28
83,MetaDrive-test-rand-v1,89,167.6128807585735,87576,631,973.7930710315704,,18.510292053222656,35.09906768798828,0.29
84,MetaDrive-test-rand-v1,90,169.4275025874908,88338,634,981.2477135658264,,6.620172500610352,40.195587158203125,0.3
85,MetaDrive-test-rand-v1,90,168.1396253771714,89084,637,988.607259273529,,102.08141326904297,34.18801498413086,0.3
86,MetaDrive-test-rand-v1,90,170.87677151633008,90141,642,1001.3313648700714,-37.990116119384766,41.64813995361328,37.53871536254883,0.31
87,MetaDrive-test-rand-v1,90,170.68477119727305,91051,645,1011.652462720871,-35.361595153808594,8.970418930053711,34.332763671875,0.31
88,MetaDrive-test-rand-v1,89,173.4729226280885,92232,650,1026.990338087082,,31.388568878173828,36.1934814453125,0.31
89,MetaDrive-test-rand-v1,89,175.7168727641456,93201,651,1038.6660950183868,-36.782649993896484,81.03394317626953,35.18029022216797,0.32
90,MetaDrive-test-rand-v1,89,171.28373375932154,94048,655,1049.6772825717926,,41.39744567871094,39.71759033203125,0.32
91,MetaDrive-test-rand-v1,89,172.5541333257973,95182,659,1062.6667914390564,,6.091331481933594,39.90983200073242,0.32
92,MetaDrive-test-rand-v1,89,173.90484465404407,96030,662,1073.9865384101868,,9.555818557739258,39.28818893432617,0.33
93,MetaDrive-test-rand-v1,89,171.3314105061099,97027,668,1085.068344593048,-41.177818298339844,16.524709701538086,39.78670120239258,0.32
94,MetaDrive-test-rand-v1,89,171.57725164991925,98164,672,1098.756110906601,,5.8376874923706055,39.61363983154297,0.32
95,MetaDrive-test-rand-v1,89,176.3585572714432,99243,675,1112.537299156189,-38.58662796020508,5.5043511390686035,37.75844192504883,0.33
96,MetaDrive-test-rand-v1,89,171.42263174710246,100410,680,1125.8201987743378,,10.440628051757812,37.7534065246582,0.31
97,MetaDrive-test-rand-v1,89,171.54894895051154,101074,681,1134.864413022995,,4.919438362121582,39.496307373046875,0.31
98,MetaDrive-test-rand-v1,88,174.08673048031878,102319,684,1150.4050936698914,-42.74235534667969,140.30844116210938,40.800537109375,0.32
99,MetaDrive-test-rand-v1,89,174.35008162875974,103108,686,1158.1497752666473,,8.027276992797852,43.776710510253906,0.32
100,MetaDrive-test-rand-v1,89,172.48414966470074,104282,689,1170.0778181552887,,5.9226274490356445,39.52440643310547,0.31
101,MetaDrive-test-rand-v1,89,174.1791324733842,105249,691,1181.6043076515198,-44.123374938964844,9.958770751953125,42.32674026489258,0.32
102,MetaDrive-test-rand-v1,89,174.39451475609,106435,695,1194.1927678585052,-44.50239562988281,5.294938087463379,43.78471374511719,0.32
103,MetaDrive-test-rand-v1,89,172.1523314489331,108232,699,1213.8221809864044,,49.82032775878906,38.87787628173828,0.31
104,MetaDrive-test-rand-v1,89,172.5715339300333,109503,702,1228.2043743133545,-42.274505615234375,22.890525817871094,42.264015197753906,0.33
105,MetaDrive-test-rand-v1,89,173.0966517394806,110278,705,1236.983652830124,,5.590461730957031,39.039859771728516,0.33
106,MetaDrive-test-rand-v1,89,173.97169423433456,111062,708,1245.276938199997,,5.045382022857666,39.65660095214844,0.33
107,MetaDrive-test-rand-v1,89,175.82343440449213,112029,712,1257.1286134719849,-48.1372184753418,6.34051513671875,46.402374267578125,0.33
108,MetaDrive-test-rand-v1,88,173.80817397884846,113326,718,1274.941205739975,,3.675562858581543,40.25675964355469,0.32
109,MetaDrive-test-rand-v1,88,173.55337897208375,114475,721,1289.2376773357391,-43.22575378417969,10.90507698059082,42.86189651489258,0.32
110,MetaDrive-test-rand-v1,88,172.9204219487412,115059,723,1295.6776356697083,-42.79398727416992,41.01750946044922,41.571990966796875,0.32
111,MetaDrive-test-rand-v1,88,177.46231151983412,116094,725,1312.2321791648865,,10.809131622314453,39.63556671142578,0.33
112,MetaDrive-test-rand-v1,88,175.84684792540895,117195,728,1324.3884234428406,-44.22296142578125,59.155765533447266,43.73140335083008,0.34
113,MetaDrive-test-rand-v1,88,175.40329981281928,118422,732,1337.6583828926086,,127.42365264892578,41.91477966308594,0.34
114,MetaDrive-test-rand-v1,88,178.38389685304267,119005,733,1345.118679523468,-44.12086486816406,34.617698669433594,43.7320671081543,0.35
115,MetaDrive-test-rand-v1,88,182.89143441556652,120764,736,1369.8954219818115,,4.723000526428223,40.67863464355469,0.35
116,MetaDrive-test-rand-v1,88,181.30256454230582,121060,739,1372.439278125763,,4.4335503578186035,42.92259979248047,0.34
117,MetaDrive-test-rand-v1,88,182.07259251943557,122465,743,1388.034973859787,-38.43636703491211,13.28325080871582,39.36185836791992,0.35
118,MetaDrive-test-rand-v1,88,184.31275425559517,123326,744,1400.6154952049255,,5.708593368530273,40.73231506347656,0.36
119,MetaDrive-test-rand-v1,87,184.64369418991552,124827,745,1431.1778330802917,-42.076255798339844,117.7874755859375,40.367156982421875,0.35
120,MetaDrive-test-rand-v1,87,184.15752196987353,125538,747,1439.2695212364197,,41.50110626220703,40.89704895019531,0.36
121,MetaDrive-test-rand-v1,86,188.04218064123853,126791,748,1463.0702681541443,-41.26736068725586,103.75364685058594,39.9458122253418,0.37
122,MetaDrive-test-rand-v1,86,183.9749618025544,127136,751,1467.0821952819824,,30.717193603515625,43.17848205566406,0.36
123,MetaDrive-test-rand-v1,86,186.86643509322667,128162,755,1478.0197808742523,,7.372524261474609,39.32000732421875,0.36
124,MetaDrive-test-rand-v1,86,188.94965638090923,129445,759,1493.5757808685303,-38.32908630371094,6.955037593841553,38.0672492980957,0.37
125,MetaDrive-test-rand-v1,86,190.01551002475503,130407,761,1505.2899141311646,-40.695743560791016,6.107053756713867,40.52372741699219,0.37
126,MetaDrive-test-rand-v1,86,192.45310646492712,131187,765,1513.6556751728058,-42.0560302734375,11.917400360107422,41.01124572753906,0.38
127,MetaDrive-test-rand-v1,86,196.06998207798125,132323,768,1525.773103237152,-43.341156005859375,7.048457145690918,43.61804962158203,0.4
128,MetaDrive-test-rand-v1,86,196.92286143818615,133277,771,1537.7308983802795,-44.73370361328125,3.335360527038574,45.47563171386719,0.39
129,MetaDrive-test-rand-v1,86,196.5662840288445,135497,774,1575.1532912254333,-40.76951599121094,98.28654479980469,40.625892639160156,0.38
130,MetaDrive-test-rand-v1,85,198.05332873257603,136365,775,1589.3567905426025,-40.201820373535156,12.211111068725586,40.672340393066406,0.39
131,MetaDrive-test-rand-v1,85,199.2803321689715,137155,779,1596.7614359855652,-43.53929138183594,7.0684814453125,43.079002380371094,0.4
132,MetaDrive-test-rand-v1,85,199.04198963252864,138334,781,1611.0208654403687,,32.65415954589844,42.76823806762695,0.4
133,MetaDrive-test-rand-v1,85,194.46616204192168,139215,784,1618.9665768146515,-43.367393493652344,11.946735382080078,43.83342742919922,0.38
134,MetaDrive-test-rand-v1,85,194.24853045184048,140379,787,1633.8832256793976,-43.35791778564453,29.923274993896484,44.00872802734375,0.37
135,MetaDrive-test-rand-v1,85,188.77353869724,141006,791,1641.4667000770569,,3.509739398956299,44.76469039916992,0.34
136,MetaDrive-test-rand-v1,86,189.87309004501066,142026,795,1651.1288332939148,,5.229861736297607,41.64697265625,0.35
137,MetaDrive-test-rand-v1,86,194.73340530317472,143143,798,1663.5032079219818,-41.839134216308594,6.331960201263428,41.51603698730469,0.36
138,MetaDrive-test-rand-v1,86,196.84710302143085,144554,800,1680.3262684345245,,118.32059478759766,40.74910354614258,0.37
139,MetaDrive-test-rand-v1,86,197.08519149313037,145015,801,1684.4615762233734,-47.106849670410156,8.179391860961914,46.808528900146484,0.37
140,MetaDrive-test-rand-v1,86,198.98223387930153,146161,804,1699.4584851264954,-47.10943603515625,5.691658020019531,46.18938446044922,0.37
141,MetaDrive-test-rand-v1,85,200.99739468975596,147044,805,1711.7125754356384,,9.96247673034668,40.3890266418457,0.37
142,MetaDrive-test-rand-v1,86,202.90280048742122,148060,808,1721.6227655410767,,6.939118385314941,43.166175842285156,0.39
143,MetaDrive-test-rand-v1,85,207.5832269450824,149161,809,1737.9840474128723,-46.402687072753906,6.352540016174316,45.116920471191406,0.4
144,MetaDrive-test-rand-v1,85,207.70330024786327,150113,812,1748.8172962665558,-47.60565948486328,19.009563446044922,46.842620849609375,0.4
145,MetaDrive-test-rand-v1,85,209.96691714465956,151449,815,1764.3619048595428,-42.45500183105469,4.495730400085449,42.06855773925781,0.41
146,MetaDrive-test-rand-v1,85,212.08017073233913,152135,816,1776.552407503128,-45.01382064819336,8.28113842010498,44.12203598022461,0.41
147,MetaDrive-test-rand-v1,85,213.1678443176463,153038,820,1784.4498784542084,,5.790035724639893,42.65346145629883,0.42
148,MetaDrive-test-rand-v1,85,211.04403664255915,154020,824,1796.379954814911,,23.389759063720703,40.22008514404297,0.41
149,MetaDrive-test-rand-v1,85,205.406761208858,155030,828,1807.8346321582794,,7.884232521057129,44.52483367919922,0.39
150,MetaDrive-test-rand-v1,85,202.470003082236,156090,832,1819.9508459568024,,31.379972457885742,45.140079498291016,0.38
151,MetaDrive-test-rand-v1,85,203.3966624709144,157340,834,1837.063807964325,,5.947840213775635,44.66053009033203,0.38
152,MetaDrive-test-rand-v1,85,198.90688675990364,158169,837,1846.6639695167542,-47.839935302734375,41.32835388183594,46.080135345458984,0.37
153,MetaDrive-test-rand-v1,85,204.09609652675846,159409,840,1860.1067819595337,-46.4117431640625,5.319162368774414,46.81245422363281,0.39
154,MetaDrive-test-rand-v1,85,201.24280496256574,160325,843,1872.4464747905731,-44.891563415527344,9.716906547546387,43.12541580200195,0.37
155,MetaDrive-test-rand-v1,85,200.18727211276368,161479,845,1886.2865152359009,-42.15511703491211,2.9904122352600098,41.74391174316406,0.38
156,MetaDrive-test-rand-v1,85,201.4725332504408,162514,847,1899.4509496688843,,6.332851886749268,39.37689971923828,0.38
157,MetaDrive-test-rand-v1,85,198.62995793675924,163329,850,1908.8515965938568,-43.94057083129883,7.089057445526123,43.032745361328125,0.37
158,MetaDrive-test-rand-v1,85,198.5525950721361,164020,852,1915.447562456131,,7.079323768615723,42.064884185791016,0.37
159,MetaDrive-test-rand-v1,85,196.18739371544052,165044,856,1924.4993901252747,,6.708154678344727,43.15933609008789,0.37
160,MetaDrive-test-rand-v1,85,195.86682461359248,166136,859,1936.0439927577972,,7.809756278991699,42.14199447631836,0.37
161,MetaDrive-test-rand-v1,85,193.89985631281834,167068,862,1947.1789772510529,,44.82636260986328,40.44955825805664,0.37
162,MetaDrive-test-rand-v1,85,200.21421774681684,168400,864,1964.284150838852,,6.893765926361084,43.393829345703125,0.39
163,MetaDrive-test-rand-v1,85,203.68892264603156,169699,866,1982.739913702011,-46.754737854003906,4.783523082733154,46.164344787597656,0.39
164,MetaDrive-test-rand-v1,85,204.5771764506509,170577,867,1992.475951910019,-39.535186767578125,56.54499816894531,39.15177917480469,0.39
165,MetaDrive-test-rand-v1,85,204.6233068102843,171105,868,1998.1719591617584,-46.26945495605469,8.751912117004395,46.230655670166016,0.39
166,MetaDrive-test-rand-v1,85,201.85956982878466,173060,871,2020.9521894454956,,30.188453674316406,43.523834228515625,0.39
167,MetaDrive-test-rand-v1,85,200.96846948226374,174095,874,2032.2736263275146,-42.53795623779297,23.022674560546875,42.95841979980469,0.39
168,MetaDrive-test-rand-v1,85,202.93108052165658,175475,877,2048.684812307358,-43.82074737548828,2.7777247428894043,43.509979248046875,0.4
169,MetaDrive-test-rand-v1,85,206.38201854175418,176420,878,2060.6960577964783,,5.284058570861816,42.001197814941406,0.41
170,MetaDrive-test-rand-v1,85,207.37441178962345,177862,879,2073.7622356414795,,11.984017372131348,43.14228820800781,0.41
171,MetaDrive-test-rand-v1,85,207.73281294073306,178878,880,2087.938006877899,,56.34917449951172,40.2050666809082,0.41
172,MetaDrive-test-rand-v1,85,206.86119029782222,179355,881,2094.500582933426,-40.90433120727539,27.340656280517578,40.618995666503906,0.4
173,MetaDrive-test-rand-v1,85,204.32103938896316,180137,884,2102.8285295963287,-46.5909309387207,6.061753273010254,45.516639709472656,0.39
174,MetaDrive-test-rand-v1,85,203.45831929409675,181032,886,2112.649586200714,,30.52080726623535,41.32014465332031,0.39
175,MetaDrive-test-rand-v1,85,203.88392649659966,182686,888,2130.661232948303,,4.914295196533203,39.28678894042969,0.39
176,MetaDrive-test-rand-v1,85,206.6621160954561,183768,889,2140.8662967681885,,59.051700592041016,44.428199768066406,0.4
177,MetaDrive-test-rand-v1,85,207.86887964043532,184251,890,2145.4115533828735,-37.674983978271484,70.19266510009766,38.031036376953125,0.41
178,MetaDrive-test-rand-v1,85,212.63555825117078,185309,892,2158.8892018795013,-42.12776184082031,6.197125434875488,41.40435028076172,0.42
179,MetaDrive-test-rand-v1,85,214.18164207282217,186325,894,2169.775053501129,-44.885772705078125,9.921154022216797,44.43852615356445,0.42
180,MetaDrive-test-rand-v1,85,215.29083950914486,187212,896,2178.733404636383,,6.671615123748779,42.52531051635742,0.43
181,MetaDrive-test-rand-v1,85,214.14894699059067,188370,898,2194.0137481689453,,3.288663387298584,44.30174255371094,0.42
182,MetaDrive-test-rand-v1,85,212.56539757908308,189181,900,2203.4718623161316,-42.92646408081055,18.630279541015625,43.92688751220703,0.41
183,MetaDrive-test-rand-v1,85,210.925149283132,190230,903,2214.55512547493,,4.617817401885986,39.453880310058594,0.4
184,MetaDrive-test-rand-v1,85,205.713558830693,191329,906,2229.4174704551697,-39.754737854003906,7.13116979598999,39.842010498046875,0.39
185,MetaDrive-test-rand-v1,85,203.31480085755075,192528,909,2242.7920949459076,,8.201883316040039,40.72254943847656,0.39
186,MetaDrive-test-rand-v1,85,205.65276506803687,193188,910,2248.178723335266,,19.178665161132812,43.778045654296875,0.39
187,MetaDrive-test-rand-v1,85,202.63557367744022,194060,913,2259.3879022598267,,8.965526580810547,39.21727752685547,0.38
188,MetaDrive-test-rand-v1,85,203.73925693479606,195604,917,2275.7776687145233,,9.312068939208984,41.19453811645508,0.39
189,MetaDrive-test-rand-v1,85,206.0633857037953,196571,919,2290.1793336868286,-41.534908294677734,5.970653533935547,42.00054168701172,0.39
190,MetaDrive-test-rand-v1,85,204.49567940870227,197231,921,2297.6632826328278,-39.13603591918945,5.277146339416504,38.51871871948242,0.38
191,MetaDrive-test-rand-v1,85,208.607641648889,198171,923,2307.698019504547,-40.25018310546875,7.592134475708008,39.581180572509766,0.4
192,MetaDrive-test-rand-v1,85,212.26659445299657,199059,925,2320.26087975502,-41.245452880859375,61.026466369628906,39.584739685058594,0.41
193,MetaDrive-test-rand-v1,85,214.70872878006253,200392,928,2336.2943239212036,,6.75850248336792,41.10219192504883,0.42
194,MetaDrive-test-rand-v1,85,215.59123948796733,201035,930,2342.679634809494,-43.29139709472656,4.492311000823975,43.371315002441406,0.43
195,MetaDrive-test-rand-v1,85,210.7986587556441,202197,934,2357.8868243694305,-41.982147216796875,7.4661078453063965,41.47954559326172,0.42
196,MetaDrive-test-rand-v1,85,214.2893020080881,203425,936,2370.89222240448,-39.632259368896484,4.42214298248291,39.536502838134766,0.44
197,MetaDrive-test-rand-v1,85,213.70574876111954,204006,938,2376.095461845398,,6.522693634033203,38.96177291870117,0.44
198,MetaDrive-test-rand-v1,85,215.55860591397584,205607,942,2394.5082561969757,-42.375267028808594,21.538827896118164,42.865928649902344,0.45
199,MetaDrive-test-rand-v1,85,215.8477649619038,206248,943,2403.271086215973,,14.237161636352539,44.01968002319336,0.46
200,MetaDrive-test-rand-v1,85,209.92107130413643,207359,947,2414.907080888748,-46.08356475830078,11.01197624206543,44.63896179199219,0.44
201,MetaDrive-test-rand-v1,85,212.3532729475832,208020,948,2421.8292694091797,,5.502631187438965,45.63630676269531,0.45
202,MetaDrive-test-rand-v1,85,211.45804462212035,209047,952,2432.771132707596,-43.85870361328125,4.325253486633301,42.93519592285156,0.44
203,MetaDrive-test-rand-v1,85,213.31135661654795,210097,955,2445.1397359371185,-44.02976989746094,5.350931644439697,43.69765090942383,0.44
204,MetaDrive-test-rand-v1,85,216.9590167120171,211091,957,2455.4798963069916,-42.82042694091797,3.665889024734497,43.021446228027344,0.46
205,MetaDrive-test-rand-v1,85,213.5211088726452,212193,962,2469.4429066181183,-43.366493225097656,8.287540435791016,42.647212982177734,0.44
206,MetaDrive-test-rand-v1,85,204.56715172868044,213097,966,2479.4143810272217,-38.29344177246094,5.482265949249268,38.615970611572266,0.42
207,MetaDrive-test-rand-v1,85,203.12166796997263,214235,969,2493.8377561569214,-38.95246887207031,15.182676315307617,38.89387893676758,0.41
208,MetaDrive-test-rand-v1,85,206.4353131172204,215667,972,2510.6035244464874,-37.539398193359375,20.456626892089844,37.254661560058594,0.43
209,MetaDrive-test-rand-v1,85,205.66728337127697,216159,975,2515.750703573227,-44.37383270263672,4.026122093200684,43.53439712524414,0.43
210,MetaDrive-test-rand-v1,85,204.11848037449465,217542,977,2531.864417076111,,3.1487064361572266,40.8842658996582,0.42
211,MetaDrive-test-rand-v1,85,204.4013874360563,218483,978,2545.3575785160065,-40.41896057128906,5.5855302810668945,40.13922119140625,0.42
212,MetaDrive-test-rand-v1,85,204.26123635909897,219048,979,2552.2197201251984,,59.91733932495117,40.45123291015625,0.42
213,MetaDrive-test-rand-v1,85,203.59513832330413,220030,983,2561.7072536945343,,8.11493968963623,40.45703125,0.42
214,MetaDrive-test-rand-v1,85,205.49912913367424,221312,986,2575.3791904449463,,32.83660888671875,37.757328033447266,0.43
215,MetaDrive-test-rand-v1,85,207.76723228736932,222387,988,2588.1941487789154,-45.01247787475586,7.676126003265381,44.89735412597656,0.44
216,MetaDrive-test-rand-v1,85,207.1176892915695,223077,989,2597.4610435962677,-39.939640045166016,5.900659084320068,40.635826110839844,0.44
217,MetaDrive-test-rand-v1,85,196.52115622520384,224487,995,2613.5896005630493,-40.117122650146484,39.58177185058594,38.635135650634766,0.41
218,MetaDrive-test-rand-v1,85,194.44235213768016,225140,998,2620.849526643753,,13.752443313598633,44.146568298339844,0.4
219,MetaDrive-test-rand-v1,85,195.4309781489711,226227,1000,2634.016959667206,-39.8951416015625,5.370028972625732,39.81611633300781,0.4
220,MetaDrive-test-rand-v1,85,197.95673643259525,227491,1002,2651.0310156345367,-41.8763427734375,8.219094276428223,40.56378173828125,0.41
221,MetaDrive-test-rand-v1,85,197.37276526775165,228161,1005,2657.6709921360016,-47.8584098815918,5.576609134674072,47.31134033203125,0.41
222,MetaDrive-test-rand-v1,85,196.14021242451835,229289,1007,2670.859091281891,-34.797157287597656,9.012838363647461,34.457801818847656,0.4
223,MetaDrive-test-rand-v1,85,200.5855009377033,230663,1009,2687.6224360466003,-39.630855560302734,6.586983680725098,39.276145935058594,0.41
224,MetaDrive-test-rand-v1,85,199.40501563489047,231057,1010,2692.203481197357,-39.4644775390625,3.748541831970215,38.48855209350586,0.41
225,MetaDrive-test-rand-v1,85,199.94919082649642,232389,1014,2707.4455230236053,-40.17186737060547,17.324542999267578,39.61727523803711,0.43
226,MetaDrive-test-rand-v1,85,201.13859392937246,233152,1015,2717.6022329330444,,8.581409454345703,38.93501281738281,0.43
227,MetaDrive-test-rand-v1,85,203.82623152730986,234492,1018,2731.306293487549,,10.324275016784668,34.60822677612305,0.44
228,MetaDrive-test-rand-v1,85,202.8870758803347,235094,1019,2741.634649991989,,2.811718463897705,38.32794952392578,0.44
229,MetaDrive-test-rand-v1,85,205.40079421157753,236223,1021,2754.6809899806976,-40.05876159667969,10.690881729125977,40.81044006347656,0.45
230,MetaDrive-test-rand-v1,85,200.08966784474873,237319,1024,2767.816689968109,-43.242225646972656,13.356843948364258,42.320987701416016,0.43
231,MetaDrive-test-rand-v1,85,202.63903280897284,238332,1026,2779.931537628174,,18.31473731994629,40.94473648071289,0.43
232,MetaDrive-test-rand-v1,85,201.97330580875433,239009,1028,2787.722255706787,-40.64917755126953,10.076488494873047,39.59937286376953,0.43
233,MetaDrive-test-rand-v1,85,206.23389500617927,240397,1031,2803.9793424606323,-39.92070770263672,6.914926528930664,39.824012756347656,0.44
234,MetaDrive-test-rand-v1,85,211.8734803725733,241643,1033,2820.8182651996613,-35.805294036865234,21.887706756591797,35.12102127075195,0.46
235,MetaDrive-test-rand-v1,85,210.2156143159342,242082,1034,2827.8849625587463,,26.721099853515625,42.271488189697266,0.45
236,MetaDrive-test-rand-v1,85,207.80195598434418,243021,1037,2839.0984904766083,-42.15619659423828,10.566997528076172,41.575782775878906,0.43
237,MetaDrive-test-rand-v1,85,213.26828124685824,244311,1039,2856.5435316562653,-38.28773880004883,18.139272689819336,37.87481689453125,0.44
238,MetaDrive-test-rand-v1,85,215.00049029952265,245124,1041,2865.849799633026,,9.04047966003418,39.66788864135742,0.44
239,MetaDrive-test-rand-v1,85,214.75858854601628,246196,1043,2878.5343010425568,,5.752862930297852,37.43360900878906,0.44
240,MetaDrive-test-rand-v1,85,218.1377401888549,247205,1045,2892.21192073822,-40.660728454589844,5.995849609375,39.29521560668945,0.45
241,MetaDrive-test-rand-v1,85,221.76161172394802,248419,1047,2908.8112535476685,-40.412174224853516,96.77862548828125,39.31669616699219,0.45
242,MetaDrive-test-rand-v1,85,221.5757418225078,249258,1049,2917.090678215027,,14.31470775604248,40.11530303955078,0.45
243,MetaDrive-test-rand-v1,85,227.0852194929374,250554,1051,2932.29731464386,,25.901283264160156,41.183528900146484,0.47
244,MetaDrive-test-rand-v1,85,228.0326022429346,251539,1053,2943.078189611435,-42.346134185791016,8.40151596069336,41.42494583129883,0.46
245,MetaDrive-test-rand-v1,85,231.1801075069668,252373,1054,2953.4335975646973,-40.624900817871094,9.171091079711914,40.749351501464844,0.47
246,MetaDrive-test-rand-v1,85,229.54171176338875,253062,1056,2962.2145504951477,,6.989337921142578,38.54971694946289,0.47
247,MetaDrive-test-rand-v1,85,234.56911862831478,254369,1059,2977.7345185279846,-41.32777404785156,6.009934425354004,41.6164436340332,0.47
248,MetaDrive-test-rand-v1,85,236.0055914247914,255145,1061,2985.095843553543,-39.28681945800781,14.626575469970703,39.665122985839844,0.48
249,MetaDrive-test-rand-v1,85,240.23041215947563,256097,1062,2998.103540658951,-37.91756057739258,56.80238342285156,38.88947296142578,0.49
250,MetaDrive-test-rand-v1,85,241.21480598227572,257364,1066,3014.0763936042786,,6.056507110595703,38.389183044433594,0.49
251,MetaDrive-test-rand-v1,85,242.70238893929593,258220,1068,3023.6722230911255,,5.206008434295654,36.96892547607422,0.49
252,MetaDrive-test-rand-v1,85,242.51511104662237,259822,1071,3045.830373287201,,7.377382278442383,43.30448913574219,0.48
253,MetaDrive-test-rand-v1,85,242.06893626975372,260311,1072,3051.7698283195496,-40.52109146118164,103.40724182128906,39.07973098754883,0.48
254,MetaDrive-test-rand-v1,85,245.32878609988305,261287,1075,3061.5023028850555,-40.33820343017578,12.115059852600098,38.903045654296875,0.48
255,MetaDrive-test-rand-v1,85,238.64500501754355,262043,1078,3068.826788187027,-39.648223876953125,9.550640106201172,39.53960418701172,0.46
256,MetaDrive-test-rand-v1,85,239.64689844480586,263449,1080,3087.330372571945,-37.22217559814453,11.06690502166748,38.63324737548828,0.46
257,MetaDrive-test-rand-v1,85,243.62268063938163,264720,1083,3100.5405175685883,,4.935881614685059,39.65400314331055,0.48
258,MetaDrive-test-rand-v1,85,242.45368111066284,265173,1085,3105.1291999816895,-37.57004928588867,5.099174499511719,36.67278289794922,0.47
259,MetaDrive-test-rand-v1,85,238.45540638525617,266176,1088,3115.2151918411255,,12.28931999206543,43.274383544921875,0.46
260,MetaDrive-test-rand-v1,85,240.81255873218134,267074,1090,3125.849338531494,,5.967933654785156,41.6342887878418,0.47
261,MetaDrive-test-rand-v1,85,248.02424040633798,268545,1092,3142.3929193019867,-39.85469436645508,8.019996643066406,39.579742431640625,0.49
262,MetaDrive-test-rand-v1,85,251.83222737536286,269379,1093,3153.9771599769592,-39.32258605957031,8.227217674255371,39.857486724853516,0.5
263,MetaDrive-test-rand-v1,85,252.01665636247017,270017,1095,3161.8047444820404,-42.58268356323242,5.761037349700928,41.58131408691406,0.5
264,MetaDrive-test-rand-v1,85,256.8426899936647,271308,1097,3178.309401512146,,5.126856327056885,38.03672790527344,0.51
265,MetaDrive-test-rand-v1,85,256.20169665332435,272050,1099,3186.4355549812317,,9.40034294128418,36.82627487182617,0.52
266,MetaDrive-test-rand-v1,85,259.3760155359733,273541,1101,3207.9415044784546,-42.71308135986328,10.496346473693848,42.489524841308594,0.52
267,MetaDrive-test-rand-v1,85,259.7336852539406,274075,1102,3213.547653913498,-41.403076171875,8.815051078796387,40.69708251953125,0.53
268,MetaDrive-test-rand-v1,85,262.8416997902042,275115,1104,3226.826676607132,-41.350040435791016,4.9193525314331055,40.36747360229492,0.53
269,MetaDrive-test-rand-v1,85,265.8103489473781,276211,1106,3238.6167743206024,-42.61640167236328,4.42840576171875,42.7169303894043,0.53
270,MetaDrive-test-rand-v1,85,262.9168711229546,277720,1110,3258.126096010208,,4.7456769943237305,39.88679885864258,0.53
271,MetaDrive-test-rand-v1,85,264.9288742388043,278136,1111,3261.416014432907,,20.849849700927734,40.519996643066406,0.54
272,MetaDrive-test-rand-v1,85,267.0588750081245,279110,1113,3272.037877559662,,58.522247314453125,40.05077362060547,0.54
273,MetaDrive-test-rand-v1,85,266.6469542010122,280340,1115,3286.4341027736664,,19.415559768676758,41.300254821777344,0.54
274,MetaDrive-test-rand-v1,85,265.8693224921595,281016,1117,3292.4378933906555,,13.819978713989258,39.55095291137695,0.54
275,MetaDrive-test-rand-v1,85,265.9569719288536,282090,1119,3304.4467878341675,,42.541526794433594,40.97895431518555,0.55
276,MetaDrive-test-rand-v1,85,263.92723710537234,283226,1121,3317.195320367813,,5.336922645568848,40.4949836730957,0.54
277,MetaDrive-test-rand-v1,85,266.4500065455748,284237,1123,3330.9785528182983,-38.147457122802734,6.563299179077148,37.714202880859375,0.54
278,MetaDrive-test-rand-v1,85,265.9938557015263,285188,1125,3340.137072324753,,5.885652542114258,40.53330612182617,0.55
279,MetaDrive-test-rand-v1,85,265.4848461827954,286602,1128,3358.6210284233093,,7.952692985534668,44.121795654296875,0.54
280,MetaDrive-test-rand-v1,85,270.18065249596907,287349,1129,3367.0223076343536,-41.822261810302734,4.4240922927856445,40.973060607910156,0.55
281,MetaDrive-test-rand-v1,85,266.7574092826995,288034,1131,3377.1875689029694,,8.695833206176758,39.976402282714844,0.53
282,MetaDrive-test-rand-v1,85,264.92000564733047,289245,1134,3390.875531435013,-39.40544509887695,5.432070255279541,38.442596435546875,0.52
283,MetaDrive-test-rand-v1,85,264.84026314918026,290388,1137,3404.273175239563,,8.683667182922363,38.432918548583984,0.52
284,MetaDrive-test-rand-v1,85,262.7891226369261,291113,1139,3412.41583943367,-40.2647590637207,18.173547744750977,40.27825927734375,0.52
285,MetaDrive-test-rand-v1,85,263.5020958884412,292097,1141,3423.009507894516,-39.87168502807617,6.781786918640137,39.264923095703125,0.52
286,MetaDrive-test-rand-v1,85,260.72565700909786,293075,1144,3434.9709706306458,-40.340423583984375,3.5281801223754883,39.721824645996094,0.5
287,MetaDrive-test-rand-v1,85,261.2954349951766,294411,1146,3451.6251146793365,-40.320716857910156,9.419658660888672,39.828880310058594,0.51
288,MetaDrive-test-rand-v1,85,260.07807967749415,295205,1148,3461.074558019638,-43.181461334228516,6.832528114318848,42.539817810058594,0.5
289,MetaDrive-test-rand-v1,85,259.84904440390653,296091,1150,3470.013258934021,-42.59181213378906,9.375204086303711,41.83531188964844,0.51
290,MetaDrive-test-rand-v1,85,258.5935496884985,297092,1152,3482.7362875938416,,4.928520202636719,37.89305877685547,0.51
291,MetaDrive-test-rand-v1,85,252.56639709637957,298126,1156,3497.0634157657623,,7.3585309982299805,37.791751861572266,0.49
292,MetaDrive-test-rand-v1,85,249.49548875245569,299121,1159,3508.2448556423187,-41.29298782348633,6.20950984954834,41.19480895996094,0.49
293,MetaDrive-test-rand-v1,85,246.81802164889515,300385,1162,3520.5990312099457,-40.90654373168945,8.403383255004883,41.378021240234375,0.48
294,MetaDrive-test-rand-v1,85,250.88523101403348,301196,1163,3529.83048248291,,15.475638389587402,40.63093948364258,0.49
295,MetaDrive-test-rand-v1,85,255.2874603166996,302513,1165,3545.876037120819,-42.997039794921875,7.294374465942383,43.536102294921875,0.5
296,MetaDrive-test-rand-v1,85,256.24335512548663,303384,1167,3554.6691274642944,,15.808286666870117,36.23462677001953,0.51
297,MetaDrive-test-rand-v1,85,256.68016372020185,304090,1168,3564.003210544586,,7.1080121994018555,38.051910400390625,0.52
298,MetaDrive-test-rand-v1,85,256.37236854811437,305521,1171,3583.3243486881256,-44.25049591064453,16.33751106262207,43.82126998901367,0.5
299,MetaDrive-test-rand-v1,85,253.85116725239385,306015,1173,3589.2923357486725,-45.199310302734375,98.95297241210938,43.5589485168457,0.49
300,MetaDrive-test-rand-v1,85,258.6162725238349,307524,1176,3605.920186281204,,20.326278686523438,39.79703903198242,0.51
301,MetaDrive-test-rand-v1,85,261.8164952702255,308655,1178,3618.851948261261,-39.738548278808594,4.818300724029541,38.801795959472656,0.52
302,MetaDrive-test-rand-v1,85,260.48092081271074,309123,1179,3622.866285800934,-39.93019104003906,11.026111602783203,39.69450378417969,0.52
303,MetaDrive-test-rand-v1,85,263.09028041675333,310203,1181,3632.1613326072693,-40.194549560546875,6.006443023681641,39.76665496826172,0.53
304,MetaDrive-test-rand-v1,85,266.06988567682305,311105,1182,3644.4023745059967,-44.05357360839844,121.95051574707031,43.445762634277344,0.53
305,MetaDrive-test-rand-v1,85,268.98089926659856,312294,1184,3657.521502971649,,7.088719844818115,40.38165283203125,0.54
306,MetaDrive-test-rand-v1,85,271.92890097037275,313286,1186,3668.437302350998,,18.528118133544922,38.98537826538086,0.55
307,MetaDrive-test-rand-v1,85,275.39589714742715,314140,1187,3678.861947774887,,60.16665267944336,39.67230224609375,0.56
308,MetaDrive-test-rand-v1,85,274.2078732854291,315066,1189,3686.788925409317,,6.124337196350098,41.351409912109375,0.55
309,MetaDrive-test-rand-v1,85,272.7592462093706,316291,1191,3702.170880317688,-44.45832061767578,2.5476293563842773,44.14875030517578,0.55
310,MetaDrive-test-rand-v1,85,270.142513977943,317268,1193,3717.0722291469574,,4.117415428161621,41.708152770996094,0.53
311,MetaDrive-test-rand-v1,85,270.1511205340569,318039,1195,3724.6518898010254,-44.224178314208984,4.766374111175537,43.87376022338867,0.53
312,MetaDrive-test-rand-v1,85,270.6990380081316,319670,1198,3742.7895543575287,,13.106050491333008,41.023956298828125,0.53
313,MetaDrive-test-rand-v1,85,265.02538304937457,320084,1200,3747.1870872974396,,5.570391654968262,46.284664154052734,0.51
314,MetaDrive-test-rand-v1,85,262.71933234232444,321071,1202,3760.844335794449,-42.212467193603516,15.620908737182617,41.470863342285156,0.5
315,MetaDrive-test-rand-v1,85,261.918563181933,322014,1204,3774.0361354351044,,17.310882568359375,39.92265319824219,0.5
316,MetaDrive-test-rand-v1,85,261.45804925612765,323162,1206,3788.4009006023407,,4.679006576538086,42.58271026611328,0.5
317,MetaDrive-test-rand-v1,85,263.83545355551644,324036,1207,3798.352537870407,,10.813055992126465,42.727203369140625,0.5
318,MetaDrive-test-rand-v1,85,267.0467819616175,325055,1209,3814.015032529831,-41.27912139892578,129.35841369628906,40.99290466308594,0.51
319,MetaDrive-test-rand-v1,85,266.28444767774926,326070,1211,3825.933298110962,,10.493658065795898,41.79670715332031,0.5
320,MetaDrive-test-rand-v1,85,270.78468482737634,327610,1213,3843.557683944702,,9.130203247070312,40.5448112487793,0.51
321,MetaDrive-test-rand-v1,85,269.20454722331857,328341,1215,3852.3224997520447,-41.509925842285156,16.365802764892578,42.83094024658203,0.5
322,MetaDrive-test-rand-v1,85,271.1549820798917,329130,1216,3860.8409905433655,,8.319238662719727,44.79963302612305,0.5
323,MetaDrive-test-rand-v1,85,273.57691821722216,330159,1218,3870.5798828601837,-45.05436706542969,10.635213851928711,43.398338317871094,0.51
324,MetaDrive-test-rand-v1,85,274.5622779304642,331313,1220,3888.4941289424896,-43.274051666259766,8.604768753051758,42.89619445800781,0.5
325,MetaDrive-test-rand-v1,85,276.693390818396,332097,1221,3898.043482542038,-41.64998245239258,12.894524574279785,41.35631561279297,0.51
326,MetaDrive-test-rand-v1,85,275.38318253527143,333471,1225,3913.4191584587097,-40.570640563964844,7.233497142791748,41.08046340942383,0.5
327,MetaDrive-test-rand-v1,85,277.87480187546066,334075,1226,3919.291166305542,-45.53935241699219,17.439512252807617,46.371803283691406,0.5
328,MetaDrive-test-rand-v1,85,280.5860614077479,335519,1228,3936.072858572006,-43.148651123046875,7.427529335021973,42.80412673950195,0.51
329,MetaDrive-test-rand-v1,85,275.41087524954366,336210,1230,3943.343154191971,,10.551628112792969,42.363067626953125,0.51
330,MetaDrive-test-rand-v1,85,277.217921177283,337097,1232,3950.8506803512573,-47.38613510131836,8.391952514648438,46.78753662109375,0.52
331,MetaDrive-test-rand-v1,85,278.2223365059939,338121,1235,3960.6959688663483,-43.186119079589844,4.352663040161133,43.09032440185547,0.53
332,MetaDrive-test-rand-v1,85,274.0523158788947,339246,1239,3972.7603549957275,,4.436243057250977,42.748931884765625,0.52
333,MetaDrive-test-rand-v1,85,275.66800476208317,340604,1241,3989.8712718486786,,7.022699356079102,43.06275939941406,0.53
334,MetaDrive-test-rand-v1,85,277.9192476248569,341530,1242,4003.7170646190643,,14.590965270996094,46.55180358886719,0.54
335,MetaDrive-test-rand-v1,85,280.1037408165354,342057,1243,4009.828626394272,-43.92529296875,5.055812835693359,43.75197219848633,0.55
336,MetaDrive-test-rand-v1,85,281.21842555613443,343154,1245,4020.974865436554,,5.911714553833008,44.86870574951172,0.56
337,MetaDrive-test-rand-v1,85,281.9077910584129,344298,1247,4035.6010460853577,,17.200931549072266,44.159645080566406,0.56
338,MetaDrive-test-rand-v1,85,280.03882300183204,345310,1250,4046.3309676647186,,9.035088539123535,47.46250915527344,0.55
339,MetaDrive-test-rand-v1,85,281.458268098889,346378,1252,4060.715934753418,,12.977896690368652,45.86323547363281,0.55
340,MetaDrive-test-rand-v1,85,285.2790824209658,347602,1254,4076.879226922989,,10.740081787109375,45.34166717529297,0.56
341,MetaDrive-test-rand-v1,85,288.1720398531059,348290,1256,4084.6542613506317,,5.617795944213867,42.04736328125,0.57
342,MetaDrive-test-rand-v1,85,290.6810328383655,349718,1259,4100.443556070328,,6.659544944763184,46.586814880371094,0.58
343,MetaDrive-test-rand-v1,85,291.60098985213614,350022,1260,4104.230505943298,,19.546680450439453,43.066734313964844,0.58
344,MetaDrive-test-rand-v1,85,292.8273898199739,351234,1262,4117.7677092552185,,7.584638595581055,44.43006896972656,0.58
345,MetaDrive-test-rand-v1,85,288.6224951322296,352061,1264,4127.655302762985,-45.16877746582031,115.04048156738281,44.704898834228516,0.57
346,MetaDrive-test-rand-v1,85,288.786318124527,353065,1266,4142.163321256638,-45.03990173339844,5.562417507171631,44.48745346069336,0.56
347,MetaDrive-test-rand-v1,85,290.0970107293413,355321,1268,4169.656218528748,-41.078529357910156,12.180155754089355,40.41222381591797,0.56
348,MetaDrive-test-rand-v1,85,291.34613644023875,356398,1270,4179.455979585648,,5.583743572235107,47.293182373046875,0.58
349,MetaDrive-test-rand-v1,85,289.9281205150344,357001,1272,4185.741100072861,-45.83488464355469,19.78082275390625,44.191246032714844,0.58
350,MetaDrive-test-rand-v1,85,292.930656112485,358565,1275,4201.2959616184235,-47.481693267822266,25.293109893798828,46.89997863769531,0.6
351,MetaDrive-test-rand-v1,85,291.9838955796187,359616,1277,4211.984581708908,,8.603983879089355,45.64154815673828,0.6
352,MetaDrive-test-rand-v1,85,287.22538011115915,360226,1279,4217.313609838486,,5.915441036224365,49.62326431274414,0.59
353,MetaDrive-test-rand-v1,85,284.3525236584317,361620,1282,4231.217184782028,,57.66118621826172,40.30426025390625,0.58
354,MetaDrive-test-rand-v1,85,283.14011139837623,362397,1283,4241.46453332901,-44.390689849853516,5.435701370239258,43.80817413330078,0.58
355,MetaDrive-test-rand-v1,85,279.59553733966203,363270,1286,4249.694242954254,,7.160977840423584,42.655174255371094,0.57
356,MetaDrive-test-rand-v1,85,278.8699904225735,364340,1288,4260.399678945541,,6.755554676055908,49.454227447509766,0.58
357,MetaDrive-test-rand-v1,85,280.1183744932872,365761,1289,4287.154325246811,-44.16615676879883,7.4739837646484375,44.30889129638672,0.58
358,MetaDrive-test-rand-v1,85,280.186174029394,366268,1290,4292.162272691727,,5.935860633850098,46.770843505859375,0.58
359,MetaDrive-test-rand-v1,85,282.2903406084327,367199,1291,4304.8013508319855,-45.16215515136719,10.911813735961914,44.12371826171875,0.58
360,MetaDrive-test-rand-v1,85,283.80624654524286,368455,1293,4320.153218269348,-44.355804443359375,4.814948558807373,44.23013687133789,0.59
361,MetaDrive-test-rand-v1,85,283.24502768346616,369161,1295,4327.620848417282,-45.947505950927734,10.180963516235352,45.23735046386719,0.59
362,MetaDrive-test-rand-v1,85,281.0307265013065,370529,1298,4345.473740577698,-47.80976104736328,6.573368072509766,47.450439453125,0.59
363,MetaDrive-test-rand-v1,85,283.1304751635144,371015,1299,4350.6053330898285,-47.053550720214844,9.062116622924805,46.85832214355469,0.6
364,MetaDrive-test-rand-v1,85,286.8536820683657,372270,1301,4366.586171388626,,5.430601119995117,47.13644790649414,0.61
365,MetaDrive-test-rand-v1,85,287.16499459376314,373511,1303,4379.493416547775,-47.11853790283203,26.95712661743164,46.89131546020508,0.62
366,MetaDrive-test-rand-v1,85,287.46739823197305,374537,1305,4393.737889289856,-42.835845947265625,16.676151275634766,42.49959182739258,0.62
367,MetaDrive-test-rand-v1,85,282.72344310724975,375239,1307,4400.1011345386505,-45.98930740356445,5.03702449798584,46.14561462402344,0.61
368,MetaDrive-test-rand-v1,85,287.8923185034047,376597,1308,4418.842577219009,-39.70973205566406,17.40174102783203,39.535457611083984,0.62
369,MetaDrive-test-rand-v1,85,285.8594123946833,377167,1309,4428.197296142578,-47.26516342163086,12.283029556274414,48.88041687011719,0.61
370,MetaDrive-test-rand-v1,85,285.57515356148036,378042,1310,4437.392991542816,,8.813693046569824,46.07364273071289,0.61
371,MetaDrive-test-rand-v1,85,279.31605259099456,379083,1313,4447.638592004776,-46.04819869995117,11.357627868652344,45.99595642089844,0.6
372,MetaDrive-test-rand-v1,85,280.060307114486,380254,1315,4460.817680597305,,5.693056106567383,50.42190933227539,0.61
373,MetaDrive-test-rand-v1,85,277.03222056999823,381161,1317,4470.343268871307,-46.51163864135742,5.852813720703125,46.44695281982422,0.6
374,MetaDrive-test-rand-v1,85,281.60984821498664,382824,1319,4491.179715633392,,7.130095481872559,46.85879898071289,0.61
375,MetaDrive-test-rand-v1,85,280.09168066279403,383411,1320,4496.583119869232,-48.98677062988281,10.727127075195312,49.12771224975586,0.61
376,MetaDrive-test-rand-v1,85,279.9493477449673,384389,1322,4505.8380761146545,-43.637901306152344,21.19455337524414,44.295101165771484,0.61
377,MetaDrive-test-rand-v1,85,282.0713666395651,385171,1324,4517.468318462372,-43.16100311279297,10.37817096710205,43.113059997558594,0.61
378,MetaDrive-test-rand-v1,85,279.4982864445209,386057,1326,4526.504342556,-45.01445007324219,7.231602191925049,44.77655029296875,0.62
379,MetaDrive-test-rand-v1,85,278.5265254229777,387371,1329,4539.409918546677,-47.936309814453125,7.880119323730469,47.43677520751953,0.62
380,MetaDrive-test-rand-v1,85,278.82725791509534,389482,1331,4563.662640094757,,6.034913063049316,46.88439178466797,0.6
381,MetaDrive-test-rand-v1,85,278.2034040117705,390087,1333,4569.079459905624,-44.195587158203125,28.292255401611328,45.184471130371094,0.6
382,MetaDrive-test-rand-v1,85,282.41582327448964,391532,1335,4583.5480008125305,,8.416423797607422,47.70867919921875,0.61
383,MetaDrive-test-rand-v1,85,285.35887587034927,392195,1336,4590.741263628006,-50.22453689575195,5.871250629425049,49.66962432861328,0.62
384,MetaDrive-test-rand-v1,85,290.01208706539694,393784,1338,4612.101353645325,,5.872114658355713,46.04007339477539,0.63
385,MetaDrive-test-rand-v1,85,290.9304024748146,394254,1339,4616.2987604141235,,55.117034912109375,45.11247253417969,0.64
386,MetaDrive-test-rand-v1,85,291.78504314904717,395795,1341,4632.732095241547,-47.566768646240234,8.989280700683594,46.8853759765625,0.64
387,MetaDrive-test-rand-v1,85,290.0084884268967,396331,1342,4637.431855678558,-45.91094207763672,10.825693130493164,45.73484420776367,0.64
388,MetaDrive-test-rand-v1,85,286.33840084447695,397082,1344,4645.465627670288,,5.621026992797852,46.46375274658203,0.63
389,MetaDrive-test-rand-v1,85,286.6962589662264,398336,1346,4660.174603462219,,5.299911022186279,44.34395217895508,0.63
390,MetaDrive-test-rand-v1,85,287.46987944873945,399066,1348,4667.075261831284,,13.830780982971191,43.46727752685547,0.63
391,MetaDrive-test-rand-v1,85,290.13680709085565,400608,1350,4684.534952640533,,16.392215728759766,46.97142791748047,0.63
392,MetaDrive-test-rand-v1,85,292.4110422483333,401114,1351,4688.905883073807,,6.074483871459961,50.023101806640625,0.64
393,MetaDrive-test-rand-v1,85,289.9003981330558,402202,1353,4702.6168653965,,179.7693634033203,44.22068405151367,0.64
394,MetaDrive-test-rand-v1,85,290.08113041999775,403701,1356,4718.703116416931,-45.1279182434082,42.075706481933594,44.941001892089844,0.65
395,MetaDrive-test-rand-v1,85,292.6121028535366,404490,1357,4729.383224487305,,38.378910064697266,46.053646087646484,0.66
396,MetaDrive-test-rand-v1,85,293.67346874449953,405269,1358,4738.512269735336,-44.29933166503906,5.280457973480225,44.32818603515625,0.66
397,MetaDrive-test-rand-v1,85,291.0036487796354,406258,1361,4748.514638185501,,3.9108119010925293,50.347137451171875,0.66
398,MetaDrive-test-rand-v1,85,291.49763110260983,407085,1362,4760.291284799576,-52.08544158935547,6.446094512939453,51.51207733154297,0.66
399,MetaDrive-test-rand-v1,85,292.14497974332915,408052,1364,4770.255859375,,5.24287223815918,47.59510803222656,0.66
400,MetaDrive-test-rand-v1,85,293.7685861488486,409680,1366,4789.802699804306,,9.19456672668457,47.30073547363281,0.67
401,MetaDrive-test-rand-v1,85,293.3860720279162,410265,1367,4795.5141043663025,-47.055030822753906,8.534624099731445,46.132904052734375,0.67
402,MetaDrive-test-rand-v1,85,291.18775106870646,411184,1369,4806.228064537048,,18.775959014892578,50.53255081176758,0.66
403,MetaDrive-test-rand-v1,85,293.39697939434666,412207,1371,4817.224673986435,-47.276878356933594,155.99261474609375,46.310604095458984,0.67
404,MetaDrive-test-rand-v1,85,290.6603556434428,413137,1374,4826.0375390052795,-50.9434814453125,13.051980972290039,50.77850341796875,0.66
405,MetaDrive-test-rand-v1,85,292.16101106988356,414016,1376,4833.684798002243,,23.214488983154297,47.51633071899414,0.67
406,MetaDrive-test-rand-v1,85,293.4353122625258,415236,1378,4847.2809500694275,,10.940434455871582,54.97446823120117,0.67
407,MetaDrive-test-rand-v1,85,292.26138092150507,416450,1381,4858.962052822113,,11.475284576416016,44.95442199707031,0.67
408,MetaDrive-test-rand-v1,85,292.9736638303347,417096,1382,4866.633343935013,,16.434648513793945,48.78224182128906,0.67
409,MetaDrive-test-rand-v1,85,291.58173675907966,418089,1384,4878.106702804565,-48.77243423461914,28.536842346191406,48.801116943359375,0.67
410,MetaDrive-test-rand-v1,85,295.61677121363215,419180,1385,4895.378685474396,,9.203743934631348,50.07178497314453,0.68
411,MetaDrive-test-rand-v1,85,295.15503353893143,420365,1387,4911.7001531124115,-50.64309310913086,7.712742805480957,51.370323181152344,0.66
412,MetaDrive-test-rand-v1,85,293.00068241483,421492,1389,4922.722967624664,,124.80160522460938,45.048946380615234,0.66
413,MetaDrive-test-rand-v1,85,289.4980288487025,422330,1391,4932.361339092255,,10.732183456420898,46.16506576538086,0.65
414,MetaDrive-test-rand-v1,85,288.9082248019975,423474,1393,4943.751564979553,,10.315577507019043,47.307823181152344,0.66
415,MetaDrive-test-rand-v1,85,289.8185125554479,424360,1396,4953.875971078873,,11.403249740600586,48.34328842163086,0.66
416,MetaDrive-test-rand-v1,85,289.96247305548206,425422,1398,4963.446100234985,,8.67837142944336,43.2756462097168,0.67
417,MetaDrive-test-rand-v1,85,288.7028225475679,426041,1400,4969.057907819748,-44.04307174682617,45.37760925292969,44.00307083129883,0.67
418,MetaDrive-test-rand-v1,85,287.8027860913827,427163,1402,4980.533576965332,-52.62720489501953,3.4342284202575684,51.33903121948242,0.67
419,MetaDrive-test-rand-v1,85,287.23137999408044,428253,1404,4990.260235786438,-48.797019958496094,6.454904556274414,48.325950622558594,0.67
420,MetaDrive-test-rand-v1,85,289.18770633661376,429190,1405,5004.415226697922,,6.051485061645508,51.840919494628906,0.68
421,MetaDrive-test-rand-v1,85,290.71874155569,430267,1407,5016.096082210541,-49.25975799560547,8.311628341674805,48.4868049621582,0.69
422,MetaDrive-test-rand-v1,85,287.4951490420552,431308,1409,5027.920174598694,,5.50912618637085,44.90834426879883,0.68
423,MetaDrive-test-rand-v1,85,286.92762850464413,432178,1411,5037.372413635254,,4.1156768798828125,51.90821838378906,0.67
424,MetaDrive-test-rand-v1,85,289.28426762928814,433172,1413,5048.310421466827,,13.772778511047363,48.776512145996094,0.68
425,MetaDrive-test-rand-v1,85,289.23676031786164,434251,1415,5060.485345363617,-46.844993591308594,146.01577758789062,46.14982223510742,0.66
426,MetaDrive-test-rand-v1,85,289.97538525830385,435423,1417,5072.096883535385,-48.668548583984375,17.093917846679688,48.249977111816406,0.67
427,MetaDrive-test-rand-v1,85,283.76720499008565,436590,1420,5083.977824687958,,7.470325469970703,51.409751892089844,0.66
428,MetaDrive-test-rand-v1,85,282.1324712919842,437054,1422,5089.954947710037,,6.179823875427246,46.66756057739258,0.65
429,MetaDrive-test-rand-v1,85,285.92512915982,438028,1423,5104.733731031418,,22.605892181396484,48.049530029296875,0.66
430,MetaDrive-test-rand-v1,85,286.57797396321786,439533,1425,5119.860270500183,-45.9441032409668,17.166183471679688,45.14159393310547,0.67
431,MetaDrive-test-rand-v1,85,285.7636718524787,440662,1427,5135.250041723251,,12.65975284576416,49.51918411254883,0.66
432,MetaDrive-test-rand-v1,85,287.394440927793,441463,1428,5143.967220067978,-47.418434143066406,7.406627178192139,47.20401382446289,0.67
433,MetaDrive-test-rand-v1,85,283.165985553172,442496,1431,5155.310386896133,,6.888758659362793,49.73809051513672,0.66
434,MetaDrive-test-rand-v1,85,286.3928610550886,443103,1432,5161.604315042496,-50.78965759277344,107.53671264648438,49.13914108276367,0.67
435,MetaDrive-test-rand-v1,85,286.7473694348265,444641,1434,5182.255369186401,-50.153934478759766,6.163837432861328,49.63885498046875,0.67
436,MetaDrive-test-rand-v1,85,286.0945401736049,445527,1435,5199.185267210007,-52.19554138183594,15.169412612915039,51.83797836303711,0.66
437,MetaDrive-test-rand-v1,85,285.7494111390287,446158,1436,5205.26357626915,,8.84501838684082,48.37562561035156,0.65
438,MetaDrive-test-rand-v1,85,281.10781462614545,447354,1439,5215.773546934128,,22.071203231811523,48.764312744140625,0.63
439,MetaDrive-test-rand-v1,85,281.7270622507222,448156,1440,5224.258144617081,,22.78443717956543,47.63682556152344,0.63
440,MetaDrive-test-rand-v1,85,278.28665529859506,449189,1442,5239.163528680801,-47.54505157470703,7.233448505401611,46.67996597290039,0.61
441,MetaDrive-test-rand-v1,85,271.6813121439425,450073,1446,5250.06466627121,-51.06005096435547,5.352644443511963,51.13570785522461,0.58
442,MetaDrive-test-rand-v1,85,272.90631347611316,451809,1449,5268.706604719162,-51.16503143310547,16.560325622558594,49.68354797363281,0.58
443,MetaDrive-test-rand-v1,85,271.7385126431835,452360,1450,5274.264011621475,,18.829242706298828,51.43952941894531,0.59
444,MetaDrive-test-rand-v1,85,269.80824155897784,453012,1452,5280.534049749374,,43.960166931152344,44.622596740722656,0.59
445,MetaDrive-test-rand-v1,85,269.42108341137714,454004,1454,5291.858790636063,,12.412986755371094,47.63036346435547,0.58
446,MetaDrive-test-rand-v1,85,271.7595181456035,455017,1455,5303.6802752017975,-48.96257781982422,8.091777801513672,48.559200286865234,0.58
447,MetaDrive-test-rand-v1,85,267.61519597238424,457487,1458,5332.4591500759125,-49.1709098815918,7.347748756408691,48.36973571777344,0.56
448,MetaDrive-test-rand-v1,85,269.1089348788703,458393,1459,5343.230361938477,-53.244529724121094,9.86263656616211,52.251983642578125,0.57
449,MetaDrive-test-rand-v1,85,271.8997295525522,459512,1461,5354.47598528862,,16.968990325927734,48.09770202636719,0.58
450,MetaDrive-test-rand-v1,85,268.32573488214064,460259,1463,5362.5189888477325,-42.607418060302734,7.394153594970703,42.95076370239258,0.57
451,MetaDrive-test-rand-v1,85,268.9712128713743,461273,1465,5373.255952596664,-48.52494812011719,6.7474260330200195,48.025455474853516,0.58
452,MetaDrive-test-rand-v1,85,270.5055829497544,462214,1466,5386.86794424057,,12.057867050170898,53.52473449707031,0.59
453,MetaDrive-test-rand-v1,85,272.1832304877987,463451,1468,5404.9675414562225,-48.19105911254883,32.871726989746094,47.25239562988281,0.59
454,MetaDrive-test-rand-v1,85,273.9597622137,464437,1469,5420.829285621643,-52.000858306884766,10.61512279510498,51.65073776245117,0.59
455,MetaDrive-test-rand-v1,85,273.91575076876995,465936,1471,5440.059238433838,,3.476078748703003,55.08992004394531,0.58
456,MetaDrive-test-rand-v1,85,271.0864681193783,466145,1472,5442.349315643311,-49.31652069091797,9.659420013427734,49.23960876464844,0.57
457,MetaDrive-test-rand-v1,85,275.6659460373535,467536,1475,5456.698259592056,,10.517610549926758,50.13609313964844,0.58
458,MetaDrive-test-rand-v1,85,276.9755617503916,468269,1476,5465.081756591797,-56.238853454589844,7.516396522521973,55.610931396484375,0.58
459,MetaDrive-test-rand-v1,85,275.500751688256,469505,1479,5476.9016127586365,-50.26319885253906,25.491043090820312,49.792423248291016,0.57
460,MetaDrive-test-rand-v1,85,279.27912066135633,470384,1480,5487.283719778061,,9.678642272949219,41.375999450683594,0.58
461,MetaDrive-test-rand-v1,85,276.8841496427952,471234,1482,5497.665868759155,,6.3194780349731445,53.30333709716797,0.57
462,MetaDrive-test-rand-v1,85,278.0361348988491,472093,1484,5506.600918769836,-52.55669403076172,9.52249526977539,52.35569763183594,0.57
463,MetaDrive-test-rand-v1,85,277.62774736481833,473118,1486,5518.087229251862,,6.898035049438477,48.84909439086914,0.57
464,MetaDrive-test-rand-v1,85,278.7912593424987,474557,1488,5539.75067615509,-53.35106658935547,7.583272933959961,51.88129425048828,0.57
465,MetaDrive-test-rand-v1,85,279.20979106997936,475013,1489,5543.689941167831,-50.05192947387695,104.62650299072266,50.32719039916992,0.57
466,MetaDrive-test-rand-v1,85,275.5271007849108,476130,1493,5554.753634929657,,11.11616039276123,47.581119537353516,0.54
467,MetaDrive-test-rand-v1,85,279.5642308406226,477683,1496,5571.6880838871,-53.295372009277344,11.745135307312012,52.817352294921875,0.54
468,MetaDrive-test-rand-v1,85,280.22138825195304,478956,1497,5587.124480485916,,8.29558277130127,47.642520904541016,0.54
469,MetaDrive-test-rand-v1,85,281.05207676740537,479529,1498,5593.530245542526,-49.53935241699219,7.761447429656982,50.29867172241211,0.54
470,MetaDrive-test-rand-v1,85,283.2199568395927,480094,1499,5598.321790218353,,22.51813507080078,50.82164001464844,0.55
471,MetaDrive-test-rand-v1,85,280.6765393796081,481245,1502,5609.060403585434,-54.19713592529297,7.093461036682129,54.1119384765625,0.54
472,MetaDrive-test-rand-v1,85,274.0618055951104,482007,1505,5616.017676353455,-45.84421920776367,8.550237655639648,45.065757751464844,0.52
473,MetaDrive-test-rand-v1,85,273.7847447820929,483588,1508,5631.911841869354,,10.28180980682373,46.98674011230469,0.52
474,MetaDrive-test-rand-v1,85,274.39700646469043,484193,1509,5641.383447885513,-44.79045867919922,7.387608528137207,44.3740119934082,0.52
475,MetaDrive-test-rand-v1,85,273.71390777649253,485271,1511,5653.901577472687,-50.38722229003906,8.374905586242676,50.660675048828125,0.52
476,MetaDrive-test-rand-v1,85,273.8323428791732,486373,1513,5663.529592514038,-48.356441497802734,9.62624454498291,48.25593566894531,0.53
477,MetaDrive-test-rand-v1,85,273.7983800900869,487356,1515,5672.931827068329,,12.62868881225586,50.13372039794922,0.55
478,MetaDrive-test-rand-v1,85,270.6550924404784,488223,1518,5682.3853328228,-44.188987731933594,42.79563903808594,43.78031921386719,0.53
479,MetaDrive-test-rand-v1,85,274.8104773048656,489335,1519,5695.210995674133,-46.53063201904297,125.22821044921875,45.52031326293945,0.54
480,MetaDrive-test-rand-v1,85,277.196424677762,491218,1521,5713.927207708359,,110.22718048095703,45.57972717285156,0.55
481,MetaDrive-test-rand-v1,86,276.685620051375,492238,1523,5722.802175283432,,9.106904029846191,45.47985076904297,0.56
482,MetaDrive-test-rand-v1,86,275.4181900866282,493129,1525,5731.244260311127,-52.08530044555664,6.486983299255371,51.745399475097656,0.55
483,MetaDrive-test-rand-v1,86,275.47480560395223,494127,1527,5739.997692346573,-42.98450469970703,7.228775501251221,41.930419921875,0.56
484,MetaDrive-test-rand-v1,86,278.5995781946163,495536,1529,5754.71935749054,,7.382631301879883,52.79085159301758,0.57
485,MetaDrive-test-rand-v1,86,281.8817496247186,496351,1530,5766.7534103393555,-51.158077239990234,9.950111389160156,51.108516693115234,0.57
486,MetaDrive-test-rand-v1,86,282.06863442597876,497585,1532,5785.399674654007,-45.74601745605469,7.897744178771973,46.01885986328125,0.57
487,MetaDrive-test-rand-v1,86,278.25166541618705,498400,1534,5792.770164728165,,9.058502197265625,47.83205032348633,0.56
488,MetaDrive-test-rand-v1,86,277.43497792102863,499405,1536,5806.001141309738,-49.78678894042969,25.480907440185547,47.859779357910156,0.57
489,MetaDrive-test-rand-v1,86,279.6252551849759,500421,1538,5816.6201910972595,-55.120113372802734,6.699437618255615,54.465309143066406,0.57
490,MetaDrive-test-rand-v1,86,278.68020187752245,501366,1540,5825.614902496338,,6.184756278991699,47.9039306640625,0.58
491,MetaDrive-test-rand-v1,86,281.2381665022016,502595,1542,5838.393763065338,-42.55780792236328,4.563097953796387,42.96236038208008,0.6
492,MetaDrive-test-rand-v1,86,282.1764954229028,503119,1544,5843.340345144272,-52.32655334472656,4.173209190368652,52.3499755859375,0.61
493,MetaDrive-test-rand-v1,86,285.09806197010295,504315,1547,5854.571187496185,-49.435157775878906,12.252052307128906,49.74513244628906,0.63
494,MetaDrive-test-rand-v1,86,283.42084334570507,505585,1549,5872.905731916428,-45.802364349365234,11.836653709411621,44.950069427490234,0.62
495,MetaDrive-test-rand-v1,86,285.3629457884367,506720,1551,5887.147469997406,,6.993739128112793,50.06509017944336,0.62
496,MetaDrive-test-rand-v1,86,284.5127807418599,507249,1552,5893.977588415146,-47.481143951416016,26.08431053161621,47.546630859375,0.61
497,MetaDrive-test-rand-v1,86,284.8370318132496,508750,1553,5908.613280057907,,7.116352081298828,48.275367736816406,0.61
498,MetaDrive-test-rand-v1,86,283.8823071881042,509262,1554,5913.332149744034,,11.412618637084961,44.544097900390625,0.61
499,MetaDrive-test-rand-v1,86,282.18032402552,510090,1556,5922.146787643433,,7.069868087768555,48.81111145019531,0.6
500,MetaDrive-test-rand-v1,86,284.8867362631703,511586,1558,5939.345726490021,,9.89065170288086,47.51826477050781,0.61
501,MetaDrive-test-rand-v1,86,285.51139001320803,512582,1559,5954.2065415382385,,12.055204391479492,47.424747467041016,0.61
502,MetaDrive-test-rand-v1,86,282.24983083525797,513200,1561,5961.1027092933655,,8.724757194519043,47.153385162353516,0.6
503,MetaDrive-test-rand-v1,86,283.8012776927333,514193,1563,5972.576690196991,-49.10742950439453,10.398163795471191,48.602142333984375,0.6
504,MetaDrive-test-rand-v1,86,284.066009256214,515515,1565,5992.278514862061,-48.40858459472656,7.753600597381592,48.38984298706055,0.59
505,MetaDrive-test-rand-v1,86,283.00584718518786,516075,1566,5998.737597703934,-50.5646858215332,8.615097999572754,50.45561981201172,0.59
506,MetaDrive-test-rand-v1,86,280.9877735907893,517571,1569,6013.80055141449,-53.135406494140625,6.824988842010498,52.414276123046875,0.59
507,MetaDrive-test-rand-v1,86,283.07359926458764,518484,1570,6024.0473256111145,,7.764406681060791,45.87408447265625,0.59
508,MetaDrive-test-rand-v1,86,282.5596986558339,519382,1571,6031.980336904526,,32.116512298583984,44.11786651611328,0.6
509,MetaDrive-test-rand-v1,86,284.3143739260808,520883,1572,6052.624913692474,-52.55094909667969,6.298056602478027,52.93688201904297,0.6
510,MetaDrive-test-rand-v1,86,283.59128966013117,521067,1573,6054.2028901577,-51.576698303222656,8.505674362182617,51.375213623046875,0.6
511,MetaDrive-test-rand-v1,86,281.72716632462084,522452,1575,6069.937978029251,,9.444999694824219,46.64427185058594,0.59
512,MetaDrive-test-rand-v1,86,280.9855305098418,523040,1576,6075.810111761093,,14.251522064208984,45.70259094238281,0.59
513,MetaDrive-test-rand-v1,86,280.89191507943053,524873,1578,6096.598480224609,-42.90793991088867,8.502185821533203,42.791358947753906,0.59
514,MetaDrive-test-rand-v1,86,280.79492688813366,525382,1579,6102.018924713135,,23.955713272094727,43.245201110839844,0.59
515,MetaDrive-test-rand-v1,86,277.7399779282755,526301,1581,6110.085356235504,-50.9407844543457,4.5438432693481445,50.414764404296875,0.58
516,MetaDrive-test-rand-v1,86,278.03370629532606,527637,1584,6121.771694421768,-50.897918701171875,22.097091674804688,51.3747444152832,0.59
517,MetaDrive-test-rand-v1,86,275.7665879363922,528270,1585,6128.149804115295,,11.163698196411133,45.74744415283203,0.59
518,MetaDrive-test-rand-v1,86,278.72904055012293,529893,1587,6149.540033817291,-50.06903076171875,9.508768081665039,49.12089538574219,0.61
519,MetaDrive-test-rand-v1,86,277.5688065419157,530567,1588,6155.916125059128,-46.33366775512695,15.169916152954102,46.306644439697266,0.61
520,MetaDrive-test-rand-v1,86,278.23999527091325,531199,1589,6162.8371758461,-48.62266159057617,4.758436679840088,48.268951416015625,0.61
521,MetaDrive-test-rand-v1,86,279.3626908333988,533211,1591,6188.915494441986,-49.96548080444336,20.811410903930664,48.27580642700195,0.62
522,MetaDrive-test-rand-v1,86,283.05033802583586,534316,1593,6200.099724769592,,77.92044830322266,44.784610748291016,0.63
523,MetaDrive-test-rand-v1,86,281.7093359241467,535969,1596,6219.102168560028,-46.419551849365234,9.55272102355957,45.845550537109375,0.63
524,MetaDrive-test-rand-v1,86,278.02389335245664,536096,1597,6220.903413534164,,9.516995429992676,41.89220428466797,0.62
525,MetaDrive-test-rand-v1,86,280.1866787629734,537726,1599,6241.582282066345,,8.590192794799805,45.09442901611328,0.62
526,MetaDrive-test-rand-v1,86,278.99591451632324,538039,1600,6245.146388530731,-49.685333251953125,5.442231178283691,49.213172912597656,0.61
527,MetaDrive-test-rand-v1,86,281.21349333475695,539191,1602,6256.441097021103,-45.83039474487305,5.372495174407959,45.21588897705078,0.62
528,MetaDrive-test-rand-v1,86,282.0932579667162,540025,1603,6266.062846899033,-46.79689407348633,22.31837272644043,46.18396759033203,0.62
529,MetaDrive-test-rand-v1,86,285.1300705295349,541207,1604,6280.151147603989,-43.97604751586914,196.42288208007812,42.96269989013672,0.63
530,MetaDrive-test-rand-v1,86,287.3415433327555,542447,1606,6292.756407022476,-45.102928161621094,35.4533576965332,44.62586212158203,0.64
531,MetaDrive-test-rand-v1,86,289.7931803426945,543021,1607,6298.147088050842,-46.791927337646484,7.538607597351074,45.837310791015625,0.65
532,MetaDrive-test-rand-v1,86,291.0818951497627,544479,1609,6315.009327173233,-52.16188430786133,6.760686874389648,52.10634994506836,0.66
533,MetaDrive-test-rand-v1,86,291.1298754535854,545026,1610,6320.4462950229645,,7.215584754943848,47.385719299316406,0.66
534,MetaDrive-test-rand-v1,86,293.98538260732914,546400,1612,6339.41668510437,,4.831647872924805,48.941139221191406,0.67
535,MetaDrive-test-rand-v1,86,295.50464537907663,547546,1614,6352.69015288353,,211.57550048828125,45.919612884521484,0.67
536,MetaDrive-test-rand-v1,86,299.0048602275661,548850,1616,6367.610174655914,,17.141895294189453,44.71158218383789,0.68
537,MetaDrive-test-rand-v1,86,301.8618220074034,549499,1617,6374.729463815689,-47.53202819824219,26.034713745117188,47.943294525146484,0.69
538,MetaDrive-test-rand-v1,86,296.3875452427508,550877,1620,6389.057702302933,-46.79673767089844,6.668596267700195,46.3765869140625,0.67
539,MetaDrive-test-rand-v1,86,293.4662438110815,551071,1621,6390.927421808243,-47.3450927734375,11.025354385375977,46.34833908081055,0.66
540,MetaDrive-test-rand-v1,86,294.6917211554634,552118,1622,6401.221589565277,,42.50185012817383,41.526512145996094,0.66
541,MetaDrive-test-rand-v1,86,295.00699798329083,553027,1624,6412.0348172187805,-45.48600769042969,9.164441108703613,46.43751525878906,0.66
542,MetaDrive-test-rand-v1,86,294.3879543625235,554359,1626,6425.545171022415,-50.01874542236328,6.85120153427124,49.022743225097656,0.65
543,MetaDrive-test-rand-v1,86,296.94335921589214,555499,1627,6442.852246522903,-46.994083404541016,16.528133392333984,45.560726165771484,0.65
544,MetaDrive-test-rand-v1,86,293.1655781644137,556612,1629,6454.290726423264,,18.577762603759766,45.963783264160156,0.64
545,MetaDrive-test-rand-v1,86,292.5121479905408,557601,1631,6465.150572299957,-40.35145950317383,12.243513107299805,40.677085876464844,0.65
546,MetaDrive-test-rand-v1,86,290.50966944533025,558328,1632,6472.433393955231,,14.368234634399414,45.006553649902344,0.65
547,MetaDrive-test-rand-v1,86,292.62649282394136,559093,1633,6480.308588266373,-44.99625015258789,39.61172103881836,44.64311218261719,0.66
548,MetaDrive-test-rand-v1,86,292.72045274999147,560573,1636,6497.181037425995,-49.59996032714844,40.234886169433594,49.20854949951172,0.66
549,MetaDrive-test-rand-v1,86,294.04789627847026,561180,1637,6503.868986606598,,15.295686721801758,47.29155731201172,0.66
550,MetaDrive-test-rand-v1,86,295.066762329981,562417,1639,6519.480377435684,-44.57379150390625,10.82597541809082,44.181915283203125,0.67
551,MetaDrive-test-rand-v1,86,295.8081960043481,563017,1640,6524.439306735992,-48.371971130371094,5.822160720825195,48.4836311340332,0.67
552,MetaDrive-test-rand-v1,86,297.6505228720176,564019,1641,6539.002100467682,-43.02418899536133,12.837226867675781,42.829837799072266,0.67
553,MetaDrive-test-rand-v1,86,296.8859321647631,565126,1644,6551.665681600571,,10.64233684539795,44.613609313964844,0.65
554,MetaDrive-test-rand-v1,86,293.67198849646064,566421,1648,6568.310193777084,-44.84489059448242,8.625642776489258,44.1943244934082,0.63
555,MetaDrive-test-rand-v1,86,294.802249253038,567126,1649,6575.929008245468,,11.354012489318848,44.111175537109375,0.64
556,MetaDrive-test-rand-v1,86,296.0853610369166,568561,1651,6590.461732625961,-48.707427978515625,10.929574966430664,49.22267150878906,0.65
557,MetaDrive-test-rand-v1,86,296.9505975160549,569438,1653,6598.791789531708,,23.549331665039062,42.104347229003906,0.66
558,MetaDrive-test-rand-v1,86,299.169056460594,570391,1654,6609.849959373474,-49.00172424316406,12.661940574645996,48.65623474121094,0.66
559,MetaDrive-test-rand-v1,86,300.48928496954727,571552,1656,6620.7113246917725,,11.568918228149414,45.94595718383789,0.68
560,MetaDrive-test-rand-v1,86,298.08480780734357,572280,1657,6627.888265609741,,5.986980438232422,47.68186950683594,0.68
561,MetaDrive-test-rand-v1,86,296.6433805684394,573433,1659,6639.100008010864,-41.42275619506836,7.866570472717285,40.51474380493164,0.67
562,MetaDrive-test-rand-v1,86,298.01803199315685,574266,1661,6646.563133716583,,8.141002655029297,48.760643005371094,0.67
563,MetaDrive-test-rand-v1,86,297.8322476132265,575790,1663,6667.930131196976,,12.516321182250977,46.25617980957031,0.67
564,MetaDrive-test-rand-v1,86,297.0954613625094,576317,1664,6672.419532299042,-43.503990173339844,6.9888997077941895,43.55154800415039,0.67
565,MetaDrive-test-rand-v1,86,298.4360626875555,577002,1665,6680.44983124733,,14.548587799072266,46.03781509399414,0.68
566,MetaDrive-test-rand-v1,86,300.26324570882736,578345,1667,6693.2936198711395,-46.999732971191406,7.452858924865723,46.34522247314453,0.69
567,MetaDrive-test-rand-v1,86,288.6997439287054,579172,1671,6701.4104616642,,8.937394142150879,50.4256477355957,0.65
568,MetaDrive-test-rand-v1,86,291.6217580999659,580818,1674,6721.367575407028,,5.2904767990112305,48.808082580566406,0.66
569,MetaDrive-test-rand-v1,86,293.76245820455273,581620,1675,6729.947899341583,,8.712154388427734,45.54410934448242,0.66
570,MetaDrive-test-rand-v1,86,294.47191668561317,582422,1676,6739.059710025787,,17.106922149658203,49.63414764404297,0.66
571,MetaDrive-test-rand-v1,86,291.47498109046035,583023,1679,6744.634646654129,-44.79425048828125,10.980388641357422,43.80497360229492,0.65
572,MetaDrive-test-rand-v1,86,289.17378345865234,584256,1682,6757.065687179565,,7.029036045074463,45.844993591308594,0.64
573,MetaDrive-test-rand-v1,86,293.7291560614869,585642,1683,6776.173131227493,,14.13119888305664,45.76548767089844,0.65
574,MetaDrive-test-rand-v1,86,294.11582777833735,586228,1684,6780.834574460983,,6.61194372177124,42.3258171081543,0.65
575,MetaDrive-test-rand-v1,86,294.8242419627852,587455,1686,6792.336066007614,-42.19093322753906,6.07977294921875,43.07183074951172,0.65
576,MetaDrive-test-rand-v1,86,292.6689287911563,588745,1688,6810.408669948578,-46.70361328125,11.327993392944336,46.793739318847656,0.64
577,MetaDrive-test-rand-v1,86,287.80439771115573,589066,1690,6813.549607753754,,9.256529808044434,48.27580261230469,0.62
578,MetaDrive-test-rand-v1,86,288.4745235387775,590330,1692,6826.207578659058,,140.42132568359375,45.88194274902344,0.63
579,MetaDrive-test-rand-v1,86,288.9886478676496,591097,1694,6833.3158659935,-43.11333465576172,9.112569808959961,43.55042266845703,0.64
580,MetaDrive-test-rand-v1,86,288.54662621916685,592522,1696,6849.369000196457,,6.355362892150879,40.427772521972656,0.65
581,MetaDrive-test-rand-v1,86,288.67659456634186,593889,1698,6862.086317777634,-43.817108154296875,10.196406364440918,43.84387969970703,0.65
582,MetaDrive-test-rand-v1,86,288.83534340635765,594932,1699,6877.038387298584,,7.616948127746582,44.78379440307617,0.65
583,MetaDrive-test-rand-v1,86,291.66003896492293,595801,1700,6889.071384906769,-46.455379486083984,7.415174961090088,45.66737365722656,0.66
584,MetaDrive-test-rand-v1,86,291.34269780310956,596124,1701,6893.186795473099,,9.321451187133789,43.83930587768555,0.65
585,MetaDrive-test-rand-v1,86,290.5900070299295,597625,1702,6913.400123357773,-49.56075668334961,9.069114685058594,48.77165222167969,0.64
586,MetaDrive-test-rand-v1,86,286.213936782454,598179,1704,6919.184414386749,-45.526161193847656,7.406126499176025,46.01075744628906,0.62
587,MetaDrive-test-rand-v1,86,287.6824833841302,599597,1706,6934.545555830002,-44.84185028076172,194.33917236328125,43.4049072265625,0.62
588,MetaDrive-test-rand-v1,86,287.15402570544694,600389,1707,6943.035573244095,-46.1748046875,7.022616386413574,46.23743438720703,0.62
589,MetaDrive-test-rand-v1,86,282.6829140053304,601050,1709,6948.620135545731,,9.594308853149414,43.52260208129883,0.61
590,MetaDrive-test-rand-v1,86,283.6209889798069,602576,1711,6969.7898645401,,34.63457107543945,44.69132995605469,0.61
591,MetaDrive-test-rand-v1,86,284.2861302811372,603388,1712,6979.225266218185,,12.335099220275879,45.65348434448242,0.61
592,MetaDrive-test-rand-v1,86,282.36457146743066,604361,1714,6989.4557139873505,-46.90119934082031,11.843501091003418,45.603004455566406,0.6
593,MetaDrive-test-rand-v1,86,281.4961855467178,605665,1716,7002.249131202698,-46.65104675292969,6.259487152099609,45.8424186706543,0.59
594,MetaDrive-test-rand-v1,86,281.01733854439647,606254,1717,7009.282201528549,,6.4606614112854,41.875816345214844,0.58
595,MetaDrive-test-rand-v1,86,281.93817077401826,607755,1718,7027.731132268906,-44.47516632080078,10.495591163635254,43.75581741333008,0.58
596,MetaDrive-test-rand-v1,86,284.2299668450815,608665,1719,7039.749240398407,-44.30894470214844,12.446104049682617,45.116127014160156,0.59
597,MetaDrive-test-rand-v1,86,284.7342383132558,609572,1720,7051.4256184101105,,20.668262481689453,44.73691177368164,0.59
598,MetaDrive-test-rand-v1,86,286.8804945487428,610148,1721,7056.244313001633,,6.716346740722656,41.400169372558594,0.6
599,MetaDrive-test-rand-v1,86,288.33766380182556,612022,1723,7077.073013305664,,12.129295349121094,45.02734375,0.6
600,MetaDrive-test-rand-v1,86,290.0965808336304,613476,1725,7092.85218334198,,7.950900077819824,45.08812713623047,0.61
601,MetaDrive-test-rand-v1,86,291.1293929674505,614073,1726,7097.964804887772,-46.593048095703125,7.751866340637207,46.721466064453125,0.62
602,MetaDrive-test-rand-v1,86,289.75088669045226,615030,1727,7108.831829071045,,4.526366233825684,43.20271301269531,0.62
603,MetaDrive-test-rand-v1,86,291.3912139829126,616339,1729,7122.49831700325,-48.7474365234375,7.118469715118408,48.759552001953125,0.63
604,MetaDrive-test-rand-v1,86,290.73550597013804,617001,1731,7128.0412447452545,-41.20391082763672,7.860189437866211,40.97046661376953,0.63
605,MetaDrive-test-rand-v1,86,291.2977639345497,618741,1734,7148.623375177383,-48.03033447265625,9.785443305969238,47.408729553222656,0.63
606,MetaDrive-test-rand-v1,86,292.00007596093195,619463,1735,7156.261565685272,-43.679866790771484,6.237683296203613,43.15081024169922,0.63
607,MetaDrive-test-rand-v1,86,291.1842193845535,620504,1736,7169.26366853714,,5.60109281539917,39.44043731689453,0.62
608,MetaDrive-test-rand-v1,86,290.82477451224327,621107,1737,7174.903766870499,-44.24122619628906,5.422072410583496,44.529258728027344,0.62
609,MetaDrive-test-rand-v1,86,290.2703236102095,622319,1739,7186.832940578461,-46.97740173339844,9.205826759338379,46.45146942138672,0.62
610,MetaDrive-test-rand-v1,86,288.13494314718633,623550,1741,7199.569261550903,,10.827587127685547,42.37388229370117,0.6
611,MetaDrive-test-rand-v1,86,288.00602359207124,624184,1743,7204.661833286285,,14.718465805053711,41.53944778442383,0.61
612,MetaDrive-test-rand-v1,86,289.4849316880069,625091,1744,7215.824832201004,-49.31021499633789,3.8705201148986816,49.125362396240234,0.62
613,MetaDrive-test-rand-v1,86,292.5667113096548,626013,1745,7225.25173163414,-46.58495330810547,5.657120704650879,47.40981674194336,0.63
614,MetaDrive-test-rand-v1,86,296.1217216855775,627446,1746,7244.67147731781,,9.503700256347656,45.919578552246094,0.64
615,MetaDrive-test-rand-v1,86,298.3353075979157,628065,1747,7250.139319419861,-39.59503936767578,7.515219688415527,39.78971481323242,0.65
616,MetaDrive-test-rand-v1,86,293.97957130411686,629475,1750,7264.336470365524,-45.4813232421875,10.079509735107422,44.717041015625,0.63
617,MetaDrive-test-rand-v1,86,296.0409230873103,630573,1752,7276.371337175369,-45.072879791259766,11.42660140991211,44.78083419799805,0.63
618,MetaDrive-test-rand-v1,86,295.06541300108927,631015,1753,7281.738416671753,-42.62998962402344,25.88222885131836,43.30462646484375,0.62
619,MetaDrive-test-rand-v1,86,293.44210645840195,632766,1756,7302.488696098328,,8.848302841186523,45.02080535888672,0.61
620,MetaDrive-test-rand-v1,86,293.755745605867,633701,1757,7311.534448385239,-49.4339714050293,8.081687927246094,48.2750358581543,0.61
621,MetaDrive-test-rand-v1,86,296.04661816745056,634758,1758,7322.936591386795,,4.156476974487305,46.177642822265625,0.61
622,MetaDrive-test-rand-v1,86,295.518487016859,635324,1759,7327.830185890198,,10.522018432617188,41.201934814453125,0.62
623,MetaDrive-test-rand-v1,86,297.93133089395747,636393,1760,7340.054072380066,-42.287025451660156,9.070459365844727,41.85307312011719,0.63
624,MetaDrive-test-rand-v1,86,297.2337093552575,637253,1762,7347.925848484039,-47.377044677734375,5.6231207847595215,47.441627502441406,0.62
625,MetaDrive-test-rand-v1,86,297.7215422517656,638480,1764,7360.522267818451,,7.9302802085876465,41.3487663269043,0.63
626,MetaDrive-test-rand-v1,86,295.00444679104123,639063,1765,7366.7604649066925,-45.1893196105957,12.776640892028809,44.29945373535156,0.62
627,MetaDrive-test-rand-v1,86,293.59559203131533,640143,1768,7375.8938937187195,-41.89965057373047,5.114734649658203,42.579166412353516,0.61
628,MetaDrive-test-rand-v1,86,296.90886093010306,641045,1769,7386.562662124634,-44.26433563232422,27.757530212402344,44.361854553222656,0.62
629,MetaDrive-test-rand-v1,86,299.774550881823,643045,1771,7422.360669136047,-44.663734436035156,6.8796257972717285,44.74260711669922,0.63
630,MetaDrive-test-rand-v1,86,304.71816285655746,644813,1773,7447.719024419785,-45.65592956542969,6.253006935119629,45.592071533203125,0.64
631,MetaDrive-test-rand-v1,86,302.97187101659716,645407,1774,7455.6417236328125,-44.352577209472656,7.8549299240112305,44.431270599365234,0.63
632,MetaDrive-test-rand-v1,86,300.7308284241337,646649,1776,7467.492956638336,-44.63780212402344,7.014738082885742,45.0855827331543,0.63
633,MetaDrive-test-rand-v1,86,301.8757755666601,647244,1777,7472.840795755386,,9.382516860961914,47.34113693237305,0.64
634,MetaDrive-test-rand-v1,86,305.9007332913507,648376,1778,7486.603837966919,,7.499589920043945,44.256988525390625,0.65
635,MetaDrive-test-rand-v1,86,310.25765918174164,649877,1779,7507.8498957157135,-45.26527786254883,8.719165802001953,44.259578704833984,0.65
636,MetaDrive-test-rand-v1,86,309.07548432103687,650079,1780,7509.942653894424,-46.89501953125,7.308587074279785,46.73064422607422,0.65
637,MetaDrive-test-rand-v1,86,310.45475422837507,651178,1782,7521.351892948151,,6.95207405090332,45.82654571533203,0.64
638,MetaDrive-test-rand-v1,86,306.3827400842865,652322,1784,7533.603686332703,,6.614259719848633,47.25205993652344,0.63
639,MetaDrive-test-rand-v1,86,302.76625172845235,653002,1786,7541.102217674255,,8.84439468383789,43.87111282348633,0.61
640,MetaDrive-test-rand-v1,86,303.9406522042163,654383,1790,7554.046978473663,-45.127586364746094,9.194147109985352,43.848182678222656,0.6
641,MetaDrive-test-rand-v1,86,300.31897880592976,655016,1792,7560.802001953125,,3.770869731903076,46.15850067138672,0.58
642,MetaDrive-test-rand-v1,86,301.6003354422959,656743,1795,7583.582781553268,-45.43409729003906,6.012491226196289,45.5774040222168,0.58
643,MetaDrive-test-rand-v1,86,300.2827173931761,657043,1796,7586.147527217865,-40.9813232421875,8.308582305908203,41.024818420410156,0.57
644,MetaDrive-test-rand-v1,86,296.0934357497458,658165,1799,7597.704067707062,-38.798709869384766,10.246383666992188,38.3841552734375,0.56
645,MetaDrive-test-rand-v1,86,294.2080985146435,659483,1803,7612.972687244415,-45.88978576660156,6.088451385498047,46.05705261230469,0.56
646,MetaDrive-test-rand-v1,86,294.803957988239,660012,1804,7619.243294239044,,23.796443939208984,37.98760223388672,0.56
647,MetaDrive-test-rand-v1,86,291.2696383772149,661682,1807,7635.121155261993,,10.105447769165039,47.00567626953125,0.55
648,MetaDrive-test-rand-v1,86,293.5130325146261,662272,1808,7640.663078784943,,100.17768859863281,44.359214782714844,0.56
649,MetaDrive-test-rand-v1,86,296.41570134581923,663387,1809,7654.350617170334,-45.661128997802734,43.41411590576172,44.69465637207031,0.56
650,MetaDrive-test-rand-v1,86,294.7444797741361,664783,1811,7670.80418920517,-41.04627990722656,10.402300834655762,40.77698516845703,0.55
651,MetaDrive-test-rand-v1,86,293.24166900592337,665217,1812,7674.786653518677,-42.86939239501953,3.330009937286377,42.97837829589844,0.55
652,MetaDrive-test-rand-v1,86,295.3885190977211,666470,1814,7690.40848326683,,72.73419189453125,38.81797409057617,0.56
653,MetaDrive-test-rand-v1,86,293.65789911410457,667354,1816,7700.241136550903,,7.4976487159729,46.63787078857422,0.55
654,MetaDrive-test-rand-v1,86,295.3549802075277,668417,1818,7711.6482264995575,-45.49238204956055,8.9759521484375,45.23640441894531,0.56
655,MetaDrive-test-rand-v1,86,294.4946757189265,669121,1819,7719.725664138794,-45.901309967041016,21.00348663330078,44.86328125,0.56
656,MetaDrive-test-rand-v1,86,294.14456687609055,670477,1821,7735.919344186783,-41.925880432128906,16.625038146972656,42.164981842041016,0.56
657,MetaDrive-test-rand-v1,86,288.5276370304949,671012,1823,7740.889719486237,,92.94392395019531,47.05775451660156,0.54
658,MetaDrive-test-rand-v1,86,286.62054121784246,672580,1826,7757.818809509277,,6.679163932800293,41.22148132324219,0.52
659,MetaDrive-test-rand-v1,86,287.1418809546217,673484,1827,7773.0941689014435,,9.601360321044922,41.28630065917969,0.51
660,MetaDrive-test-rand-v1,86,288.01180647577553,674127,1828,7780.406583786011,-44.390384674072266,10.527095794677734,43.925453186035156,0.51
661,MetaDrive-test-rand-v1,86,288.09099043234096,675715,1830,7797.479146718979,-41.254539489746094,8.771697998046875,40.89337158203125,0.51
662,MetaDrive-test-rand-v1,86,290.83266228988583,676174,1831,7801.5037269592285,,6.522804260253906,41.0917854309082,0.52
663,MetaDrive-test-rand-v1,86,294.20803005884113,677602,1833,7817.851129293442,,8.081902503967285,43.82133483886719,0.52
664,MetaDrive-test-rand-v1,86,293.9957236271941,678351,1834,7826.325763463974,-44.281856536865234,13.229305267333984,44.339599609375,0.52
665,MetaDrive-test-rand-v1,86,295.64226931429323,679283,1835,7835.549217224121,-44.07985305786133,7.056210517883301,43.067962646484375,0.52
666,MetaDrive-test-rand-v1,86,292.29404368587126,680137,1837,7844.35958647728,-37.77189636230469,3.8719940185546875,37.55500793457031,0.51
667,MetaDrive-test-rand-v1,86,290.2985822248858,681011,1839,7852.043983221054,-47.817718505859375,51.780921936035156,47.199180603027344,0.5
668,MetaDrive-test-rand-v1,86,290.49749087023395,682777,1842,7873.8016583919525,-51.23992919921875,55.05958557128906,50.96973419189453,0.51
669,MetaDrive-test-rand-v1,86,290.76652974047704,683102,1843,7876.8446393013,,7.1844072341918945,46.73829650878906,0.51
670,MetaDrive-test-rand-v1,86,290.6674202296584,684804,1845,7899.106383800507,,5.421550273895264,43.047630310058594,0.51
671,MetaDrive-test-rand-v1,86,290.19189519676524,685918,1846,7916.867949008942,,11.26828670501709,43.49939727783203,0.51
672,MetaDrive-test-rand-v1,86,290.52519233439637,686666,1847,7925.148659467697,,9.093647003173828,46.059906005859375,0.51
673,MetaDrive-test-rand-v1,86,291.3345713750662,687202,1848,7929.59575009346,,5.648898124694824,46.53688430786133,0.52
674,MetaDrive-test-rand-v1,86,292.1056809885762,688255,1849,7937.971152544022,-42.3265380859375,5.362912178039551,42.06007766723633,0.53
675,MetaDrive-test-rand-v1,86,290.0972691299141,689110,1851,7945.720222711563,,8.506296157836914,45.404579162597656,0.53
676,MetaDrive-test-rand-v1,86,288.8273578976537,690232,1854,7956.990993499756,,8.223819732666016,44.63139724731445,0.53
677,MetaDrive-test-rand-v1,86,287.9105540050323,691489,1856,7969.814036846161,-42.441749572753906,12.126075744628906,41.708343505859375,0.53
678,MetaDrive-test-rand-v1,86,284.72581904398123,692555,1858,7978.94180893898,-40.53428268432617,7.0534348487854,40.09803771972656,0.52
679,MetaDrive-test-rand-v1,86,284.8958754946635,693105,1859,7984.57053232193,-44.102813720703125,5.507223129272461,43.57475280761719,0.51
680,MetaDrive-test-rand-v1,86,284.5591140110668,694238,1861,7995.925232887268,,11.92341423034668,37.51182556152344,0.52
681,MetaDrive-test-rand-v1,86,283.6296630166424,695144,1863,8006.923702001572,,38.9661750793457,44.24182891845703,0.51
682,MetaDrive-test-rand-v1,86,284.37311878199546,696501,1866,8019.301347255707,-49.468544006347656,4.6108012199401855,49.1826171875,0.52
683,MetaDrive-test-rand-v1,86,285.3627789587881,697140,1867,8028.055413246155,,6.047347068786621,43.03261947631836,0.52
684,MetaDrive-test-rand-v1,86,286.5531477007901,698102,1868,8040.0295951366425,,5.854856491088867,45.30583953857422,0.52
685,MetaDrive-test-rand-v1,86,283.3078849830365,699252,1871,8050.835996627808,,15.852314949035645,44.571693420410156,0.51
686,MetaDrive-test-rand-v1,86,277.77151198961076,700351,1874,8060.4476771354675,-42.45537567138672,3.338510036468506,42.05172348022461,0.52
687,MetaDrive-test-rand-v1,86,278.9873125573312,701304,1875,8072.5642120838165,,6.750042915344238,43.934688568115234,0.52
688,MetaDrive-test-rand-v1,86,277.6985519125751,702346,1877,8081.033999681473,,7.459602355957031,39.21940612792969,0.52
689,MetaDrive-test-rand-v1,86,273.22996185963,703619,1879,8093.41410946846,-47.46436309814453,21.306442260742188,48.06878662109375,0.53
690,MetaDrive-test-rand-v1,86,276.0664453818252,704391,1880,8101.790091991425,-41.270111083984375,8.62655258178711,41.60322570800781,0.54
691,MetaDrive-test-rand-v1,86,276.7626977898538,705249,1881,8111.231177330017,-41.47470474243164,50.878822326660156,40.60200881958008,0.55
692,MetaDrive-test-rand-v1,86,278.90157838603113,706221,1883,8118.924494981766,-46.408409118652344,7.075084686279297,46.50592041015625,0.57
693,MetaDrive-test-rand-v1,86,280.03598913039167,707128,1884,8129.502073049545,,7.5016632080078125,43.2562255859375,0.57
694,MetaDrive-test-rand-v1,86,281.92788330354205,708044,1886,8138.603031158447,,11.861536026000977,43.60243225097656,0.58
695,MetaDrive-test-rand-v1,87,281.5378758830428,709079,1888,8149.383317708969,-41.92072296142578,4.622057914733887,42.02201461791992,0.59
696,MetaDrive-test-rand-v1,87,283.3579485846236,710154,1890,8160.965164899826,,7.823829650878906,43.216522216796875,0.59
697,MetaDrive-test-rand-v1,87,285.23274763145974,711176,1892,8171.653586626053,,4.602078437805176,46.224517822265625,0.6
698,MetaDrive-test-rand-v1,87,287.29722314032017,712189,1894,8181.8154447078705,-40.02839279174805,6.78181266784668,39.58607482910156,0.61
699,MetaDrive-test-rand-v1,87,287.27814474284395,713636,1896,8194.265944957733,,11.163521766662598,44.74057388305664,0.62
700,MetaDrive-test-rand-v1,87,290.185102491996,714216,1897,8200.697460651398,,3.8446760177612305,43.8827018737793,0.63
701,MetaDrive-test-rand-v1,87,291.2503263383381,715377,1899,8212.855692863464,-45.38236618041992,5.686286926269531,45.382537841796875,0.62
702,MetaDrive-test-rand-v1,87,296.1765741558459,716750,1901,8227.606419324875,,5.65321683883667,41.863834381103516,0.64
703,MetaDrive-test-rand-v1,87,298.2399113058621,717699,1902,8239.871637105942,-41.98093032836914,15.064682960510254,41.73765182495117,0.65
704,MetaDrive-test-rand-v1,87,298.2568907436408,718417,1903,8248.247853279114,-41.289329528808594,7.117279052734375,41.76367950439453,0.65
705,MetaDrive-test-rand-v1,87,299.1495635306138,719055,1904,8255.31681394577,-43.10812759399414,4.122881889343262,43.010353088378906,0.66
706,MetaDrive-test-rand-v1,87,296.7580771160884,720139,1907,8268.445434093475,-38.63239288330078,5.265375137329102,38.400794982910156,0.65
707,MetaDrive-test-rand-v1,87,292.59854314440037,721024,1909,8282.182361841202,,5.019258499145508,46.772010803222656,0.63
708,MetaDrive-test-rand-v1,87,292.6040606583121,722566,1911,8297.090403079987,,6.197391033172607,41.72746276855469,0.64
709,MetaDrive-test-rand-v1,87,292.5755179350627,723014,1912,8301.42318558693,,4.760360240936279,42.63793182373047,0.63
710,MetaDrive-test-rand-v1,87,293.9769201854,724950,1914,8326.54851102829,,11.808189392089844,40.41328430175781,0.63
711,MetaDrive-test-rand-v1,87,294.9607952574225,725638,1915,8333.839778661728,,6.301253318786621,43.19488525390625,0.64
712,MetaDrive-test-rand-v1,87,295.9117198778025,726150,1916,8338.5110476017,,10.962348937988281,45.5118408203125,0.65
713,MetaDrive-test-rand-v1,87,297.0543937908774,727436,1918,8354.008813142776,,6.669142246246338,41.49334716796875,0.66
714,MetaDrive-test-rand-v1,87,296.8582226589809,728009,1919,8360.578975439072,-41.982444763183594,5.377002239227295,42.975345611572266,0.65
715,MetaDrive-test-rand-v1,87,298.306996550929,729018,1920,8373.460134983063,,6.101125717163086,43.24089813232422,0.65
716,MetaDrive-test-rand-v1,87,300.21123773823433,730817,1923,8393.891916036606,-38.33977508544922,14.4519624710083,38.3873291015625,0.66
717,MetaDrive-test-rand-v1,87,301.32622859173506,731695,1924,8403.167187452316,-44.5347900390625,20.225284576416016,44.616905212402344,0.67
718,MetaDrive-test-rand-v1,87,304.3087608467294,732722,1925,8416.71966266632,,9.621000289916992,45.89783477783203,0.68
719,MetaDrive-test-rand-v1,87,302.7235056665255,733012,1926,8420.02884888649,,7.222596168518066,41.82814025878906,0.67
720,MetaDrive-test-rand-v1,87,301.91308763078706,734513,1928,8441.74697637558,-42.52635955810547,12.948833465576172,42.19369888305664,0.67
721,MetaDrive-test-rand-v1,87,301.62369965601914,735114,1929,8448.382868766785,,7.419873237609863,46.77194595336914,0.67
722,MetaDrive-test-rand-v1,87,301.26488388402646,736353,1931,8461.345611333847,-42.29426956176758,9.632438659667969,42.091270446777344,0.67
723,MetaDrive-test-rand-v1,87,296.2267224164015,737484,1934,8476.074850082397,,5.9341278076171875,43.256439208984375,0.66
724,MetaDrive-test-rand-v1,87,294.24180443165676,738600,1937,8487.077110767365,,5.853516101837158,45.15537643432617,0.66
725,MetaDrive-test-rand-v1,87,294.76315913244275,739362,1938,8494.061633348465,,8.458023071289062,44.03028106689453,0.66
726,MetaDrive-test-rand-v1,87,296.29342959309207,740062,1939,8501.670951366425,,24.599071502685547,41.0001106262207,0.67
727,MetaDrive-test-rand-v1,87,294.13531200309353,741257,1942,8514.895971775055,-42.360206604003906,8.200096130371094,42.72704315185547,0.66
728,MetaDrive-test-rand-v1,87,296.9385302732247,742536,1944,8528.399996995926,,7.56776237487793,41.27813720703125,0.67
729,MetaDrive-test-rand-v1,87,289.96328722678004,743985,1947,8545.580869197845,-46.209415435791016,6.385342597961426,46.42254638671875,0.65
730,MetaDrive-test-rand-v1,87,289.58131536926516,744392,1948,8549.551846981049,,5.213192462921143,41.81728744506836,0.64
731,MetaDrive-test-rand-v1,87,289.2636347864715,745432,1950,8561.53048825264,,4.445727348327637,39.64418029785156,0.63
732,MetaDrive-test-rand-v1,87,291.29773863380706,746460,1952,8576.813958644867,,6.386114120483398,40.67758560180664,0.63
733,MetaDrive-test-rand-v1,87,292.3508373428121,747012,1953,8583.450712442398,,6.261617183685303,43.43165969848633,0.63
734,MetaDrive-test-rand-v1,87,293.14149805099,748418,1955,8597.518959522247,,7.061746597290039,42.357566833496094,0.63
735,MetaDrive-test-rand-v1,87,293.9451770972588,749394,1956,8611.652778148651,,21.46160125732422,43.92313003540039,0.63
736,MetaDrive-test-rand-v1,87,295.3541232506978,750487,1957,8622.021260738373,-43.75469207763672,5.169625759124756,43.47208786010742,0.63
737,MetaDrive-test-rand-v1,87,295.76480212820775,751289,1958,8629.331908941269,-41.175960540771484,9.416439056396484,40.19152069091797,0.64
738,MetaDrive-test-rand-v1,87,294.7163165118564,752271,1960,8639.560359477997,-39.64923095703125,13.490804672241211,40.02105712890625,0.64
739,MetaDrive-test-rand-v1,87,295.20133421013213,753758,1962,8657.620511770248,,12.94761848449707,41.46216583251953,0.64
740,MetaDrive-test-rand-v1,87,295.82274318001845,754306,1963,8662.173326015472,,7.171597957611084,41.71298599243164,0.64
741,MetaDrive-test-rand-v1,87,298.4930190330971,755564,1964,8678.38118672371,,14.923555374145508,41.65501403808594,0.64
742,MetaDrive-test-rand-v1,87,296.53218355327937,756565,1967,8688.143223762512,-40.93952178955078,15.115238189697266,40.636260986328125,0.64
743,MetaDrive-test-rand-v1,87,297.530194158152,757692,1968,8702.689065217972,,7.373835563659668,42.12761688232422,0.64
744,MetaDrive-test-rand-v1,87,299.30630002199115,758551,1969,8712.871748209,-45.39080810546875,3.9591381549835205,44.869224548339844,0.64
745,MetaDrive-test-rand-v1,87,300.9379794363951,759292,1970,8719.394708156586,,6.106593132019043,46.454986572265625,0.64
746,MetaDrive-test-rand-v1,87,302.42367226120564,760818,1972,8735.262327671051,,4.457218647003174,46.39856719970703,0.65
747,MetaDrive-test-rand-v1,87,304.4946667803823,761282,1973,8738.992061376572,,6.377931594848633,43.23844909667969,0.66
748,MetaDrive-test-rand-v1,87,305.15074455719963,762015,1974,8745.319301128387,-44.3681640625,22.98021697998047,43.425437927246094,0.66
749,MetaDrive-test-rand-v1,87,301.875871870774,763176,1977,8754.90867447853,,23.845260620117188,40.67493438720703,0.65
750,MetaDrive-test-rand-v1,87,301.47685843631757,764298,1979,8764.365168571472,,13.396626472473145,41.88928985595703,0.65
751,MetaDrive-test-rand-v1,87,297.36234135664165,765592,1982,8777.63997888565,,4.980784893035889,45.992671966552734,0.63
752,MetaDrive-test-rand-v1,87,297.47336845382046,766154,1983,8783.82494878769,,6.504942417144775,46.42185974121094,0.63
753,MetaDrive-test-rand-v1,87,296.33266675988705,767075,1985,8792.91941022873,-41.82562255859375,5.11821174621582,41.34736633300781,0.63
754,MetaDrive-test-rand-v1,87,298.94592611917847,768497,1987,8806.791145086288,-39.681129455566406,4.820983409881592,39.580955505371094,0.64
755,MetaDrive-test-rand-v1,87,302.3618397116828,770079,1989,8825.893125295639,-44.1384162902832,9.41151237487793,43.928855895996094,0.64
756,MetaDrive-test-rand-v1,87,301.9853206238991,771438,1991,8842.895993709564,,11.463748931884766,38.29734802246094,0.65
757,MetaDrive-test-rand-v1,87,302.85124497318384,772347,1992,8855.123108625412,-44.11394500732422,4.6532063484191895,43.667659759521484,0.65
758,MetaDrive-test-rand-v1,87,302.5915082743325,773277,1994,8865.259799003601,-46.478675842285156,6.529953956604004,46.85167694091797,0.64
759,MetaDrive-test-rand-v1,87,301.0718533024976,774194,1996,8875.331323385239,,9.71863079071045,44.7757568359375,0.62
760,MetaDrive-test-rand-v1,87,301.56469892957074,775445,1998,8889.216071128845,-40.64793395996094,6.828537464141846,40.48155975341797,0.62
761,MetaDrive-test-rand-v1,87,299.9719180315259,776375,2000,8897.031916856766,-42.45392608642578,7.411661624908447,42.11009979248047,0.62
762,MetaDrive-test-rand-v1,87,299.719101085454,777244,2001,8908.04133939743,,8.92723274230957,44.226776123046875,0.62
763,MetaDrive-test-rand-v1,87,293.3937488805695,778907,2006,8926.107196092606,-45.10639190673828,6.074264049530029,44.326168060302734,0.6
764,MetaDrive-test-rand-v1,87,293.5716643800008,779438,2007,8930.578534603119,,5.1722493171691895,41.937042236328125,0.6
765,MetaDrive-test-rand-v1,87,294.349002351642,780584,2009,8941.42894077301,,4.834347724914551,45.694000244140625,0.61
766,MetaDrive-test-rand-v1,87,291.6292423224705,781436,2011,8953.088043689728,,4.468193531036377,45.76517868041992,0.59
767,MetaDrive-test-rand-v1,87,289.20190163467737,782398,2013,8961.748157024384,,5.3329691886901855,37.4445915222168,0.59
