TanmayH/CS269-RL-project-code/MetaDrive-test-leaky/td3/progress.csv
,log_dir,frame_per_second,episode_reward,total_steps,total_episodes,total_time,target_q,actor_loss,critic_loss,success_rate
0,MetaDrive-test-leaky,444,11.341503673845136,2001,2,4.4999940395355225,,,,0.0
1,MetaDrive-test-leaky,459,9.1645935306452,3659,4,7.965464115142822,,,,0.0
2,MetaDrive-test-leaky,481,7.063837855066969,4097,5,8.506779909133911,,,,0.0
3,MetaDrive-test-leaky,414,6.78988604483306,5070,7,12.24529504776001,0.01297391764819622,,0.0007496559410355985,0.0
4,MetaDrive-test-leaky,139,-1.627793391671031,6931,43,49.5119948387146,-0.09572355449199677,-0.0651606023311615,1.5915254354476929,0.0
5,MetaDrive-test-leaky,119,-1.6584534687782793,7932,44,66.57107496261597,0.08029410243034363,,0.018907571211457253,0.0
6,MetaDrive-test-leaky,117,-1.733605429691241,8038,45,68.57750701904297,0.08011230826377869,,0.02159826271235943,0.0
7,MetaDrive-test-leaky,106,-1.7430955400034613,9039,46,85.23537397384644,0.09157954901456833,-0.07535818219184875,0.01037412229925394,0.0
8,MetaDrive-test-leaky,97,-1.2433628522224434,10071,51,102.97042989730835,0.01665049046278,-0.06305054575204849,0.6678644418716431,0.0
9,MetaDrive-test-leaky,91,-0.9886152788931629,11021,59,120.81610703468323,0.14004364609718323,-0.15056663751602173,0.011273842304944992,0.0
10,MetaDrive-test-leaky,86,-0.22768340433977247,12065,70,140.23869395256042,0.1145334243774414,-0.21250230073928833,0.84261155128479,0.0
11,MetaDrive-test-leaky,82,0.15222849367068805,13047,86,158.56608200073242,0.2330189049243927,-0.23418807983398438,0.015902608633041382,0.0
12,MetaDrive-test-leaky,78,1.0249704400356727,14006,102,177.8906729221344,0.31256103515625,,0.05714190751314163,0.0
13,MetaDrive-test-leaky,76,2.503143456255253,15004,115,196.05421805381775,0.4256259799003601,,0.013448353856801987,0.0
14,MetaDrive-test-leaky,74,4.779278743618239,16047,131,216.21416187286377,0.5248991250991821,-0.5763626098632812,0.031420931220054626,0.0
15,MetaDrive-test-leaky,72,6.892958001826475,17024,151,235.67104315757751,0.7482965588569641,,0.07574755698442459,0.0
16,MetaDrive-test-leaky,70,8.831919954183247,18104,173,256.94690108299255,0.8864258527755737,,1.1459660530090332,0.0
17,MetaDrive-test-leaky,69,10.10668720464398,19034,195,275.50711488723755,1.2917405366897583,,0.11885316669940948,0.0
18,MetaDrive-test-leaky,67,10.203237853355938,20010,216,295.13059401512146,1.5121471881866455,,0.12405238300561905,0.0
19,MetaDrive-test-leaky,66,11.577107372364125,21037,234,314.7005171775818,1.9068158864974976,-1.8952476978302002,0.10169171541929245,0.0
20,MetaDrive-test-leaky,65,10.852136396060214,22025,260,334.23508310317993,1.9075266122817993,-2.058854579925537,4.230618476867676,0.0
21,MetaDrive-test-leaky,64,10.84555508605403,23028,280,355.5285041332245,2.704493999481201,,1.88663911819458,0.0
22,MetaDrive-test-leaky,64,13.550666855736244,24087,293,375.9437210559845,3.0568032264709473,-3.126772880554199,0.203971266746521,0.0
23,MetaDrive-test-leaky,63,17.054156915378503,25063,298,395.0867278575897,3.6780736446380615,-3.603550434112549,2.986370801925659,0.0
24,MetaDrive-test-leaky,62,22.816298449489626,26222,305,417.795597076416,4.051261901855469,,2.838789224624634,0.0
25,MetaDrive-test-leaky,62,28.886260780459935,27291,311,437.4649829864502,5.223488807678223,-4.998202323913574,0.6993709802627563,0.0
26,MetaDrive-test-leaky,62,31.64997300881989,28006,318,450.4079339504242,5.788832187652588,,0.24555718898773193,0.0
27,MetaDrive-test-leaky,61,38.118457391492235,29101,326,471.2223160266876,6.251316070556641,-6.47280216217041,0.1540938913822174,0.0
28,MetaDrive-test-leaky,61,41.91555104411484,30113,337,489.8354938030243,6.909472465515137,-6.923429489135742,5.044475078582764,0.0
29,MetaDrive-test-leaky,61,46.101247225635746,31029,346,507.9884719848633,7.991032123565674,-7.8629536628723145,1.0490752458572388,0.0
30,MetaDrive-test-leaky,60,53.69465221662169,32147,354,529.1762878894806,9.049909591674805,-9.431793212890625,7.6760125160217285,0.0
31,MetaDrive-test-leaky,60,58.88708483499347,33031,361,545.4866931438446,10.27655029296875,-10.38702392578125,0.8546313047409058,0.0
32,MetaDrive-test-leaky,60,65.58995603797824,34006,367,564.5699949264526,10.902589797973633,,0.8912856578826904,0.0
33,MetaDrive-test-leaky,59,70.91209840389975,35135,374,587.7691650390625,11.790168762207031,-12.02172565460205,0.42934054136276245,0.0
34,MetaDrive-test-leaky,59,75.89154802812138,36310,382,611.1053249835968,12.583789825439453,,0.9832929968833923,0.0
35,MetaDrive-test-leaky,59,79.92303546321446,37024,385,625.0965039730072,12.758899688720703,,1.1098666191101074,0.0
36,MetaDrive-test-leaky,59,84.79443407009303,38022,390,644.0056939125061,14.774370193481445,,8.790094375610352,0.0
37,MetaDrive-test-leaky,58,88.12257866363831,39052,397,663.5080728530884,14.359393119812012,,3.259476661682129,0.0
38,MetaDrive-test-leaky,58,93.33650869377793,40211,401,686.3769338130951,16.48235321044922,-16.712135314941406,2.7080206871032715,0.01
39,MetaDrive-test-leaky,58,91.06103721721233,41125,407,703.8318099975586,16.083572387695312,-16.579269409179688,16.463294982910156,0.01
40,MetaDrive-test-leaky,58,95.29296068696482,42089,410,722.2692439556122,17.696815490722656,-17.785402297973633,1.7051000595092773,0.02
41,MetaDrive-test-leaky,58,98.95022224395156,43052,412,742.2417888641357,18.629451751708984,,18.72185516357422,0.03
42,MetaDrive-test-leaky,57,104.17388149846445,44379,419,766.4638519287109,19.752836227416992,-20.660980224609375,13.944878578186035,0.04
43,MetaDrive-test-leaky,57,104.59981447362212,45111,424,780.7619519233704,21.134653091430664,-21.213478088378906,1.5564873218536377,0.04
44,MetaDrive-test-leaky,57,105.46760619582247,46168,429,801.5634219646454,21.350147247314453,,1.6953717470169067,0.04
45,MetaDrive-test-leaky,57,108.42333235710744,47085,432,820.9365239143372,20.60410499572754,-20.597187042236328,1.7277467250823975,0.04
46,MetaDrive-test-leaky,57,112.9439412744085,48068,434,841.6870048046112,24.382251739501953,,2.7726213932037354,0.05
47,MetaDrive-test-leaky,57,117.28036072240458,49260,437,863.3545668125153,24.313690185546875,,2.2448644638061523,0.06
48,MetaDrive-test-leaky,56,119.21543581385153,50044,441,878.0712580680847,23.0122127532959,,2.6971449851989746,0.06
49,MetaDrive-test-leaky,56,123.93940032573049,51206,444,900.9510080814362,24.78760528564453,,2.2420005798339844,0.07
50,MetaDrive-test-leaky,56,124.54143688681064,52065,449,917.2668769359589,25.135150909423828,-24.237640380859375,5.5597710609436035,0.07
51,MetaDrive-test-leaky,56,130.5992528712298,53362,451,944.0625689029694,25.92578125,,19.783405303955078,0.09
52,MetaDrive-test-leaky,56,129.51562059551318,54084,456,957.3463261127472,24.75255012512207,,28.678627014160156,0.09
53,MetaDrive-test-leaky,56,132.85430976669304,55019,459,974.996579170227,29.014005661010742,-30.154699325561523,31.170671463012695,0.1
54,MetaDrive-test-leaky,56,138.8468902657967,56309,463,998.3555121421814,26.469867706298828,-27.078937530517578,4.028539180755615,0.12
55,MetaDrive-test-leaky,56,137.44841685885774,57100,467,1014.3490931987762,28.650447845458984,,2.243709087371826,0.12
56,MetaDrive-test-leaky,56,140.7424450336643,58027,470,1031.384449005127,29.021800994873047,-28.358142852783203,4.974416732788086,0.13
57,MetaDrive-test-leaky,56,142.47374433934493,59082,476,1051.7731420993805,29.554126739501953,,67.47593688964844,0.13
58,MetaDrive-test-leaky,56,146.91415044834577,60024,479,1068.6295030117035,27.718978881835938,,21.55101776123047,0.14
59,MetaDrive-test-leaky,56,146.4146802129876,61428,482,1096.533432006836,30.66396141052246,,2.969284772872925,0.14
60,MetaDrive-test-leaky,55,147.9355094040776,62447,484,1118.0976769924164,30.079082489013672,-31.565296173095703,33.074947357177734,0.14
61,MetaDrive-test-leaky,55,146.89274153455463,63826,487,1143.8580768108368,33.05339050292969,,1.9109067916870117,0.14
62,MetaDrive-test-leaky,55,149.45057863298237,64397,488,1154.840325832367,32.061485290527344,-32.66442108154297,74.62957763671875,0.15
63,MetaDrive-test-leaky,55,152.16818534959455,65163,490,1168.8806998729706,32.975765228271484,-32.67451477050781,20.23504638671875,0.16
64,MetaDrive-test-leaky,55,157.02000188082707,66937,496,1201.9300639629364,33.72468566894531,-34.60274124145508,9.044977188110352,0.17
65,MetaDrive-test-leaky,55,156.0891514109191,67183,497,1206.1952209472656,32.08111572265625,-32.337646484375,3.4351730346679688,0.17
66,MetaDrive-test-leaky,55,159.6665770330531,68468,499,1230.4524018764496,33.227108001708984,,77.00698852539062,0.19
67,MetaDrive-test-leaky,55,159.11752317548454,69140,501,1243.6009709835052,36.012794494628906,,3.6884706020355225,0.19
68,MetaDrive-test-leaky,55,162.6363886443097,70045,504,1260.1471660137177,32.022464752197266,-33.80615234375,107.42822265625,0.2
69,MetaDrive-test-leaky,55,165.2143079643773,71020,506,1280.6068420410156,33.13641357421875,,5.299769878387451,0.2
70,MetaDrive-test-leaky,55,169.8913061420703,72197,508,1303.195728778839,37.08657455444336,-37.29418182373047,2.8960275650024414,0.22
71,MetaDrive-test-leaky,55,165.16888764893366,73456,513,1327.1670370101929,37.941558837890625,,4.220035552978516,0.21
72,MetaDrive-test-leaky,55,164.2985639972758,74056,517,1337.9029161930084,36.97107696533203,,7.2691545486450195,0.21
73,MetaDrive-test-leaky,55,165.57709064953636,75010,520,1356.3593971729279,36.30922317504883,,51.561729431152344,0.21
74,MetaDrive-test-leaky,55,170.5748170219327,76411,523,1383.6798429489136,36.626617431640625,-36.99626159667969,2.959841012954712,0.23
75,MetaDrive-test-leaky,55,173.94314695660162,77100,524,1396.8288798332214,37.05406951904297,,3.723785161972046,0.24
76,MetaDrive-test-leaky,55,176.11866691128517,78276,527,1419.7657520771027,40.12883758544922,,8.214919090270996,0.25
77,MetaDrive-test-leaky,55,177.08606257344425,79277,528,1438.2719280719757,37.992183685302734,-37.96245574951172,3.8969297409057617,0.25
78,MetaDrive-test-leaky,55,179.08947802222866,80319,531,1456.81542801857,36.351016998291016,-36.42093276977539,48.28270721435547,0.26
79,MetaDrive-test-leaky,54,182.11344385296854,81320,532,1479.1262049674988,37.77017593383789,,51.834266662597656,0.26
80,MetaDrive-test-leaky,54,182.0339361502399,82086,533,1493.7965519428253,38.45231628417969,,4.708066940307617,0.26
81,MetaDrive-test-leaky,54,184.22587048989527,83323,536,1517.3187959194183,41.52208709716797,-41.10459518432617,4.0746355056762695,0.26
82,MetaDrive-test-leaky,54,186.4855902873986,84364,538,1538.3646440505981,38.625614166259766,,9.576571464538574,0.27
83,MetaDrive-test-leaky,54,190.67265876856203,85370,540,1557.836059808731,39.134925842285156,,5.035816192626953,0.29
84,MetaDrive-test-leaky,54,193.3939111951821,86525,542,1583.9735658168793,41.81150817871094,-42.5415153503418,3.707085132598877,0.29
85,MetaDrive-test-leaky,54,194.22443554019793,87338,543,1599.462837934494,39.599334716796875,,4.0069451332092285,0.29
86,MetaDrive-test-leaky,54,196.85068664471498,88059,545,1612.1818418502808,41.618690490722656,-42.13761901855469,6.871154308319092,0.31
87,MetaDrive-test-leaky,54,203.700023991951,89971,549,1652.1726541519165,39.26763153076172,-39.58213424682617,26.376211166381836,0.32
88,MetaDrive-test-leaky,54,202.79103527419227,90662,550,1666.1358170509338,43.65762710571289,,4.324037551879883,0.31
89,MetaDrive-test-leaky,54,202.7573891563147,91132,551,1674.916911125183,39.97618865966797,,13.644956588745117,0.31
90,MetaDrive-test-leaky,54,204.3506068838802,92133,552,1694.1533617973328,38.79224395751953,-39.20625686645508,5.97489595413208,0.31
91,MetaDrive-test-leaky,54,208.12034970566228,93478,556,1720.4420080184937,36.568115234375,,12.883513450622559,0.32
92,MetaDrive-test-leaky,54,210.63801366372928,94193,558,1733.1699039936066,43.85358428955078,-44.162681579589844,8.347882270812988,0.34
93,MetaDrive-test-leaky,54,214.3397774108127,95656,561,1758.9628601074219,42.181270599365234,,10.040157318115234,0.35
94,MetaDrive-test-leaky,54,213.11144090040025,96046,562,1765.8601500988007,41.25702667236328,,6.128447532653809,0.35
95,MetaDrive-test-leaky,54,218.221734772521,97573,566,1796.5585541725159,38.45413589477539,-39.48545837402344,126.21026611328125,0.36
96,MetaDrive-test-leaky,54,218.0700935957392,98246,568,1808.7829461097717,41.88451385498047,,21.423870086669922,0.36
97,MetaDrive-test-leaky,54,221.5233174034873,99200,570,1826.6099820137024,44.567955017089844,,4.549334526062012,0.37
98,MetaDrive-test-leaky,54,225.8088485443169,100008,571,1842.2734258174896,41.410675048828125,,6.417219161987305,0.38
99,MetaDrive-test-leaky,54,229.06021907370058,101242,574,1864.971272945404,41.979393005371094,,8.260193824768066,0.4
100,MetaDrive-test-leaky,54,232.44908017668266,102156,576,1881.7066769599915,40.55712127685547,,59.89697265625,0.41
101,MetaDrive-test-leaky,54,234.06484671466438,103394,580,1904.4685680866241,44.79285430908203,,6.924501419067383,0.43
102,MetaDrive-test-leaky,54,234.71722805790407,104460,582,1925.1491379737854,46.69294738769531,,6.922508239746094,0.43
103,MetaDrive-test-leaky,54,237.22254734267656,105512,584,1944.8993549346924,43.2945671081543,,6.999212741851807,0.45
104,MetaDrive-test-leaky,54,238.60543811445274,106106,586,1955.6528120040894,45.2042350769043,,75.07209777832031,0.46
105,MetaDrive-test-leaky,54,241.6712233778266,107876,588,1990.5040488243103,46.984779357910156,,4.626683235168457,0.47
106,MetaDrive-test-leaky,54,244.92957784037992,108785,589,2011.245381116867,44.14891052246094,-45.34681701660156,8.109172821044922,0.48
107,MetaDrive-test-leaky,54,245.35027799826057,109539,590,2025.925786972046,45.018760681152344,-45.09521484375,6.027407646179199,0.48
108,MetaDrive-test-leaky,54,245.6588328979714,110049,593,2035.5801239013672,44.382301330566406,-45.15615463256836,3.505077362060547,0.48
109,MetaDrive-test-leaky,53,250.06683668691113,111366,595,2062.5757989883423,43.340354919433594,,10.751582145690918,0.49
110,MetaDrive-test-leaky,53,246.93892939257964,112758,598,2092.1259808540344,44.734779357910156,,11.172005653381348,0.47
111,MetaDrive-test-leaky,53,244.4592905592826,113007,599,2096.632224082947,44.81584548950195,-44.096435546875,9.889371871948242,0.46
112,MetaDrive-test-leaky,53,243.6672054345128,114405,602,2123.7907798290253,48.979347229003906,-50.133548736572266,5.729800701141357,0.45
113,MetaDrive-test-leaky,53,246.90744911312714,115592,605,2147.3580389022827,45.675148010253906,,31.314546585083008,0.46
114,MetaDrive-test-leaky,53,245.19409769901733,116311,607,2160.771306037903,43.77099609375,-43.29119110107422,6.790946960449219,0.46
115,MetaDrive-test-leaky,53,245.25599626719617,117058,609,2175.3923110961914,42.117958068847656,,77.06986999511719,0.46
116,MetaDrive-test-leaky,53,249.9633874848518,118233,611,2197.275963783264,44.29161071777344,-45.27465057373047,8.634510040283203,0.48
117,MetaDrive-test-leaky,53,248.26827539682978,119157,615,2215.168323993683,48.32965850830078,-49.01911163330078,14.298994064331055,0.47
118,MetaDrive-test-leaky,53,252.03672263715205,120445,617,2238.9884128570557,44.86365509033203,-45.836585998535156,10.122049331665039,0.47
119,MetaDrive-test-leaky,53,252.25296099854032,121446,618,2258.45538687706,45.795074462890625,,6.42408561706543,0.47
120,MetaDrive-test-leaky,53,252.77518674390674,122237,620,2272.2449100017548,44.642967224121094,-45.587425231933594,7.921914100646973,0.47
121,MetaDrive-test-leaky,53,247.33968259188347,123513,624,2296.0631699562073,45.696285247802734,-46.61640167236328,110.13040161132812,0.44
122,MetaDrive-test-leaky,53,250.50724367227966,124377,626,2312.784888982773,46.080020904541016,-46.29595947265625,3.357849597930908,0.45
123,MetaDrive-test-leaky,53,250.07193702024995,125415,628,2332.7779400348663,45.8622932434082,-46.01099395751953,9.937891960144043,0.45
124,MetaDrive-test-leaky,53,251.00121078325378,126080,630,2344.6380310058594,47.40208435058594,,4.865476131439209,0.46
125,MetaDrive-test-leaky,53,245.83609679705125,127156,633,2364.6886699199677,48.5624885559082,,56.81018829345703,0.45
126,MetaDrive-test-leaky,53,247.74545046425152,128258,635,2386.552417039871,46.60173034667969,,6.265082359313965,0.45
127,MetaDrive-test-leaky,53,247.63586059900467,129155,636,2403.994705915451,45.54983139038086,-45.61202621459961,7.221617698669434,0.46
128,MetaDrive-test-leaky,53,242.51846300324382,130108,639,2422.670632839203,51.38093566894531,,2.6713662147521973,0.44
129,MetaDrive-test-leaky,53,240.93185534772502,131833,642,2457.4117209911346,49.356815338134766,-48.8522834777832,6.516173362731934,0.44
130,MetaDrive-test-leaky,53,239.7318397573639,132280,643,2464.928871870041,43.160804748535156,,51.61893844604492,0.44
131,MetaDrive-test-leaky,53,238.6019599631094,133095,644,2479.5481259822845,50.47380065917969,-50.211181640625,7.122736930847168,0.43
132,MetaDrive-test-leaky,53,237.9379596061809,134413,648,2505.3030688762665,48.991458892822266,-49.61418914794922,55.721099853515625,0.42
133,MetaDrive-test-leaky,53,235.43938828074724,135286,650,2522.5109701156616,50.718936920166016,,6.800450801849365,0.43
134,MetaDrive-test-leaky,53,235.18820137191895,136092,651,2537.581562757492,49.34111785888672,,4.845229148864746,0.42
135,MetaDrive-test-leaky,53,239.24042001870686,137055,653,2555.520602941513,46.85938262939453,-47.06813049316406,4.356337547302246,0.44
136,MetaDrive-test-leaky,53,240.98174048897909,138532,656,2584.1883239746094,49.85752868652344,,13.728031158447266,0.46
137,MetaDrive-test-leaky,53,240.53422421497652,139013,657,2593.0340139865875,51.22206497192383,-52.59369659423828,61.55553436279297,0.46
138,MetaDrive-test-leaky,53,240.48743443242205,140100,660,2613.125557899475,50.622047424316406,,7.818418025970459,0.44
139,MetaDrive-test-leaky,53,235.24559988611816,141021,663,2631.4334828853607,49.049400329589844,-48.482337951660156,4.988746643066406,0.42
140,MetaDrive-test-leaky,53,228.85018395685546,142045,669,2651.2842309474945,48.43444061279297,-49.0880126953125,7.203251838684082,0.39
141,MetaDrive-test-leaky,53,223.85526839438833,143165,673,2671.4442930221558,49.819313049316406,-50.260498046875,6.65651273727417,0.39
142,MetaDrive-test-leaky,53,225.75345605254708,144371,675,2694.649358034134,49.208648681640625,-48.86125946044922,9.419596672058105,0.4
143,MetaDrive-test-leaky,53,220.45137814026165,145227,679,2710.465847969055,50.83256530761719,-50.442867279052734,8.518402099609375,0.37
144,MetaDrive-test-leaky,53,218.46714436923722,146106,682,2726.185476064682,48.29988098144531,,59.01287078857422,0.37
145,MetaDrive-test-leaky,53,217.1928125843346,147921,685,2762.203423976898,50.800453186035156,-51.36842346191406,49.70677947998047,0.35
146,MetaDrive-test-leaky,53,217.94147203805352,148253,686,2769.0071527957916,48.19683837890625,-48.23218536376953,5.729347229003906,0.35
147,MetaDrive-test-leaky,53,215.60820791262276,149254,687,2790.594962835312,45.855979919433594,,3.698963165283203,0.34
148,MetaDrive-test-leaky,53,209.4798503199338,150564,690,2816.441218137741,46.80653381347656,,21.479448318481445,0.32
149,MetaDrive-test-leaky,53,211.4533311742233,151057,691,2826.3957030773163,50.08998107910156,-50.81186294555664,7.84147310256958,0.32
150,MetaDrive-test-leaky,53,212.86131169092852,152860,694,2860.9618949890137,46.53226852416992,,86.48343658447266,0.32
151,MetaDrive-test-leaky,53,212.8850899158928,153554,695,2874.7299239635468,52.616905212402344,,9.422510147094727,0.33
152,MetaDrive-test-leaky,53,214.11914412357916,154674,697,2897.350018978119,50.74302673339844,,7.637279510498047,0.33
153,MetaDrive-test-leaky,53,214.10529448699367,155124,698,2905.5616121292114,50.78519821166992,,9.915916442871094,0.34
154,MetaDrive-test-leaky,53,218.06971148661395,156863,700,2941.557096004486,51.908287048339844,-50.76158142089844,8.65507984161377,0.35
155,MetaDrive-test-leaky,53,221.06174269135332,157567,701,2954.33189702034,50.75434875488281,-51.469940185546875,157.29295349121094,0.36
156,MetaDrive-test-leaky,53,218.71514193769772,158568,702,2975.40172791481,50.233238220214844,,9.408891677856445,0.35
157,MetaDrive-test-leaky,53,220.9193158666819,159413,703,2991.8663091659546,50.69832229614258,-50.69556427001953,4.976043701171875,0.36
158,MetaDrive-test-leaky,53,223.82517688947956,160689,705,3016.7463998794556,49.574256896972656,-49.60834884643555,4.612936019897461,0.37
159,MetaDrive-test-leaky,53,223.90924525460687,161608,707,3034.3044328689575,50.58806610107422,,8.800251007080078,0.37
160,MetaDrive-test-leaky,53,223.85338266668546,162346,709,3047.948385000229,50.91905975341797,,3.490701198577881,0.37
161,MetaDrive-test-leaky,53,223.7088332595978,163086,710,3062.009914159775,49.312408447265625,,4.133559226989746,0.37
162,MetaDrive-test-leaky,53,226.19262510199562,164757,713,3096.776482105255,50.576866149902344,-50.18914794921875,6.70048713684082,0.37
163,MetaDrive-test-leaky,53,228.98913172401285,165411,714,3109.507289171219,50.0405387878418,-51.233943939208984,4.434405326843262,0.38
164,MetaDrive-test-leaky,53,230.82924787084565,166376,716,3128.0772500038147,50.17485046386719,,96.57795715332031,0.4
165,MetaDrive-test-leaky,53,230.6173757433931,167067,718,3140.0658071041107,50.20058059692383,-49.78246307373047,9.86665153503418,0.42
166,MetaDrive-test-leaky,53,232.72161146398943,168544,721,3168.072049856186,47.99185562133789,,5.242376804351807,0.43
167,MetaDrive-test-leaky,53,237.24845379793624,169420,722,3186.2488770484924,48.08191680908203,,5.3443284034729,0.44
168,MetaDrive-test-leaky,53,234.52662034445976,170471,726,3207.2534668445587,49.394287109375,-50.52434539794922,22.112703323364258,0.44
169,MetaDrive-test-leaky,53,232.37334305764935,171341,729,3222.228224992752,50.77153015136719,-52.25117492675781,8.12997817993164,0.44
170,MetaDrive-test-leaky,53,232.09636106888996,172329,732,3240.953497171402,50.78476333618164,-50.38703918457031,8.014503479003906,0.44
171,MetaDrive-test-leaky,53,230.2718823079392,173065,734,3255.3216230869293,51.863704681396484,-51.21766662597656,10.454174041748047,0.44
172,MetaDrive-test-leaky,53,231.25806638428006,174155,736,3275.6701760292053,50.375091552734375,-51.00100326538086,6.5277838706970215,0.45
173,MetaDrive-test-leaky,53,234.42022249611142,175040,738,3291.536344051361,50.55512237548828,,10.162968635559082,0.46
174,MetaDrive-test-leaky,53,233.82123667765393,176332,741,3315.3164100646973,52.840782165527344,,3.3338098526000977,0.46
175,MetaDrive-test-leaky,53,232.82812546875422,177428,744,3335.7042260169983,49.78056335449219,,12.490474700927734,0.46
176,MetaDrive-test-leaky,53,232.50781895489646,178035,747,3346.57395195961,52.65690612792969,-52.65293884277344,5.405999660491943,0.46
177,MetaDrive-test-leaky,53,223.27165327482595,179005,752,3364.08340716362,51.61048889160156,-51.379058837890625,5.625079154968262,0.43
178,MetaDrive-test-leaky,53,223.46798752230646,180477,755,3393.113713979721,47.8668327331543,-48.22773742675781,9.734230041503906,0.42
179,MetaDrive-test-leaky,53,223.82344415943032,181370,756,3411.8220858573914,52.58047103881836,,4.687586784362793,0.42
180,MetaDrive-test-leaky,53,225.10977834981375,182089,757,3426.1881840229034,51.911712646484375,-52.278865814208984,14.341680526733398,0.42
181,MetaDrive-test-leaky,53,223.46148758372587,183034,760,3445.834209918976,48.52268600463867,,6.981687545776367,0.42
182,MetaDrive-test-leaky,53,227.3162426904052,184244,762,3469.136370897293,50.85059356689453,,6.04949426651001,0.43
183,MetaDrive-test-leaky,53,227.3007122290524,185473,765,3491.962619781494,53.58852005004883,-53.25940704345703,13.011537551879883,0.43
184,MetaDrive-test-leaky,53,229.18357430565018,186160,767,3503.71684718132,52.79592514038086,,5.372275352478027,0.44
185,MetaDrive-test-leaky,53,232.09529055431537,187128,770,3523.2179329395294,49.338523864746094,,9.600954055786133,0.44
186,MetaDrive-test-leaky,53,232.447549606373,188151,772,3542.776701927185,51.821388244628906,-53.31346893310547,8.40777587890625,0.43
187,MetaDrive-test-leaky,53,230.5704524564651,189160,775,3561.810157060623,52.45046615600586,,15.756760597229004,0.43
188,MetaDrive-test-leaky,53,234.7745738631311,190220,777,3581.591258764267,50.864681243896484,,5.355440616607666,0.45
189,MetaDrive-test-leaky,53,237.61956310593345,191088,779,3597.545840024948,50.715423583984375,,13.20260238647461,0.47
190,MetaDrive-test-leaky,53,236.32137066733299,192205,783,3619.4642491340637,50.06322479248047,-49.0143928527832,7.937203884124756,0.46
191,MetaDrive-test-leaky,53,237.3997449572046,193434,785,3642.766023874283,50.8800048828125,,95.30628204345703,0.47
192,MetaDrive-test-leaky,53,240.51862522246677,194164,786,3656.6584980487823,50.761199951171875,,6.7341694831848145,0.48
193,MetaDrive-test-leaky,53,241.77943847240502,195066,788,3673.112028837204,53.34007263183594,,16.878406524658203,0.5
194,MetaDrive-test-leaky,53,235.52489209147907,196082,793,3693.198886871338,52.063472747802734,,9.778108596801758,0.49
195,MetaDrive-test-leaky,53,228.60810840193815,197089,798,3713.1819739341736,54.0297966003418,-53.898902893066406,9.971484184265137,0.47
196,MetaDrive-test-leaky,53,225.2274634597461,198494,801,3739.6595828533173,54.371604919433594,,5.072765350341797,0.46
197,MetaDrive-test-leaky,53,221.89455501552365,199721,804,3763.181736946106,52.89984130859375,-53.776424407958984,8.932339668273926,0.45
198,MetaDrive-test-leaky,53,218.57390309962452,200052,805,3769.751567840576,53.03963851928711,,5.591941833496094,0.44
199,MetaDrive-test-leaky,53,220.1567332464787,201586,807,3803.4213440418243,52.85115051269531,,6.116929531097412,0.44
200,MetaDrive-test-leaky,53,218.60709099032493,202051,809,3812.149111032486,50.854713439941406,-51.634769439697266,12.359197616577148,0.43
201,MetaDrive-test-leaky,52,218.333055770153,203245,812,3834.9328451156616,52.514564514160156,-52.121490478515625,17.798870086669922,0.43
202,MetaDrive-test-leaky,52,217.6050694341236,204261,814,3854.6693840026855,52.959808349609375,-53.53813552856445,12.590747833251953,0.44
203,MetaDrive-test-leaky,52,213.02466693806184,205345,818,3875.383109807968,52.77006912231445,-53.41814422607422,8.51276969909668,0.4
204,MetaDrive-test-leaky,52,214.59966000641282,206375,820,3894.2329139709473,50.79473114013672,-51.42671203613281,7.519975662231445,0.41
205,MetaDrive-test-leaky,52,215.9006254262145,207073,821,3908.167923927307,52.39403533935547,-51.74578094482422,5.393240928649902,0.41
206,MetaDrive-test-leaky,52,215.97155071106957,208508,824,3934.897964000702,48.38219451904297,,67.948974609375,0.42
207,MetaDrive-test-leaky,52,219.40790229305614,209328,825,3951.8894839286804,49.93251037597656,,10.027349472045898,0.43
208,MetaDrive-test-leaky,52,218.20376864032312,210355,828,3970.8582730293274,51.11857223510742,-51.50651550292969,7.425723075866699,0.42
209,MetaDrive-test-leaky,52,220.69598176742224,211219,829,3989.0604391098022,50.91986846923828,-50.993988037109375,31.51348304748535,0.42
210,MetaDrive-test-leaky,52,224.5189420268837,212145,831,4005.748603820801,53.70351791381836,-54.24658966064453,10.937644958496094,0.43
211,MetaDrive-test-leaky,52,224.61088917999004,213294,834,4026.884179830551,52.13867950439453,,99.12104797363281,0.43
212,MetaDrive-test-leaky,52,221.52046767048677,214271,837,4045.0519349575043,52.6341552734375,-53.12505340576172,11.156932830810547,0.42
213,MetaDrive-test-leaky,52,218.4477733500878,215185,840,4062.2164630889893,50.36280059814453,-50.52608108520508,6.719037055969238,0.4
214,MetaDrive-test-leaky,52,222.6964759377897,216804,842,4093.659255027771,53.365291595458984,,16.754261016845703,0.42
215,MetaDrive-test-leaky,52,222.73922112073274,217383,843,4104.654835939407,52.592376708984375,-52.365020751953125,7.8832502365112305,0.42
216,MetaDrive-test-leaky,52,224.7730002845604,218105,844,4118.584679841995,52.46965026855469,-52.58965301513672,3.790536880493164,0.43
217,MetaDrive-test-leaky,52,227.50758756461772,219300,848,4141.386785030365,51.539337158203125,,4.729183673858643,0.44
218,MetaDrive-test-leaky,52,228.89276898062445,220079,850,4155.934010744095,50.86901092529297,-51.07817077636719,4.611172676086426,0.45
219,MetaDrive-test-leaky,52,231.3269292778086,221156,853,4176.058357000351,54.44028091430664,,4.68376350402832,0.46
220,MetaDrive-test-leaky,52,230.48817242255893,222154,855,4196.694380998611,53.55677795410156,,4.163003444671631,0.45
221,MetaDrive-test-leaky,52,225.382136483035,223065,859,4213.90238404274,52.62574768066406,-52.188270568847656,8.965401649475098,0.44
222,MetaDrive-test-leaky,52,228.95105929609105,224226,861,4235.898067951202,52.9686279296875,,16.166624069213867,0.46
223,MetaDrive-test-leaky,52,227.52069860775765,225657,865,4261.9131598472595,52.5340576171875,-52.44261169433594,7.888828754425049,0.45
224,MetaDrive-test-leaky,52,226.76763682717487,226015,866,4269.22664809227,52.099334716796875,-52.227901458740234,6.686619281768799,0.44
225,MetaDrive-test-leaky,52,226.5725042241967,227010,870,4288.984442949295,54.11377716064453,,6.129820823669434,0.44
226,MetaDrive-test-leaky,52,227.42489208802905,228117,872,4311.344877004623,54.72420120239258,-55.96432876586914,5.266490936279297,0.44
227,MetaDrive-test-leaky,52,226.91383160771917,229324,875,4333.424241781235,54.1722297668457,,109.62295532226562,0.42
228,MetaDrive-test-leaky,52,225.07151622935558,230080,877,4347.921424865723,53.824134826660156,,145.967041015625,0.4
229,MetaDrive-test-leaky,52,224.4539949877562,231439,882,4372.884831905365,51.37794494628906,-51.80747985839844,85.53884887695312,0.4
230,MetaDrive-test-leaky,52,221.62093765202957,232076,884,4384.491512060165,53.773963928222656,,9.652473449707031,0.39
231,MetaDrive-test-leaky,52,213.59274462692795,233751,888,4417.64151597023,49.4758415222168,-49.135128021240234,105.04518127441406,0.35
232,MetaDrive-test-leaky,52,216.55624335403618,234539,889,4433.241587877274,53.085784912109375,-53.87885284423828,28.276100158691406,0.36
233,MetaDrive-test-leaky,52,219.9670950345682,235224,891,4446.0141179561615,52.996337890625,,8.821325302124023,0.37
234,MetaDrive-test-leaky,52,219.42177655665844,236010,894,4462.510025978088,53.68095397949219,,42.09585952758789,0.36
235,MetaDrive-test-leaky,52,223.4242698030038,237471,897,4493.30739402771,49.91455078125,-50.40986633300781,10.958776473999023,0.37
236,MetaDrive-test-leaky,52,221.73443619510354,238217,900,4506.727259874344,56.852386474609375,-57.87450408935547,8.579856872558594,0.36
237,MetaDrive-test-leaky,52,224.96218142561574,239179,902,4525.375649929047,54.5966796875,-54.68599319458008,5.613282203674316,0.37
238,MetaDrive-test-leaky,52,222.68132692191276,240424,906,4548.096755027771,52.36964797973633,,6.706374168395996,0.36
239,MetaDrive-test-leaky,52,223.33299254076957,241323,908,4565.640748023987,52.68259811401367,-52.232948303222656,12.125582695007324,0.37
240,MetaDrive-test-leaky,52,224.53819315447296,242476,910,4588.8907380104065,52.591094970703125,,77.96875,0.37
241,MetaDrive-test-leaky,52,221.10094858071113,243065,913,4599.712697982788,53.34264373779297,-53.894386291503906,11.279046058654785,0.35
242,MetaDrive-test-leaky,52,220.4994680987741,244319,917,4624.470144033432,52.15681457519531,-52.828208923339844,9.131242752075195,0.35
243,MetaDrive-test-leaky,52,219.4010734516959,245218,919,4641.610405921936,52.12428283691406,,155.07281494140625,0.35
244,MetaDrive-test-leaky,52,219.2272549207187,246466,921,4667.120347976685,54.655555725097656,,11.850600242614746,0.34
245,MetaDrive-test-leaky,52,217.8091014912648,247029,923,4677.454258918762,57.57659149169922,-56.957679748535156,13.703324317932129,0.33
246,MetaDrive-test-leaky,52,214.33721134493524,248006,926,4694.739568948746,54.01917266845703,,30.814918518066406,0.31
247,MetaDrive-test-leaky,52,218.16005063262327,249245,928,4718.621419906616,55.04645538330078,-56.14164733886719,4.488389492034912,0.33
248,MetaDrive-test-leaky,52,212.2833577585411,250267,931,4738.0968561172485,54.226112365722656,-54.13310623168945,8.871542930603027,0.32
249,MetaDrive-test-leaky,52,216.86599297251095,251584,933,4763.170392036438,53.96089172363281,,58.82060241699219,0.34
250,MetaDrive-test-leaky,52,217.4931947533791,252255,935,4775.32105588913,53.54206848144531,-53.94578552246094,6.4502410888671875,0.34
251,MetaDrive-test-leaky,52,212.449725964744,253139,940,4791.718152999878,57.69717788696289,-57.29719543457031,9.610629081726074,0.32
252,MetaDrive-test-leaky,52,208.03404003077907,254049,943,4808.115227937698,52.63762664794922,-54.276710510253906,151.78302001953125,0.3
253,MetaDrive-test-leaky,52,203.40468093803662,255336,948,4834.568876028061,53.040016174316406,,31.534996032714844,0.28
254,MetaDrive-test-leaky,52,203.85118344094536,256733,950,4861.562196969986,54.53486633300781,-55.338844299316406,5.285761833190918,0.27
255,MetaDrive-test-leaky,52,205.03076488936819,257337,951,4872.998157978058,56.05402374267578,-56.067203521728516,9.768661499023438,0.28
256,MetaDrive-test-leaky,52,201.5678417424488,258275,954,4890.534326076508,54.449127197265625,-53.827880859375,8.54971694946289,0.27
257,MetaDrive-test-leaky,52,203.97953411736208,259797,956,4919.4648377895355,53.21722412109375,-53.13239669799805,8.69495677947998,0.28
258,MetaDrive-test-leaky,52,205.7664359551701,260297,957,4928.016983985901,53.584007263183594,-53.42820739746094,4.691646575927734,0.29
259,MetaDrive-test-leaky,52,204.06512540226174,261232,960,4946.060175180435,52.222572326660156,,70.88812255859375,0.28
260,MetaDrive-test-leaky,52,202.17527227030547,262064,962,4960.812086105347,56.19590377807617,,182.90097045898438,0.28
261,MetaDrive-test-leaky,52,205.13180073345688,263101,964,4980.071010112762,57.497833251953125,-58.281028747558594,8.450652122497559,0.29
262,MetaDrive-test-leaky,52,204.8785038190843,264107,966,4998.392757892609,54.48823165893555,-55.213443756103516,41.327674865722656,0.29
263,MetaDrive-test-leaky,52,203.96074072493332,265184,970,5020.256520986557,54.44874954223633,,8.258054733276367,0.3
264,MetaDrive-test-leaky,52,203.794321385621,266416,973,5042.367973804474,55.646766662597656,,20.77590560913086,0.31
265,MetaDrive-test-leaky,52,203.78780163037862,267943,975,5071.471254110336,53.30451965332031,-53.53374481201172,4.869635581970215,0.32
266,MetaDrive-test-leaky,52,202.8836514472319,268085,976,5074.027888059616,54.68090057373047,-54.52192687988281,131.48507690429688,0.32
267,MetaDrive-test-leaky,52,206.56784992706227,269124,978,5093.751556158066,54.06067657470703,,188.41253662109375,0.34
268,MetaDrive-test-leaky,52,207.71902810185108,270515,982,5119.684731960297,55.85792922973633,-56.35097122192383,4.776142120361328,0.33
269,MetaDrive-test-leaky,52,209.05596977116775,271516,984,5137.59779882431,53.56263732910156,,9.700931549072266,0.34
270,MetaDrive-test-leaky,52,210.90334672605306,272477,986,5154.8480088710785,54.72235107421875,-56.3228759765625,6.571151256561279,0.35
271,MetaDrive-test-leaky,52,206.1759546020372,273282,990,5169.2645490169525,55.2746696472168,,26.69408416748047,0.34
272,MetaDrive-test-leaky,52,209.1089850139198,274082,992,5183.379172086716,55.451210021972656,,7.894977569580078,0.35
273,MetaDrive-test-leaky,52,213.58459828084105,275373,994,5207.595103979111,53.74018478393555,-54.4221305847168,14.203596115112305,0.37
274,MetaDrive-test-leaky,52,213.19689699183957,276066,996,5220.394704818726,54.61072540283203,,4.840032577514648,0.37
275,MetaDrive-test-leaky,52,214.94274508824418,277124,998,5239.673172950745,54.53877258300781,,3.4236857891082764,0.38
276,MetaDrive-test-leaky,52,217.4660763151444,278162,1000,5258.342042207718,57.42087936401367,,147.7950439453125,0.39
277,MetaDrive-test-leaky,52,213.35771333142242,279072,1004,5275.159024953842,51.39810562133789,,12.752180099487305,0.38
278,MetaDrive-test-leaky,52,212.15355072976868,280130,1006,5295.945975065231,53.98212432861328,,5.936230659484863,0.37
279,MetaDrive-test-leaky,52,212.57586776658,281185,1008,5316.546107769012,56.994712829589844,-57.52393341064453,4.9620513916015625,0.37
280,MetaDrive-test-leaky,52,214.20715980175345,282768,1010,5346.082783937454,57.940345764160156,,8.31232738494873,0.38
281,MetaDrive-test-leaky,52,216.106167354696,283267,1011,5355.267572879791,56.251625061035156,-56.09146499633789,26.98894500732422,0.39
282,MetaDrive-test-leaky,52,219.74289973159455,284219,1013,5373.105327129364,55.86727523803711,-57.55205535888672,7.568595886230469,0.4
283,MetaDrive-test-leaky,52,220.51724257839086,285220,1014,5394.033157110214,56.6484375,,13.584634780883789,0.4
284,MetaDrive-test-leaky,52,220.6696979178163,286058,1016,5409.584911823273,53.96501159667969,,4.286776542663574,0.4
285,MetaDrive-test-leaky,52,220.04759419441143,287316,1019,5434.905035972595,55.75672912597656,,9.179923057556152,0.4
286,MetaDrive-test-leaky,52,218.02529898542866,288113,1021,5451.431365013123,54.260215759277344,-54.731956481933594,4.406882286071777,0.39
287,MetaDrive-test-leaky,52,222.25917539741204,289574,1023,5478.815532922745,55.54010009765625,,9.412569046020508,0.4
288,MetaDrive-test-leaky,52,223.7944012539839,290019,1024,5487.077597856522,53.09661865234375,-54.43692398071289,10.35421085357666,0.4
289,MetaDrive-test-leaky,52,226.13565880302212,291370,1026,5513.069224834442,54.299346923828125,,101.22645568847656,0.41
290,MetaDrive-test-leaky,52,223.61925563731037,292875,1028,5542.159339904785,52.804466247558594,-53.3116569519043,8.776928901672363,0.39
291,MetaDrive-test-leaky,52,221.94011732891332,293031,1029,5545.073301076889,53.92963409423828,-53.970314025878906,5.720952987670898,0.38
292,MetaDrive-test-leaky,52,218.92690352493938,294245,1032,5567.464714050293,51.8807487487793,-51.438934326171875,10.390838623046875,0.37
293,MetaDrive-test-leaky,52,215.33872682291886,295242,1036,5585.643171072006,54.21406173706055,,7.29327392578125,0.35
294,MetaDrive-test-leaky,52,219.1585941428732,296213,1038,5604.569456100464,53.187957763671875,-53.096466064453125,6.625349044799805,0.36
295,MetaDrive-test-leaky,52,222.45770116077026,297469,1040,5627.47056889534,55.038272857666016,-55.77552795410156,7.181205749511719,0.38
296,MetaDrive-test-leaky,52,222.9338490037792,298779,1042,5651.848727941513,53.21629333496094,-53.06912612915039,11.310745239257812,0.37
297,MetaDrive-test-leaky,52,225.96573738213547,299472,1043,5664.260736942291,55.05518341064453,,9.467170715332031,0.38
298,MetaDrive-test-leaky,52,226.34773756074497,300473,1044,5684.113569974899,55.96437454223633,-56.607421875,5.987879276275635,0.38
299,MetaDrive-test-leaky,52,227.74529612640242,301321,1046,5700.85475897789,53.95066452026367,-54.63512420654297,15.910202026367188,0.38
300,MetaDrive-test-leaky,52,229.74363999560217,302287,1047,5720.092504024506,53.38287353515625,-52.04365158081055,24.512971878051758,0.38
301,MetaDrive-test-leaky,52,234.38665547185582,303727,1049,5747.456068992615,51.252479553222656,-50.64645767211914,7.083845615386963,0.4
302,MetaDrive-test-leaky,52,236.19910385750816,304728,1050,5766.488676071167,49.288631439208984,,9.958932876586914,0.4
303,MetaDrive-test-leaky,52,235.07029185092426,305052,1051,5772.983412027359,54.516483306884766,,9.345048904418945,0.39
304,MetaDrive-test-leaky,52,240.7418099504773,306538,1053,5803.360846996307,53.59114456176758,,7.12349796295166,0.4
305,MetaDrive-test-leaky,52,240.259488244765,307539,1054,5822.551212072372,53.06805419921875,-53.9595832824707,7.150261878967285,0.39
306,MetaDrive-test-leaky,52,240.0642858981174,308049,1055,5830.989946842194,56.21489715576172,-56.31382751464844,9.331507682800293,0.39
307,MetaDrive-test-leaky,52,237.05275715938544,309356,1059,5854.152652978897,55.068397521972656,,19.339763641357422,0.38
308,MetaDrive-test-leaky,52,238.2291993501462,310357,1060,5872.749305009842,49.91838836669922,-49.18492126464844,15.07266616821289,0.38
309,MetaDrive-test-leaky,52,238.94364844109128,311426,1062,5893.298627138138,54.77543640136719,,13.002385139465332,0.38
310,MetaDrive-test-leaky,52,241.86640738815532,312154,1063,5906.418987989426,53.47409439086914,,8.084127426147461,0.39
311,MetaDrive-test-leaky,52,239.52884770415562,313493,1065,5935.8093230724335,53.407554626464844,-53.111419677734375,9.454352378845215,0.37
312,MetaDrive-test-leaky,52,240.10908074173872,314192,1066,5949.585837125778,49.68487548828125,,10.001686096191406,0.37
313,MetaDrive-test-leaky,52,247.47376393342552,315898,1068,5981.967934846878,51.82247543334961,,9.481759071350098,0.38
314,MetaDrive-test-leaky,52,248.3879432037691,316899,1069,6002.699135065079,50.77201461791992,-51.6083984375,157.4415740966797,0.38
315,MetaDrive-test-leaky,52,246.83560073608152,317144,1070,6007.457465171814,54.67333221435547,,7.200042724609375,0.37
316,MetaDrive-test-leaky,52,249.23806887540857,318004,1071,6023.408570051193,56.67279815673828,,6.488896369934082,0.38
317,MetaDrive-test-leaky,52,250.2452958915203,319832,1073,6057.163362979889,51.312660217285156,,5.030478000640869,0.38
318,MetaDrive-test-leaky,52,250.25084053529974,320698,1074,6072.445208072662,52.72967529296875,,62.96794128417969,0.38
319,MetaDrive-test-leaky,52,251.16373434294957,321319,1075,6083.905318975449,50.00437927246094,-51.38050079345703,26.77691650390625,0.39
320,MetaDrive-test-leaky,52,253.10230400848482,322130,1076,6097.599856853485,56.20807647705078,,9.931567192077637,0.4
321,MetaDrive-test-leaky,52,250.07173229905374,323097,1078,6116.568318843842,54.29114532470703,-54.772430419921875,3.4451780319213867,0.39
322,MetaDrive-test-leaky,52,250.70066791221078,324208,1080,6135.748734951019,54.36366271972656,,9.938461303710938,0.4
323,MetaDrive-test-leaky,52,252.33657984148275,325032,1081,6150.480961084366,53.20756530761719,,10.259855270385742,0.41
324,MetaDrive-test-leaky,52,254.85688843169714,326474,1083,6180.416326999664,56.570526123046875,,6.424030303955078,0.41
325,MetaDrive-test-leaky,52,254.37876521582035,327053,1084,6190.954088926315,52.56962966918945,-53.12939453125,30.9925537109375,0.41
326,MetaDrive-test-leaky,52,256.4897784090368,328054,1085,6213.0289669036865,51.57129669189453,,7.765513896942139,0.41
327,MetaDrive-test-leaky,52,259.8994090733159,329878,1088,6244.7595410346985,53.94154357910156,,5.033684730529785,0.41
328,MetaDrive-test-leaky,52,263.4696260048728,330658,1089,6260.4746198654175,56.62928009033203,,5.427852630615234,0.41
329,MetaDrive-test-leaky,52,263.8640374136551,331117,1090,6268.86279797554,53.064613342285156,-53.30851745605469,46.42508316040039,0.41
330,MetaDrive-test-leaky,52,265.8039900730114,332118,1091,6289.386749982834,55.845298767089844,,2.883673667907715,0.41
331,MetaDrive-test-leaky,52,267.62159170820576,333119,1092,6307.892044067383,53.95105743408203,-54.829612731933594,12.791157722473145,0.4
332,MetaDrive-test-leaky,52,265.22394590202146,334729,1094,6335.864237070084,49.825599670410156,-50.258277893066406,7.667736053466797,0.39
333,MetaDrive-test-leaky,52,267.4374876572816,335730,1095,6353.2344880104065,52.805057525634766,,5.399724960327148,0.39
334,MetaDrive-test-leaky,52,266.4988247317684,336611,1096,6368.482537031174,52.8402214050293,-53.581146240234375,5.2256574630737305,0.39
335,MetaDrive-test-leaky,52,267.45309378111926,337077,1097,6376.793765068054,52.56983184814453,-51.80083465576172,58.27342224121094,0.4
336,MetaDrive-test-leaky,52,267.0904073597028,338268,1099,6400.108442783356,53.74818420410156,,5.04531192779541,0.39
337,MetaDrive-test-leaky,52,266.9037719752376,339060,1101,6416.259230852127,57.04351806640625,,18.3896484375,0.39
338,MetaDrive-test-leaky,52,269.432326557117,340809,1103,6447.1069419384,59.22576141357422,-59.69606399536133,3.384915351867676,0.4
339,MetaDrive-test-leaky,52,270.25452688311447,341057,1104,6451.861723899841,50.54464340209961,-50.75081253051758,8.930137634277344,0.4
340,MetaDrive-test-leaky,52,271.25201363827244,342058,1105,6471.60770201683,53.57875061035156,,8.590456008911133,0.4
341,MetaDrive-test-leaky,52,274.6268999643264,343511,1107,6498.8561379909515,56.097137451171875,-57.12071990966797,10.639013290405273,0.41
342,MetaDrive-test-leaky,52,274.3577163063455,344191,1108,6510.953263044357,55.76155090332031,-57.57170486450195,46.965728759765625,0.41
343,MetaDrive-test-leaky,52,275.109644421148,345954,1110,6545.709281921387,54.331424713134766,,15.661202430725098,0.4
344,MetaDrive-test-leaky,52,275.1222049256941,346592,1111,6558.624252796173,51.92205810546875,,5.154847145080566,0.4
345,MetaDrive-test-leaky,52,275.57558698987395,347483,1112,6575.017492055893,56.22265625,-56.588680267333984,2.773016929626465,0.41
346,MetaDrive-test-leaky,52,277.2653948437577,348281,1113,6590.227579832077,57.547210693359375,-57.29917526245117,4.361891746520996,0.41
347,MetaDrive-test-leaky,52,275.3534733061226,349612,1117,6614.211591005325,54.896812438964844,,13.058996200561523,0.41
348,MetaDrive-test-leaky,52,276.1740207197622,350090,1118,6623.522728919983,55.780296325683594,,14.645767211914062,0.42
349,MetaDrive-test-leaky,52,275.3750812190758,351103,1120,6641.543860912323,54.97953796386719,-55.68433380126953,4.800543308258057,0.42
350,MetaDrive-test-leaky,52,276.7999411371475,352671,1122,6670.401349782944,55.50709915161133,-56.68992233276367,9.797928810119629,0.43
351,MetaDrive-test-leaky,52,276.37958894787755,353196,1123,6679.891888141632,53.54380798339844,,11.87376594543457,0.44
352,MetaDrive-test-leaky,52,274.988010204359,354233,1125,6699.060753822327,53.290122985839844,-54.673763275146484,109.15682220458984,0.44
353,MetaDrive-test-leaky,52,274.99598535165404,355141,1126,6715.73566699028,53.98970413208008,-53.51724624633789,7.4216508865356445,0.44
354,MetaDrive-test-leaky,52,277.5212772285861,356740,1128,6746.67631483078,51.16913604736328,,10.560001373291016,0.45
355,MetaDrive-test-leaky,52,281.1174537357765,357437,1129,6760.031071901321,53.611228942871094,-52.53314971923828,19.561298370361328,0.46
356,MetaDrive-test-leaky,52,284.0070695562437,358097,1130,6773.222412109375,52.712581634521484,-52.79876708984375,15.296120643615723,0.47
357,MetaDrive-test-leaky,52,281.63156118191955,359489,1133,6798.160213947296,53.25585174560547,-53.222694396972656,9.181936264038086,0.47
358,MetaDrive-test-leaky,52,283.8898026621794,360165,1134,6809.054736852646,56.59701919555664,-57.540679931640625,8.29176139831543,0.48
359,MetaDrive-test-leaky,52,287.0472091072466,361187,1136,6828.432971954346,52.4948616027832,-52.51463317871094,10.15841293334961,0.49
360,MetaDrive-test-leaky,52,286.5946326608402,362188,1137,6851.178050041199,56.25218200683594,,7.245733261108398,0.48
361,MetaDrive-test-leaky,52,289.06209098727714,363104,1138,6867.431849002838,50.64058303833008,,12.697593688964844,0.49
362,MetaDrive-test-leaky,52,287.34662364987355,364034,1140,6883.136346101761,52.05690002441406,,89.18443298339844,0.48
363,MetaDrive-test-leaky,52,289.7713676689934,365035,1141,6899.748341083527,54.140743255615234,-54.16997528076172,20.288055419921875,0.48
364,MetaDrive-test-leaky,52,289.245661302185,366036,1142,6916.206874132156,54.285621643066406,,4.578454494476318,0.48
365,MetaDrive-test-leaky,52,292.0869367894946,367366,1144,6941.033854007721,54.90974426269531,,50.33320999145508,0.49
366,MetaDrive-test-leaky,52,293.90842917557353,368048,1145,6953.994618177414,57.44233703613281,,26.24640655517578,0.5
367,MetaDrive-test-leaky,52,295.1828687411558,369402,1147,6977.515744924545,52.4803466796875,,39.711708068847656,0.51
368,MetaDrive-test-leaky,52,294.8104553962773,370034,1148,6988.388525009155,52.719017028808594,,9.98952865600586,0.51
369,MetaDrive-test-leaky,52,291.73438130018144,371674,1151,7018.900825023651,56.23109817504883,,4.42081356048584,0.51
370,MetaDrive-test-leaky,52,292.9142933646304,372404,1152,7032.2729868888855,56.190181732177734,,15.521491050720215,0.51
371,MetaDrive-test-leaky,52,289.15048053977205,373535,1154,7051.321360826492,52.677284240722656,-52.82664489746094,12.14162826538086,0.51
372,MetaDrive-test-leaky,52,288.8410494408334,374071,1155,7060.326733112335,55.53254699707031,-55.22820281982422,9.597606658935547,0.51
373,MetaDrive-test-leaky,52,291.58835699297254,375072,1156,7079.059984922409,54.17601013183594,,6.819370746612549,0.51
374,MetaDrive-test-leaky,52,293.4350778815406,376073,1157,7097.907459974289,51.915870666503906,-52.71466064453125,12.067154884338379,0.51
375,MetaDrive-test-leaky,52,298.4806084706089,377897,1159,7132.915012121201,52.84858322143555,-52.89141845703125,10.562880516052246,0.51
376,MetaDrive-test-leaky,52,299.29389730449935,378493,1160,7143.907028913498,51.72004699707031,-52.15143585205078,16.43649673461914,0.52
377,MetaDrive-test-leaky,52,301.9700508136715,379039,1161,7153.400890827179,55.875938415527344,-57.67566680908203,12.217347145080566,0.53
378,MetaDrive-test-leaky,52,301.8273152045811,380519,1163,7180.7495658397675,51.347572326660156,-51.825286865234375,8.074649810791016,0.53
379,MetaDrive-test-leaky,52,303.23038903720123,381212,1164,7193.85849905014,57.822994232177734,,3.8946480751037598,0.54
380,MetaDrive-test-leaky,52,301.0050320687859,382078,1166,7210.7069590091705,52.8095703125,,9.428376197814941,0.54
381,MetaDrive-test-leaky,52,299.97033667380657,383061,1167,7228.926122903824,50.03416442871094,-51.18672180175781,8.715180397033691,0.54
382,MetaDrive-test-leaky,53,299.0496308331498,384062,1168,7245.5746150016785,51.16841506958008,,17.67051124572754,0.54
383,MetaDrive-test-leaky,53,298.43335516200915,385063,1169,7265.302757024765,50.12643814086914,-49.826499938964844,8.968931198120117,0.54
384,MetaDrive-test-leaky,53,301.00711828048213,386064,1170,7282.702095746994,52.76496505737305,,9.628093719482422,0.54
385,MetaDrive-test-leaky,53,300.343358935793,387619,1172,7313.462337017059,53.887996673583984,-54.24101257324219,4.515336513519287,0.54
386,MetaDrive-test-leaky,53,300.0879834025598,388302,1173,7325.998728990555,50.37630081176758,,5.597691059112549,0.54
387,MetaDrive-test-leaky,53,302.237198966972,389845,1175,7355.496560096741,50.15595245361328,-51.934181213378906,18.084941864013672,0.54
388,MetaDrive-test-leaky,53,301.2532445045644,390193,1176,7361.6838619709015,54.9942512512207,-55.812313079833984,4.81104850769043,0.53
389,MetaDrive-test-leaky,52,304.4388709287513,391194,1177,7381.101928949356,54.94553756713867,,6.930251121520996,0.53
390,MetaDrive-test-leaky,53,304.46445389608454,392195,1178,7398.627824783325,54.9940185546875,-55.57963180541992,38.603912353515625,0.52
391,MetaDrive-test-leaky,53,308.32544293782973,393060,1179,7415.583676815033,53.598323822021484,,15.793729782104492,0.53
392,MetaDrive-test-leaky,52,308.3006971245509,394928,1182,7453.351073026657,51.684906005859375,,9.13177490234375,0.51
393,MetaDrive-test-leaky,52,306.9907530053677,395846,1183,7468.929929018021,57.021976470947266,,8.239773750305176,0.51
394,MetaDrive-test-leaky,52,309.2909711040149,396847,1184,7491.073801040649,49.40616989135742,-49.64622116088867,5.112665176391602,0.5
395,MetaDrive-test-leaky,52,307.3841013915544,397848,1185,7510.606996059418,54.97621154785156,,14.877336502075195,0.5
396,MetaDrive-test-leaky,52,308.91678877636303,398616,1186,7524.986366033554,52.3369140625,,4.5905961990356445,0.51
397,MetaDrive-test-leaky,52,310.28219164063796,399592,1187,7543.600352048874,51.91135025024414,,102.5509033203125,0.51
398,MetaDrive-test-leaky,52,310.6679056963544,400399,1188,7558.025103807449,52.3403434753418,-53.067562103271484,6.842739105224609,0.52
399,MetaDrive-test-leaky,52,309.1422263080134,401703,1190,7582.117018938065,49.61730194091797,-50.0916862487793,6.4448466300964355,0.53
400,MetaDrive-test-leaky,52,309.8496783034701,402549,1191,7599.9768261909485,53.21542739868164,-53.738956451416016,17.497343063354492,0.54
401,MetaDrive-test-leaky,52,306.4911139808734,403213,1193,7612.489540100098,50.29912185668945,-50.5952262878418,13.72973918914795,0.54
402,MetaDrive-test-leaky,52,305.05970255152056,404640,1195,7641.104953050613,48.413978576660156,,13.366640090942383,0.54
403,MetaDrive-test-leaky,52,306.0160419818925,405632,1196,7659.113243818283,52.068603515625,,9.906314849853516,0.54
404,MetaDrive-test-leaky,52,305.031620931117,406041,1197,7666.855429887772,50.499237060546875,-51.218658447265625,8.215545654296875,0.53
405,MetaDrive-test-leaky,52,305.7087091723335,407042,1198,7685.545072078705,50.15387725830078,,30.394699096679688,0.53
406,MetaDrive-test-leaky,52,308.0495621123081,408246,1200,7707.573135852814,53.10081481933594,,10.670137405395508,0.55
407,MetaDrive-test-leaky,52,308.39849608909,409247,1201,7726.14400100708,56.03263854980469,-56.915008544921875,8.147565841674805,0.54
408,MetaDrive-test-leaky,52,308.2805637769761,410363,1203,7746.510724067688,48.97039031982422,-49.140357971191406,21.98676300048828,0.55
409,MetaDrive-test-leaky,52,309.17674076736546,411401,1205,7766.09304690361,52.06294250488281,-52.089927673339844,12.920722007751465,0.56
410,MetaDrive-test-leaky,52,307.52064985538703,412402,1206,7785.913347005844,51.02445983886719,,18.633129119873047,0.56
411,MetaDrive-test-leaky,52,305.8076627183078,413381,1208,7803.282457113266,50.229347229003906,-50.54981231689453,6.7461748123168945,0.55
412,MetaDrive-test-leaky,52,306.0227022758379,414382,1209,7825.983778953552,50.577186584472656,,4.902953147888184,0.54
413,MetaDrive-test-leaky,52,305.47729213719987,415383,1210,7844.70315694809,52.20863723754883,-52.92154312133789,9.118067741394043,0.54
414,MetaDrive-test-leaky,52,305.18918816970324,416139,1211,7858.116848945618,50.42702865600586,-51.01593780517578,8.218659400939941,0.54
415,MetaDrive-test-leaky,52,305.296036140512,417047,1212,7875.245409965515,51.151634216308594,-51.25881576538086,6.316354751586914,0.54
416,MetaDrive-test-leaky,52,306.7681510291227,418953,1214,7913.353479862213,48.85063934326172,-49.01280212402344,48.68531799316406,0.54
417,MetaDrive-test-leaky,52,306.1107779350414,419329,1215,7921.223238945007,53.30079650878906,-54.8106689453125,26.052871704101562,0.54
418,MetaDrive-test-leaky,52,306.87882089535157,420625,1217,7947.004683017731,45.84571075439453,-45.71031951904297,4.926572322845459,0.53
419,MetaDrive-test-leaky,52,306.7275281184236,421192,1218,7957.227998018265,49.268577575683594,,4.700231552124023,0.53
420,MetaDrive-test-leaky,52,309.7985605941257,422193,1219,7979.3108649253845,52.895294189453125,-52.900177001953125,14.692712783813477,0.53
421,MetaDrive-test-leaky,52,310.11851997664553,423250,1221,7998.747083902359,50.57074737548828,,14.302919387817383,0.52
422,MetaDrive-test-leaky,52,308.4679422443941,424274,1223,8016.4632160663605,53.51715087890625,,25.147342681884766,0.51
423,MetaDrive-test-leaky,52,308.5942828789132,425090,1224,8032.427855968475,47.9927864074707,,9.928991317749023,0.5
424,MetaDrive-test-leaky,52,309.40475796630545,426087,1226,8049.64443898201,50.21893310546875,-51.08991622924805,6.861125946044922,0.5
425,MetaDrive-test-leaky,52,304.90192946196385,427309,1229,8072.029306173325,49.73577117919922,-49.261962890625,6.325462341308594,0.49
426,MetaDrive-test-leaky,52,308.6065781899344,428808,1231,8100.407778978348,46.671897888183594,,8.499201774597168,0.5
427,MetaDrive-test-leaky,52,308.53046366374053,429358,1233,8109.746824979782,48.63689041137695,,17.897857666015625,0.51
428,MetaDrive-test-leaky,52,308.46517665770256,430951,1235,8139.380421161652,51.05149459838867,-51.135345458984375,3.5432000160217285,0.51
429,MetaDrive-test-leaky,52,307.58509902544927,431398,1236,8147.578826904297,52.352821350097656,,6.099379062652588,0.51
430,MetaDrive-test-leaky,52,305.05583490327797,432311,1238,8164.353322029114,48.164581298828125,-48.56977462768555,23.315452575683594,0.51
431,MetaDrive-test-leaky,52,309.1732048459217,433598,1240,8188.79709482193,49.92267608642578,,7.474231719970703,0.52
432,MetaDrive-test-leaky,52,307.9107662414669,434108,1241,8197.129492044449,51.7919921875,,8.504616737365723,0.53
433,MetaDrive-test-leaky,52,306.5092945233535,435730,1243,8229.041450977325,48.11420440673828,,63.32429885864258,0.53
434,MetaDrive-test-leaky,52,304.90593226362495,436249,1244,8239.272701978683,49.37982177734375,-48.98646926879883,7.221541404724121,0.53
435,MetaDrive-test-leaky,52,305.3278534450165,437062,1245,8255.517472028732,49.42662048339844,,17.5322265625,0.53
436,MetaDrive-test-leaky,52,302.2374642548394,438044,1248,8272.759732961655,50.15132141113281,,17.115367889404297,0.52
437,MetaDrive-test-leaky,52,298.7839204690708,439307,1251,8295.974615097046,49.50111389160156,-49.62152099609375,17.386802673339844,0.51
438,MetaDrive-test-leaky,52,294.6674251203138,440021,1254,8308.64337682724,44.3062744140625,-44.62501525878906,5.023398399353027,0.51
439,MetaDrive-test-leaky,52,295.1014996283769,441134,1256,8331.811564922333,51.80292510986328,,8.121648788452148,0.51
440,MetaDrive-test-leaky,52,294.8732531347472,442844,1258,8365.84330701828,46.20592498779297,,7.156307220458984,0.51
441,MetaDrive-test-leaky,52,294.0744289635626,443466,1259,8377.179779052734,45.51809310913086,,16.642786026000977,0.51
442,MetaDrive-test-leaky,52,292.1541664904582,444550,1261,8397.627115011215,51.323402404785156,,8.26472282409668,0.5
443,MetaDrive-test-leaky,52,292.05368030677846,445121,1262,8407.929054021835,48.66883087158203,-49.66271209716797,4.886300086975098,0.5
444,MetaDrive-test-leaky,52,290.68282564616425,446437,1264,8432.556645154953,48.14889144897461,-49.81553649902344,22.098743438720703,0.5
445,MetaDrive-test-leaky,52,293.27910406983835,447299,1265,8449.573642969131,49.80851745605469,-49.58131408691406,11.921754837036133,0.51
446,MetaDrive-test-leaky,52,293.58558610122134,448433,1267,8470.039801120758,49.264678955078125,-48.71018981933594,28.575380325317383,0.52
447,MetaDrive-test-leaky,52,293.9795042069137,449366,1268,8486.854936122894,51.638465881347656,,4.322854042053223,0.53
448,MetaDrive-test-leaky,52,294.91240959877933,450116,1269,8501.011845827103,51.05615997314453,,15.903779029846191,0.54
449,MetaDrive-test-leaky,52,293.9524704089956,451293,1271,8521.191550016403,51.84976577758789,-51.86185836791992,6.353621006011963,0.55
450,MetaDrive-test-leaky,52,295.4465721902367,452294,1272,8541.83914399147,52.857505798339844,,6.65509033203125,0.54
451,MetaDrive-test-leaky,52,295.63912315600015,453293,1274,8561.816586971283,48.957359313964844,-49.823951721191406,38.17192459106445,0.53
452,MetaDrive-test-leaky,52,295.19984887829327,454201,1275,8579.766273021698,49.060035705566406,-50.47203063964844,13.742791175842285,0.52
453,MetaDrive-test-leaky,52,295.2799732235733,455624,1277,8608.11902499199,47.965938568115234,,42.05469512939453,0.53
454,MetaDrive-test-leaky,52,295.88946209894476,456412,1278,8623.209258079529,48.888450622558594,,9.065088272094727,0.54
455,MetaDrive-test-leaky,52,290.6921360507931,457232,1281,8638.16111588478,48.2786865234375,,8.975286483764648,0.53
456,MetaDrive-test-leaky,52,288.7364521666485,458026,1283,8651.66184592247,45.98442840576172,,12.466475486755371,0.54
457,MetaDrive-test-leaky,52,287.17060936633544,459498,1285,8680.31412100792,48.922672271728516,,6.473302364349365,0.54
458,MetaDrive-test-leaky,52,286.78030334352786,460008,1286,8689.773781061172,49.99848937988281,,9.612895965576172,0.53
459,MetaDrive-test-leaky,52,286.6254651677771,461009,1287,8707.765623092651,48.17729949951172,-48.05504608154297,15.309617042541504,0.52
460,MetaDrive-test-leaky,52,287.00695051482126,462253,1289,8731.994189977646,46.148834228515625,-46.397438049316406,7.470428943634033,0.52
461,MetaDrive-test-leaky,52,288.1651219637465,463103,1290,8749.461895942688,46.495887756347656,-46.40943145751953,13.07097053527832,0.52
462,MetaDrive-test-leaky,52,287.7243009612958,464104,1291,8767.572934865952,49.61494064331055,,7.121511459350586,0.51
463,MetaDrive-test-leaky,52,287.7477084105177,465397,1294,8793.726176023483,48.874454498291016,-48.973106384277344,6.346747398376465,0.5
464,MetaDrive-test-leaky,52,288.24236885300627,466162,1295,8807.118067979813,50.54711151123047,,8.582025527954102,0.51
465,MetaDrive-test-leaky,52,288.2189533953722,467467,1297,8828.699450969696,46.43749237060547,-47.599647521972656,61.790260314941406,0.52
466,MetaDrive-test-leaky,52,288.7213351490754,468238,1298,8843.344124794006,46.16439437866211,,5.311982154846191,0.53
467,MetaDrive-test-leaky,52,288.98674750517097,469501,1300,8867.94557595253,48.73771667480469,-49.44446563720703,10.106037139892578,0.52
468,MetaDrive-test-leaky,52,289.32400001745646,470273,1301,8881.55588889122,46.06855773925781,-46.50021743774414,8.42953872680664,0.53
469,MetaDrive-test-leaky,52,288.6328288867891,471494,1303,8904.420986890793,49.13945007324219,,10.890533447265625,0.52
470,MetaDrive-test-leaky,52,287.47381039135837,472227,1305,8917.375721931458,48.357261657714844,-47.59431457519531,5.533245086669922,0.51
471,MetaDrive-test-leaky,52,286.4810739145739,473268,1308,8937.41110920906,50.545833587646484,,5.523894309997559,0.51
472,MetaDrive-test-leaky,52,284.2481891351342,474461,1310,8961.266597032547,46.62013244628906,-46.749481201171875,4.411823272705078,0.51
473,MetaDrive-test-leaky,52,285.4874496649991,475131,1311,8973.227019071579,46.66120147705078,-47.512691497802734,10.296151161193848,0.51
474,MetaDrive-test-leaky,52,284.01730664286237,476088,1313,8990.70542216301,46.552330017089844,,11.753291130065918,0.5
475,MetaDrive-test-leaky,52,282.88208702611774,477013,1315,9007.335079908371,46.25341796875,-46.616432189941406,8.932701110839844,0.51
476,MetaDrive-test-leaky,52,282.45382419824506,478073,1318,9025.66557097435,49.351715087890625,-49.957366943359375,14.341126441955566,0.51
477,MetaDrive-test-leaky,52,277.388033369384,479257,1321,9047.953202009201,48.823951721191406,-49.12787628173828,6.311699867248535,0.52
478,MetaDrive-test-leaky,52,277.50650116168396,480758,1323,9075.01155781746,47.91502380371094,,5.410221576690674,0.52
479,MetaDrive-test-leaky,52,276.921963576363,481614,1325,9090.001391172409,54.04074478149414,,4.6026763916015625,0.53
480,MetaDrive-test-leaky,52,277.1157303067985,482967,1327,9118.66235280037,45.80431365966797,-45.652732849121094,5.0939741134643555,0.51
481,MetaDrive-test-leaky,52,277.0806445989207,483260,1328,9124.076559066772,43.44070816040039,,6.588548183441162,0.51
482,MetaDrive-test-leaky,52,280.11257974327395,484215,1329,9142.325356960297,46.46635818481445,-47.50181198120117,10.35655403137207,0.52
483,MetaDrive-test-leaky,52,277.39957901667856,485193,1331,9161.292324066162,44.25035858154297,-45.22673797607422,33.66288757324219,0.51
484,MetaDrive-test-leaky,52,280.2862371036731,486017,1333,9176.399302959442,46.37466812133789,-46.75347137451172,10.083040237426758,0.51
485,MetaDrive-test-leaky,52,278.21789092538523,487883,1336,9207.868924856186,49.018951416015625,-49.103233337402344,8.18404769897461,0.5
486,MetaDrive-test-leaky,52,280.6634747379828,488884,1337,9228.131494998932,42.69397735595703,,9.414223670959473,0.5
487,MetaDrive-test-leaky,52,279.921561112701,489481,1338,9238.099449157715,47.690467834472656,-47.989662170410156,8.639642715454102,0.5
488,MetaDrive-test-leaky,52,279.61364524553983,490151,1339,9250.32075381279,44.67770767211914,-45.08163070678711,6.819157600402832,0.5
489,MetaDrive-test-leaky,52,277.05001105362265,491776,1342,9280.9000518322,46.77379608154297,,9.911836624145508,0.49
490,MetaDrive-test-leaky,52,279.8634572915655,492675,1343,9297.25920510292,45.463233947753906,-45.54966354370117,7.147111892700195,0.5
491,MetaDrive-test-leaky,52,279.4541798063545,493123,1344,9304.409363985062,44.04092788696289,-44.62884521484375,5.981890678405762,0.5
492,MetaDrive-test-leaky,53,277.1452835106299,494086,1347,9321.287352085114,44.09809112548828,,6.251950263977051,0.49
493,MetaDrive-test-leaky,53,279.2475840441591,495001,1348,9339.520254850388,49.41498565673828,-50.080322265625,6.1325225830078125,0.5
494,MetaDrive-test-leaky,53,282.0618620513367,496328,1350,9362.693561077118,43.488826751708984,,7.467439651489258,0.52
495,MetaDrive-test-leaky,53,282.91925592062705,497255,1352,9379.472394943237,43.09442901611328,-44.01569366455078,9.967153549194336,0.52
496,MetaDrive-test-leaky,53,284.16981086166203,498210,1355,9395.80569601059,42.81829071044922,,4.906859397888184,0.52
497,MetaDrive-test-leaky,53,285.2557480680197,499550,1357,9421.574674844742,47.71593475341797,,8.181722640991211,0.52
