TanmayH/CS269-RL-project-code/MetaDrive-Gen-LaneWidthNum-v0/td3/progress.csv
,log_dir,frame_per_second,episode_reward,total_steps,total_episodes,total_time,target_q,actor_loss,critic_loss,success_rate
0,MetaDrive-Gen-LaneWidthNum-v0,870,12.270771126102662,2001,2,2.2981908321380615,,,,0.0
1,MetaDrive-Gen-LaneWidthNum-v0,698,12.219276388117576,3002,3,4.296767950057983,,,,0.0
2,MetaDrive-Gen-LaneWidthNum-v0,702,11.46365637946493,4003,4,5.696737766265869,,,,0.0
3,MetaDrive-Gen-LaneWidthNum-v0,699,11.632989346882855,5004,5,7.150227785110474,,,,0.0
4,MetaDrive-Gen-LaneWidthNum-v0,718,11.527540871678156,6005,6,8.361856698989868,,,,0.0
5,MetaDrive-Gen-LaneWidthNum-v0,709,11.829509746677434,7006,7,9.881155729293823,,,,0.0
6,MetaDrive-Gen-LaneWidthNum-v0,702,10.66528596783323,8864,9,12.615231990814209,,,,0.0
7,MetaDrive-Gen-LaneWidthNum-v0,720,10.668583609285992,9865,10,13.683729887008667,,,,0.0
8,MetaDrive-Gen-LaneWidthNum-v0,668,9.627654906112795,10038,11,15.025998830795288,-0.010449203662574291,,0.1963498592376709,0.0
9,MetaDrive-Gen-LaneWidthNum-v0,258,2.534489797472649,11004,46,42.560643672943115,0.11004388332366943,,0.011694022454321384,0.0
10,MetaDrive-Gen-LaneWidthNum-v0,168,1.958644109310042,12023,81,71.33674168586731,0.1734784096479416,-0.13438303768634796,0.04247184842824936,0.0
11,MetaDrive-Gen-LaneWidthNum-v0,132,3.9172477963520476,13003,104,98.27668356895447,0.2707081139087677,-0.28580594062805176,0.2901707589626312,0.0
12,MetaDrive-Gen-LaneWidthNum-v0,111,6.580965063282126,14036,128,125.65300464630127,0.5209138989448547,,0.6262840628623962,0.0
13,MetaDrive-Gen-LaneWidthNum-v0,98,11.88042269582381,15036,147,152.29576659202576,0.8135358095169067,,0.7653065919876099,0.0
14,MetaDrive-Gen-LaneWidthNum-v0,89,16.970192323106236,16042,165,178.7082438468933,1.313114047050476,,0.18220633268356323,0.0
15,MetaDrive-Gen-LaneWidthNum-v0,83,20.433291787011573,17027,184,204.32305097579956,1.6870384216308594,-1.821385145187378,1.8041319847106934,0.0
16,MetaDrive-Gen-LaneWidthNum-v0,78,21.09556620529181,18007,205,230.24549984931946,2.43394136428833,-2.529395580291748,0.8684356212615967,0.0
17,MetaDrive-Gen-LaneWidthNum-v0,73,22.506433128528606,19023,225,257.160356760025,2.7571091651916504,-3.1016898155212402,2.0846903324127197,0.0
18,MetaDrive-Gen-LaneWidthNum-v0,70,23.485873057302587,20009,242,283.9961316585541,3.640153408050537,-3.7216737270355225,1.7803486585617065,0.0
19,MetaDrive-Gen-LaneWidthNum-v0,67,24.72597233976679,21056,258,311.4651577472687,4.415426254272461,,3.202383041381836,0.0
20,MetaDrive-Gen-LaneWidthNum-v0,65,28.095220161568125,22003,271,336.67464089393616,4.947761058807373,-5.033082008361816,1.4396494626998901,0.0
21,MetaDrive-Gen-LaneWidthNum-v0,63,33.85106544691456,23093,284,365.00611877441406,5.5759687423706055,-5.617151737213135,6.386296272277832,0.0
22,MetaDrive-Gen-LaneWidthNum-v0,61,40.06675283796756,24007,295,388.57563281059265,6.56227970123291,-6.576875686645508,1.4198697805404663,0.0
23,MetaDrive-Gen-LaneWidthNum-v0,60,47.72291143539354,25046,305,416.16573882102966,7.211053371429443,,6.251472473144531,0.0
24,MetaDrive-Gen-LaneWidthNum-v0,58,55.94761032300942,26109,316,443.08613300323486,8.323257446289062,-8.41170883178711,2.4916536808013916,0.01
25,MetaDrive-Gen-LaneWidthNum-v0,57,62.52206450587447,27070,326,467.3557686805725,8.78355884552002,,7.928055286407471,0.01
26,MetaDrive-Gen-LaneWidthNum-v0,56,67.47533269143449,28086,337,493.75538992881775,9.61013126373291,,3.765911340713501,0.01
27,MetaDrive-Gen-LaneWidthNum-v0,56,74.2639039003918,29025,346,518.0379776954651,10.782758712768555,-10.73633098602295,0.8934430480003357,0.01
28,MetaDrive-Gen-LaneWidthNum-v0,55,79.97282038237304,30080,357,544.823032617569,12.081384658813477,,3.1194639205932617,0.01
29,MetaDrive-Gen-LaneWidthNum-v0,54,83.67344630728232,31043,368,569.5130486488342,12.661005020141602,-12.482919692993164,4.637019157409668,0.01
30,MetaDrive-Gen-LaneWidthNum-v0,53,84.41727726257535,32065,379,595.7352199554443,13.301523208618164,-13.587074279785156,10.47205638885498,0.01
31,MetaDrive-Gen-LaneWidthNum-v0,53,88.01294410155435,33124,390,622.9172139167786,14.695035934448242,,12.318571090698242,0.01
32,MetaDrive-Gen-LaneWidthNum-v0,52,91.36736698604112,34303,399,653.101756811142,15.566076278686523,-16.325763702392578,13.137735366821289,0.02
33,MetaDrive-Gen-LaneWidthNum-v0,52,93.69571845988509,35084,403,672.9207637310028,16.115524291992188,,8.774290084838867,0.03
34,MetaDrive-Gen-LaneWidthNum-v0,51,99.6653525952457,36026,407,696.3045687675476,16.10516357421875,,12.147336959838867,0.05
35,MetaDrive-Gen-LaneWidthNum-v0,51,102.72806166644382,37071,412,723.320063829422,17.327491760253906,-17.166229248046875,11.678096771240234,0.05
36,MetaDrive-Gen-LaneWidthNum-v0,50,106.69180791497584,38342,419,756.2938008308411,19.46173858642578,,7.7815093994140625,0.04
37,MetaDrive-Gen-LaneWidthNum-v0,50,109.15172420221752,39108,424,775.3209836483002,19.417640686035156,,17.933897018432617,0.04
38,MetaDrive-Gen-LaneWidthNum-v0,49,115.4970193333932,40542,430,812.4654688835144,21.179771423339844,,19.565555572509766,0.06
39,MetaDrive-Gen-LaneWidthNum-v0,49,120.09670734686745,41506,434,837.2891697883606,22.25929832458496,,8.169063568115234,0.06
40,MetaDrive-Gen-LaneWidthNum-v0,49,125.75473214866615,42383,437,859.7064337730408,22.090065002441406,-22.134355545043945,22.58185577392578,0.08
41,MetaDrive-Gen-LaneWidthNum-v0,49,128.38842378255882,43054,439,877.1245546340942,22.316513061523438,,8.37027359008789,0.08
42,MetaDrive-Gen-LaneWidthNum-v0,48,130.12586952925503,44076,445,903.1607139110565,21.544662475585938,,18.260360717773438,0.09
43,MetaDrive-Gen-LaneWidthNum-v0,48,136.59068190539784,45092,447,929.8441338539124,24.300859451293945,,17.4914608001709,0.1
44,MetaDrive-Gen-LaneWidthNum-v0,48,143.0191032882841,46357,450,963.5957407951355,25.448951721191406,-25.98969268798828,17.705753326416016,0.12
45,MetaDrive-Gen-LaneWidthNum-v0,47,146.19125337319932,47033,454,980.3467326164246,25.442920684814453,-26.07744026184082,20.280956268310547,0.12
46,MetaDrive-Gen-LaneWidthNum-v0,47,151.10409871350333,48168,460,1009.4895255565643,25.282344818115234,,14.893617630004883,0.13
47,MetaDrive-Gen-LaneWidthNum-v0,47,156.992680351491,49265,463,1037.8580148220062,25.815120697021484,-26.29920196533203,15.433649063110352,0.15
48,MetaDrive-Gen-LaneWidthNum-v0,47,161.50427214127055,50112,467,1059.3351275920868,26.343990325927734,,24.231952667236328,0.16
49,MetaDrive-Gen-LaneWidthNum-v0,47,165.61173784600356,51177,473,1086.2638726234436,27.959867477416992,-28.502731323242188,16.186805725097656,0.18
50,MetaDrive-Gen-LaneWidthNum-v0,46,171.17690752066218,52165,476,1111.8970036506653,28.376930236816406,-28.623655319213867,6.378429889678955,0.19
51,MetaDrive-Gen-LaneWidthNum-v0,46,175.13791052080313,53081,482,1135.236657857895,29.015480041503906,-29.73569679260254,7.621441841125488,0.19
52,MetaDrive-Gen-LaneWidthNum-v0,46,181.25225594729002,54140,486,1161.8825075626373,29.88983154296875,,41.913536071777344,0.21
53,MetaDrive-Gen-LaneWidthNum-v0,46,184.0164197832709,55030,490,1184.8929228782654,29.341882705688477,,6.37782096862793,0.22
54,MetaDrive-Gen-LaneWidthNum-v0,46,192.88716083492926,56319,494,1217.6165099143982,30.36652183532715,-30.90340805053711,16.474197387695312,0.25
55,MetaDrive-Gen-LaneWidthNum-v0,46,196.4385603394161,57071,497,1236.2579238414764,33.02386474609375,-33.292903900146484,14.601436614990234,0.26
56,MetaDrive-Gen-LaneWidthNum-v0,45,202.1210763661097,58271,500,1267.215987920761,32.20945739746094,-32.89616775512695,16.77734375,0.28
57,MetaDrive-Gen-LaneWidthNum-v0,45,200.00769819940822,59029,504,1286.6300387382507,33.26664352416992,-33.79288864135742,19.958599090576172,0.26
58,MetaDrive-Gen-LaneWidthNum-v0,45,202.19109225564225,60062,509,1312.0633318424225,34.36808395385742,,17.340045928955078,0.27
59,MetaDrive-Gen-LaneWidthNum-v0,45,207.41120427805333,61347,513,1344.7987177371979,35.15144348144531,-36.09254837036133,10.482770919799805,0.29
60,MetaDrive-Gen-LaneWidthNum-v0,45,211.40744362381534,62273,516,1368.686934709549,34.49658966064453,-35.827186584472656,15.919381141662598,0.3
61,MetaDrive-Gen-LaneWidthNum-v0,45,211.48658684847166,63050,519,1388.0759558677673,36.62968826293945,,14.745809555053711,0.32
62,MetaDrive-Gen-LaneWidthNum-v0,45,212.58614577268796,64010,524,1412.1312499046326,36.114559173583984,,13.999063491821289,0.33
63,MetaDrive-Gen-LaneWidthNum-v0,45,216.60090568918517,65025,528,1438.5620679855347,37.34821319580078,-37.672767639160156,5.69482421875,0.34
64,MetaDrive-Gen-LaneWidthNum-v0,45,217.83724359057197,66191,532,1467.6349897384644,38.503684997558594,-38.88129425048828,7.612544536590576,0.36
65,MetaDrive-Gen-LaneWidthNum-v0,44,221.29445200169678,67364,535,1497.6265196800232,39.00327682495117,,26.573246002197266,0.39
66,MetaDrive-Gen-LaneWidthNum-v0,44,217.86280060770852,68417,538,1524.2089867591858,38.284610748291016,-39.47932815551758,31.027172088623047,0.39
67,MetaDrive-Gen-LaneWidthNum-v0,44,222.27922999454532,69600,540,1555.5045146942139,40.56918716430664,,4.877538681030273,0.4
68,MetaDrive-Gen-LaneWidthNum-v0,44,225.10711172435262,70150,541,1569.695613861084,38.900577545166016,,24.136825561523438,0.41
69,MetaDrive-Gen-LaneWidthNum-v0,44,233.90840022661345,71560,544,1606.6345837116241,40.306060791015625,,24.666654586791992,0.44
70,MetaDrive-Gen-LaneWidthNum-v0,44,237.2740859958195,72058,545,1619.5118837356567,40.129539489746094,,6.027081489562988,0.45
71,MetaDrive-Gen-LaneWidthNum-v0,44,232.7823534346632,73168,549,1647.6884548664093,40.51124572753906,,26.227176666259766,0.45
72,MetaDrive-Gen-LaneWidthNum-v0,44,236.7440631056708,74451,552,1680.7355756759644,40.639625549316406,-42.15999984741211,14.331052780151367,0.46
73,MetaDrive-Gen-LaneWidthNum-v0,44,238.0288549074049,75115,554,1697.561863899231,41.63047409057617,-42.15742874145508,15.809036254882812,0.46
74,MetaDrive-Gen-LaneWidthNum-v0,44,241.9172201220791,76187,558,1725.1056678295135,41.2044677734375,-42.41028594970703,7.8143510818481445,0.47
75,MetaDrive-Gen-LaneWidthNum-v0,44,244.59863796585705,77041,560,1747.6504027843475,41.073455810546875,-41.862369537353516,11.33283805847168,0.48
76,MetaDrive-Gen-LaneWidthNum-v0,43,244.78029197837054,78368,563,1781.5042207241058,43.715293884277344,,5.552573204040527,0.49
77,MetaDrive-Gen-LaneWidthNum-v0,43,246.40233642529859,79189,566,1802.9572806358337,42.62554168701172,-44.08146286010742,23.18314552307129,0.5
78,MetaDrive-Gen-LaneWidthNum-v0,43,250.55250135193802,80059,569,1825.2687537670135,42.17555236816406,-42.19496536254883,37.00804901123047,0.52
79,MetaDrive-Gen-LaneWidthNum-v0,43,256.5900147863914,81804,572,1871.5877847671509,43.04656982421875,,39.341854095458984,0.52
80,MetaDrive-Gen-LaneWidthNum-v0,43,251.5240834178928,82237,575,1882.704107761383,43.50412368774414,-43.6497917175293,14.7437162399292,0.52
81,MetaDrive-Gen-LaneWidthNum-v0,43,252.68733864924576,83279,578,1909.601934671402,44.102657318115234,-44.666229248046875,8.325159072875977,0.53
82,MetaDrive-Gen-LaneWidthNum-v0,43,255.94352239131803,84081,581,1930.2969946861267,44.86897659301758,-44.96676254272461,28.60175895690918,0.54
83,MetaDrive-Gen-LaneWidthNum-v0,43,260.5509873315156,85451,584,1965.0762796401978,43.3823356628418,-44.237586975097656,22.80113983154297,0.56
84,MetaDrive-Gen-LaneWidthNum-v0,43,260.98623447833694,86005,586,1978.8894038200378,44.35429000854492,-45.395328521728516,49.022865295410156,0.56
85,MetaDrive-Gen-LaneWidthNum-v0,43,265.1467827041881,87386,590,2013.243055820465,43.94630813598633,,29.78696060180664,0.58
86,MetaDrive-Gen-LaneWidthNum-v0,43,267.3214155909425,88233,592,2034.5388627052307,44.52882385253906,-45.39921569824219,8.36668586730957,0.58
87,MetaDrive-Gen-LaneWidthNum-v0,43,266.68896480979004,89119,594,2056.580783843994,45.61017608642578,-45.91729736328125,13.907854080200195,0.58
88,MetaDrive-Gen-LaneWidthNum-v0,43,268.3624328049377,90292,597,2086.5531368255615,44.470611572265625,,26.433860778808594,0.59
89,MetaDrive-Gen-LaneWidthNum-v0,43,270.3295301946327,91370,599,2114.3080508708954,45.024932861328125,,7.29169225692749,0.59
90,MetaDrive-Gen-LaneWidthNum-v0,43,268.02954855205456,92001,601,2130.182596683502,45.44289016723633,-45.958656311035156,19.653841018676758,0.59
91,MetaDrive-Gen-LaneWidthNum-v0,43,272.82461123898264,93074,604,2157.3271737098694,46.75200653076172,,20.33160400390625,0.61
92,MetaDrive-Gen-LaneWidthNum-v0,43,280.7828538536481,94492,607,2194.2456686496735,45.16827392578125,,21.000368118286133,0.63
93,MetaDrive-Gen-LaneWidthNum-v0,43,279.7094516919617,95346,610,2216.084593772888,45.7231559753418,,6.638062953948975,0.64
94,MetaDrive-Gen-LaneWidthNum-v0,42,280.26643624447485,96180,612,2237.1971819400787,46.09136962890625,,42.02099609375,0.65
95,MetaDrive-Gen-LaneWidthNum-v0,42,282.54660900851593,97140,614,2261.7223477363586,46.538795471191406,,10.990718841552734,0.65
96,MetaDrive-Gen-LaneWidthNum-v0,42,284.92929946951875,98159,616,2289.8031396865845,45.853065490722656,-47.258487701416016,38.194976806640625,0.66
97,MetaDrive-Gen-LaneWidthNum-v0,42,285.23702533429537,99010,619,2311.890113592148,47.30385971069336,,12.636940002441406,0.66
98,MetaDrive-Gen-LaneWidthNum-v0,42,290.4266749856059,100165,622,2342.186514854431,46.99530792236328,-47.64360427856445,37.942718505859375,0.68
99,MetaDrive-Gen-LaneWidthNum-v0,42,289.1595915469637,101184,626,2368.6510677337646,47.5521354675293,,27.715999603271484,0.68
100,MetaDrive-Gen-LaneWidthNum-v0,42,291.00943532677195,102082,629,2391.462677717209,46.63026809692383,,25.75444984436035,0.68
101,MetaDrive-Gen-LaneWidthNum-v0,42,293.1404203330987,103439,632,2427.159772872925,47.904396057128906,-48.48396682739258,12.059545516967773,0.67
102,MetaDrive-Gen-LaneWidthNum-v0,42,294.240895445158,104509,634,2455.2350368499756,47.161827087402344,-47.91272735595703,8.728777885437012,0.67
103,MetaDrive-Gen-LaneWidthNum-v0,42,294.20519646514254,105410,637,2478.239615917206,46.78276062011719,,36.126853942871094,0.66
104,MetaDrive-Gen-LaneWidthNum-v0,42,289.0580612061383,106431,640,2504.0147268772125,49.00779342651367,-49.67047882080078,13.976200103759766,0.65
105,MetaDrive-Gen-LaneWidthNum-v0,42,278.9554833365724,107179,644,2523.09081864357,46.65883255004883,-47.79100799560547,56.427024841308594,0.62
106,MetaDrive-Gen-LaneWidthNum-v0,42,280.1762098371897,108359,647,2553.9230587482452,46.5964241027832,-46.876033782958984,12.392163276672363,0.62
107,MetaDrive-Gen-LaneWidthNum-v0,42,281.8296524711194,109070,649,2571.8418827056885,48.052001953125,,49.122413635253906,0.63
108,MetaDrive-Gen-LaneWidthNum-v0,42,281.3374216647941,110182,652,2600.7972049713135,49.19518280029297,,5.802740097045898,0.63
109,MetaDrive-Gen-LaneWidthNum-v0,42,282.5987016546296,111258,655,2628.5799028873444,47.007633209228516,,30.521869659423828,0.64
110,MetaDrive-Gen-LaneWidthNum-v0,42,284.9120902107117,112245,657,2654.996638774872,47.81074142456055,-48.23051834106445,25.20107650756836,0.65
111,MetaDrive-Gen-LaneWidthNum-v0,42,283.39480150467216,113069,659,2676.3265879154205,48.9750862121582,-49.15664291381836,32.912261962890625,0.65
112,MetaDrive-Gen-LaneWidthNum-v0,42,284.49768807760086,114455,664,2711.3510546684265,48.64891052246094,-48.734291076660156,10.517242431640625,0.65
113,MetaDrive-Gen-LaneWidthNum-v0,42,284.8388111556147,115012,665,2725.430140733719,49.19068908691406,,7.431516170501709,0.65
114,MetaDrive-Gen-LaneWidthNum-v0,42,281.54620117451117,116111,670,2753.6558997631073,49.13491439819336,-49.41726303100586,29.381011962890625,0.63
115,MetaDrive-Gen-LaneWidthNum-v0,42,282.71094213994917,117313,672,2785.6802537441254,48.39815139770508,-48.84553527832031,27.3306884765625,0.64
116,MetaDrive-Gen-LaneWidthNum-v0,42,289.19508138538936,118252,674,2809.958364725113,48.90943145751953,,8.134838104248047,0.66
117,MetaDrive-Gen-LaneWidthNum-v0,42,284.53207999211287,119447,679,2840.680837869644,48.206085205078125,-49.281837463378906,20.923608779907227,0.64
118,MetaDrive-Gen-LaneWidthNum-v0,42,287.86040600286475,120161,681,2858.8918907642365,49.5557975769043,-50.44515609741211,6.616031646728516,0.65
119,MetaDrive-Gen-LaneWidthNum-v0,41,282.34761509530205,121392,686,2890.2947447299957,49.3191032409668,,19.700714111328125,0.63
120,MetaDrive-Gen-LaneWidthNum-v0,41,283.4052207076982,122024,688,2906.6290576457977,49.652801513671875,,14.71755599975586,0.64
121,MetaDrive-Gen-LaneWidthNum-v0,41,274.2227062962504,123530,694,2945.9612667560577,50.71630859375,,12.158361434936523,0.6
122,MetaDrive-Gen-LaneWidthNum-v0,41,273.53303049149326,124058,696,2959.2400147914886,49.22166061401367,,31.14529800415039,0.6
123,MetaDrive-Gen-LaneWidthNum-v0,41,273.4358617446613,125409,699,2994.8104677200317,49.39274597167969,-50.002952575683594,11.12578010559082,0.6
124,MetaDrive-Gen-LaneWidthNum-v0,41,272.88280812826605,126056,701,3011.8835546970367,50.694740295410156,,14.153314590454102,0.6
125,MetaDrive-Gen-LaneWidthNum-v0,41,273.01932290770685,127114,704,3039.4482696056366,50.23548126220703,,17.272083282470703,0.6
126,MetaDrive-Gen-LaneWidthNum-v0,41,266.6172972120331,128092,708,3064.27982378006,49.73262405395508,,8.923372268676758,0.58
127,MetaDrive-Gen-LaneWidthNum-v0,41,266.0702264130204,129041,711,3088.73037481308,49.763214111328125,-50.643157958984375,8.645678520202637,0.58
128,MetaDrive-Gen-LaneWidthNum-v0,41,259.2503549335526,130013,715,3114.171199798584,48.856605529785156,-49.001747131347656,26.07658576965332,0.56
129,MetaDrive-Gen-LaneWidthNum-v0,41,255.64888061008048,131332,720,3148.212503671646,48.97642135620117,,28.9190673828125,0.55
130,MetaDrive-Gen-LaneWidthNum-v0,41,254.64564520317927,132024,722,3166.2602167129517,49.98909378051758,,18.589305877685547,0.55
131,MetaDrive-Gen-LaneWidthNum-v0,41,254.4861084415011,133090,727,3194.445164680481,50.883975982666016,,9.110042572021484,0.54
132,MetaDrive-Gen-LaneWidthNum-v0,41,255.14358903154778,134048,730,3219.1015968322754,49.000999450683594,,19.454818725585938,0.55
133,MetaDrive-Gen-LaneWidthNum-v0,41,252.43977964620908,135229,733,3250.6282057762146,48.926666259765625,-50.510189056396484,16.04144287109375,0.54
134,MetaDrive-Gen-LaneWidthNum-v0,41,254.6248167101354,136058,735,3271.6996836662292,50.044193267822266,,13.990522384643555,0.55
135,MetaDrive-Gen-LaneWidthNum-v0,41,255.84077668637616,137193,738,3300.530707836151,48.952674865722656,-49.256473541259766,16.912548065185547,0.56
136,MetaDrive-Gen-LaneWidthNum-v0,41,258.94627959539736,138351,741,3329.9806427955627,48.46429443359375,-49.20713806152344,41.20929718017578,0.57
137,MetaDrive-Gen-LaneWidthNum-v0,41,260.3440229677271,139082,744,3348.4592208862305,49.732601165771484,,53.52125549316406,0.57
138,MetaDrive-Gen-LaneWidthNum-v0,41,259.1098311843814,140226,747,3378.4779646396637,49.271942138671875,,25.975940704345703,0.57
139,MetaDrive-Gen-LaneWidthNum-v0,41,261.1039923113743,141084,749,3401.078352689743,49.8073844909668,,13.84091567993164,0.57
140,MetaDrive-Gen-LaneWidthNum-v0,41,254.2665938502788,142063,754,3426.873906850815,51.36339569091797,-52.6078987121582,15.93292236328125,0.56
141,MetaDrive-Gen-LaneWidthNum-v0,41,245.24373336858025,143351,760,3460.5734326839447,50.42357635498047,-52.05418395996094,21.18592071533203,0.53
142,MetaDrive-Gen-LaneWidthNum-v0,41,242.4068934592823,144003,763,3477.7947556972504,50.683712005615234,-51.95073699951172,29.88348388671875,0.51
143,MetaDrive-Gen-LaneWidthNum-v0,41,236.6290723244157,145066,769,3504.8685808181763,49.768287658691406,,11.113041877746582,0.48
144,MetaDrive-Gen-LaneWidthNum-v0,41,235.56294126947532,146370,772,3538.361365556717,50.23740768432617,,31.33465576171875,0.49
145,MetaDrive-Gen-LaneWidthNum-v0,41,231.00578617744802,147058,775,3556.1559207439423,52.716129302978516,,10.067099571228027,0.48
146,MetaDrive-Gen-LaneWidthNum-v0,41,233.71131133305232,148380,779,3591.2714428901672,52.20604705810547,,32.17417907714844,0.48
147,MetaDrive-Gen-LaneWidthNum-v0,41,234.25960234550845,149412,782,3619.279861688614,51.40007781982422,,17.169328689575195,0.47
148,MetaDrive-Gen-LaneWidthNum-v0,41,237.35954468728522,150274,784,3641.6909368038177,51.01075744628906,,9.119817733764648,0.48
149,MetaDrive-Gen-LaneWidthNum-v0,41,240.19873605053309,151162,786,3664.131600856781,48.816463470458984,,7.6548871994018555,0.49
150,MetaDrive-Gen-LaneWidthNum-v0,41,241.76943518948372,152058,788,3688.3025617599487,50.78348922729492,,39.98590087890625,0.49
151,MetaDrive-Gen-LaneWidthNum-v0,41,244.27825696041975,153102,792,3715.14159989357,49.56577682495117,,16.583980560302734,0.51
152,MetaDrive-Gen-LaneWidthNum-v0,41,241.39640018048797,154051,796,3739.9899246692657,50.81239700317383,-50.81634521484375,28.1370792388916,0.51
153,MetaDrive-Gen-LaneWidthNum-v0,41,238.70983500914744,155130,799,3767.779661655426,51.893428802490234,,15.110977172851562,0.5
154,MetaDrive-Gen-LaneWidthNum-v0,41,240.7031153895028,156049,802,3791.1585495471954,49.691673278808594,-50.85858917236328,15.678787231445312,0.51
155,MetaDrive-Gen-LaneWidthNum-v0,41,238.77739131940106,157114,806,3818.8302206993103,52.05443572998047,,31.527877807617188,0.5
156,MetaDrive-Gen-LaneWidthNum-v0,41,238.45738316297323,158012,809,3841.873227596283,50.52233123779297,,11.732429504394531,0.5
157,MetaDrive-Gen-LaneWidthNum-v0,41,237.01623489056354,159210,815,3872.9176688194275,52.00975799560547,,27.333890914916992,0.5
158,MetaDrive-Gen-LaneWidthNum-v0,41,238.822371734544,160342,818,3902.4719018936157,50.86811447143555,,42.431419372558594,0.5
159,MetaDrive-Gen-LaneWidthNum-v0,41,242.85818815006925,161357,820,3929.2467856407166,52.288516998291016,-52.9913330078125,12.423185348510742,0.51
160,MetaDrive-Gen-LaneWidthNum-v0,41,244.77559737329221,162378,823,3955.6542778015137,51.68754577636719,,16.798137664794922,0.51
161,MetaDrive-Gen-LaneWidthNum-v0,41,250.2802399371468,163315,825,3980.5871608257294,51.99690246582031,-51.917789459228516,14.95644760131836,0.53
162,MetaDrive-Gen-LaneWidthNum-v0,41,249.8680424858824,164338,828,4007.4657368659973,51.955448150634766,,13.350236892700195,0.53
163,MetaDrive-Gen-LaneWidthNum-v0,40,250.84406427535043,165127,830,4027.771619796753,53.0161018371582,-53.3080940246582,12.084220886230469,0.54
164,MetaDrive-Gen-LaneWidthNum-v0,40,249.17639351275903,166595,834,4067.137613773346,53.189170837402344,-54.63747787475586,7.787702560424805,0.53
165,MetaDrive-Gen-LaneWidthNum-v0,40,247.90431556802375,167068,835,4079.7991757392883,52.72479248046875,,28.31867218017578,0.52
166,MetaDrive-Gen-LaneWidthNum-v0,40,248.89718575438704,168520,838,4119.256792783737,51.771419525146484,,8.711408615112305,0.51
167,MetaDrive-Gen-LaneWidthNum-v0,40,246.9845571916941,169037,840,4133.557575941086,53.221248626708984,-52.94343566894531,20.838394165039062,0.51
168,MetaDrive-Gen-LaneWidthNum-v0,40,252.2695196273574,170453,843,4172.329462766647,52.47755813598633,-53.054752349853516,12.984308242797852,0.53
169,MetaDrive-Gen-LaneWidthNum-v0,40,253.54361493951635,171061,845,4188.500378847122,52.85642623901367,-52.37335205078125,33.00273132324219,0.53
170,MetaDrive-Gen-LaneWidthNum-v0,40,247.580205859732,172400,849,4224.7049016952515,52.90492630004883,,15.762748718261719,0.51
171,MetaDrive-Gen-LaneWidthNum-v0,40,249.3075600620801,173371,851,4251.557725906372,54.10272216796875,-54.9117546081543,33.73168182373047,0.51
172,MetaDrive-Gen-LaneWidthNum-v0,40,254.31549812957925,174165,854,4272.549138784409,53.35157012939453,-53.50075912475586,10.39283561706543,0.53
173,MetaDrive-Gen-LaneWidthNum-v0,40,259.7075059936672,175039,857,4295.285146713257,52.42079544067383,-52.93085479736328,12.06968879699707,0.54
174,MetaDrive-Gen-LaneWidthNum-v0,40,260.38874329720034,176059,860,4322.129909753799,52.12019348144531,-52.7908935546875,14.018346786499023,0.54
175,MetaDrive-Gen-LaneWidthNum-v0,40,265.3470576232965,177386,864,4357.285305738449,53.176727294921875,,16.224807739257812,0.56
176,MetaDrive-Gen-LaneWidthNum-v0,40,268.6749012324187,178311,867,4383.0690948963165,54.577659606933594,-55.39089584350586,22.643062591552734,0.56
177,MetaDrive-Gen-LaneWidthNum-v0,40,270.7715439891251,179236,869,4408.742310762405,52.32298278808594,,25.78107452392578,0.58
178,MetaDrive-Gen-LaneWidthNum-v0,40,270.19255631620996,180056,871,4430.881398677826,50.60673141479492,,26.375904083251953,0.58
179,MetaDrive-Gen-LaneWidthNum-v0,40,269.5054681846841,181022,873,4456.815598726273,54.27916717529297,,17.506357192993164,0.58
180,MetaDrive-Gen-LaneWidthNum-v0,40,274.4555398890923,182259,877,4490.983192682266,52.76801681518555,-52.4274787902832,9.35036849975586,0.59
181,MetaDrive-Gen-LaneWidthNum-v0,40,273.88261408939474,183201,879,4516.743550777435,52.88011932373047,-52.58606719970703,12.772286415100098,0.59
182,MetaDrive-Gen-LaneWidthNum-v0,40,275.5358625186155,184419,882,4550.4517686367035,53.33724594116211,-53.52950668334961,8.43673324584961,0.61
183,MetaDrive-Gen-LaneWidthNum-v0,40,271.8347964078572,185003,884,4566.0569858551025,52.805137634277344,-52.953128814697266,12.099790573120117,0.6
184,MetaDrive-Gen-LaneWidthNum-v0,40,266.5863181821637,186179,888,4596.7772216796875,51.0882453918457,-51.473777770996094,9.14539909362793,0.59
185,MetaDrive-Gen-LaneWidthNum-v0,40,264.9235754456375,187094,892,4620.828589677811,53.03240203857422,,25.717178344726562,0.59
186,MetaDrive-Gen-LaneWidthNum-v0,40,270.51965370872153,188383,895,4655.315300703049,52.374961853027344,-53.28643798828125,32.81195831298828,0.61
187,MetaDrive-Gen-LaneWidthNum-v0,40,268.4302340402463,189153,898,4675.276008844376,53.2763671875,-53.503631591796875,35.52178192138672,0.6
188,MetaDrive-Gen-LaneWidthNum-v0,40,270.6395805542277,190333,901,4706.82079577446,51.28518295288086,-51.77889633178711,22.124549865722656,0.61
189,MetaDrive-Gen-LaneWidthNum-v0,40,271.64998412797786,191005,903,4724.552799940109,53.845069885253906,-55.17975616455078,12.986671447753906,0.61
190,MetaDrive-Gen-LaneWidthNum-v0,40,275.44481994904993,192215,905,4758.2700407505035,52.24561309814453,-53.17253112792969,11.25459098815918,0.62
191,MetaDrive-Gen-LaneWidthNum-v0,40,272.2011675496088,193052,908,4780.715092897415,53.26987838745117,,18.356647491455078,0.6
192,MetaDrive-Gen-LaneWidthNum-v0,40,278.78120198320653,194037,910,4806.6819088459015,53.039756774902344,-53.29293441772461,16.071365356445312,0.61
193,MetaDrive-Gen-LaneWidthNum-v0,40,284.26722248935016,195341,913,4841.462120771408,51.52533721923828,-51.66667175292969,14.82817268371582,0.63
194,MetaDrive-Gen-LaneWidthNum-v0,40,285.9805732372815,196123,915,4861.599492788315,51.54014205932617,-52.85316467285156,15.719892501831055,0.64
195,MetaDrive-Gen-LaneWidthNum-v0,40,285.9988830258865,197185,918,4890.62113571167,52.53285598754883,-52.76792907714844,17.565128326416016,0.63
196,MetaDrive-Gen-LaneWidthNum-v0,40,286.52397160029733,198234,920,4919.677756786346,53.711910247802734,,19.661579132080078,0.63
197,MetaDrive-Gen-LaneWidthNum-v0,40,283.28875631054984,199310,924,4949.214755773544,53.103843688964844,,26.5499324798584,0.61
198,MetaDrive-Gen-LaneWidthNum-v0,40,276.405573327824,200108,928,4971.2685968875885,53.71072006225586,,14.006183624267578,0.59
199,MetaDrive-Gen-LaneWidthNum-v0,40,277.08131051298324,201035,930,4996.352382898331,53.166988372802734,-53.25917053222656,9.641530990600586,0.59
200,MetaDrive-Gen-LaneWidthNum-v0,40,280.58115700848276,202023,932,5023.788567781448,52.91969299316406,-53.176597595214844,9.521003723144531,0.6
201,MetaDrive-Gen-LaneWidthNum-v0,40,281.9425606547973,203300,934,5060.832491636276,51.1452751159668,,15.174066543579102,0.6
202,MetaDrive-Gen-LaneWidthNum-v0,40,283.9125875042815,204236,936,5087.503733634949,52.88617706298828,,12.396126747131348,0.61
203,MetaDrive-Gen-LaneWidthNum-v0,40,278.941870644384,205150,939,5112.793192863464,53.84578323364258,,23.428699493408203,0.59
204,MetaDrive-Gen-LaneWidthNum-v0,40,278.60560498481266,206318,942,5145.421676635742,53.73692321777344,,13.715829849243164,0.59
205,MetaDrive-Gen-LaneWidthNum-v0,40,278.57959619079224,207176,944,5169.366662740707,53.234161376953125,,36.066009521484375,0.58
206,MetaDrive-Gen-LaneWidthNum-v0,40,283.71427749480927,208357,947,5201.28045964241,54.97868347167969,-56.38175582885742,7.677557945251465,0.6
207,MetaDrive-Gen-LaneWidthNum-v0,40,284.47846492613724,209527,949,5234.249128818512,53.01323699951172,-53.32008361816406,12.770702362060547,0.6
208,MetaDrive-Gen-LaneWidthNum-v0,40,286.1797315091168,210571,951,5262.707075834274,52.840614318847656,-52.26979064941406,13.286535263061523,0.61
209,MetaDrive-Gen-LaneWidthNum-v0,40,284.7589512361154,211313,954,5282.588489770889,52.640769958496094,-54.14946746826172,52.2337760925293,0.6
210,MetaDrive-Gen-LaneWidthNum-v0,39,286.3164674645523,212243,956,5308.327244758606,53.5760612487793,-53.94978332519531,8.325028419494629,0.61
211,MetaDrive-Gen-LaneWidthNum-v0,39,288.0646574795964,213316,958,5337.808802604675,53.747474670410156,,14.68832015991211,0.62
212,MetaDrive-Gen-LaneWidthNum-v0,39,289.05156321934885,214392,961,5367.659738779068,51.70957946777344,,18.82927703857422,0.62
213,MetaDrive-Gen-LaneWidthNum-v0,39,288.4217088171749,215046,963,5385.468090772629,53.55953598022461,,6.6911940574646,0.62
214,MetaDrive-Gen-LaneWidthNum-v0,39,290.1850442878909,216235,966,5417.937263727188,51.2846565246582,-51.50088119506836,26.642101287841797,0.64
215,MetaDrive-Gen-LaneWidthNum-v0,39,290.97905027488065,217236,968,5445.661909580231,52.996456146240234,,31.425575256347656,0.65
216,MetaDrive-Gen-LaneWidthNum-v0,39,290.9242097746243,218083,970,5469.027264595032,53.348480224609375,-54.0391731262207,33.19365310668945,0.65
217,MetaDrive-Gen-LaneWidthNum-v0,39,292.5162499734655,219452,973,5505.859659671783,54.14033889770508,,8.690719604492188,0.65
218,MetaDrive-Gen-LaneWidthNum-v0,39,296.4946881112148,220447,975,5533.441837787628,51.71692657470703,-52.64626693725586,13.892849922180176,0.67
219,MetaDrive-Gen-LaneWidthNum-v0,39,295.4637469037588,221111,977,5551.387974739075,52.538841247558594,-52.34879684448242,35.582115173339844,0.66
220,MetaDrive-Gen-LaneWidthNum-v0,39,292.90068401318797,222267,981,5582.855901956558,52.692325592041016,-52.944271087646484,33.3134880065918,0.64
221,MetaDrive-Gen-LaneWidthNum-v0,39,291.6461768078793,223042,983,5603.926055908203,53.605709075927734,,16.388595581054688,0.62
222,MetaDrive-Gen-LaneWidthNum-v0,39,295.4280261700139,224040,985,5631.582840681076,51.77543640136719,,12.546882629394531,0.63
223,MetaDrive-Gen-LaneWidthNum-v0,39,297.8951235198443,225137,988,5662.065714836121,52.06182098388672,-52.282630920410156,7.402087211608887,0.63
224,MetaDrive-Gen-LaneWidthNum-v0,39,299.4084059563587,226058,991,5686.261515617371,52.09853744506836,,19.494335174560547,0.63
225,MetaDrive-Gen-LaneWidthNum-v0,39,302.3478827227747,227555,994,5727.43452167511,51.398948669433594,-52.455772399902344,30.569847106933594,0.64
226,MetaDrive-Gen-LaneWidthNum-v0,39,299.93578458473564,228074,996,5741.276359796524,51.885250091552734,,16.708187103271484,0.63
227,MetaDrive-Gen-LaneWidthNum-v0,39,302.18977851256267,229330,999,5774.650101661682,51.297210693359375,,19.42931365966797,0.65
228,MetaDrive-Gen-LaneWidthNum-v0,39,302.44308361601844,230230,1001,5801.334458827972,51.40204620361328,,19.180034637451172,0.64
229,MetaDrive-Gen-LaneWidthNum-v0,39,299.1826824134488,231077,1004,5824.409268856049,53.78036117553711,-53.770912170410156,21.61886215209961,0.62
230,MetaDrive-Gen-LaneWidthNum-v0,39,297.58116087251125,232232,1007,5856.771107673645,53.936832427978516,,12.619842529296875,0.62
231,MetaDrive-Gen-LaneWidthNum-v0,39,298.6742605376266,233341,1009,5888.183571815491,51.1258659362793,-50.913028717041016,10.294609069824219,0.63
232,MetaDrive-Gen-LaneWidthNum-v0,39,300.2303655866141,234325,1011,5915.815479755402,51.75944137573242,-51.55084991455078,7.319731712341309,0.64
233,MetaDrive-Gen-LaneWidthNum-v0,39,301.06048811406686,235192,1013,5939.420948982239,51.521331787109375,,12.198328018188477,0.64
234,MetaDrive-Gen-LaneWidthNum-v0,39,301.06084519297985,236237,1016,5967.737089633942,52.596065521240234,-53.62325668334961,27.290359497070312,0.64
235,MetaDrive-Gen-LaneWidthNum-v0,39,295.9041057480116,237017,1019,5988.553950786591,53.098731994628906,-53.756736755371094,7.80754280090332,0.63
236,MetaDrive-Gen-LaneWidthNum-v0,39,294.4493306211653,238086,1022,6018.899768829346,51.928802490234375,,11.810821533203125,0.63
237,MetaDrive-Gen-LaneWidthNum-v0,39,297.8781724520588,239005,1025,6043.716495752335,51.09574890136719,-51.617897033691406,12.076484680175781,0.65
238,MetaDrive-Gen-LaneWidthNum-v0,39,304.7095678300923,240379,1028,6080.714823722839,49.52385711669922,-50.35162353515625,11.747804641723633,0.66
239,MetaDrive-Gen-LaneWidthNum-v0,39,301.3923596817832,241319,1031,6105.711921930313,52.79645538330078,-53.41559600830078,20.745681762695312,0.66
240,MetaDrive-Gen-LaneWidthNum-v0,39,302.244602241401,242131,1032,6128.7904279232025,51.195682525634766,-51.85406494140625,12.785609245300293,0.66
241,MetaDrive-Gen-LaneWidthNum-v0,39,302.38394740053144,243249,1034,6159.542523860931,52.365196228027344,-52.94529724121094,9.707120895385742,0.66
242,MetaDrive-Gen-LaneWidthNum-v0,39,303.44550916578123,244389,1037,6189.91659283638,52.099098205566406,-53.299808502197266,11.480921745300293,0.68
243,MetaDrive-Gen-LaneWidthNum-v0,39,302.9615401444273,245496,1040,6220.510840654373,50.949058532714844,,18.607261657714844,0.68
244,MetaDrive-Gen-LaneWidthNum-v0,39,304.6933999346389,246357,1042,6243.7765209674835,50.27869415283203,-50.75767135620117,22.24396514892578,0.69
245,MetaDrive-Gen-LaneWidthNum-v0,39,305.83353016137465,247429,1044,6272.781006813049,50.8135986328125,-51.490535736083984,18.647830963134766,0.7
246,MetaDrive-Gen-LaneWidthNum-v0,39,306.0806341516763,248371,1046,6298.989534854889,51.5472526550293,-52.8361701965332,13.638583183288574,0.71
247,MetaDrive-Gen-LaneWidthNum-v0,39,307.0331816068347,249233,1048,6322.162501811981,50.506004333496094,-50.92182540893555,8.987883567810059,0.71
248,MetaDrive-Gen-LaneWidthNum-v0,39,305.6348095673448,250388,1050,6354.047290802002,52.02839279174805,,9.396930694580078,0.71
249,MetaDrive-Gen-LaneWidthNum-v0,39,305.6596171157171,251054,1051,6373.124025821686,51.65043258666992,,11.746464729309082,0.71
250,MetaDrive-Gen-LaneWidthNum-v0,39,308.60942694089374,252126,1054,6401.905371904373,51.07719421386719,,16.54371452331543,0.72
251,MetaDrive-Gen-LaneWidthNum-v0,39,309.59465328836336,253127,1055,6428.3299908638,51.97553634643555,-52.570865631103516,11.920276641845703,0.71
252,MetaDrive-Gen-LaneWidthNum-v0,39,309.6789578786551,254124,1057,6456.214563846588,51.064212799072266,,25.987375259399414,0.71
253,MetaDrive-Gen-LaneWidthNum-v0,39,311.0239405211833,255394,1060,6490.553272724152,51.1533317565918,,10.784610748291016,0.72
254,MetaDrive-Gen-LaneWidthNum-v0,39,311.64823177802486,256272,1061,6514.39465379715,51.453521728515625,,35.28595733642578,0.72
255,MetaDrive-Gen-LaneWidthNum-v0,39,310.30687784951687,257199,1064,6540.058810710907,50.51853942871094,-51.42005920410156,15.168169021606445,0.72
256,MetaDrive-Gen-LaneWidthNum-v0,39,312.85936838020683,258562,1066,6579.846172809601,50.78588104248047,,16.01702308654785,0.7
257,MetaDrive-Gen-LaneWidthNum-v0,39,310.92157614858314,259937,1068,6615.109808683395,50.287174224853516,-51.163368225097656,23.93474769592285,0.68
258,MetaDrive-Gen-LaneWidthNum-v0,39,310.49449983276975,260767,1069,6636.960411787033,49.670074462890625,-50.44856262207031,11.210371971130371,0.68
259,MetaDrive-Gen-LaneWidthNum-v0,39,312.3418578794925,261461,1070,6656.245839834213,50.48255157470703,-50.642005920410156,11.452348709106445,0.67
260,MetaDrive-Gen-LaneWidthNum-v0,39,311.3377087823047,262358,1071,6679.932903766632,50.43045425415039,,6.843188762664795,0.67
261,MetaDrive-Gen-LaneWidthNum-v0,39,312.83486336681455,263422,1073,6709.31819486618,50.48005676269531,,7.95308780670166,0.67
262,MetaDrive-Gen-LaneWidthNum-v0,39,311.20220598329774,264158,1075,6729.512662649155,50.49770736694336,,16.874916076660156,0.66
263,MetaDrive-Gen-LaneWidthNum-v0,39,313.3894568004617,265482,1079,6766.115291833878,50.84987258911133,,6.736639976501465,0.68
264,MetaDrive-Gen-LaneWidthNum-v0,39,313.79829905534376,266483,1080,6793.424653768539,49.16596603393555,-49.06509780883789,33.107662200927734,0.68
265,MetaDrive-Gen-LaneWidthNum-v0,39,313.31669929264314,267138,1082,6811.343739748001,49.47690963745117,,11.867352485656738,0.68
266,MetaDrive-Gen-LaneWidthNum-v0,39,310.443689305126,268808,1085,6856.008152723312,50.82698059082031,,24.284629821777344,0.67
267,MetaDrive-Gen-LaneWidthNum-v0,39,309.80662515026853,269376,1087,6872.039548873901,50.229393005371094,,11.682533264160156,0.67
268,MetaDrive-Gen-LaneWidthNum-v0,39,308.2794392113238,270588,1090,6905.260484695435,48.90813064575195,,8.38912582397461,0.66
269,MetaDrive-Gen-LaneWidthNum-v0,39,307.0086975427314,271454,1093,6928.709889650345,49.86512756347656,,14.715469360351562,0.65
270,MetaDrive-Gen-LaneWidthNum-v0,39,308.0240789886213,272200,1095,6949.308841943741,46.91651916503906,,25.08206558227539,0.65
271,MetaDrive-Gen-LaneWidthNum-v0,39,311.7660206282067,273334,1097,6980.387019634247,48.52299880981445,,10.740128517150879,0.64
272,MetaDrive-Gen-LaneWidthNum-v0,39,313.81260524034207,274520,1100,7014.154921770096,51.04059600830078,,14.435861587524414,0.63
273,MetaDrive-Gen-LaneWidthNum-v0,39,311.4405223800848,275008,1101,7027.538042783737,49.469207763671875,,8.833802223205566,0.63
274,MetaDrive-Gen-LaneWidthNum-v0,39,315.54129262278695,276333,1104,7064.296010732651,48.80062484741211,-49.00643539428711,8.730589866638184,0.66
275,MetaDrive-Gen-LaneWidthNum-v0,39,318.59101633246,277356,1106,7092.965866804123,49.71446228027344,,8.453544616699219,0.66
276,MetaDrive-Gen-LaneWidthNum-v0,39,318.689822038754,278156,1108,7115.381375789642,50.79833984375,,15.93356990814209,0.66
277,MetaDrive-Gen-LaneWidthNum-v0,39,319.11193973325175,279142,1110,7143.385460853577,49.10580062866211,,16.7572021484375,0.66
278,MetaDrive-Gen-LaneWidthNum-v0,39,315.5095905484402,280337,1114,7176.5541026592255,51.418575286865234,-51.491615295410156,26.08257484436035,0.65
279,MetaDrive-Gen-LaneWidthNum-v0,39,315.644983943862,281164,1116,7198.882878780365,49.2085075378418,,9.825087547302246,0.65
280,MetaDrive-Gen-LaneWidthNum-v0,39,320.25541341494534,282115,1118,7227.131131887436,46.2694206237793,-46.26555252075195,16.230548858642578,0.66
281,MetaDrive-Gen-LaneWidthNum-v0,39,320.96808922534694,283294,1120,7259.780594825745,50.86897659301758,,8.085800170898438,0.66
282,MetaDrive-Gen-LaneWidthNum-v0,39,325.325276503096,284030,1122,7279.4848647117615,48.61204528808594,,24.790630340576172,0.68
283,MetaDrive-Gen-LaneWidthNum-v0,39,328.0490645310095,285402,1125,7317.789996623993,48.79628372192383,,12.00935173034668,0.68
284,MetaDrive-Gen-LaneWidthNum-v0,38,327.2920355812326,286267,1127,7342.205747842789,49.169097900390625,-49.66399383544922,7.905027866363525,0.69
285,MetaDrive-Gen-LaneWidthNum-v0,38,328.9398787253755,287189,1129,7368.0574316978455,48.433380126953125,-48.640533447265625,43.189109802246094,0.7
286,MetaDrive-Gen-LaneWidthNum-v0,38,329.4160874633151,288125,1131,7395.289356708527,50.656532287597656,-51.4129753112793,8.918663024902344,0.69
287,MetaDrive-Gen-LaneWidthNum-v0,38,321.3778641995126,289270,1135,7428.0305688381195,50.224056243896484,,11.169127464294434,0.66
288,MetaDrive-Gen-LaneWidthNum-v0,38,321.8772471658023,290127,1137,7452.686688661575,47.59871292114258,-48.418212890625,14.691168785095215,0.66
289,MetaDrive-Gen-LaneWidthNum-v0,38,318.1688402309201,291299,1141,7485.222133636475,49.22052001953125,-49.49346923828125,30.966169357299805,0.65
290,MetaDrive-Gen-LaneWidthNum-v0,38,318.46569982722605,292090,1143,7507.695392608643,48.60955047607422,,9.57975959777832,0.64
291,MetaDrive-Gen-LaneWidthNum-v0,38,319.10345174102684,293464,1146,7545.798195838928,48.14874267578125,,17.868906021118164,0.64
292,MetaDrive-Gen-LaneWidthNum-v0,38,318.6458557403928,294349,1148,7571.674686908722,49.242549896240234,-49.76984786987305,17.215543746948242,0.64
293,MetaDrive-Gen-LaneWidthNum-v0,38,319.25905580738174,295404,1150,7601.679921865463,48.145782470703125,,7.31866455078125,0.64
294,MetaDrive-Gen-LaneWidthNum-v0,38,316.36232572046754,296226,1153,7624.58279967308,49.08918762207031,,9.596874237060547,0.63
295,MetaDrive-Gen-LaneWidthNum-v0,38,314.11367658056713,297277,1156,7653.610235691071,47.5446891784668,-47.969181060791016,11.235000610351562,0.63
296,MetaDrive-Gen-LaneWidthNum-v0,38,313.3993898461966,298142,1158,7678.604271888733,49.44351577758789,,14.979473114013672,0.62
297,MetaDrive-Gen-LaneWidthNum-v0,38,312.01017658027706,299119,1161,7705.340167760849,49.43854904174805,-50.083709716796875,10.418392181396484,0.62
298,MetaDrive-Gen-LaneWidthNum-v0,38,316.3378158587807,300001,1163,7730.306003808975,48.25102615356445,-48.679908752441406,12.95438003540039,0.63
299,MetaDrive-Gen-LaneWidthNum-v0,38,309.50416823314396,301196,1167,7763.203714609146,48.515625,,24.829219818115234,0.64
300,MetaDrive-Gen-LaneWidthNum-v0,38,304.1158829484375,302374,1171,7796.734721660614,49.252037048339844,,40.198753356933594,0.63
301,MetaDrive-Gen-LaneWidthNum-v0,38,303.4526684526794,303463,1173,7827.86493062973,48.177520751953125,-48.870243072509766,19.261154174804688,0.63
302,MetaDrive-Gen-LaneWidthNum-v0,38,303.4386832739453,304170,1175,7848.073165655136,48.642417907714844,,14.437631607055664,0.64
303,MetaDrive-Gen-LaneWidthNum-v0,38,304.076265648731,305097,1177,7874.5611028671265,47.275550842285156,-46.355953216552734,15.75711441040039,0.64
304,MetaDrive-Gen-LaneWidthNum-v0,38,307.0885541138142,306001,1179,7899.380165815353,49.37181091308594,-50.46348571777344,8.67010498046875,0.65
305,MetaDrive-Gen-LaneWidthNum-v0,38,308.43054330730575,307085,1182,7928.66560792923,48.25676345825195,-47.94477844238281,42.996337890625,0.67
306,MetaDrive-Gen-LaneWidthNum-v0,38,309.613149429524,308236,1185,7961.179327964783,48.93632507324219,,17.552698135375977,0.68
307,MetaDrive-Gen-LaneWidthNum-v0,38,314.23297345366313,309323,1187,7991.23077082634,47.714508056640625,-48.406036376953125,12.606884002685547,0.69
308,MetaDrive-Gen-LaneWidthNum-v0,38,316.1109477715407,310032,1189,8011.690207958221,49.95911407470703,,38.411903381347656,0.69
309,MetaDrive-Gen-LaneWidthNum-v0,38,318.9001873534282,311122,1191,8043.0362067222595,51.08272933959961,,9.469642639160156,0.7
310,MetaDrive-Gen-LaneWidthNum-v0,38,322.58606684302515,312164,1193,8072.3585069179535,47.25299835205078,,12.340852737426758,0.71
311,MetaDrive-Gen-LaneWidthNum-v0,38,318.2694202484786,313054,1196,8096.9816217422485,47.79827117919922,,8.832345962524414,0.72
312,MetaDrive-Gen-LaneWidthNum-v0,38,317.1946462058237,314020,1199,8124.0680866241455,48.06065368652344,,29.839372634887695,0.73
313,MetaDrive-Gen-LaneWidthNum-v0,38,312.99165127395656,315042,1202,8153.100994825363,49.687232971191406,,30.09930419921875,0.72
314,MetaDrive-Gen-LaneWidthNum-v0,38,309.4638217054695,316047,1205,8181.2974326610565,47.931861877441406,-48.792476654052734,11.571638107299805,0.7
315,MetaDrive-Gen-LaneWidthNum-v0,38,308.68159807313384,317274,1208,8216.283030748367,47.616294860839844,,24.671886444091797,0.71
316,MetaDrive-Gen-LaneWidthNum-v0,38,308.21595746325414,318362,1211,8246.701035737991,48.433387756347656,,37.54705810546875,0.71
317,MetaDrive-Gen-LaneWidthNum-v0,38,306.1870829772913,319297,1214,8271.806419849396,45.791168212890625,-45.97663116455078,7.728391170501709,0.71
318,MetaDrive-Gen-LaneWidthNum-v0,38,308.325538972351,320260,1216,8298.985724925995,48.826194763183594,,8.164253234863281,0.71
319,MetaDrive-Gen-LaneWidthNum-v0,38,308.5057974290292,321433,1218,8331.40434885025,49.03480911254883,-49.69047546386719,9.592634201049805,0.71
320,MetaDrive-Gen-LaneWidthNum-v0,38,304.53028080831666,322226,1220,8353.128164768219,46.66923522949219,,7.1235857009887695,0.7
321,MetaDrive-Gen-LaneWidthNum-v0,38,304.35337815453573,323471,1223,8387.068244934082,49.316070556640625,-49.4956169128418,29.237998962402344,0.68
322,MetaDrive-Gen-LaneWidthNum-v0,38,303.7221463217656,324267,1225,8408.626264810562,48.345489501953125,-48.4987907409668,11.895974159240723,0.69
323,MetaDrive-Gen-LaneWidthNum-v0,38,301.90304215562185,325018,1227,8429.198428869247,47.232662200927734,,44.880008697509766,0.68
324,MetaDrive-Gen-LaneWidthNum-v0,38,302.96795077883576,326251,1229,8463.43400979042,49.242034912109375,-49.366390228271484,5.725215435028076,0.67
325,MetaDrive-Gen-LaneWidthNum-v0,38,303.28626535452224,327166,1231,8488.695667982101,46.52766036987305,,6.078561305999756,0.67
326,MetaDrive-Gen-LaneWidthNum-v0,38,307.3455351457593,328504,1234,8524.218802928925,47.50811767578125,,19.013530731201172,0.69
327,MetaDrive-Gen-LaneWidthNum-v0,38,307.19388065005165,329475,1236,8550.749758958817,47.14347457885742,-47.65201950073242,25.756391525268555,0.68
328,MetaDrive-Gen-LaneWidthNum-v0,38,310.92566250382833,330450,1238,8577.91391992569,46.881649017333984,,11.029017448425293,0.69
329,MetaDrive-Gen-LaneWidthNum-v0,38,311.04966903835066,331221,1240,8598.536683559418,47.75978088378906,-47.55108642578125,10.459238052368164,0.69
330,MetaDrive-Gen-LaneWidthNum-v0,38,309.85180509083744,332503,1243,8633.142862796783,49.41885757446289,-49.52169418334961,10.361328125,0.69
331,MetaDrive-Gen-LaneWidthNum-v0,38,303.98024108712633,333316,1246,8654.521662950516,48.6789665222168,,7.921599388122559,0.68
332,MetaDrive-Gen-LaneWidthNum-v0,38,302.44814822698135,334051,1248,8673.780466794968,43.89395523071289,-45.03335952758789,30.225257873535156,0.68
333,MetaDrive-Gen-LaneWidthNum-v0,38,300.54820701829345,335396,1251,8710.543631792068,46.684791564941406,,7.162968635559082,0.68
334,MetaDrive-Gen-LaneWidthNum-v0,38,301.4305012485297,336035,1253,8727.636615753174,48.70609664916992,-49.14188766479492,19.331958770751953,0.68
335,MetaDrive-Gen-LaneWidthNum-v0,38,302.7231471146715,337119,1255,8758.5182929039,47.64262008666992,-47.58666229248047,28.43621063232422,0.68
336,MetaDrive-Gen-LaneWidthNum-v0,38,302.5757158728996,338064,1257,8785.240953683853,46.73582458496094,,13.908683776855469,0.69
337,MetaDrive-Gen-LaneWidthNum-v0,38,303.69208018444795,339201,1260,8817.403022766113,49.18897247314453,-49.77391815185547,9.366607666015625,0.7
338,MetaDrive-Gen-LaneWidthNum-v0,38,303.4638123949288,340472,1263,8854.123565673828,47.523582458496094,,28.197959899902344,0.69
339,MetaDrive-Gen-LaneWidthNum-v0,38,307.8503045182599,341442,1265,8881.962318658829,46.316062927246094,,45.94396209716797,0.7
340,MetaDrive-Gen-LaneWidthNum-v0,38,310.979002121301,342250,1266,8905.7475938797,45.857269287109375,,8.488601684570312,0.71
341,MetaDrive-Gen-LaneWidthNum-v0,38,309.9837874170648,343070,1269,8927.56928896904,47.51819610595703,,8.651081085205078,0.72
342,MetaDrive-Gen-LaneWidthNum-v0,38,308.4434605228476,344158,1272,8957.959382772446,47.94375228881836,,25.97857093811035,0.72
343,MetaDrive-Gen-LaneWidthNum-v0,38,311.4654325124847,345400,1274,8992.568591833115,48.62958908081055,,12.991790771484375,0.72
344,MetaDrive-Gen-LaneWidthNum-v0,38,313.5496064584126,346452,1276,9023.537223815918,48.68044662475586,,13.190956115722656,0.71
345,MetaDrive-Gen-LaneWidthNum-v0,38,315.458320878623,347535,1278,9054.034084796906,48.20556640625,-48.12171173095703,27.165586471557617,0.72
346,MetaDrive-Gen-LaneWidthNum-v0,38,316.10320418444843,348463,1280,9079.975275754929,46.38350296020508,-46.88681411743164,11.856040954589844,0.72
347,MetaDrive-Gen-LaneWidthNum-v0,38,315.059530390303,349256,1282,9101.894337654114,49.85019302368164,,9.053812026977539,0.71
348,MetaDrive-Gen-LaneWidthNum-v0,38,311.85616839662583,350096,1285,9125.991777658463,49.35286331176758,,8.566690444946289,0.7
349,MetaDrive-Gen-LaneWidthNum-v0,38,312.9864420185361,351673,1288,9172.852641582489,48.09751510620117,-47.55666732788086,12.529341697692871,0.71
350,MetaDrive-Gen-LaneWidthNum-v0,38,313.0244441722735,352111,1289,9185.388070821762,47.813026428222656,-47.23765563964844,9.106189727783203,0.71
351,MetaDrive-Gen-LaneWidthNum-v0,38,311.94774222370586,353198,1291,9216.405697584152,43.62906265258789,,8.115795135498047,0.71
352,MetaDrive-Gen-LaneWidthNum-v0,38,313.4252084142134,354582,1293,9257.276508808136,47.47010040283203,,10.794269561767578,0.71
353,MetaDrive-Gen-LaneWidthNum-v0,38,316.4417900178894,355288,1294,9278.41696882248,48.31156921386719,,10.795215606689453,0.71
354,MetaDrive-Gen-LaneWidthNum-v0,38,319.24325390269615,356270,1296,9305.931661605835,47.676727294921875,,17.210590362548828,0.72
355,MetaDrive-Gen-LaneWidthNum-v0,38,321.3146775627949,357269,1298,9334.53536772728,50.007015228271484,-50.308563232421875,17.132278442382812,0.72
356,MetaDrive-Gen-LaneWidthNum-v0,38,324.22463837842696,358667,1301,9374.520894765854,47.633338928222656,-47.297935485839844,8.476898193359375,0.73
357,MetaDrive-Gen-LaneWidthNum-v0,38,326.0808934421277,359376,1302,9395.83422780037,47.791446685791016,,10.986757278442383,0.73
358,MetaDrive-Gen-LaneWidthNum-v0,38,327.17098745994207,360365,1304,9425.234001874924,47.76139831542969,-48.67176055908203,8.043270111083984,0.74
359,MetaDrive-Gen-LaneWidthNum-v0,38,323.2384738367516,361359,1308,9453.701532840729,45.863529205322266,-45.505470275878906,8.75269889831543,0.72
360,MetaDrive-Gen-LaneWidthNum-v0,38,325.0687524034685,362168,1310,9477.195723772049,45.49419021606445,,20.80698013305664,0.73
361,MetaDrive-Gen-LaneWidthNum-v0,38,323.44985560774495,363494,1314,9515.384965896606,46.91191864013672,,14.939059257507324,0.73
362,MetaDrive-Gen-LaneWidthNum-v0,38,319.6270566484064,364365,1317,9539.542009830475,48.54491424560547,-48.86430358886719,10.84168815612793,0.73
363,MetaDrive-Gen-LaneWidthNum-v0,38,320.2693068539553,365262,1319,9565.435859918594,46.28104782104492,,8.528462409973145,0.74
364,MetaDrive-Gen-LaneWidthNum-v0,38,321.0878796699314,366230,1322,9591.901221752167,46.0786247253418,,24.195648193359375,0.75
365,MetaDrive-Gen-LaneWidthNum-v0,38,316.10424936679124,367021,1325,9614.215213775635,46.61139678955078,-46.755104064941406,12.800174713134766,0.73
366,MetaDrive-Gen-LaneWidthNum-v0,38,317.6053980264135,368337,1328,9651.113256931305,47.38023376464844,-47.366947174072266,7.583701133728027,0.75
367,MetaDrive-Gen-LaneWidthNum-v0,38,315.1496687752519,369435,1330,9683.709062814713,46.996646881103516,-47.145503997802734,8.878876686096191,0.73
368,MetaDrive-Gen-LaneWidthNum-v0,38,315.3655323530065,370041,1331,9700.79488992691,48.179771423339844,-48.33380889892578,51.69793701171875,0.74
369,MetaDrive-Gen-LaneWidthNum-v0,38,315.788871947905,371182,1334,9732.288703918457,47.04481887817383,,14.605941772460938,0.75
370,MetaDrive-Gen-LaneWidthNum-v0,38,315.69550703923613,372047,1336,9756.392800569534,48.106117248535156,-49.70177459716797,22.015789031982422,0.76
371,MetaDrive-Gen-LaneWidthNum-v0,38,314.6502751669613,373497,1340,9797.147869825363,48.74140167236328,-48.68086242675781,16.45590591430664,0.75
372,MetaDrive-Gen-LaneWidthNum-v0,38,317.5707523582025,374126,1341,9815.557187795639,46.9494514465332,,8.735519409179688,0.76
373,MetaDrive-Gen-LaneWidthNum-v0,38,315.8236744114027,375062,1344,9841.611669778824,47.943458557128906,,16.16948699951172,0.75
374,MetaDrive-Gen-LaneWidthNum-v0,38,320.68130708219877,376309,1347,9876.710150718689,47.38913345336914,-47.92332077026367,24.640756607055664,0.76
375,MetaDrive-Gen-LaneWidthNum-v0,38,322.7480718110503,377392,1350,9907.890624761581,48.13852310180664,,42.74311828613281,0.74
376,MetaDrive-Gen-LaneWidthNum-v0,38,321.73972522451027,378436,1353,9937.12626671791,47.366477966308594,,12.8358736038208,0.74
377,MetaDrive-Gen-LaneWidthNum-v0,38,322.02860850164205,379447,1355,9966.448381900787,47.60703659057617,-47.8842658996582,31.07257080078125,0.74
378,MetaDrive-Gen-LaneWidthNum-v0,38,320.87615921119436,380247,1357,9990.117187738419,45.21898651123047,-45.60584259033203,39.65776824951172,0.73
379,MetaDrive-Gen-LaneWidthNum-v0,38,314.2871470314251,381281,1362,10019.532570838928,45.562171936035156,-45.453773498535156,11.971473693847656,0.71
380,MetaDrive-Gen-LaneWidthNum-v0,38,313.07176222640896,382128,1364,10043.887459754944,46.7069091796875,,36.38331985473633,0.71
381,MetaDrive-Gen-LaneWidthNum-v0,38,308.41256602666357,383059,1368,10071.061488866806,46.86982727050781,-47.653419494628906,41.86725616455078,0.68
382,MetaDrive-Gen-LaneWidthNum-v0,38,311.1481698388874,384165,1370,10103.57526087761,49.15971755981445,-49.589298248291016,9.988326072692871,0.69
383,MetaDrive-Gen-LaneWidthNum-v0,38,308.5358093728803,385051,1373,10129.471878767014,47.40327453613281,-48.14032745361328,8.764965057373047,0.67
384,MetaDrive-Gen-LaneWidthNum-v0,37,302.8480949607144,386174,1376,10163.892351865768,47.805206298828125,,13.526191711425781,0.66
385,MetaDrive-Gen-LaneWidthNum-v0,37,302.6034899280073,387280,1378,10196.171125650406,46.57487106323242,,9.370988845825195,0.66
386,MetaDrive-Gen-LaneWidthNum-v0,37,303.003495815092,388317,1380,10225.498829841614,47.91055679321289,-48.01579666137695,9.391626358032227,0.66
387,MetaDrive-Gen-LaneWidthNum-v0,37,303.4732717044636,389243,1382,10253.508792638779,46.525577545166016,-47.42577362060547,28.467208862304688,0.66
388,MetaDrive-Gen-LaneWidthNum-v0,37,306.88249052563407,390060,1384,10276.849110603333,44.1031608581543,,17.015689849853516,0.68
389,MetaDrive-Gen-LaneWidthNum-v0,37,305.2298965243935,391078,1387,10305.318259954453,47.98737716674805,,14.162508010864258,0.68
390,MetaDrive-Gen-LaneWidthNum-v0,37,303.59958156461715,392093,1389,10335.757955789566,47.86616897583008,-48.501556396484375,5.4879469871521,0.67
391,MetaDrive-Gen-LaneWidthNum-v0,37,305.4244380271534,393279,1391,10371.551538944244,46.26634216308594,-46.916969299316406,7.098544120788574,0.67
392,MetaDrive-Gen-LaneWidthNum-v0,37,295.83756131375975,394003,1394,10392.634270906448,47.09960174560547,-47.55874252319336,7.459887504577637,0.65
393,MetaDrive-Gen-LaneWidthNum-v0,37,293.2984763788325,395324,1397,10430.08825969696,45.740238189697266,,8.045965194702148,0.65
394,MetaDrive-Gen-LaneWidthNum-v0,37,294.5837379318833,396111,1399,10453.407934904099,46.51308822631836,-47.127357482910156,12.880057334899902,0.65
395,MetaDrive-Gen-LaneWidthNum-v0,37,295.4402608548098,397189,1401,10484.028637886047,46.2414436340332,-46.483985900878906,12.988195419311523,0.65
396,MetaDrive-Gen-LaneWidthNum-v0,37,293.3328885377339,398422,1404,10519.548236608505,45.375831604003906,,17.010581970214844,0.63
397,MetaDrive-Gen-LaneWidthNum-v0,37,299.4342237450673,399463,1406,10549.531611919403,47.279388427734375,-48.09675216674805,11.371015548706055,0.64
398,MetaDrive-Gen-LaneWidthNum-v0,37,299.9310931964118,400209,1408,10570.826291799545,46.66921615600586,-47.541934967041016,7.079804420471191,0.64
399,MetaDrive-Gen-LaneWidthNum-v0,37,300.05127877927475,401090,1410,10596.286476612091,44.59996032714844,,19.979148864746094,0.63
400,MetaDrive-Gen-LaneWidthNum-v0,37,306.02890288193186,402584,1413,10640.5315887928,48.14909362792969,,11.001470565795898,0.64
401,MetaDrive-Gen-LaneWidthNum-v0,37,305.3760776210484,403046,1414,10654.066530704498,46.228675842285156,,10.345684051513672,0.64
402,MetaDrive-Gen-LaneWidthNum-v0,37,303.5747803790158,404367,1418,10692.752769708633,47.00978088378906,-47.70735549926758,12.72415542602539,0.63
403,MetaDrive-Gen-LaneWidthNum-v0,37,303.79198117622855,405206,1420,10716.67106461525,45.809513092041016,,7.378042221069336,0.63
404,MetaDrive-Gen-LaneWidthNum-v0,37,303.7247184404845,406153,1423,10743.805466890335,46.420074462890625,-46.58967208862305,31.099132537841797,0.64
405,MetaDrive-Gen-LaneWidthNum-v0,37,307.71936660416867,407149,1425,10773.782931804657,45.10173034667969,-45.22567367553711,12.301833152770996,0.64
406,MetaDrive-Gen-LaneWidthNum-v0,37,308.0351037227716,408277,1427,10806.937804698944,47.17456817626953,-47.27939224243164,13.847461700439453,0.63
407,MetaDrive-Gen-LaneWidthNum-v0,37,312.84429890072056,409401,1429,10839.749582767487,44.91562271118164,-45.36393737792969,20.23893928527832,0.63
408,MetaDrive-Gen-LaneWidthNum-v0,37,313.85168595610605,410005,1430,10858.00556588173,47.83918762207031,-47.588653564453125,11.218177795410156,0.63
409,MetaDrive-Gen-LaneWidthNum-v0,37,305.0155743575659,411035,1435,10886.808458566666,48.27339553833008,-49.024497985839844,17.455547332763672,0.59
410,MetaDrive-Gen-LaneWidthNum-v0,37,303.761466041261,412012,1438,10915.221110582352,45.544273376464844,,22.385982513427734,0.59
411,MetaDrive-Gen-LaneWidthNum-v0,37,301.357941481788,413199,1441,10948.86987066269,48.76849365234375,-48.84754180908203,12.748651504516602,0.6
412,MetaDrive-Gen-LaneWidthNum-v0,37,300.4399759806509,414028,1444,10972.784176826477,45.59911346435547,,8.422394752502441,0.58
413,MetaDrive-Gen-LaneWidthNum-v0,37,299.8693896800337,415217,1447,11006.323213815689,44.68650817871094,-45.43181228637695,8.615680694580078,0.57
414,MetaDrive-Gen-LaneWidthNum-v0,37,296.8123772360207,416298,1451,11036.622606754303,46.645999908447266,,8.772820472717285,0.58
415,MetaDrive-Gen-LaneWidthNum-v0,37,296.9039298957162,417135,1453,11061.048981666565,46.47295379638672,-46.002952575683594,20.326990127563477,0.57
416,MetaDrive-Gen-LaneWidthNum-v0,37,296.4765206988897,418215,1456,11092.125518798828,45.74053192138672,-46.836647033691406,29.978513717651367,0.56
417,MetaDrive-Gen-LaneWidthNum-v0,37,296.51700845864826,419164,1458,11119.692100763321,46.38298034667969,,22.825565338134766,0.56
418,MetaDrive-Gen-LaneWidthNum-v0,37,300.17527588636983,420014,1461,11143.941629886627,46.310508728027344,,5.693746566772461,0.57
419,MetaDrive-Gen-LaneWidthNum-v0,37,300.1889201021497,421252,1464,11179.465958833694,48.583168029785156,,43.314491271972656,0.57
420,MetaDrive-Gen-LaneWidthNum-v0,37,303.48462400821523,422006,1465,11202.706637620926,45.734073638916016,,9.749565124511719,0.57
421,MetaDrive-Gen-LaneWidthNum-v0,37,308.37889948909765,423311,1468,11242.182621955872,47.019493103027344,-46.961814880371094,9.841044425964355,0.59
422,MetaDrive-Gen-LaneWidthNum-v0,37,307.2175517764084,424306,1471,11270.974875688553,47.426513671875,,8.331066131591797,0.59
423,MetaDrive-Gen-LaneWidthNum-v0,37,307.17676098870436,425096,1473,11293.41860461235,44.37922668457031,,14.417085647583008,0.6
424,MetaDrive-Gen-LaneWidthNum-v0,37,306.3283872642827,426039,1475,11320.836059808731,44.096534729003906,-44.13054275512695,11.374420166015625,0.61
425,MetaDrive-Gen-LaneWidthNum-v0,37,309.92176327444855,427339,1477,11360.295121908188,47.34696960449219,-46.49555969238281,13.000638008117676,0.61
426,MetaDrive-Gen-LaneWidthNum-v0,37,308.2155923140681,428131,1479,11383.336112737656,46.8768196105957,-46.52568817138672,30.33731460571289,0.6
427,MetaDrive-Gen-LaneWidthNum-v0,37,307.0579239700965,429470,1482,11422.500536680222,46.180419921875,,23.52206802368164,0.6
428,MetaDrive-Gen-LaneWidthNum-v0,37,307.6399366134305,430470,1484,11451.17056465149,47.148475646972656,,22.768260955810547,0.59
429,MetaDrive-Gen-LaneWidthNum-v0,37,308.1515432659485,431277,1486,11473.92135477066,45.409095764160156,-44.62174987792969,18.41680145263672,0.58
430,MetaDrive-Gen-LaneWidthNum-v0,37,308.4050236204391,432378,1488,11505.52689576149,44.9896240234375,,24.77519989013672,0.57
431,MetaDrive-Gen-LaneWidthNum-v0,37,307.3799190407329,433402,1490,11535.245057582855,45.53717041015625,,13.738798141479492,0.57
432,MetaDrive-Gen-LaneWidthNum-v0,37,308.9010799690002,434045,1491,11553.92080283165,46.851318359375,-47.29988098144531,15.151310920715332,0.57
433,MetaDrive-Gen-LaneWidthNum-v0,37,311.0742267128277,435188,1494,11586.808763742447,47.463016510009766,,10.456058502197266,0.58
434,MetaDrive-Gen-LaneWidthNum-v0,37,309.4695113904083,436141,1497,11614.187199831009,50.690738677978516,-51.185787200927734,35.30598449707031,0.57
435,MetaDrive-Gen-LaneWidthNum-v0,37,310.63972896444955,437647,1500,11658.893640756607,47.1067008972168,-47.313663482666016,10.650278091430664,0.57
436,MetaDrive-Gen-LaneWidthNum-v0,37,309.8903466466013,438012,1501,11669.21209192276,45.74284362792969,,13.995092391967773,0.57
437,MetaDrive-Gen-LaneWidthNum-v0,37,307.5984792509246,439196,1504,11704.017823934555,45.57413101196289,,9.753870010375977,0.57
438,MetaDrive-Gen-LaneWidthNum-v0,37,308.1838145148934,440393,1507,11739.111989736557,46.08267593383789,-46.045875549316406,10.476016998291016,0.59
439,MetaDrive-Gen-LaneWidthNum-v0,37,309.3874131210521,441091,1508,11760.342670679092,45.66796112060547,-46.253238677978516,11.012002944946289,0.58
440,MetaDrive-Gen-LaneWidthNum-v0,37,308.98686006263523,442239,1511,11793.401652812958,46.42356491088867,-46.28900909423828,27.225793838500977,0.58
441,MetaDrive-Gen-LaneWidthNum-v0,37,309.7265835532508,443405,1513,11827.107919692993,45.88816452026367,-45.7664909362793,10.122608184814453,0.57
442,MetaDrive-Gen-LaneWidthNum-v0,37,309.4469157123182,444263,1515,11851.9607796669,47.88910675048828,-48.70719528198242,10.892513275146484,0.55
443,MetaDrive-Gen-LaneWidthNum-v0,37,310.77531397788795,445324,1518,11883.280943870544,44.842918395996094,,9.464286804199219,0.56
444,MetaDrive-Gen-LaneWidthNum-v0,37,310.34328111887453,446370,1520,11914.931719779968,48.83515167236328,,8.784421920776367,0.55
445,MetaDrive-Gen-LaneWidthNum-v0,37,310.3581024207906,447105,1522,11935.902515888214,46.65177917480469,-46.66176223754883,7.7485246658325195,0.55
446,MetaDrive-Gen-LaneWidthNum-v0,37,313.4804972528846,448194,1524,11966.865078687668,43.72423553466797,,11.451257705688477,0.56
447,MetaDrive-Gen-LaneWidthNum-v0,37,311.61416604958566,449302,1526,12000.0754737854,46.456085205078125,,23.485244750976562,0.56
448,MetaDrive-Gen-LaneWidthNum-v0,37,311.81961979824433,450275,1528,12028.700814723969,46.973175048828125,-46.35347366333008,8.175873756408691,0.56
449,MetaDrive-Gen-LaneWidthNum-v0,37,309.87699307080254,451238,1530,12057.129015684128,47.93661880493164,,7.778553009033203,0.55
450,MetaDrive-Gen-LaneWidthNum-v0,37,312.03286357172925,452331,1533,12089.06847691536,49.25127410888672,-49.4447021484375,11.646432876586914,0.56
451,MetaDrive-Gen-LaneWidthNum-v0,37,317.2103477710028,453136,1535,12111.77605175972,46.65431213378906,,12.676107406616211,0.57
452,MetaDrive-Gen-LaneWidthNum-v0,37,319.831010708334,454048,1537,12138.124816894531,45.79821014404297,,5.359157085418701,0.57
453,MetaDrive-Gen-LaneWidthNum-v0,37,319.1464972387109,455420,1540,12178.529973745346,46.41547393798828,,11.777393341064453,0.55
454,MetaDrive-Gen-LaneWidthNum-v0,37,321.2007878445651,456079,1541,12199.610440969467,46.134765625,-46.074851989746094,10.297101974487305,0.54
455,MetaDrive-Gen-LaneWidthNum-v0,37,321.58084994800276,457389,1545,12237.636536836624,46.215492248535156,-46.801876068115234,25.25802993774414,0.55
456,MetaDrive-Gen-LaneWidthNum-v0,37,318.1274116380097,458245,1548,12262.328855752945,49.00518798828125,-48.907318115234375,39.163753509521484,0.53
457,MetaDrive-Gen-LaneWidthNum-v0,37,322.8284813176219,459163,1550,12288.227163791656,46.140567779541016,-46.393577575683594,11.626677513122559,0.54
458,MetaDrive-Gen-LaneWidthNum-v0,37,325.78729222677543,460183,1552,12318.07891368866,46.951133728027344,-47.25729751586914,15.72098159790039,0.56
459,MetaDrive-Gen-LaneWidthNum-v0,37,325.7222134386291,461039,1554,12342.098168849945,44.85762023925781,-44.89458084106445,13.721588134765625,0.57
460,MetaDrive-Gen-LaneWidthNum-v0,37,327.953294067697,462103,1556,12372.940394878387,49.329185485839844,-49.23032760620117,10.301910400390625,0.56
461,MetaDrive-Gen-LaneWidthNum-v0,37,327.6812833444832,463182,1558,12405.136985778809,47.3471565246582,,14.5007905960083,0.55
462,MetaDrive-Gen-LaneWidthNum-v0,37,330.3543256882196,464018,1559,12430.919157743454,46.509456634521484,,6.4079999923706055,0.55
463,MetaDrive-Gen-LaneWidthNum-v0,37,330.9922238393267,465404,1563,12470.648699760437,45.265106201171875,,8.598983764648438,0.55
464,MetaDrive-Gen-LaneWidthNum-v0,37,328.5124785087479,466214,1565,12494.620653629303,48.58990478515625,,19.52273941040039,0.55
465,MetaDrive-Gen-LaneWidthNum-v0,37,330.06246838676225,467064,1567,12518.891520738602,45.78684616088867,,16.757076263427734,0.55
466,MetaDrive-Gen-LaneWidthNum-v0,37,330.4714237416985,468218,1570,12552.398567914963,46.40471649169922,,7.845247268676758,0.55
467,MetaDrive-Gen-LaneWidthNum-v0,37,327.94856597394687,469271,1573,12582.472287893295,47.21318817138672,-47.41765594482422,11.659780502319336,0.53
468,MetaDrive-Gen-LaneWidthNum-v0,37,327.8289370160969,470159,1575,12608.806238889694,47.06068420410156,-46.90021514892578,12.54810619354248,0.52
469,MetaDrive-Gen-LaneWidthNum-v0,37,322.40030752175136,471373,1579,12645.076137781143,48.16848373413086,-48.55545425415039,12.445507049560547,0.5
470,MetaDrive-Gen-LaneWidthNum-v0,37,323.9888406982367,472469,1581,12676.915867805481,44.52178955078125,-44.97465515136719,13.432384490966797,0.5
471,MetaDrive-Gen-LaneWidthNum-v0,37,324.13556213660263,473061,1582,12694.433748960495,44.633392333984375,-45.093902587890625,23.348079681396484,0.49
472,MetaDrive-Gen-LaneWidthNum-v0,37,322.8497450322339,474280,1585,12729.331858873367,45.45901107788086,,21.154354095458984,0.5
473,MetaDrive-Gen-LaneWidthNum-v0,37,322.8497331358077,475144,1587,12753.802912712097,48.145626068115234,,7.684248924255371,0.49
474,MetaDrive-Gen-LaneWidthNum-v0,37,323.47721529101375,476396,1589,12790.525709629059,46.947044372558594,,16.94052505493164,0.48
475,MetaDrive-Gen-LaneWidthNum-v0,37,322.5625227085445,477479,1591,12822.05315566063,46.0052375793457,-45.90692901611328,23.57174301147461,0.47
476,MetaDrive-Gen-LaneWidthNum-v0,37,324.77137136451853,478177,1593,12842.271984815598,46.804935455322266,-47.610084533691406,10.343223571777344,0.47
477,MetaDrive-Gen-LaneWidthNum-v0,37,320.8093976732666,479055,1596,12867.525053739548,46.27930450439453,-46.576934814453125,5.484367370605469,0.45
478,MetaDrive-Gen-LaneWidthNum-v0,37,323.1101203182772,480010,1598,12895.83724284172,46.32128143310547,,14.141670227050781,0.46
479,MetaDrive-Gen-LaneWidthNum-v0,37,319.49188786954335,481195,1601,12930.790019750595,48.57333755493164,-48.51027297973633,15.333331108093262,0.46
480,MetaDrive-Gen-LaneWidthNum-v0,37,319.9103679948498,482113,1603,12957.479964733124,48.4442024230957,-48.761962890625,8.510002136230469,0.46
481,MetaDrive-Gen-LaneWidthNum-v0,37,322.798614265484,483311,1605,12993.431668996811,45.9217643737793,-45.366695404052734,21.31065559387207,0.47
482,MetaDrive-Gen-LaneWidthNum-v0,37,323.5908025066603,484310,1607,13022.607872009277,46.50241470336914,,9.213966369628906,0.47
483,MetaDrive-Gen-LaneWidthNum-v0,37,322.29130100859237,485478,1609,13055.88776397705,46.681949615478516,,17.317760467529297,0.47
484,MetaDrive-Gen-LaneWidthNum-v0,37,324.5429623675563,486386,1611,13082.41754078865,45.14714050292969,,15.519725799560547,0.47
485,MetaDrive-Gen-LaneWidthNum-v0,37,318.1579359421032,487377,1614,13110.245765686035,46.91640090942383,-47.34169006347656,8.144355773925781,0.49
486,MetaDrive-Gen-LaneWidthNum-v0,37,321.52787985848755,488040,1615,13130.438515901566,48.13805389404297,,12.324737548828125,0.5
487,MetaDrive-Gen-LaneWidthNum-v0,37,322.9173465628944,489297,1618,13166.751961708069,47.074886322021484,-46.93138122558594,8.15814208984375,0.5
488,MetaDrive-Gen-LaneWidthNum-v0,37,322.7027092763639,490154,1620,13191.727628707886,46.07825469970703,,7.6853532791137695,0.5
489,MetaDrive-Gen-LaneWidthNum-v0,37,322.72753601174526,491001,1622,13216.860187768936,46.095611572265625,-45.66022491455078,51.599510192871094,0.49
490,MetaDrive-Gen-LaneWidthNum-v0,37,321.44112708387337,492361,1625,13256.747027873993,47.22654724121094,-47.847434997558594,24.370647430419922,0.49
491,MetaDrive-Gen-LaneWidthNum-v0,37,320.76698577267507,493296,1627,13284.327436685562,45.80994415283203,,18.403644561767578,0.49
492,MetaDrive-Gen-LaneWidthNum-v0,37,317.7832963729554,494451,1630,13318.308375597,46.64444351196289,-46.29521179199219,15.693107604980469,0.51
493,MetaDrive-Gen-LaneWidthNum-v0,37,319.8551257072389,495273,1632,13342.257282733917,46.77522277832031,-47.6651725769043,13.644214630126953,0.51
494,MetaDrive-Gen-LaneWidthNum-v0,37,315.8352914147237,496209,1635,13369.074680805206,46.741790771484375,-48.057735443115234,10.595322608947754,0.5
495,MetaDrive-Gen-LaneWidthNum-v0,37,313.06763954281143,497137,1638,13396.229859828949,45.14955139160156,-45.2534065246582,10.992887496948242,0.48
496,MetaDrive-Gen-LaneWidthNum-v0,37,309.86065923762834,498186,1641,13426.91173195839,45.681583404541016,,25.31155776977539,0.5
497,MetaDrive-Gen-LaneWidthNum-v0,37,311.46194324728464,499127,1644,13453.63037276268,47.19208908081055,-47.33183288574219,8.488381385803223,0.51
498,MetaDrive-Gen-LaneWidthNum-v0,37,315.5938730152741,500495,1647,13493.740348815918,46.14373016357422,-45.80201721191406,8.685308456420898,0.52
499,MetaDrive-Gen-LaneWidthNum-v0,37,313.7891239381854,501207,1649,13514.15738272667,44.78363800048828,-45.27006912231445,8.70848274230957,0.52
500,MetaDrive-Gen-LaneWidthNum-v0,37,314.05318002282814,502287,1651,13547.27861571312,48.00261688232422,-48.20958709716797,8.321648597717285,0.53
501,MetaDrive-Gen-LaneWidthNum-v0,37,315.51197263324536,503360,1653,13580.572689771652,46.44602584838867,,11.47073745727539,0.52
502,MetaDrive-Gen-LaneWidthNum-v0,37,315.93975882421034,504264,1655,13606.32456278801,47.011226654052734,,15.50540542602539,0.53
503,MetaDrive-Gen-LaneWidthNum-v0,37,313.4004894913485,505103,1657,13630.808901786804,45.37133026123047,-45.96892166137695,18.495586395263672,0.55
504,MetaDrive-Gen-LaneWidthNum-v0,37,311.58234850646215,506103,1659,13659.542270898819,48.1265869140625,-48.60251235961914,16.059545516967773,0.54
505,MetaDrive-Gen-LaneWidthNum-v0,37,313.6190607037993,507224,1662,13693.513926744461,46.711185455322266,,7.993648529052734,0.55
506,MetaDrive-Gen-LaneWidthNum-v0,37,313.77848703809207,508377,1665,13726.723104000092,46.4661865234375,-47.068878173828125,17.49451446533203,0.56
507,MetaDrive-Gen-LaneWidthNum-v0,37,313.20379002503296,509128,1667,13748.551647901535,45.930931091308594,,8.068256378173828,0.56
508,MetaDrive-Gen-LaneWidthNum-v0,37,316.8652078746544,510361,1669,13785.572157859802,46.11441421508789,-46.176597595214844,17.210939407348633,0.56
509,MetaDrive-Gen-LaneWidthNum-v0,37,315.850463898807,511147,1671,13809.477532863617,46.428916931152344,-47.210819244384766,10.688444137573242,0.56
510,MetaDrive-Gen-LaneWidthNum-v0,37,319.8466259787489,512442,1673,13849.323809623718,48.3621826171875,,8.775349617004395,0.57
511,MetaDrive-Gen-LaneWidthNum-v0,36,321.85842807293903,513539,1675,13883.270259857178,45.627403259277344,-45.575138092041016,14.71904182434082,0.58
512,MetaDrive-Gen-LaneWidthNum-v0,36,327.5447036969606,514505,1677,13912.967118740082,44.63009262084961,-45.10410690307617,7.300845146179199,0.59
513,MetaDrive-Gen-LaneWidthNum-v0,36,329.80331359388373,515115,1678,13930.30884194374,45.80331802368164,-46.5184211730957,13.87278938293457,0.6
514,MetaDrive-Gen-LaneWidthNum-v0,36,327.1047533103021,516520,1681,13972.963426828384,47.29750442504883,,6.470955848693848,0.61
515,MetaDrive-Gen-LaneWidthNum-v0,36,325.687340313687,517329,1683,13996.391243696213,48.18156051635742,-48.02281188964844,6.327658653259277,0.62
516,MetaDrive-Gen-LaneWidthNum-v0,36,328.4054081494012,518373,1685,14028.627200603485,45.09794616699219,-45.115291595458984,14.269521713256836,0.62
517,MetaDrive-Gen-LaneWidthNum-v0,36,327.52848305309396,519040,1687,14048.053355693817,44.38157653808594,,20.043052673339844,0.63
518,MetaDrive-Gen-LaneWidthNum-v0,36,325.6358736350362,520342,1690,14086.256876707077,44.69287872314453,,24.186279296875,0.65
519,MetaDrive-Gen-LaneWidthNum-v0,36,326.53743248158173,521187,1691,14111.38611984253,45.8065071105957,-45.79063415527344,11.41031265258789,0.66
520,MetaDrive-Gen-LaneWidthNum-v0,36,327.793515714893,522214,1693,14142.380014657974,48.40254592895508,,14.463899612426758,0.67
521,MetaDrive-Gen-LaneWidthNum-v0,36,330.1166981535939,523482,1696,14180.113302707672,45.63562774658203,,9.251502990722656,0.68
522,MetaDrive-Gen-LaneWidthNum-v0,36,326.4953397511199,524239,1699,14201.709939956665,48.8060302734375,-48.39551544189453,7.763274192810059,0.66
523,MetaDrive-Gen-LaneWidthNum-v0,36,327.63922375843964,525065,1701,14225.734353780746,46.86533737182617,-48.11613845825195,14.034043312072754,0.67
524,MetaDrive-Gen-LaneWidthNum-v0,36,328.7021462629034,526347,1704,14262.222438812256,44.986717224121094,-45.60103225708008,29.693016052246094,0.68
525,MetaDrive-Gen-LaneWidthNum-v0,36,324.12215668179977,527292,1707,14289.494886875153,45.42462158203125,,62.498313903808594,0.68
526,MetaDrive-Gen-LaneWidthNum-v0,36,323.0927535525528,528389,1710,14322.184242725372,45.93523025512695,-46.21818923950195,12.132869720458984,0.68
527,MetaDrive-Gen-LaneWidthNum-v0,36,322.1902246686593,529396,1712,14351.883655786514,47.29539108276367,,14.885444641113281,0.68
528,MetaDrive-Gen-LaneWidthNum-v0,36,322.1789734593612,530139,1714,14373.929186820984,45.878875732421875,-45.886497497558594,11.088342666625977,0.67
529,MetaDrive-Gen-LaneWidthNum-v0,36,320.54535404554315,531021,1716,14399.802530765533,45.350154876708984,-45.62863540649414,10.743852615356445,0.68
530,MetaDrive-Gen-LaneWidthNum-v0,36,322.1430547296071,532235,1718,14437.116417646408,47.05194091796875,-47.99372100830078,11.06960678100586,0.68
531,MetaDrive-Gen-LaneWidthNum-v0,36,322.75569026826093,533359,1721,14469.517115831375,44.867332458496094,-45.24933624267578,6.47027587890625,0.69
532,MetaDrive-Gen-LaneWidthNum-v0,36,319.3096509335379,534066,1723,14489.768310785294,43.53304672241211,,23.74620819091797,0.69
533,MetaDrive-Gen-LaneWidthNum-v0,36,320.73214909715307,535478,1726,14531.435883760452,46.55480194091797,,6.972972869873047,0.7
534,MetaDrive-Gen-LaneWidthNum-v0,36,322.2733335920818,536098,1728,14549.507778644562,46.50029373168945,,11.006465911865234,0.71
535,MetaDrive-Gen-LaneWidthNum-v0,36,322.64693780874086,537028,1730,14577.094424724579,47.39564895629883,,8.543237686157227,0.7
536,MetaDrive-Gen-LaneWidthNum-v0,36,324.9598881532083,538449,1733,14619.35913181305,44.86221694946289,-44.563194274902344,17.16571044921875,0.7
537,MetaDrive-Gen-LaneWidthNum-v0,36,327.25276745167747,539036,1734,14636.707645893097,44.13836669921875,,38.466712951660156,0.71
538,MetaDrive-Gen-LaneWidthNum-v0,36,330.34307929291435,540207,1737,14670.498842716217,45.012115478515625,-45.22230529785156,6.466139316558838,0.73
539,MetaDrive-Gen-LaneWidthNum-v0,36,330.49815950301854,541281,1740,14701.894220590591,45.97798538208008,-45.70337677001953,14.509540557861328,0.75
540,MetaDrive-Gen-LaneWidthNum-v0,36,331.29334128629324,542204,1742,14729.66112780571,47.32672119140625,,17.08525276184082,0.75
541,MetaDrive-Gen-LaneWidthNum-v0,36,331.4821698442315,543224,1745,14759.125000953674,47.029579162597656,,21.238628387451172,0.75
542,MetaDrive-Gen-LaneWidthNum-v0,36,332.4966434854305,544391,1747,14793.577553749084,44.498573303222656,-44.51219177246094,14.21190071105957,0.75
543,MetaDrive-Gen-LaneWidthNum-v0,36,331.6802175470722,545392,1750,14823.072368860245,45.765140533447266,,11.797842025756836,0.74
544,MetaDrive-Gen-LaneWidthNum-v0,36,329.1707778142817,546360,1752,14850.911765575409,44.881317138671875,,10.766008377075195,0.74
545,MetaDrive-Gen-LaneWidthNum-v0,36,327.7202296156169,547240,1754,14877.301327705383,46.38691329956055,,8.051473617553711,0.74
546,MetaDrive-Gen-LaneWidthNum-v0,36,322.14050327969983,548215,1758,14906.140083789825,44.99748229980469,-44.76181411743164,17.645536422729492,0.72
547,MetaDrive-Gen-LaneWidthNum-v0,36,324.8924835692375,549127,1759,14935.252172708511,45.270416259765625,-45.39000701904297,10.802892684936523,0.72
548,MetaDrive-Gen-LaneWidthNum-v0,36,326.0965293358962,550016,1761,14961.646712779999,45.372657775878906,,7.816588401794434,0.74
549,MetaDrive-Gen-LaneWidthNum-v0,36,326.43958844132794,551159,1764,14994.801612615585,46.64228439331055,-46.96663284301758,9.49123477935791,0.73
550,MetaDrive-Gen-LaneWidthNum-v0,36,325.95012847178134,552381,1767,15030.354036808014,45.644866943359375,-46.29741668701172,7.664699554443359,0.73
551,MetaDrive-Gen-LaneWidthNum-v0,36,325.8806887904098,553409,1769,15062.228736639023,46.778499603271484,-47.033851623535156,7.327286243438721,0.73
552,MetaDrive-Gen-LaneWidthNum-v0,36,328.1982649604023,554038,1770,15080.639174699783,45.70535659790039,,33.213253021240234,0.74
553,MetaDrive-Gen-LaneWidthNum-v0,36,323.35469356265554,555249,1773,15115.81154370308,46.70490646362305,-47.17228317260742,12.195151329040527,0.72
554,MetaDrive-Gen-LaneWidthNum-v0,36,322.5041940532981,556377,1776,15148.606976747513,46.76732635498047,-46.567237854003906,27.99045181274414,0.72
555,MetaDrive-Gen-LaneWidthNum-v0,36,319.307722485736,557259,1778,15174.088261842728,44.504669189453125,-45.881065368652344,16.089031219482422,0.72
556,MetaDrive-Gen-LaneWidthNum-v0,36,320.26239779428465,558124,1780,15201.600732803345,44.13768005371094,,13.198823928833008,0.72
557,MetaDrive-Gen-LaneWidthNum-v0,36,319.3384721329819,559001,1782,15227.190374851227,43.96144104003906,-44.95485305786133,16.040807723999023,0.72
558,MetaDrive-Gen-LaneWidthNum-v0,36,318.16566533959855,560359,1785,15267.967774868011,44.04206848144531,-43.864498138427734,13.213552474975586,0.73
559,MetaDrive-Gen-LaneWidthNum-v0,36,318.85997727883074,561029,1787,15287.326581716537,46.957374572753906,-47.43221664428711,39.593109130859375,0.74
560,MetaDrive-Gen-LaneWidthNum-v0,36,318.16210357904197,562143,1790,15320.65578174591,43.640689849853516,-42.29396438598633,40.479820251464844,0.74
561,MetaDrive-Gen-LaneWidthNum-v0,36,316.4724792328243,563350,1792,15356.70451259613,46.68697738647461,,13.463301658630371,0.74
562,MetaDrive-Gen-LaneWidthNum-v0,36,318.99539386869054,564354,1794,15386.539269685745,47.30313491821289,,6.633856773376465,0.75
563,MetaDrive-Gen-LaneWidthNum-v0,36,317.22076610910216,565041,1797,15406.732703924179,45.69921875,-45.664302825927734,19.933746337890625,0.74
564,MetaDrive-Gen-LaneWidthNum-v0,36,318.6287636677005,566326,1800,15445.159183740616,45.635414123535156,,7.611289024353027,0.74
565,MetaDrive-Gen-LaneWidthNum-v0,36,319.8264468508997,567317,1802,15474.700888633728,47.23094177246094,-47.17758560180664,21.704885482788086,0.74
566,MetaDrive-Gen-LaneWidthNum-v0,36,321.7373455487321,568242,1804,15501.744583845139,46.018741607666016,,12.394315719604492,0.74
567,MetaDrive-Gen-LaneWidthNum-v0,36,322.47275449168416,569079,1806,15525.891881942749,45.5804557800293,-45.53496170043945,22.075057983398438,0.74
568,MetaDrive-Gen-LaneWidthNum-v0,36,324.30103842852714,570035,1808,15554.654909849167,45.91571044921875,-46.78420639038086,12.679550170898438,0.75
569,MetaDrive-Gen-LaneWidthNum-v0,36,324.72825841212335,571217,1811,15589.645921707153,46.81939697265625,-46.99168395996094,10.538899421691895,0.76
570,MetaDrive-Gen-LaneWidthNum-v0,36,324.45240645577906,572341,1814,15622.353146791458,46.667755126953125,-46.76099395751953,9.135204315185547,0.76
571,MetaDrive-Gen-LaneWidthNum-v0,36,324.46293789429814,573111,1816,15644.798739910126,45.89653396606445,-46.32142639160156,9.402461051940918,0.76
572,MetaDrive-Gen-LaneWidthNum-v0,36,322.72103943828665,574064,1818,15673.162058591843,45.642066955566406,,9.703369140625,0.76
573,MetaDrive-Gen-LaneWidthNum-v0,36,324.74251122928075,575031,1820,15702.499276638031,44.06439971923828,-44.21723937988281,8.270400047302246,0.77
574,MetaDrive-Gen-LaneWidthNum-v0,36,327.81291303260724,576181,1822,15738.551098823547,47.912025451660156,-47.157127380371094,28.56003189086914,0.77
575,MetaDrive-Gen-LaneWidthNum-v0,36,326.56275845661986,577138,1824,15766.997013568878,46.06162643432617,,36.636314392089844,0.77
576,MetaDrive-Gen-LaneWidthNum-v0,36,328.1440881310544,578255,1826,15800.704603910446,47.89928436279297,-48.42182922363281,12.937934875488281,0.77
577,MetaDrive-Gen-LaneWidthNum-v0,36,328.73294008788304,579311,1829,15831.587452888489,44.13041305541992,-44.9970817565918,19.88063621520996,0.78
578,MetaDrive-Gen-LaneWidthNum-v0,36,327.48024908813466,580012,1831,15851.55352973938,45.798526763916016,,11.160199165344238,0.79
579,MetaDrive-Gen-LaneWidthNum-v0,36,325.05073846462255,581228,1834,15886.54528260231,45.092201232910156,,30.251184463500977,0.8
580,MetaDrive-Gen-LaneWidthNum-v0,36,327.9391462923245,582390,1836,15921.536671876907,47.624210357666016,,13.753681182861328,0.8
581,MetaDrive-Gen-LaneWidthNum-v0,36,327.6817141800761,583211,1838,15945.301080703735,46.97154235839844,-47.7335205078125,8.708033561706543,0.8
582,MetaDrive-Gen-LaneWidthNum-v0,36,327.93924021000043,584432,1841,15981.127294778824,46.59733200073242,,8.53786563873291,0.8
583,MetaDrive-Gen-LaneWidthNum-v0,36,328.17668100577504,585235,1843,16004.298152923584,43.95733642578125,-44.07787322998047,16.425636291503906,0.79
584,MetaDrive-Gen-LaneWidthNum-v0,36,327.45221588948414,586333,1846,16035.735815763474,44.33466339111328,-44.035369873046875,22.873958587646484,0.8
585,MetaDrive-Gen-LaneWidthNum-v0,36,329.9075964254812,587522,1849,16071.138895750046,45.32843780517578,,16.266578674316406,0.83
586,MetaDrive-Gen-LaneWidthNum-v0,36,328.32492023654646,588193,1851,16090.347161769867,45.35900115966797,-46.2845344543457,7.809716701507568,0.82
587,MetaDrive-Gen-LaneWidthNum-v0,36,326.13082244877023,589151,1855,16118.255584716797,46.43109130859375,-46.24248504638672,8.15217399597168,0.82
588,MetaDrive-Gen-LaneWidthNum-v0,36,327.869083440198,590087,1857,16146.769639730453,43.32103729248047,-44.21879959106445,6.832984924316406,0.82
589,MetaDrive-Gen-LaneWidthNum-v0,36,325.08662061068765,591400,1860,16185.38804769516,45.8433723449707,,11.835437774658203,0.82
590,MetaDrive-Gen-LaneWidthNum-v0,36,321.13661010979524,592470,1864,16217.122680664062,45.170928955078125,,6.419352054595947,0.81
591,MetaDrive-Gen-LaneWidthNum-v0,36,322.9633483844225,593485,1866,16247.973202943802,47.97611999511719,-48.42914962768555,15.070858001708984,0.81
592,MetaDrive-Gen-LaneWidthNum-v0,36,320.91997275662277,594135,1868,16267.564056634903,45.72483444213867,-46.239952087402344,9.201064109802246,0.8
593,MetaDrive-Gen-LaneWidthNum-v0,36,316.8944982179121,595040,1871,16293.775918722153,46.23098373413086,,9.029153823852539,0.81
594,MetaDrive-Gen-LaneWidthNum-v0,36,319.24458853389626,596478,1874,16338.072115898132,45.366355895996094,,7.125460624694824,0.82
595,MetaDrive-Gen-LaneWidthNum-v0,36,321.6003145393648,597589,1876,16372.315461874008,47.44673156738281,-48.24311828613281,18.927207946777344,0.82
596,MetaDrive-Gen-LaneWidthNum-v0,36,322.0164973909321,598027,1877,16385.459358930588,45.00695037841797,-45.23328399658203,13.732231140136719,0.82
597,MetaDrive-Gen-LaneWidthNum-v0,36,325.8579151585251,599048,1879,16416.847539901733,45.453250885009766,,16.076889038085938,0.83
598,MetaDrive-Gen-LaneWidthNum-v0,36,320.5032866259578,600297,1883,16453.942921876907,45.951786041259766,-46.64507293701172,17.416885375976562,0.81
599,MetaDrive-Gen-LaneWidthNum-v0,36,319.3458931892828,601216,1885,16481.049604654312,46.86795425415039,,16.46295928955078,0.81
600,MetaDrive-Gen-LaneWidthNum-v0,36,320.1215404525698,602127,1887,16509.387771844864,47.323143005371094,-47.460899353027344,8.744068145751953,0.8
601,MetaDrive-Gen-LaneWidthNum-v0,36,320.95431654239195,603081,1889,16539.02097773552,47.17939758300781,-47.856468200683594,19.363399505615234,0.79
602,MetaDrive-Gen-LaneWidthNum-v0,36,317.4588697800915,604055,1892,16567.242983818054,46.90174865722656,-47.46360397338867,9.679230690002441,0.78
603,MetaDrive-Gen-LaneWidthNum-v0,36,317.50240325223245,605079,1894,16597.82026576996,47.363956451416016,-47.827720642089844,17.167789459228516,0.78
604,MetaDrive-Gen-LaneWidthNum-v0,36,321.03136525134175,606223,1896,16633.324777841568,48.09888458251953,-48.51938247680664,6.695334434509277,0.79
605,MetaDrive-Gen-LaneWidthNum-v0,36,323.6740247392978,607301,1898,16665.774304628372,47.131980895996094,-47.31678009033203,86.97808837890625,0.8
606,MetaDrive-Gen-LaneWidthNum-v0,36,325.6053868870488,608227,1900,16693.230759859085,46.252777099609375,-46.424922943115234,47.038299560546875,0.81
607,MetaDrive-Gen-LaneWidthNum-v0,36,320.7927679747893,609165,1903,16721.715263843536,46.654380798339844,-46.70135498046875,51.2098503112793,0.79
608,MetaDrive-Gen-LaneWidthNum-v0,36,321.66887430737444,610073,1905,16748.47371482849,47.02460479736328,-47.31082534790039,7.055123805999756,0.79
609,MetaDrive-Gen-LaneWidthNum-v0,36,317.6221293164406,611317,1909,16784.588320732117,45.031490325927734,-45.22987365722656,19.702102661132812,0.77
610,MetaDrive-Gen-LaneWidthNum-v0,36,316.5710004438692,612153,1911,16809.215713739395,46.80434799194336,-47.14776611328125,11.881668090820312,0.77
611,MetaDrive-Gen-LaneWidthNum-v0,36,317.9692045534144,613357,1914,16843.877436876297,47.883426666259766,-48.36420440673828,8.028606414794922,0.78
612,MetaDrive-Gen-LaneWidthNum-v0,36,317.4710763909916,614370,1917,16873.251800775528,47.15191650390625,,7.098683834075928,0.77
613,MetaDrive-Gen-LaneWidthNum-v0,36,319.2129742543307,615039,1918,16894.21932077408,45.95765686035156,-46.110050201416016,5.231340408325195,0.77
614,MetaDrive-Gen-LaneWidthNum-v0,36,323.16887523448236,616564,1920,16941.995944976807,46.80314636230469,,14.737421035766602,0.77
615,MetaDrive-Gen-LaneWidthNum-v0,36,322.8899040402668,617398,1922,16966.565817832947,43.55326461791992,,16.008834838867188,0.77
616,MetaDrive-Gen-LaneWidthNum-v0,36,320.3383129470408,618567,1925,17001.07164788246,48.131431579589844,-48.69459533691406,8.309436798095703,0.76
617,MetaDrive-Gen-LaneWidthNum-v0,36,317.16546758143295,619113,1927,17017.173702716827,47.132362365722656,-47.520938873291016,11.311771392822266,0.75
618,MetaDrive-Gen-LaneWidthNum-v0,36,318.0185313615387,620244,1930,17051.192049741745,48.68589401245117,,19.86067771911621,0.76
619,MetaDrive-Gen-LaneWidthNum-v0,36,317.50675504996894,621037,1932,17075.704388856888,46.559791564941406,-46.933509826660156,11.199419021606445,0.75
620,MetaDrive-Gen-LaneWidthNum-v0,36,317.47842797133615,622210,1935,17110.224949598312,47.031005859375,,9.56883716583252,0.75
621,MetaDrive-Gen-LaneWidthNum-v0,36,319.30776492197475,623288,1937,17143.086980819702,47.25883483886719,,12.768936157226562,0.75
622,MetaDrive-Gen-LaneWidthNum-v0,36,319.19329388699214,624396,1940,17175.989627838135,45.348243713378906,,59.429359436035156,0.74
623,MetaDrive-Gen-LaneWidthNum-v0,36,320.7406405411943,625246,1942,17200.88952088356,47.06512451171875,,9.788755416870117,0.75
624,MetaDrive-Gen-LaneWidthNum-v0,36,320.3055527439364,626332,1945,17232.573314666748,47.56315231323242,,8.354043960571289,0.74
625,MetaDrive-Gen-LaneWidthNum-v0,36,321.9401013926541,627025,1946,17253.46211361885,47.79658889770508,-48.20611572265625,12.098270416259766,0.74
626,MetaDrive-Gen-LaneWidthNum-v0,36,322.7539421780434,628328,1949,17293.731064796448,47.471378326416016,,6.770764350891113,0.72
627,MetaDrive-Gen-LaneWidthNum-v0,36,321.93427805064823,629225,1952,17320.336673736572,48.66775894165039,-49.52473449707031,43.333885192871094,0.71
628,MetaDrive-Gen-LaneWidthNum-v0,36,326.3185649636054,630326,1954,17352.66836667061,48.146358489990234,,14.384525299072266,0.72
629,MetaDrive-Gen-LaneWidthNum-v0,36,328.2768593369694,631114,1956,17376.104873895645,47.898704528808594,,7.597850322723389,0.73
630,MetaDrive-Gen-LaneWidthNum-v0,36,328.3002656831371,632460,1959,17416.70475077629,47.915306091308594,,11.481559753417969,0.74
631,MetaDrive-Gen-LaneWidthNum-v0,36,331.08592255021176,633384,1961,17443.571786642075,48.243194580078125,,20.24311065673828,0.75
632,MetaDrive-Gen-LaneWidthNum-v0,36,336.05423366012195,634021,1962,17463.616627931595,44.98149871826172,-45.170867919921875,6.5070414543151855,0.76
633,MetaDrive-Gen-LaneWidthNum-v0,36,337.10544584856035,635108,1964,17496.79599571228,46.36702346801758,,22.2388858795166,0.76
634,MetaDrive-Gen-LaneWidthNum-v0,36,337.1049476680412,636125,1966,17527.699249744415,47.0677490234375,-47.799903869628906,8.833503723144531,0.76
635,MetaDrive-Gen-LaneWidthNum-v0,36,339.68405623386644,637681,1969,17575.104314804077,46.5428352355957,-46.70694351196289,6.083979606628418,0.76
636,MetaDrive-Gen-LaneWidthNum-v0,36,342.3795962315981,638284,1970,17593.045016765594,44.42500686645508,,5.533698081970215,0.77
637,MetaDrive-Gen-LaneWidthNum-v0,36,344.30734082603493,639110,1971,17619.171454906464,48.46705627441406,,15.608421325683594,0.77
638,MetaDrive-Gen-LaneWidthNum-v0,36,345.41293455575965,640145,1973,17650.120971679688,44.819541931152344,-45.76348876953125,15.612536430358887,0.78
639,MetaDrive-Gen-LaneWidthNum-v0,36,341.27709791643684,641216,1976,17681.425711870193,46.2985954284668,,8.304140090942383,0.77
640,MetaDrive-Gen-LaneWidthNum-v0,36,336.73336756051015,642501,1980,17719.96370100975,46.56675720214844,-47.004581451416016,8.336715698242188,0.75
641,MetaDrive-Gen-LaneWidthNum-v0,36,340.2396495074411,643240,1982,17741.336260795593,47.74147033691406,,15.473555564880371,0.77
642,MetaDrive-Gen-LaneWidthNum-v0,36,342.03880942898604,644366,1984,17776.59747195244,46.93770980834961,,33.96417236328125,0.77
643,MetaDrive-Gen-LaneWidthNum-v0,36,343.05344327460773,645577,1986,17813.33875989914,45.71487808227539,-45.65378189086914,55.395545959472656,0.78
644,MetaDrive-Gen-LaneWidthNum-v0,36,342.9267513748284,646159,1988,17830.21697998047,46.35935592651367,-46.159236907958984,42.39237976074219,0.78
645,MetaDrive-Gen-LaneWidthNum-v0,36,341.8599940253296,647315,1991,17863.875881910324,47.43059158325195,-47.28145980834961,5.577260971069336,0.8
646,MetaDrive-Gen-LaneWidthNum-v0,36,339.5045587503849,648013,1993,17884.151117801666,43.276737213134766,-43.99639129638672,13.74992847442627,0.79
647,MetaDrive-Gen-LaneWidthNum-v0,36,341.0232942569502,649385,1995,17927.45568060875,46.010986328125,-46.134803771972656,6.933191299438477,0.79
648,MetaDrive-Gen-LaneWidthNum-v0,36,342.27723735148436,650323,1997,17954.944480657578,45.3170166015625,-46.228187561035156,7.168459892272949,0.78
649,MetaDrive-Gen-LaneWidthNum-v0,36,337.7838693501955,651350,2000,17984.953685760498,46.239933013916016,,6.271176338195801,0.78
650,MetaDrive-Gen-LaneWidthNum-v0,36,338.06301440376274,652514,2003,18019.615239858627,45.78016662597656,,14.00833511352539,0.79
651,MetaDrive-Gen-LaneWidthNum-v0,36,340.7113244177237,653164,2004,18040.02625989914,48.25474548339844,,7.772865295410156,0.79
652,MetaDrive-Gen-LaneWidthNum-v0,36,338.8430471290662,654044,2006,18066.404347896576,49.07157897949219,,7.416784763336182,0.78
653,MetaDrive-Gen-LaneWidthNum-v0,36,342.7580159608543,655185,2009,18100.35694694519,47.972923278808594,-48.49430465698242,31.079574584960938,0.79
654,MetaDrive-Gen-LaneWidthNum-v0,36,344.25052481891055,656040,2011,18125.78042292595,46.0131950378418,,14.039487838745117,0.79
655,MetaDrive-Gen-LaneWidthNum-v0,36,343.650113207365,657302,2014,18163.189655780792,48.024662017822266,,12.92972469329834,0.79
656,MetaDrive-Gen-LaneWidthNum-v0,36,346.747302257124,658346,2016,18195.37944674492,48.238197326660156,,10.222846984863281,0.8
657,MetaDrive-Gen-LaneWidthNum-v0,36,346.48265982845055,659411,2018,18227.83015179634,47.51264572143555,-47.78752136230469,10.211898803710938,0.8
658,MetaDrive-Gen-LaneWidthNum-v0,36,344.09764695462115,660007,2019,18246.2440598011,49.48877716064453,-50.43846130371094,17.05132484436035,0.8
659,MetaDrive-Gen-LaneWidthNum-v0,36,339.7974823932275,661165,2022,18281.00092482567,45.345184326171875,-45.60073471069336,29.832935333251953,0.79
660,MetaDrive-Gen-LaneWidthNum-v0,36,341.2570343336195,662376,2025,18317.367292881012,48.11632537841797,,12.479949951171875,0.79
661,MetaDrive-Gen-LaneWidthNum-v0,36,341.6269873095336,663405,2028,18346.85644865036,47.47896194458008,-47.618343353271484,12.160825729370117,0.8
662,MetaDrive-Gen-LaneWidthNum-v0,36,342.87314372326466,664210,2030,18371.10667490959,48.40699768066406,,8.611600875854492,0.8
663,MetaDrive-Gen-LaneWidthNum-v0,36,341.671790870165,665362,2033,18405.237926721573,47.37053680419922,,13.845252990722656,0.8
664,MetaDrive-Gen-LaneWidthNum-v0,36,345.04794083795844,666367,2035,18435.952019929886,49.23128128051758,-48.66282653808594,7.897380828857422,0.8
665,MetaDrive-Gen-LaneWidthNum-v0,36,340.23761102078265,667278,2038,18463.005339860916,47.615272521972656,,12.426478385925293,0.79
666,MetaDrive-Gen-LaneWidthNum-v0,36,338.3878936698298,668243,2041,18491.752061843872,48.053619384765625,-48.160850524902344,18.719886779785156,0.79
667,MetaDrive-Gen-LaneWidthNum-v0,36,339.5667115314061,669139,2043,18517.90576982498,50.15672302246094,-50.47509002685547,28.5116024017334,0.8
668,MetaDrive-Gen-LaneWidthNum-v0,36,336.6854687701538,670293,2046,18552.269724845886,48.96351623535156,-49.754478454589844,7.391487121582031,0.8
669,MetaDrive-Gen-LaneWidthNum-v0,36,337.00842016977566,671189,2048,18578.86076784134,49.6905517578125,-49.843502044677734,44.33274841308594,0.81
670,MetaDrive-Gen-LaneWidthNum-v0,36,339.26872959933587,672189,2050,18608.12584877014,49.78382873535156,-49.84559631347656,14.110795974731445,0.83
671,MetaDrive-Gen-LaneWidthNum-v0,36,341.90829541017416,673222,2052,18639.123768806458,46.791114807128906,,10.816417694091797,0.84
672,MetaDrive-Gen-LaneWidthNum-v0,36,340.7466486203271,674050,2054,18665.00076174736,46.31394958496094,,16.13155746459961,0.83
673,MetaDrive-Gen-LaneWidthNum-v0,36,338.26020090937476,675306,2058,18701.70214867592,48.11469268798828,,9.798124313354492,0.81
674,MetaDrive-Gen-LaneWidthNum-v0,36,337.22623227894337,676221,2060,18728.52250289917,46.57328414916992,-46.76381301879883,9.199935913085938,0.81
675,MetaDrive-Gen-LaneWidthNum-v0,36,335.04295823504873,677155,2062,18755.557585716248,48.86892318725586,-49.407615661621094,13.137004852294922,0.81
676,MetaDrive-Gen-LaneWidthNum-v0,36,335.0472886652194,678240,2064,18788.0465426445,48.774932861328125,,8.843954086303711,0.81
677,MetaDrive-Gen-LaneWidthNum-v0,36,330.22689347222536,679041,2067,18811.159676790237,46.357765197753906,-45.82278823852539,13.318828582763672,0.8
678,MetaDrive-Gen-LaneWidthNum-v0,36,328.9207631413714,680132,2070,18842.27093076706,47.814693450927734,,8.295394897460938,0.81
679,MetaDrive-Gen-LaneWidthNum-v0,36,329.61790545699915,681008,2071,18868.48578476906,48.37531280517578,,7.231761932373047,0.81
680,MetaDrive-Gen-LaneWidthNum-v0,36,330.58297904987427,682417,2074,18909.590752601624,49.77842330932617,-50.1916618347168,16.31433868408203,0.81
681,MetaDrive-Gen-LaneWidthNum-v0,36,332.91128979266153,683379,2076,18937.672509908676,49.84640121459961,-50.372589111328125,17.339252471923828,0.82
682,MetaDrive-Gen-LaneWidthNum-v0,36,333.3989646420598,684055,2078,18957.240442752838,48.68302917480469,-49.49842834472656,8.893533706665039,0.82
683,MetaDrive-Gen-LaneWidthNum-v0,36,332.6100474260718,685194,2081,18991.300853729248,48.104705810546875,,6.5159196853637695,0.82
684,MetaDrive-Gen-LaneWidthNum-v0,36,328.6593736594373,686084,2084,19016.812507867813,46.563232421875,,6.698432922363281,0.81
685,MetaDrive-Gen-LaneWidthNum-v0,36,328.92046770664024,687431,2087,19056.151922941208,46.94198226928711,-47.006004333496094,6.85850191116333,0.8
686,MetaDrive-Gen-LaneWidthNum-v0,36,329.6095738078929,688204,2089,19078.313433647156,48.19296646118164,,6.157082557678223,0.79
687,MetaDrive-Gen-LaneWidthNum-v0,36,330.5191747459732,689075,2091,19103.560607910156,49.183067321777344,-49.425777435302734,7.788965225219727,0.79
688,MetaDrive-Gen-LaneWidthNum-v0,36,333.43733610334704,690011,2093,19131.962349653244,45.9771728515625,-46.35265350341797,18.238332748413086,0.8
689,MetaDrive-Gen-LaneWidthNum-v0,36,332.25505305764506,691461,2096,19174.964189767838,47.89913558959961,-48.96599197387695,6.799820899963379,0.81
690,MetaDrive-Gen-LaneWidthNum-v0,36,329.7182389778001,692085,2098,19193.80953669548,48.91453552246094,-49.17014694213867,7.566316604614258,0.8
691,MetaDrive-Gen-LaneWidthNum-v0,36,333.1085362508823,693069,2100,19222.537166833878,49.48800277709961,-48.945213317871094,6.986862659454346,0.8
692,MetaDrive-Gen-LaneWidthNum-v0,36,335.4025992427841,694052,2102,19250.832909822464,48.59552764892578,,7.9951982498168945,0.81
693,MetaDrive-Gen-LaneWidthNum-v0,36,332.47793591997356,695210,2104,19286.211177825928,47.50395965576172,,18.29507827758789,0.81
694,MetaDrive-Gen-LaneWidthNum-v0,36,333.5541065916104,696195,2106,19315.708387851715,46.47523880004883,-47.438846588134766,20.44572639465332,0.82
695,MetaDrive-Gen-LaneWidthNum-v0,36,334.7709076696367,697176,2108,19344.63689661026,48.671287536621094,,13.410021781921387,0.83
696,MetaDrive-Gen-LaneWidthNum-v0,36,333.82976774042436,698201,2111,19374.27762579918,50.17233657836914,-50.00868225097656,24.77092933654785,0.83
697,MetaDrive-Gen-LaneWidthNum-v0,36,334.3545989514052,699055,2113,19399.069197654724,48.4666862487793,-48.647037506103516,16.983692169189453,0.83
698,MetaDrive-Gen-LaneWidthNum-v0,36,330.89651247550245,700017,2116,19427.341960906982,47.358642578125,-47.575191497802734,9.7089262008667,0.82
699,MetaDrive-Gen-LaneWidthNum-v0,36,331.0222116341403,701083,2118,19459.81863284111,48.766998291015625,-49.2772216796875,7.498472690582275,0.82
700,MetaDrive-Gen-LaneWidthNum-v0,36,331.91107051960455,702397,2121,19498.733316659927,49.88022994995117,-50.739688873291016,16.01698875427246,0.82
701,MetaDrive-Gen-LaneWidthNum-v0,36,330.25758671157547,703113,2123,19519.614714860916,50.01619338989258,-50.433624267578125,14.172136306762695,0.81
702,MetaDrive-Gen-LaneWidthNum-v0,36,333.0969199543356,704601,2126,19563.937920570374,50.407493591308594,-50.15635681152344,13.624486923217773,0.81
703,MetaDrive-Gen-LaneWidthNum-v0,36,335.8858784305179,705373,2127,19588.108756780624,49.59601974487305,-49.9385871887207,12.3145751953125,0.81
704,MetaDrive-Gen-LaneWidthNum-v0,36,335.5770854521026,706102,2129,19609.46323466301,49.39527893066406,,18.90750503540039,0.8
705,MetaDrive-Gen-LaneWidthNum-v0,36,335.9553225848758,707162,2131,19641.301459789276,48.49279022216797,,18.829547882080078,0.8
706,MetaDrive-Gen-LaneWidthNum-v0,36,336.942434547199,708007,2133,19666.2322537899,48.772762298583984,-49.26613235473633,10.317211151123047,0.81
707,MetaDrive-Gen-LaneWidthNum-v0,35,335.7934434155192,709414,2136,19708.71739077568,47.00975799560547,,13.971405029296875,0.81
708,MetaDrive-Gen-LaneWidthNum-v0,35,336.21618708384864,710065,2138,19727.563638687134,48.23795700073242,-48.038753509521484,13.756278991699219,0.81
709,MetaDrive-Gen-LaneWidthNum-v0,35,340.14564912823926,711766,2141,19779.897516727448,49.36857604980469,,8.930791854858398,0.82
710,MetaDrive-Gen-LaneWidthNum-v0,35,339.52257944188887,712079,2142,19788.656394720078,48.7431526184082,-49.51271057128906,6.279952049255371,0.82
711,MetaDrive-Gen-LaneWidthNum-v0,35,339.99604951405547,713235,2145,19822.680659770966,47.59602355957031,-48.73249053955078,7.4558634757995605,0.81
712,MetaDrive-Gen-LaneWidthNum-v0,35,339.79065893292403,714130,2147,19849.512584924698,47.77484130859375,,15.548746109008789,0.81
713,MetaDrive-Gen-LaneWidthNum-v0,35,340.5385408049231,715030,2149,19876.320502758026,48.98067092895508,,22.994354248046875,0.8
714,MetaDrive-Gen-LaneWidthNum-v0,35,334.40104752721874,716045,2152,19905.965666770935,47.03938674926758,-47.13501739501953,10.764142990112305,0.79
715,MetaDrive-Gen-LaneWidthNum-v0,35,333.6440898335443,717451,2155,19947.114671707153,48.277976989746094,-48.7149658203125,7.175681114196777,0.79
716,MetaDrive-Gen-LaneWidthNum-v0,35,336.09398721404864,718151,2157,19967.352506875992,47.491127014160156,-47.74573516845703,7.358831405639648,0.81
717,MetaDrive-Gen-LaneWidthNum-v0,35,336.59732130740866,719327,2160,20001.26526069641,47.80244064331055,-48.10184097290039,9.128973007202148,0.81
718,MetaDrive-Gen-LaneWidthNum-v0,35,337.5204544578286,720285,2162,20029.870308876038,44.38051986694336,-44.82110595703125,7.067594528198242,0.81
719,MetaDrive-Gen-LaneWidthNum-v0,35,337.2492776363909,721428,2164,20063.42524957657,47.368072509765625,,12.896862030029297,0.8
720,MetaDrive-Gen-LaneWidthNum-v0,35,338.57525701030664,722207,2166,20086.8734498024,51.500186920166016,-52.0140380859375,5.780284881591797,0.8
721,MetaDrive-Gen-LaneWidthNum-v0,35,339.4868681058448,723239,2169,20116.69819879532,50.906394958496094,-51.207393646240234,12.330236434936523,0.81
722,MetaDrive-Gen-LaneWidthNum-v0,35,336.4535563476469,724307,2172,20148.007497787476,49.36773681640625,-49.29084014892578,10.837892532348633,0.8
723,MetaDrive-Gen-LaneWidthNum-v0,35,333.87414294226875,725064,2174,20170.62766957283,49.03732681274414,,22.438037872314453,0.79
724,MetaDrive-Gen-LaneWidthNum-v0,35,332.8170210544977,726302,2177,20207.13113975525,50.47300720214844,,18.810935974121094,0.8
725,MetaDrive-Gen-LaneWidthNum-v0,35,334.04563362865747,727107,2179,20230.903835773468,48.16969299316406,-47.37010192871094,8.877697944641113,0.8
726,MetaDrive-Gen-LaneWidthNum-v0,35,335.3808647427261,728397,2182,20268.80927991867,49.712623596191406,-50.436676025390625,6.392716407775879,0.81
727,MetaDrive-Gen-LaneWidthNum-v0,35,337.61126078991043,729056,2183,20289.184485673904,46.42376708984375,,5.095360279083252,0.81
728,MetaDrive-Gen-LaneWidthNum-v0,35,335.43247044389796,730056,2186,20319.277606725693,49.427433013916016,,14.022224426269531,0.81
