TanmayH/CS269-RL-project-code/MetaDrive-test-conv-dropout-norm-lr/td3/progress.csv
,log_dir,frame_per_second,episode_reward,total_steps,total_episodes,total_time,target_q,actor_loss,critic_loss,success_rate
0,MetaDrive-test-conv-dropout-norm-lr,273,8.324201002543514,1770,2,6.46780800819397,,,,0.0
1,MetaDrive-test-conv-dropout-norm-lr,177,9.279739688623293,2771,3,15.607362747192383,,,,0.0
2,MetaDrive-test-conv-dropout-norm-lr,200,9.29013117457052,3772,4,18.777671813964844,,,,0.0
3,MetaDrive-test-conv-dropout-norm-lr,196,9.543184804118363,4773,5,24.24009919166565,,,,0.0
4,MetaDrive-test-conv-dropout-norm-lr,154,7.999317641871351,5049,6,32.667829751968384,-0.12695029377937317,0.11649143695831299,0.0008416152559220791,0.0
5,MetaDrive-test-conv-dropout-norm-lr,114,-1.7142079975666178,6030,45,52.57921099662781,-0.12878675758838654,,0.0066109453327953815,0.0
6,MetaDrive-test-conv-dropout-norm-lr,108,-1.706476328142389,7031,46,64.67440700531006,-0.1019720509648323,0.11890104413032532,0.008993263356387615,0.0
7,MetaDrive-test-conv-dropout-norm-lr,104,-1.7314700011701127,8032,47,76.9778459072113,-0.09050367027521133,,0.01122039370238781,0.0
8,MetaDrive-test-conv-dropout-norm-lr,100,-1.5226802751330117,9033,48,89.82067894935608,-0.07012873888015747,0.05392450466752052,0.002480815164744854,0.0
9,MetaDrive-test-conv-dropout-norm-lr,94,-1.2577096869876845,10714,50,113.35271501541138,-0.023412205278873444,,0.015354754403233528,0.0
10,MetaDrive-test-conv-dropout-norm-lr,94,-0.9775779219576491,11063,51,117.58558511734009,0.0008294940926134586,-0.0073007321916520596,0.001704394118860364,0.0
11,MetaDrive-test-conv-dropout-norm-lr,89,-0.2065709831752738,12427,59,139.56217861175537,0.050382789224386215,-0.021101010963320732,0.004809170495718718,0.0
12,MetaDrive-test-conv-dropout-norm-lr,87,0.6899048283669494,13372,65,152.2364056110382,0.13253483176231384,,0.0042851772159338,0.0
13,MetaDrive-test-conv-dropout-norm-lr,86,2.084460134968095,14171,67,163.25400948524475,0.17395298182964325,-0.1942734569311142,0.015592919662594795,0.0
14,MetaDrive-test-conv-dropout-norm-lr,84,5.1713157313440625,15701,73,185.6324439048767,0.3929303288459778,-0.4024612009525299,0.032372117042541504,0.0
15,MetaDrive-test-conv-dropout-norm-lr,83,6.008655579575435,16191,74,194.23843455314636,0.4832344651222229,-0.39150291681289673,0.0832928791642189,0.0
16,MetaDrive-test-conv-dropout-norm-lr,82,8.083294384213072,17026,80,206.1519055366516,0.6378299593925476,,0.03538903966546059,0.0
17,MetaDrive-test-conv-dropout-norm-lr,80,10.388799954127055,18030,94,222.76762771606445,0.8292955160140991,,0.026212621480226517,0.0
18,MetaDrive-test-conv-dropout-norm-lr,79,14.320632593946124,19057,107,240.3223478794098,1.194734811782837,-1.269288420677185,0.049851834774017334,0.0
19,MetaDrive-test-conv-dropout-norm-lr,78,18.853839962778434,20019,118,255.72383737564087,1.4826792478561401,-1.6131608486175537,1.1792240142822266,0.0
20,MetaDrive-test-conv-dropout-norm-lr,77,23.807420547943956,21018,133,272.57926416397095,1.9998970031738281,,0.9489136934280396,0.0
21,MetaDrive-test-conv-dropout-norm-lr,76,28.60269013006691,22004,146,289.32261419296265,2.5915894508361816,,2.388434648513794,0.0
22,MetaDrive-test-conv-dropout-norm-lr,75,32.99557375056426,23052,160,305.66408467292786,3.1524367332458496,,0.06090459227561951,0.0
23,MetaDrive-test-conv-dropout-norm-lr,74,37.06677561814774,24057,172,321.9426815509796,4.002192497253418,-3.9779810905456543,0.19736473262310028,0.0
24,MetaDrive-test-conv-dropout-norm-lr,74,37.827972577801646,25115,183,339.24315094947815,4.320420265197754,-4.716238975524902,0.20628517866134644,0.0
25,MetaDrive-test-conv-dropout-norm-lr,73,40.77061417980852,26031,194,354.2190878391266,5.112403869628906,-5.31522798538208,5.047746658325195,0.0
26,MetaDrive-test-conv-dropout-norm-lr,72,42.67938779570756,27008,204,370.02993178367615,5.275166988372803,,12.114192962646484,0.0
27,MetaDrive-test-conv-dropout-norm-lr,72,43.39345794324149,28079,219,387.65059781074524,6.960297584533691,-7.286953926086426,0.275738388299942,0.0
28,MetaDrive-test-conv-dropout-norm-lr,71,47.05341093442442,29124,231,405.47778058052063,8.117781639099121,,0.524438738822937,0.0
29,MetaDrive-test-conv-dropout-norm-lr,71,49.28594536313328,30008,240,419.13725209236145,8.848011016845703,,1.0684775114059448,0.0
30,MetaDrive-test-conv-dropout-norm-lr,71,53.92948788654747,31060,249,436.2070047855377,9.666193008422852,,0.7910538911819458,0.0
31,MetaDrive-test-conv-dropout-norm-lr,70,56.586828841708154,32067,259,453.4890413284302,9.63595962524414,-9.81329345703125,0.3475995659828186,0.0
32,MetaDrive-test-conv-dropout-norm-lr,70,63.61129007779829,33030,266,467.72359251976013,10.620488166809082,,8.838582992553711,0.02
33,MetaDrive-test-conv-dropout-norm-lr,70,66.71127267077232,34014,275,483.97043085098267,12.710193634033203,,1.434269666671753,0.02
34,MetaDrive-test-conv-dropout-norm-lr,70,67.98633256112743,35064,285,499.50584745407104,13.32689094543457,,0.8358593583106995,0.02
35,MetaDrive-test-conv-dropout-norm-lr,69,68.96840273994634,36096,295,517.9353017807007,13.110690116882324,,1.333755612373352,0.02
36,MetaDrive-test-conv-dropout-norm-lr,69,69.39090198404337,37010,305,530.9382400512695,14.581104278564453,,13.673901557922363,0.02
37,MetaDrive-test-conv-dropout-norm-lr,69,72.43604090956714,38224,317,548.9079377651215,16.081369400024414,,22.07668685913086,0.02
38,MetaDrive-test-conv-dropout-norm-lr,69,74.55374055836755,39057,324,561.3342332839966,14.573280334472656,-14.6715087890625,1.9595341682434082,0.02
39,MetaDrive-test-conv-dropout-norm-lr,69,75.47912417329697,40047,335,577.09130859375,16.043685913085938,-16.2136173248291,10.750542640686035,0.02
40,MetaDrive-test-conv-dropout-norm-lr,69,72.50311345165419,41032,347,592.8166925907135,17.27567481994629,,0.9341617822647095,0.02
41,MetaDrive-test-conv-dropout-norm-lr,69,72.99618326898937,42307,351,608.6896150112152,18.0051212310791,-18.424592971801758,23.134071350097656,0.02
42,MetaDrive-test-conv-dropout-norm-lr,69,69.00311130450413,43059,362,620.6504306793213,20.39446258544922,-20.139232635498047,3.7962992191314697,0.02
43,MetaDrive-test-conv-dropout-norm-lr,69,62.87562672072386,44012,373,635.050624370575,20.70431900024414,,1.7142651081085205,0.0
44,MetaDrive-test-conv-dropout-norm-lr,69,58.72296501604682,45051,387,651.0732614994049,20.194889068603516,-20.309680938720703,3.6460464000701904,0.0
45,MetaDrive-test-conv-dropout-norm-lr,68,53.41665310815822,46092,403,668.4945228099823,21.87059211730957,,13.377067565917969,0.0
46,MetaDrive-test-conv-dropout-norm-lr,68,53.31452990475872,47058,416,683.0896725654602,20.507625579833984,,8.717124938964844,0.0
47,MetaDrive-test-conv-dropout-norm-lr,68,49.38179184879403,48008,428,696.7605035305023,21.470155715942383,,2.6950161457061768,0.0
48,MetaDrive-test-conv-dropout-norm-lr,68,45.15061517444296,49031,444,712.2875895500183,21.530242919921875,-22.034400939941406,30.632038116455078,0.0
49,MetaDrive-test-conv-dropout-norm-lr,68,43.838563098833575,50039,458,728.1578769683838,22.533231735229492,-22.6397705078125,11.716618537902832,0.0
50,MetaDrive-test-conv-dropout-norm-lr,68,44.68579733901751,51050,470,743.5724325180054,25.238990783691406,,14.478382110595703,0.01
51,MetaDrive-test-conv-dropout-norm-lr,68,45.99253531512254,52007,481,759.089103937149,24.63982391357422,-24.974210739135742,4.56226110458374,0.01
52,MetaDrive-test-conv-dropout-norm-lr,68,47.15638416322437,53023,495,774.6865482330322,24.132816314697266,-25.580692291259766,16.37130355834961,0.01
53,MetaDrive-test-conv-dropout-norm-lr,68,51.30237074029518,54003,506,789.1707429885864,23.521316528320312,-23.592376708984375,6.919681549072266,0.01
54,MetaDrive-test-conv-dropout-norm-lr,68,50.44532508777213,55044,519,805.4705634117126,24.859535217285156,,43.32240295410156,0.01
55,MetaDrive-test-conv-dropout-norm-lr,68,52.3991069472692,56117,532,821.6170847415924,27.709373474121094,-28.670154571533203,2.505613088607788,0.01
56,MetaDrive-test-conv-dropout-norm-lr,68,53.92969850546999,57109,545,835.9859573841095,26.845760345458984,-26.722875595092773,6.862143039703369,0.01
57,MetaDrive-test-conv-dropout-norm-lr,68,53.19211466068031,58026,559,849.8759589195251,26.666322708129883,,64.33551788330078,0.01
58,MetaDrive-test-conv-dropout-norm-lr,68,49.939442909801635,59081,573,866.4544684886932,28.001079559326172,-28.006507873535156,2.7958312034606934,0.0
59,MetaDrive-test-conv-dropout-norm-lr,68,50.36376969575895,60071,584,881.8192744255066,27.149879455566406,-27.15465545654297,2.642164468765259,0.0
60,MetaDrive-test-conv-dropout-norm-lr,68,51.144636233320114,61006,595,896.2378444671631,28.871850967407227,,40.42662048339844,0.0
61,MetaDrive-test-conv-dropout-norm-lr,68,50.944691168490756,62744,604,919.3472111225128,25.87042999267578,,18.19436264038086,0.0
62,MetaDrive-test-conv-dropout-norm-lr,68,50.96324670862947,63024,607,923.8311467170715,29.108280181884766,,2.2010879516601562,0.0
63,MetaDrive-test-conv-dropout-norm-lr,68,53.49402733066538,64989,614,951.3989255428314,28.95138931274414,-29.432636260986328,30.169281005859375,0.0
64,MetaDrive-test-conv-dropout-norm-lr,68,53.562363637182386,65088,615,953.0372097492218,29.53731918334961,,2.556889057159424,0.0
65,MetaDrive-test-conv-dropout-norm-lr,68,54.28478395789457,66429,619,972.5249905586243,28.476924896240234,-29.404373168945312,27.51513671875,0.0
66,MetaDrive-test-conv-dropout-norm-lr,68,57.12922299038374,67192,626,983.3314504623413,30.281652450561523,,10.281984329223633,0.0
67,MetaDrive-test-conv-dropout-norm-lr,68,56.95867503070949,68193,627,1000.506413936615,29.81871223449707,-30.713869094848633,16.381946563720703,0.0
68,MetaDrive-test-conv-dropout-norm-lr,68,57.25499746613335,69119,629,1013.8769042491913,28.463542938232422,-28.49616050720215,6.117517948150635,0.0
69,MetaDrive-test-conv-dropout-norm-lr,68,56.976946587662816,70120,630,1025.8158357143402,24.97308921813965,,8.468669891357422,0.0
70,MetaDrive-test-conv-dropout-norm-lr,68,56.19318894686339,71121,631,1037.882051229477,28.412372589111328,-28.21136474609375,3.553879737854004,0.0
71,MetaDrive-test-conv-dropout-norm-lr,68,59.07684369231294,72036,637,1052.2000715732574,30.730655670166016,,5.190552711486816,0.0
72,MetaDrive-test-conv-dropout-norm-lr,68,59.67442330434237,73132,639,1066.8982465267181,28.145565032958984,,4.662608623504639,0.0
73,MetaDrive-test-conv-dropout-norm-lr,68,64.37567562689898,74122,642,1082.4745316505432,30.529190063476562,,3.6468253135681152,0.0
74,MetaDrive-test-conv-dropout-norm-lr,68,64.37242029166313,75123,643,1094.2873463630676,26.087793350219727,-27.290300369262695,2.2102560997009277,0.0
75,MetaDrive-test-conv-dropout-norm-lr,68,63.08620276092008,76224,645,1111.740377664566,26.8907470703125,,3.769028663635254,0.0
76,MetaDrive-test-conv-dropout-norm-lr,68,62.56224130810788,77225,646,1128.3433673381805,25.080135345458984,-25.42728042602539,32.275848388671875,0.0
77,MetaDrive-test-conv-dropout-norm-lr,68,65.98329620191583,78001,649,1138.603679895401,29.953964233398438,-30.834924697875977,45.09638214111328,0.01
78,MetaDrive-test-conv-dropout-norm-lr,68,69.34637021105252,79364,653,1156.7065811157227,30.5064697265625,,23.44973373413086,0.01
79,MetaDrive-test-conv-dropout-norm-lr,68,71.69295243814679,80365,654,1176.3367457389832,27.642841339111328,-28.089248657226562,10.66125202178955,0.01
80,MetaDrive-test-conv-dropout-norm-lr,68,73.90902756807579,81564,657,1195.2436652183533,29.72823715209961,,32.209228515625,0.01
81,MetaDrive-test-conv-dropout-norm-lr,68,75.88024387428423,82565,658,1210.9721615314484,22.588993072509766,-22.486347198486328,7.976612091064453,0.01
82,MetaDrive-test-conv-dropout-norm-lr,68,78.86412256774182,83104,661,1219.9576177597046,27.38272476196289,,10.04205322265625,0.01
83,MetaDrive-test-conv-dropout-norm-lr,67,82.35774442770251,84105,662,1237.0337164402008,28.317733764648438,-28.385032653808594,54.1092414855957,0.01
84,MetaDrive-test-conv-dropout-norm-lr,68,85.53220763476118,85326,666,1253.8783385753632,25.674503326416016,,4.658041954040527,0.01
85,MetaDrive-test-conv-dropout-norm-lr,67,90.06646100375995,86899,669,1280.5669963359833,28.65591812133789,-28.85390281677246,14.957704544067383,0.01
86,MetaDrive-test-conv-dropout-norm-lr,67,92.10095462935784,87173,670,1284.0095512866974,25.669591903686523,-26.902637481689453,57.810489654541016,0.01
87,MetaDrive-test-conv-dropout-norm-lr,67,94.83287024062923,88268,673,1300.4948534965515,27.129905700683594,,3.701005458831787,0.02
88,MetaDrive-test-conv-dropout-norm-lr,67,98.45473450886097,89248,676,1313.1505167484283,29.678251266479492,,7.373863220214844,0.03
89,MetaDrive-test-conv-dropout-norm-lr,67,103.73113162063892,90306,679,1328.688128709793,28.658172607421875,,7.593969821929932,0.03
90,MetaDrive-test-conv-dropout-norm-lr,67,105.29495608347028,91033,681,1340.6553151607513,32.92671203613281,-33.66604995727539,2.5051424503326416,0.03
91,MetaDrive-test-conv-dropout-norm-lr,67,106.88041321023712,92034,682,1361.4472479820251,30.955425262451172,,5.5157790184021,0.03
92,MetaDrive-test-conv-dropout-norm-lr,67,110.44465448702034,93639,686,1385.75834608078,32.12470245361328,-32.05170822143555,22.279260635375977,0.04
93,MetaDrive-test-conv-dropout-norm-lr,67,112.94210443872792,94508,690,1397.5734865665436,33.139076232910156,,42.01108932495117,0.05
94,MetaDrive-test-conv-dropout-norm-lr,67,116.23119143100968,95187,691,1407.3216264247894,32.15686798095703,-32.06610107421875,25.660533905029297,0.06
95,MetaDrive-test-conv-dropout-norm-lr,67,118.79196414849872,96159,693,1423.1431312561035,31.193359375,-32.13107681274414,19.639503479003906,0.06
96,MetaDrive-test-conv-dropout-norm-lr,67,121.86891026877544,97641,695,1444.7342219352722,32.65924835205078,-33.1446533203125,2.2245612144470215,0.07
97,MetaDrive-test-conv-dropout-norm-lr,67,122.86665303953447,98178,696,1452.4343791007996,30.571971893310547,,5.710991859436035,0.07
98,MetaDrive-test-conv-dropout-norm-lr,67,126.92810609111834,99046,699,1467.1857538223267,33.86030578613281,,2.1053977012634277,0.07
99,MetaDrive-test-conv-dropout-norm-lr,67,128.0910846341565,100047,700,1485.1774191856384,31.76702880859375,-31.96072769165039,2.600485324859619,0.07
100,MetaDrive-test-conv-dropout-norm-lr,67,129.5332623714808,101048,701,1502.0860710144043,29.831016540527344,,11.773896217346191,0.07
101,MetaDrive-test-conv-dropout-norm-lr,67,132.51422951015726,102049,702,1516.691279888153,29.728727340698242,-29.721439361572266,31.38469123840332,0.07
102,MetaDrive-test-conv-dropout-norm-lr,67,133.94174975734188,103550,705,1537.8625490665436,33.76051330566406,,4.870941162109375,0.07
103,MetaDrive-test-conv-dropout-norm-lr,67,133.58479945584781,104236,708,1548.1767554283142,29.570266723632812,,33.441566467285156,0.07
104,MetaDrive-test-conv-dropout-norm-lr,67,135.23917410937602,105246,710,1562.9568092823029,32.121700286865234,,6.165619373321533,0.07
105,MetaDrive-test-conv-dropout-norm-lr,67,136.84327264935334,106247,711,1577.8832762241364,32.62671661376953,-33.24941635131836,4.964620590209961,0.07
106,MetaDrive-test-conv-dropout-norm-lr,67,138.56422053557287,107183,715,1591.993131160736,31.99353790283203,-32.28284454345703,9.915325164794922,0.08
107,MetaDrive-test-conv-dropout-norm-lr,67,138.27960564691048,108197,720,1607.8457131385803,30.921953201293945,-32.186065673828125,63.74810791015625,0.08
108,MetaDrive-test-conv-dropout-norm-lr,67,138.99532742613263,109449,723,1626.5155580043793,32.664215087890625,-32.95270538330078,11.28846549987793,0.08
109,MetaDrive-test-conv-dropout-norm-lr,67,140.72672111060126,111001,726,1649.1906354427338,31.895458221435547,-32.029537200927734,3.375533103942871,0.08
110,MetaDrive-test-conv-dropout-norm-lr,67,142.22097089434186,112002,727,1666.2061910629272,34.462135314941406,,4.2798871994018555,0.08
111,MetaDrive-test-conv-dropout-norm-lr,67,145.50691856291746,113037,731,1682.4609441757202,30.39926528930664,-31.42228889465332,6.273167610168457,0.09
112,MetaDrive-test-conv-dropout-norm-lr,67,146.69657269080486,114038,732,1697.2810642719269,33.971351623535156,,5.112434387207031,0.09
113,MetaDrive-test-conv-dropout-norm-lr,67,150.67151633914108,115464,735,1720.941929101944,28.92006492614746,,4.730403423309326,0.1
114,MetaDrive-test-conv-dropout-norm-lr,67,152.43357710043256,116493,738,1736.5095782279968,32.12516403198242,-32.46218490600586,11.805782318115234,0.11
115,MetaDrive-test-conv-dropout-norm-lr,67,152.60026038797596,117474,741,1752.08252286911,32.6645622253418,,3.5737099647521973,0.12
116,MetaDrive-test-conv-dropout-norm-lr,67,152.6900795994163,118096,744,1762.0607042312622,30.535017013549805,,4.841576099395752,0.12
117,MetaDrive-test-conv-dropout-norm-lr,66,159.67544925657887,119817,747,1790.4206924438477,34.6139030456543,-35.34264373779297,2.866875171661377,0.14
118,MetaDrive-test-conv-dropout-norm-lr,66,159.74869804426643,120480,749,1799.1635310649872,33.712921142578125,,8.296234130859375,0.14
119,MetaDrive-test-conv-dropout-norm-lr,66,163.63696126677982,121307,751,1811.9963500499725,33.68966293334961,-33.498775482177734,4.233725070953369,0.15
120,MetaDrive-test-conv-dropout-norm-lr,66,161.6202498138075,122467,754,1835.626178741455,29.92021942138672,-29.778179168701172,6.9109320640563965,0.15
121,MetaDrive-test-conv-dropout-norm-lr,66,163.93722422888234,123042,755,1844.0522079467773,31.36164093017578,,6.343152046203613,0.16
122,MetaDrive-test-conv-dropout-norm-lr,66,162.37144062289318,124161,759,1861.5674889087677,35.11675262451172,-35.56346130371094,3.18826961517334,0.17
123,MetaDrive-test-conv-dropout-norm-lr,66,159.7950994317464,125124,763,1878.4847838878632,32.73316192626953,,6.630025863647461,0.17
124,MetaDrive-test-conv-dropout-norm-lr,66,159.22374504178364,126181,767,1896.410532951355,37.18235397338867,-37.8651123046875,4.641615867614746,0.17
125,MetaDrive-test-conv-dropout-norm-lr,66,157.7623468185883,127232,771,1911.3977119922638,35.092506408691406,,6.195606708526611,0.18
126,MetaDrive-test-conv-dropout-norm-lr,66,155.91394404975662,128259,774,1927.0660696029663,35.97608184814453,-35.9400749206543,11.615473747253418,0.18
127,MetaDrive-test-conv-dropout-norm-lr,66,154.64311225911106,129088,777,1939.865152835846,33.007118225097656,,9.249752044677734,0.18
128,MetaDrive-test-conv-dropout-norm-lr,66,153.1296049059816,130089,778,1952.215728521347,34.24505615234375,-34.354393005371094,2.922398090362549,0.18
129,MetaDrive-test-conv-dropout-norm-lr,66,155.13970254106127,131507,781,1974.4548230171204,35.62818908691406,-36.71113204956055,7.889697551727295,0.2
130,MetaDrive-test-conv-dropout-norm-lr,66,155.59309472292128,132007,782,1981.9427762031555,39.182472229003906,-39.12548828125,5.161710739135742,0.21
131,MetaDrive-test-conv-dropout-norm-lr,66,155.37524142673723,133425,786,2006.9142322540283,35.763572692871094,-35.63135528564453,2.7844109535217285,0.21
132,MetaDrive-test-conv-dropout-norm-lr,66,158.29875682080493,134222,787,2019.8460929393768,32.98804473876953,,7.3396220207214355,0.22
133,MetaDrive-test-conv-dropout-norm-lr,66,158.8722010339479,135149,790,2033.0214915275574,34.91117477416992,-35.110355377197266,5.2899169921875,0.22
134,MetaDrive-test-conv-dropout-norm-lr,66,153.65328623665232,136718,796,2057.32035779953,34.902366638183594,,5.745525360107422,0.22
135,MetaDrive-test-conv-dropout-norm-lr,66,156.49391927079589,137281,797,2066.3517553806305,36.37450408935547,-37.08644485473633,17.387924194335938,0.23
136,MetaDrive-test-conv-dropout-norm-lr,66,156.5691099221757,138779,799,2090.47438788414,34.88204574584961,-35.12066650390625,5.152112007141113,0.24
137,MetaDrive-test-conv-dropout-norm-lr,66,157.4227146260233,139369,800,2098.9024753570557,37.5872802734375,-37.96538162231445,4.7702131271362305,0.24
138,MetaDrive-test-conv-dropout-norm-lr,66,156.99956425105418,140324,803,2111.480357170105,36.06879425048828,,4.0327043533325195,0.26
139,MetaDrive-test-conv-dropout-norm-lr,66,157.80702488989797,141465,805,2127.7217350006104,36.32504653930664,-36.874412536621094,5.347088813781738,0.26
140,MetaDrive-test-conv-dropout-norm-lr,66,160.58436722280837,142971,809,2150.2012972831726,34.28269958496094,-33.54692840576172,6.286076545715332,0.26
141,MetaDrive-test-conv-dropout-norm-lr,66,159.53496251889297,143112,810,2152.0637171268463,34.598182678222656,,6.34769868850708,0.26
142,MetaDrive-test-conv-dropout-norm-lr,66,161.18330161070608,144868,812,2176.79744887352,36.09238052368164,,6.750271797180176,0.27
143,MetaDrive-test-conv-dropout-norm-lr,66,162.34354003396936,145691,814,2188.7380890846252,35.45642852783203,-34.54685974121094,9.319360733032227,0.27
144,MetaDrive-test-conv-dropout-norm-lr,66,163.94165494675713,146302,816,2197.602025270462,36.482025146484375,,10.167793273925781,0.28
145,MetaDrive-test-conv-dropout-norm-lr,66,166.5038067674802,147632,818,2216.433848142624,35.509788513183594,,7.697923183441162,0.28
146,MetaDrive-test-conv-dropout-norm-lr,66,166.70199605661145,148840,820,2236.159805059433,36.872802734375,,8.762166023254395,0.28
147,MetaDrive-test-conv-dropout-norm-lr,66,167.49651810260485,149058,821,2238.9017605781555,35.34750747680664,,5.947813034057617,0.28
148,MetaDrive-test-conv-dropout-norm-lr,66,164.49987591581066,150021,827,2252.1528158187866,34.36661148071289,-35.16975402832031,35.40166473388672,0.29
149,MetaDrive-test-conv-dropout-norm-lr,66,165.04783494404256,151237,831,2268.975872516632,37.007408142089844,-37.71692657470703,14.046602249145508,0.29
150,MetaDrive-test-conv-dropout-norm-lr,66,163.63660501509804,152628,833,2290.6902265548706,35.909088134765625,,9.68721866607666,0.28
151,MetaDrive-test-conv-dropout-norm-lr,66,161.68840185136492,153028,834,2298.312033176422,37.84944152832031,,2.5129871368408203,0.28
152,MetaDrive-test-conv-dropout-norm-lr,66,162.01841034375101,154322,838,2318.0908970832825,37.46791076660156,,52.92982482910156,0.29
153,MetaDrive-test-conv-dropout-norm-lr,66,163.13047611194295,155220,841,2331.97980761528,35.12546920776367,,34.564971923828125,0.29
154,MetaDrive-test-conv-dropout-norm-lr,66,165.54328717454806,156198,844,2345.663386821747,35.62646484375,,7.157945156097412,0.3
155,MetaDrive-test-conv-dropout-norm-lr,66,166.71715678684356,157040,845,2356.765645503998,37.87165451049805,,6.8529253005981445,0.31
156,MetaDrive-test-conv-dropout-norm-lr,66,165.27113759814182,158041,846,2372.7549619674683,37.35708236694336,-37.34208679199219,8.354902267456055,0.3
157,MetaDrive-test-conv-dropout-norm-lr,66,163.19932884220367,159042,847,2389.3143742084503,38.98869323730469,,3.685980796813965,0.29
158,MetaDrive-test-conv-dropout-norm-lr,66,165.13490152448827,160448,850,2412.666787147522,36.588348388671875,,69.6842041015625,0.29
159,MetaDrive-test-conv-dropout-norm-lr,66,166.24835358732227,161651,852,2431.5613989830017,38.9508056640625,-39.08893966674805,7.877636909484863,0.3
160,MetaDrive-test-conv-dropout-norm-lr,66,167.81050806910218,162051,853,2438.6898877620697,38.80323791503906,-39.48925018310547,4.485947132110596,0.3
161,MetaDrive-test-conv-dropout-norm-lr,66,166.3441006572906,163974,857,2467.6961958408356,39.01640319824219,,3.808986186981201,0.29
162,MetaDrive-test-conv-dropout-norm-lr,66,163.43913153532804,164066,858,2468.8838033676147,33.64719772338867,,4.602430820465088,0.28
163,MetaDrive-test-conv-dropout-norm-lr,66,166.29247208673817,165085,860,2482.694796562195,39.520111083984375,-39.54207229614258,4.613353729248047,0.29
164,MetaDrive-test-conv-dropout-norm-lr,66,165.98403971607323,166208,862,2497.1547458171844,34.32667541503906,,6.358865261077881,0.29
165,MetaDrive-test-conv-dropout-norm-lr,66,166.69322751260938,167445,864,2512.823863506317,39.704769134521484,-40.14020538330078,3.1435751914978027,0.29
166,MetaDrive-test-conv-dropout-norm-lr,66,167.985542694033,168168,866,2524.0575499534607,37.16260528564453,,3.4256486892700195,0.29
167,MetaDrive-test-conv-dropout-norm-lr,66,166.8555983071683,169007,869,2536.4651157855988,35.928070068359375,-36.13746643066406,7.006980895996094,0.28
168,MetaDrive-test-conv-dropout-norm-lr,66,170.20590725416525,170045,872,2551.7347569465637,36.9907112121582,-37.38243103027344,5.349464416503906,0.29
169,MetaDrive-test-conv-dropout-norm-lr,66,172.06254120992241,171690,876,2575.5952467918396,34.391258239746094,,54.679107666015625,0.29
170,MetaDrive-test-conv-dropout-norm-lr,66,172.0525829101905,172691,877,2597.036411523819,37.4301643371582,-37.372657775878906,5.644390106201172,0.28
171,MetaDrive-test-conv-dropout-norm-lr,66,170.33383792600773,173178,879,2604.2814903259277,34.584266662597656,,23.18759536743164,0.27
172,MetaDrive-test-conv-dropout-norm-lr,66,171.21311064474492,174603,881,2621.4727210998535,37.6304931640625,-38.100738525390625,77.63516998291016,0.27
173,MetaDrive-test-conv-dropout-norm-lr,66,170.49592070366674,175486,883,2634.20924448967,33.810550689697266,,7.017999649047852,0.26
174,MetaDrive-test-conv-dropout-norm-lr,66,170.6046271271485,176487,884,2653.6213462352753,38.44232177734375,-38.649169921875,2.9456329345703125,0.26
175,MetaDrive-test-conv-dropout-norm-lr,66,168.94951351234837,177348,886,2666.085020542145,37.87809753417969,,3.452127695083618,0.26
176,MetaDrive-test-conv-dropout-norm-lr,66,166.7645663994556,178349,887,2680.3141617774963,37.50369644165039,-36.85707092285156,9.634010314941406,0.25
177,MetaDrive-test-conv-dropout-norm-lr,66,167.7814532337449,179064,888,2692.595963716507,34.610748291015625,,15.655945777893066,0.25
178,MetaDrive-test-conv-dropout-norm-lr,66,173.22422062423414,180324,890,2711.259830236435,37.190574645996094,,45.379302978515625,0.27
179,MetaDrive-test-conv-dropout-norm-lr,66,174.02971542462677,181095,892,2723.888029575348,35.500118255615234,-36.07261657714844,3.936802864074707,0.27
180,MetaDrive-test-conv-dropout-norm-lr,66,173.84383912698712,182294,896,2743.1173667907715,37.79192352294922,,7.385198593139648,0.26
181,MetaDrive-test-conv-dropout-norm-lr,66,174.1906185222023,183002,897,2754.629272222519,35.84096145629883,,26.68671417236328,0.26
182,MetaDrive-test-conv-dropout-norm-lr,66,176.4830066437113,184141,899,2770.45401096344,33.62651824951172,-34.11556625366211,9.512319564819336,0.27
183,MetaDrive-test-conv-dropout-norm-lr,66,175.30790048127398,185142,900,2784.9341535568237,36.23126983642578,,6.0287861824035645,0.27
184,MetaDrive-test-conv-dropout-norm-lr,66,178.83269706745187,186086,901,2801.4709157943726,36.73344421386719,,8.958151817321777,0.28
185,MetaDrive-test-conv-dropout-norm-lr,66,181.0715953563641,187874,904,2827.9087846279144,38.06996154785156,,8.937810897827148,0.27
186,MetaDrive-test-conv-dropout-norm-lr,66,180.15125897628187,188098,905,2830.994405031204,37.16922378540039,,12.876178741455078,0.27
187,MetaDrive-test-conv-dropout-norm-lr,66,186.78706510804716,189234,907,2848.95378780365,38.22127914428711,,35.4113883972168,0.29
188,MetaDrive-test-conv-dropout-norm-lr,66,186.3247801079233,190145,909,2862.6576733589172,39.8305549621582,-39.29579544067383,8.209590911865234,0.3
189,MetaDrive-test-conv-dropout-norm-lr,66,189.2552777259238,191562,912,2882.3021075725555,35.52960205078125,,50.20017623901367,0.31
190,MetaDrive-test-conv-dropout-norm-lr,66,188.2532536014931,192076,914,2890.4611575603485,37.519779205322266,,5.518558502197266,0.3
191,MetaDrive-test-conv-dropout-norm-lr,66,190.29310120153067,193271,917,2905.9098410606384,37.884803771972656,-39.07831573486328,141.2447052001953,0.31
192,MetaDrive-test-conv-dropout-norm-lr,66,191.9691897427195,194325,920,2920.080258131027,40.144142150878906,-39.609989166259766,7.427846431732178,0.32
193,MetaDrive-test-conv-dropout-norm-lr,66,193.52427738098606,195527,925,2937.866596698761,38.69576644897461,-39.161582946777344,7.140932083129883,0.32
194,MetaDrive-test-conv-dropout-norm-lr,66,198.6711637287527,196468,926,2956.230021238327,35.39415740966797,,13.099627494812012,0.33
195,MetaDrive-test-conv-dropout-norm-lr,66,202.27797942577038,197348,928,2968.682261943817,37.34935760498047,,14.45840072631836,0.34
196,MetaDrive-test-conv-dropout-norm-lr,66,200.8942834104555,198187,931,2980.416112422943,38.63641357421875,-39.48210144042969,8.961751937866211,0.33
197,MetaDrive-test-conv-dropout-norm-lr,66,204.66314537181563,199268,933,2997.6229565143585,38.852970123291016,,7.169275283813477,0.35
198,MetaDrive-test-conv-dropout-norm-lr,66,207.50287377967342,200196,935,3012.947429418564,37.514434814453125,,6.398018836975098,0.35
199,MetaDrive-test-conv-dropout-norm-lr,66,208.3499512241222,201101,938,3027.552560567856,36.559078216552734,-36.5407600402832,4.533382415771484,0.35
200,MetaDrive-test-conv-dropout-norm-lr,66,209.64125553600388,202022,940,3041.467785358429,36.9001579284668,,28.64370346069336,0.35
201,MetaDrive-test-conv-dropout-norm-lr,66,206.7504462152065,203213,945,3062.0231659412384,36.263511657714844,-37.38445281982422,53.05979919433594,0.33
202,MetaDrive-test-conv-dropout-norm-lr,66,206.48849410392316,204392,948,3078.774071455002,38.470863342285156,,4.706474304199219,0.34
203,MetaDrive-test-conv-dropout-norm-lr,66,208.37638297257044,205229,950,3093.214281797409,38.15225601196289,-37.78664016723633,8.298042297363281,0.34
204,MetaDrive-test-conv-dropout-norm-lr,66,205.56078754367496,206334,953,3110.0299258232117,37.06590270996094,,8.15971565246582,0.34
205,MetaDrive-test-conv-dropout-norm-lr,66,207.43719073863926,207380,956,3125.7772228717804,35.402305603027344,,10.747562408447266,0.35
206,MetaDrive-test-conv-dropout-norm-lr,66,210.29999109441317,208361,958,3140.38827252388,35.926551818847656,-35.954769134521484,5.086906433105469,0.36
207,MetaDrive-test-conv-dropout-norm-lr,66,211.82361021960935,209021,959,3151.131205558777,38.265602111816406,-37.84747314453125,7.047439098358154,0.37
208,MetaDrive-test-conv-dropout-norm-lr,66,214.5005447138131,210902,962,3178.524167776108,38.48775863647461,,5.275641441345215,0.36
209,MetaDrive-test-conv-dropout-norm-lr,66,216.9549437025973,211730,963,3194.0134332180023,38.68212890625,,6.917647361755371,0.37
210,MetaDrive-test-conv-dropout-norm-lr,66,218.57070558238905,212321,964,3203.075336456299,42.83673095703125,-42.81794738769531,3.084486961364746,0.38
211,MetaDrive-test-conv-dropout-norm-lr,66,221.7491909698588,213569,966,3221.707401037216,37.43026351928711,-37.55207443237305,5.683867931365967,0.39
212,MetaDrive-test-conv-dropout-norm-lr,66,223.19400675794958,214570,967,3238.0525028705597,37.507930755615234,,51.72911834716797,0.39
213,MetaDrive-test-conv-dropout-norm-lr,66,225.6501411580318,215759,969,3258.4450311660767,37.643035888671875,-38.054718017578125,9.901923179626465,0.4
214,MetaDrive-test-conv-dropout-norm-lr,66,227.61015825865525,216610,970,3272.720286130905,36.347503662109375,,3.7345521450042725,0.41
215,MetaDrive-test-conv-dropout-norm-lr,66,227.09378632022333,217234,971,3282.689494371414,37.530845642089844,,5.988067626953125,0.4
216,MetaDrive-test-conv-dropout-norm-lr,66,230.4155994928768,218061,972,3293.4174478054047,36.97673416137695,-36.592628479003906,8.360786437988281,0.41
217,MetaDrive-test-conv-dropout-norm-lr,66,235.53723301726546,219347,974,3313.7531113624573,39.61703109741211,-40.30393981933594,7.259339332580566,0.42
218,MetaDrive-test-conv-dropout-norm-lr,66,235.72888295834727,220286,976,3326.581034898758,37.85478210449219,,7.01179838180542,0.43
219,MetaDrive-test-conv-dropout-norm-lr,66,237.95484397160936,221207,978,3339.0587232112885,40.1804313659668,-40.507266998291016,5.474062919616699,0.44
220,MetaDrive-test-conv-dropout-norm-lr,66,237.01422268515358,222265,981,3352.5141026973724,39.10296630859375,-39.610328674316406,41.34107971191406,0.44
221,MetaDrive-test-conv-dropout-norm-lr,66,237.25938232175827,223109,983,3364.2385461330414,36.931678771972656,-37.16485595703125,3.7346625328063965,0.43
222,MetaDrive-test-conv-dropout-norm-lr,66,241.1042558100258,224338,985,3382.8876354694366,38.405067443847656,,4.477721691131592,0.44
223,MetaDrive-test-conv-dropout-norm-lr,66,243.8138791823815,225147,986,3398.126225233078,35.72611999511719,-36.0643424987793,4.775730133056641,0.45
224,MetaDrive-test-conv-dropout-norm-lr,66,240.4424913569967,226032,989,3411.544357776642,41.063262939453125,,5.244925498962402,0.44
225,MetaDrive-test-conv-dropout-norm-lr,66,242.96000866959199,227052,991,3426.099753379822,37.953651428222656,,3.785811185836792,0.44
226,MetaDrive-test-conv-dropout-norm-lr,66,246.1397157803779,228268,993,3450.4258437156677,35.551395416259766,,27.58309555053711,0.44
227,MetaDrive-test-conv-dropout-norm-lr,66,249.5293536253257,229300,995,3467.7706933021545,36.133056640625,,8.477916717529297,0.45
228,MetaDrive-test-conv-dropout-norm-lr,66,250.26739510898588,230639,997,3487.1170132160187,38.30018615722656,-38.10774612426758,9.444052696228027,0.46
229,MetaDrive-test-conv-dropout-norm-lr,66,245.45414757851987,231314,1000,3495.553958415985,41.45245361328125,,8.544462203979492,0.44
230,MetaDrive-test-conv-dropout-norm-lr,66,245.93330925480635,232833,1002,3523.1752948760986,37.84717559814453,-38.47637176513672,5.414993762969971,0.43
231,MetaDrive-test-conv-dropout-norm-lr,66,247.40244329833536,233325,1003,3529.167049884796,39.76057052612305,-40.144676208496094,15.991081237792969,0.44
232,MetaDrive-test-conv-dropout-norm-lr,66,243.49879316429576,234271,1006,3544.3353745937347,39.573448181152344,-40.36022186279297,28.38805389404297,0.42
233,MetaDrive-test-conv-dropout-norm-lr,66,243.40206908929449,235473,1008,3561.840945005417,35.573970794677734,-36.445281982421875,54.941993713378906,0.42
234,MetaDrive-test-conv-dropout-norm-lr,66,242.89860763200514,236041,1009,3568.5286066532135,39.960140228271484,-39.552696228027344,7.754236698150635,0.42
235,MetaDrive-test-conv-dropout-norm-lr,66,243.80650233892885,237536,1011,3592.1497645378113,38.99468994140625,,7.751983642578125,0.42
236,MetaDrive-test-conv-dropout-norm-lr,66,244.42854883746352,238340,1012,3606.077781200409,38.305809020996094,,4.042652606964111,0.42
237,MetaDrive-test-conv-dropout-norm-lr,66,245.44386276047007,239222,1014,3619.0175280570984,35.702430725097656,,63.80046081542969,0.43
238,MetaDrive-test-conv-dropout-norm-lr,66,246.55120509995538,240183,1016,3631.3310322761536,38.888771057128906,-38.978214263916016,40.69944763183594,0.43
239,MetaDrive-test-conv-dropout-norm-lr,66,246.59683588902192,241044,1018,3644.2750747203827,39.265140533447266,,9.80252456665039,0.43
240,MetaDrive-test-conv-dropout-norm-lr,66,246.71831041647144,242053,1021,3657.329388141632,37.839569091796875,-38.63713073730469,6.916325569152832,0.43
241,MetaDrive-test-conv-dropout-norm-lr,66,250.86718637661207,243440,1024,3679.4573380947113,38.51312255859375,,8.807951927185059,0.44
242,MetaDrive-test-conv-dropout-norm-lr,66,244.24914116536016,244330,1027,3693.8210320472717,39.407737731933594,,5.857823371887207,0.42
243,MetaDrive-test-conv-dropout-norm-lr,66,246.2268892290067,245549,1030,3711.0792367458344,35.943267822265625,-35.67835998535156,7.555768966674805,0.43
244,MetaDrive-test-conv-dropout-norm-lr,66,246.07710507849177,246348,1032,3722.927578687668,38.59376907348633,,7.609318256378174,0.43
245,MetaDrive-test-conv-dropout-norm-lr,66,245.80753762408727,247393,1034,3738.1906447410583,36.872013092041016,-36.80855941772461,7.161905765533447,0.43
246,MetaDrive-test-conv-dropout-norm-lr,66,245.0115277978706,248031,1035,3746.434749364853,39.29737091064453,-39.26835632324219,11.189576148986816,0.43
247,MetaDrive-test-conv-dropout-norm-lr,66,245.33140419905038,249155,1038,3764.8090393543243,40.16300582885742,-40.2288818359375,5.794105529785156,0.42
248,MetaDrive-test-conv-dropout-norm-lr,66,248.03954261364794,250483,1040,3786.6330246925354,37.14107131958008,-36.73824691772461,24.051464080810547,0.42
249,MetaDrive-test-conv-dropout-norm-lr,66,248.9562466501388,251422,1043,3800.528528213501,38.688621520996094,,7.815028667449951,0.43
250,MetaDrive-test-conv-dropout-norm-lr,66,251.13557064453605,252159,1045,3812.7706532478333,43.193424224853516,-43.324424743652344,4.162891387939453,0.44
251,MetaDrive-test-conv-dropout-norm-lr,66,255.0337776467376,253374,1047,3831.459570646286,38.78767013549805,,5.455016613006592,0.44
252,MetaDrive-test-conv-dropout-norm-lr,66,256.5100884629667,254497,1049,3852.089140176773,35.47474670410156,-36.84645080566406,10.341485977172852,0.45
253,MetaDrive-test-conv-dropout-norm-lr,66,255.31027201735097,255253,1051,3863.479218006134,39.11397933959961,-39.2353515625,8.216375350952148,0.44
254,MetaDrive-test-conv-dropout-norm-lr,66,256.8603703147191,256268,1053,3877.99036860466,43.3905029296875,,3.211390972137451,0.44
255,MetaDrive-test-conv-dropout-norm-lr,66,260.2459199331393,257309,1055,3894.656343460083,37.76255798339844,-37.868804931640625,6.000330924987793,0.45
256,MetaDrive-test-conv-dropout-norm-lr,66,258.63775635490083,258644,1058,3914.4363968372345,38.23777770996094,,6.386551856994629,0.44
257,MetaDrive-test-conv-dropout-norm-lr,66,258.69661342144246,259210,1059,3922.643177509308,42.581443786621094,,11.120896339416504,0.44
258,MetaDrive-test-conv-dropout-norm-lr,66,259.2193927272965,260274,1061,3939.903161764145,36.500770568847656,,6.019687175750732,0.44
259,MetaDrive-test-conv-dropout-norm-lr,66,255.3470251866059,261088,1063,3952.687910079956,34.94993591308594,,5.917382717132568,0.44
260,MetaDrive-test-conv-dropout-norm-lr,65,256.6906605410359,262492,1065,3978.2050471305847,36.20759963989258,,8.426836013793945,0.44
261,MetaDrive-test-conv-dropout-norm-lr,65,255.3672213489934,263198,1066,3992.969579935074,40.449832916259766,,5.199166774749756,0.43
262,MetaDrive-test-conv-dropout-norm-lr,65,253.1206608581926,264150,1069,4006.2079203128815,41.1663703918457,,5.443449974060059,0.43
263,MetaDrive-test-conv-dropout-norm-lr,65,252.92503720987935,265309,1071,4024.612192630768,40.405887603759766,-40.40478515625,10.76359748840332,0.43
264,MetaDrive-test-conv-dropout-norm-lr,65,247.00715954011287,266069,1074,4038.118201971054,36.413970947265625,-36.968360900878906,13.805521011352539,0.41
265,MetaDrive-test-conv-dropout-norm-lr,65,244.72533679114287,267033,1077,4054.205701112747,38.636871337890625,-38.614646911621094,5.773951530456543,0.39
266,MetaDrive-test-conv-dropout-norm-lr,65,240.6381022465089,268107,1082,4069.5199427604675,39.62278747558594,-39.44970703125,9.270859718322754,0.38
267,MetaDrive-test-conv-dropout-norm-lr,65,239.5852488481731,269126,1084,4084.1093583106995,38.233699798583984,,5.424911022186279,0.39
268,MetaDrive-test-conv-dropout-norm-lr,65,239.6870171189483,270228,1086,4102.945098876953,38.53350830078125,,6.790104866027832,0.38
269,MetaDrive-test-conv-dropout-norm-lr,65,239.37561685806884,271268,1089,4117.945664644241,38.4334831237793,,6.534196853637695,0.38
270,MetaDrive-test-conv-dropout-norm-lr,65,238.36559624441287,272139,1091,4130.326274633408,40.56991195678711,-40.27326202392578,17.487937927246094,0.38
271,MetaDrive-test-conv-dropout-norm-lr,65,231.8822311224404,273208,1094,4146.724624872208,38.58977508544922,,14.336800575256348,0.36
272,MetaDrive-test-conv-dropout-norm-lr,65,232.8211235054479,274340,1096,4161.63959646225,42.003665924072266,,9.133855819702148,0.37
273,MetaDrive-test-conv-dropout-norm-lr,65,233.62946087826856,275014,1097,4170.856512784958,39.98988342285156,,6.4596757888793945,0.37
274,MetaDrive-test-conv-dropout-norm-lr,65,228.28824183400616,276538,1103,4194.490023851395,37.48565673828125,,57.342979431152344,0.37
275,MetaDrive-test-conv-dropout-norm-lr,65,231.0644829335474,277166,1104,4207.003180265427,37.6197509765625,,13.433958053588867,0.37
276,MetaDrive-test-conv-dropout-norm-lr,65,228.92909812733717,278046,1107,4219.897968530655,37.691009521484375,,19.02947998046875,0.37
277,MetaDrive-test-conv-dropout-norm-lr,65,228.07670361552903,279063,1109,4236.34038734436,42.5650634765625,-42.124908447265625,7.275293827056885,0.36
278,MetaDrive-test-conv-dropout-norm-lr,65,230.3264068349293,280064,1110,4257.572267532349,40.552955627441406,,14.130167961120605,0.35
279,MetaDrive-test-conv-dropout-norm-lr,65,226.9377959405014,281129,1114,4273.030716896057,42.816497802734375,-43.07246780395508,5.697441101074219,0.34
280,MetaDrive-test-conv-dropout-norm-lr,65,228.14116393448018,282312,1116,4287.456588029861,37.61872863769531,,10.039713859558105,0.35
281,MetaDrive-test-conv-dropout-norm-lr,65,228.28705122606482,283282,1118,4302.674797534943,41.16584777832031,,6.763237953186035,0.35
282,MetaDrive-test-conv-dropout-norm-lr,65,229.0711534607591,284393,1120,4320.021701574326,39.76750183105469,-39.527687072753906,7.00313663482666,0.35
283,MetaDrive-test-conv-dropout-norm-lr,65,228.43897748528468,285745,1124,4339.792954206467,40.271240234375,-40.31526184082031,6.367037773132324,0.35
284,MetaDrive-test-conv-dropout-norm-lr,65,229.9244282678057,286681,1126,4355.597780227661,40.794776916503906,-40.56282043457031,11.7784423828125,0.36
285,MetaDrive-test-conv-dropout-norm-lr,65,229.98140503104148,287167,1127,4363.878527879715,42.158363342285156,-42.57513427734375,7.521867752075195,0.36
286,MetaDrive-test-conv-dropout-norm-lr,65,231.63005965971067,288242,1129,4377.112898826599,41.511627197265625,,10.326475143432617,0.37
287,MetaDrive-test-conv-dropout-norm-lr,65,227.7013412174394,289756,1133,4401.957205295563,40.08519744873047,,14.55430793762207,0.35
288,MetaDrive-test-conv-dropout-norm-lr,65,227.67174109615354,290401,1134,4410.418637514114,42.155216217041016,-42.315555572509766,3.9214465618133545,0.35
289,MetaDrive-test-conv-dropout-norm-lr,65,227.02348699493461,291059,1135,4420.370189905167,39.255924224853516,-38.640560150146484,9.983811378479004,0.35
290,MetaDrive-test-conv-dropout-norm-lr,65,225.74477874570192,292121,1138,4435.415697813034,40.423004150390625,-40.28303527832031,5.7859296798706055,0.36
291,MetaDrive-test-conv-dropout-norm-lr,65,224.45705082238584,293253,1140,4454.726687431335,40.415496826171875,-41.31756591796875,30.76592254638672,0.36
292,MetaDrive-test-conv-dropout-norm-lr,65,222.82729131878975,294031,1143,4469.2720675468445,36.9720344543457,-37.093650817871094,12.296260833740234,0.35
293,MetaDrive-test-conv-dropout-norm-lr,65,219.45638173281975,295334,1146,4490.696012496948,40.57908248901367,,6.366219520568848,0.34
294,MetaDrive-test-conv-dropout-norm-lr,65,219.3213338273672,296192,1148,4504.530647754669,39.3018798828125,,6.762753486633301,0.34
295,MetaDrive-test-conv-dropout-norm-lr,65,218.47024316491377,297678,1151,4525.769070148468,43.38137435913086,,116.25091552734375,0.33
296,MetaDrive-test-conv-dropout-norm-lr,65,217.59168350491586,298205,1152,4533.56938958168,39.94972610473633,-39.696685791015625,4.791834831237793,0.33
297,MetaDrive-test-conv-dropout-norm-lr,65,219.90839238833817,299110,1153,4548.818080186844,42.71917724609375,,11.324732780456543,0.34
298,MetaDrive-test-conv-dropout-norm-lr,65,217.68261837023474,300111,1154,4565.602179050446,38.20106506347656,-38.20819854736328,9.84162712097168,0.33
299,MetaDrive-test-conv-dropout-norm-lr,65,218.6962365718408,301276,1157,4585.979884147644,38.40614700317383,,11.751581192016602,0.33
300,MetaDrive-test-conv-dropout-norm-lr,65,215.2404571205096,302111,1160,4598.001150131226,43.00086975097656,-42.438968658447266,8.14279556274414,0.32
301,MetaDrive-test-conv-dropout-norm-lr,65,217.77905546915812,303290,1162,4617.768893003464,37.156455993652344,,7.627150535583496,0.33
302,MetaDrive-test-conv-dropout-norm-lr,65,216.37142211623518,304009,1164,4631.524558544159,39.405765533447266,-39.52032470703125,10.05142593383789,0.32
303,MetaDrive-test-conv-dropout-norm-lr,65,217.21593057719235,305840,1167,4665.963707685471,42.09494400024414,,8.309867858886719,0.32
304,MetaDrive-test-conv-dropout-norm-lr,65,217.9460986767928,306570,1168,4675.369695663452,37.25541687011719,,12.175614356994629,0.32
305,MetaDrive-test-conv-dropout-norm-lr,65,220.06628790036072,307462,1169,4687.496840715408,38.86000061035156,,6.76044225692749,0.33
306,MetaDrive-test-conv-dropout-norm-lr,65,220.20930360756097,308450,1170,4701.36105966568,40.733131408691406,,7.523865222930908,0.33
307,MetaDrive-test-conv-dropout-norm-lr,65,218.70064229755505,309315,1173,4713.6095950603485,39.376949310302734,-39.405765533447266,5.153451442718506,0.34
308,MetaDrive-test-conv-dropout-norm-lr,65,220.8266892772361,310348,1175,4729.871577739716,41.32167434692383,,6.650442600250244,0.35
309,MetaDrive-test-conv-dropout-norm-lr,65,220.8137680393278,311094,1177,4740.395766496658,43.149269104003906,,7.022724151611328,0.35
310,MetaDrive-test-conv-dropout-norm-lr,65,225.73686783933186,312578,1179,4761.058208227158,45.68537521362305,,6.4134063720703125,0.36
311,MetaDrive-test-conv-dropout-norm-lr,65,229.47103350780964,313575,1180,4779.347969293594,39.428680419921875,-40.60636901855469,24.215234756469727,0.37
312,MetaDrive-test-conv-dropout-norm-lr,65,228.49011418536938,314036,1181,4786.471103668213,37.622291564941406,,8.419559478759766,0.36
313,MetaDrive-test-conv-dropout-norm-lr,65,230.08441047610268,315038,1183,4800.981684446335,43.5188102722168,,9.246301651000977,0.37
314,MetaDrive-test-conv-dropout-norm-lr,65,226.83203634868084,316416,1186,4820.139372587204,40.34600067138672,,5.033303260803223,0.37
315,MetaDrive-test-conv-dropout-norm-lr,65,225.67707214311136,317194,1188,4830.987202167511,42.55122375488281,,4.878462791442871,0.36
316,MetaDrive-test-conv-dropout-norm-lr,65,223.76791496403894,318303,1191,4848.56970500946,42.63856506347656,-43.092811584472656,11.772048950195312,0.36
317,MetaDrive-test-conv-dropout-norm-lr,65,226.24963792585925,319241,1192,4861.3261868953705,41.77557373046875,-42.37238693237305,4.410143852233887,0.37
318,MetaDrive-test-conv-dropout-norm-lr,65,227.65617465865577,320242,1193,4880.394010066986,41.075096130371094,,67.87730407714844,0.37
319,MetaDrive-test-conv-dropout-norm-lr,65,230.03135533654506,321569,1195,4902.325778245926,40.504432678222656,-40.40571594238281,7.926682472229004,0.38
320,MetaDrive-test-conv-dropout-norm-lr,65,226.32697726492475,322445,1197,4914.652787446976,45.16830062866211,-45.854286193847656,8.038396835327148,0.37
321,MetaDrive-test-conv-dropout-norm-lr,65,227.40699157069307,323747,1200,4938.820724725723,43.32826614379883,-44.11317443847656,6.214707374572754,0.37
322,MetaDrive-test-conv-dropout-norm-lr,65,229.65808365575668,324399,1201,4946.765613794327,41.64767074584961,-42.40057373046875,6.607553482055664,0.38
323,MetaDrive-test-conv-dropout-norm-lr,65,227.9602051865318,325129,1203,4957.327040433884,42.07054901123047,-43.223018646240234,11.453255653381348,0.37
324,MetaDrive-test-conv-dropout-norm-lr,65,225.72428192325276,326464,1207,4978.28323841095,43.98213195800781,,13.516782760620117,0.37
325,MetaDrive-test-conv-dropout-norm-lr,65,227.70660490019546,327828,1209,4998.354125261307,37.76052474975586,,15.130001068115234,0.37
326,MetaDrive-test-conv-dropout-norm-lr,65,223.79949864703872,328250,1210,5003.978497505188,42.10260772705078,,3.965237617492676,0.37
327,MetaDrive-test-conv-dropout-norm-lr,65,224.01976546693243,329112,1212,5014.242400169373,40.15092086791992,,22.358638763427734,0.38
328,MetaDrive-test-conv-dropout-norm-lr,65,222.21127918763065,330382,1215,5034.8098068237305,45.33384323120117,,15.500906944274902,0.36
329,MetaDrive-test-conv-dropout-norm-lr,65,223.81932595387858,331383,1216,5055.391814470291,43.218116760253906,-43.40596389770508,8.16999626159668,0.35
330,MetaDrive-test-conv-dropout-norm-lr,65,226.84072443285928,332223,1217,5066.777341365814,43.576820373535156,-43.65697479248047,7.279311180114746,0.36
331,MetaDrive-test-conv-dropout-norm-lr,65,225.87091277833642,333535,1219,5082.635584354401,39.54035949707031,-39.5362548828125,8.368476867675781,0.37
332,MetaDrive-test-conv-dropout-norm-lr,65,225.58320186130572,334385,1220,5095.292647600174,44.35921096801758,-45.24349594116211,7.348449230194092,0.37
333,MetaDrive-test-conv-dropout-norm-lr,65,228.74594528975004,335162,1221,5105.833380937576,39.71446228027344,,5.082586765289307,0.38
334,MetaDrive-test-conv-dropout-norm-lr,65,226.10500021362907,336099,1225,5121.317549943924,45.83115005493164,-45.01421356201172,10.879867553710938,0.37
335,MetaDrive-test-conv-dropout-norm-lr,65,219.6689225509014,337811,1229,5143.959053277969,40.34923553466797,-40.71279525756836,5.361782073974609,0.34
336,MetaDrive-test-conv-dropout-norm-lr,65,221.62258946417245,338812,1230,5162.901352405548,45.73030471801758,,6.734737396240234,0.34
337,MetaDrive-test-conv-dropout-norm-lr,65,222.11827100541726,339252,1231,5169.027725934982,40.364524841308594,,7.00089693069458,0.34
338,MetaDrive-test-conv-dropout-norm-lr,65,222.8807151695388,340785,1233,5196.897700786591,39.510398864746094,-40.13270568847656,15.253924369812012,0.34
339,MetaDrive-test-conv-dropout-norm-lr,65,223.9591178285328,341604,1234,5208.885719299316,44.21660232543945,,10.219368934631348,0.34
340,MetaDrive-test-conv-dropout-norm-lr,65,223.67665765115214,342605,1235,5226.558874368668,37.04023742675781,-37.836524963378906,15.861706733703613,0.33
341,MetaDrive-test-conv-dropout-norm-lr,65,225.0344485842127,343282,1236,5235.948841094971,41.75019836425781,,81.43121337890625,0.34
342,MetaDrive-test-conv-dropout-norm-lr,65,226.01095995770066,344513,1238,5253.1695783138275,41.69236755371094,-42.93988037109375,6.350099563598633,0.33
343,MetaDrive-test-conv-dropout-norm-lr,65,224.80533322375103,345544,1240,5267.334139585495,39.810821533203125,,10.413237571716309,0.33
344,MetaDrive-test-conv-dropout-norm-lr,65,225.3990061381509,346088,1242,5278.094842672348,42.42973327636719,,12.165595054626465,0.33
345,MetaDrive-test-conv-dropout-norm-lr,65,226.2026650469,347003,1244,5293.123709201813,37.51136016845703,-38.918052673339844,9.698111534118652,0.34
346,MetaDrive-test-conv-dropout-norm-lr,65,225.63950501821537,348152,1246,5312.575781583786,38.07930374145508,,18.508087158203125,0.33
347,MetaDrive-test-conv-dropout-norm-lr,65,224.92486330896304,349347,1249,5331.2670612335205,45.660091400146484,-45.639930725097656,11.510173797607422,0.34
348,MetaDrive-test-conv-dropout-norm-lr,65,222.816030509229,350030,1251,5340.091996669769,42.06256103515625,,13.654905319213867,0.33
349,MetaDrive-test-conv-dropout-norm-lr,65,223.50658098379697,351724,1253,5367.835142612457,43.26926040649414,,12.874313354492188,0.33
350,MetaDrive-test-conv-dropout-norm-lr,65,224.0531561400144,352411,1254,5376.490913152695,48.289039611816406,-48.974918365478516,9.219236373901367,0.34
351,MetaDrive-test-conv-dropout-norm-lr,65,224.80548653425237,353030,1255,5383.844059467316,43.793087005615234,,10.932303428649902,0.35
352,MetaDrive-test-conv-dropout-norm-lr,65,225.98442795410995,354575,1259,5405.804615974426,43.95130157470703,-44.21917724609375,11.754049301147461,0.36
353,MetaDrive-test-conv-dropout-norm-lr,65,226.78646359177566,355397,1260,5418.063181877136,45.13005065917969,-45.31377029418945,13.15665054321289,0.36
354,MetaDrive-test-conv-dropout-norm-lr,65,224.73679177187233,356233,1262,5428.677677869797,41.688568115234375,-42.08382797241211,8.637316703796387,0.35
355,MetaDrive-test-conv-dropout-norm-lr,65,226.41520630870104,357522,1264,5449.34418463707,40.90791320800781,,7.62605619430542,0.36
356,MetaDrive-test-conv-dropout-norm-lr,65,226.57607090703078,358141,1265,5458.9597861766815,40.94438934326172,-40.95104217529297,10.283348083496094,0.37
357,MetaDrive-test-conv-dropout-norm-lr,65,219.727859456708,359084,1268,5472.128483295441,44.02448654174805,,4.682158470153809,0.36
358,MetaDrive-test-conv-dropout-norm-lr,65,218.76806271468502,360597,1270,5496.447189092636,45.60847091674805,-45.270660400390625,7.798772811889648,0.35
359,MetaDrive-test-conv-dropout-norm-lr,65,223.14025566560704,361569,1272,5510.7310173511505,41.784244537353516,-43.07697677612305,11.250408172607422,0.35
360,MetaDrive-test-conv-dropout-norm-lr,65,220.30876598311627,362339,1274,5523.4308524131775,44.9489631652832,-45.04594421386719,5.944266319274902,0.34
361,MetaDrive-test-conv-dropout-norm-lr,65,218.6252696387228,363340,1275,5544.030034780502,44.44468688964844,,6.267326354980469,0.33
362,MetaDrive-test-conv-dropout-norm-lr,65,218.6541487174866,364148,1277,5554.958470821381,40.4905891418457,,6.374733924865723,0.33
363,MetaDrive-test-conv-dropout-norm-lr,65,216.9990040965591,365243,1279,5570.217445373535,46.14918518066406,-46.63066864013672,7.900505542755127,0.33
364,MetaDrive-test-conv-dropout-norm-lr,65,217.06219719613804,366726,1282,5593.081343412399,40.955718994140625,,14.192523002624512,0.33
365,MetaDrive-test-conv-dropout-norm-lr,65,214.89035335759078,367078,1283,5599.196745634079,44.368412017822266,,6.527952194213867,0.32
366,MetaDrive-test-conv-dropout-norm-lr,65,215.69874417879709,368104,1285,5617.068599700928,41.94548797607422,,15.87841796875,0.31
367,MetaDrive-test-conv-dropout-norm-lr,65,214.67501154357208,369016,1286,5633.027137517929,39.169952392578125,,6.159699440002441,0.3
368,MetaDrive-test-conv-dropout-norm-lr,65,216.2746841170173,370017,1287,5647.932754278183,40.87242126464844,-41.98077392578125,13.141841888427734,0.3
369,MetaDrive-test-conv-dropout-norm-lr,65,218.49920076254045,371206,1290,5668.044055700302,40.20957946777344,,10.142422676086426,0.3
370,MetaDrive-test-conv-dropout-norm-lr,65,213.84367245088916,372484,1293,5686.917097330093,41.74273681640625,,7.438732147216797,0.29
371,MetaDrive-test-conv-dropout-norm-lr,65,211.81911483580942,373564,1295,5701.623995542526,41.63739013671875,,5.384279251098633,0.28
372,MetaDrive-test-conv-dropout-norm-lr,65,211.2121247626094,374405,1297,5712.419801473618,43.20774459838867,-44.54486846923828,153.00575256347656,0.28
373,MetaDrive-test-conv-dropout-norm-lr,65,216.3953932895677,375545,1299,5728.4187870025635,44.660125732421875,-45.12120056152344,23.450544357299805,0.29
374,MetaDrive-test-conv-dropout-norm-lr,65,215.67534413963367,376546,1300,5746.269822835922,42.237648010253906,,15.357505798339844,0.29
375,MetaDrive-test-conv-dropout-norm-lr,65,215.08559886449024,377156,1302,5756.218051671982,39.79506301879883,,10.844120025634766,0.28
376,MetaDrive-test-conv-dropout-norm-lr,65,215.18941162607848,378176,1305,5769.717526435852,44.35490417480469,,6.375851631164551,0.29
377,MetaDrive-test-conv-dropout-norm-lr,65,216.41481368667516,379530,1307,5788.839798688889,43.46599197387695,,11.260090827941895,0.3
378,MetaDrive-test-conv-dropout-norm-lr,65,217.45981990922874,380118,1308,5795.984346151352,38.830657958984375,,76.9366455078125,0.31
379,MetaDrive-test-conv-dropout-norm-lr,65,216.24260604124905,381052,1309,5810.490754365921,45.263038635253906,,7.574552536010742,0.31
380,MetaDrive-test-conv-dropout-norm-lr,65,217.38386919750235,382602,1312,5832.018630743027,46.284423828125,,13.478708267211914,0.32
381,MetaDrive-test-conv-dropout-norm-lr,65,221.27403985771542,383705,1314,5845.665718317032,43.775875091552734,-42.8021354675293,6.50684928894043,0.33
382,MetaDrive-test-conv-dropout-norm-lr,65,219.19816812617745,384232,1315,5851.97264790535,42.590736389160156,,11.960294723510742,0.34
383,MetaDrive-test-conv-dropout-norm-lr,65,215.9808517376184,385149,1317,5864.913850307465,44.72599411010742,-45.79339599609375,7.208583831787109,0.34
384,MetaDrive-test-conv-dropout-norm-lr,65,214.78982838471228,386295,1319,5881.2293248176575,44.3898811340332,-44.60879135131836,11.64857292175293,0.33
385,MetaDrive-test-conv-dropout-norm-lr,65,212.73997470937474,387307,1321,5897.410906791687,43.95502471923828,-43.71630859375,7.025369644165039,0.32
386,MetaDrive-test-conv-dropout-norm-lr,65,214.93205904874426,388411,1323,5917.134441375732,41.035743713378906,-40.808265686035156,16.93004035949707,0.32
387,MetaDrive-test-conv-dropout-norm-lr,65,216.8175198966021,389316,1324,5929.831155061722,45.55103302001953,,5.230792045593262,0.33
388,MetaDrive-test-conv-dropout-norm-lr,65,219.61391519499637,390020,1325,5939.0372450351715,40.45189666748047,,8.598830223083496,0.34
389,MetaDrive-test-conv-dropout-norm-lr,65,223.756378324583,391596,1327,5962.312304019928,44.70991897583008,,7.34337043762207,0.34
390,MetaDrive-test-conv-dropout-norm-lr,65,223.84471852138805,392009,1328,5968.940502405167,41.0439453125,-41.50425720214844,18.475303649902344,0.34
391,MetaDrive-test-conv-dropout-norm-lr,65,224.07555486192072,393010,1329,5983.065426111221,43.09947204589844,,11.964749336242676,0.34
392,MetaDrive-test-conv-dropout-norm-lr,65,225.3216500108669,394408,1331,6006.743772506714,38.62757873535156,,14.245233535766602,0.35
393,MetaDrive-test-conv-dropout-norm-lr,65,226.1894665312804,395157,1332,6017.893895626068,36.056278228759766,-37.15242004394531,12.134455680847168,0.35
394,MetaDrive-test-conv-dropout-norm-lr,65,220.03011020490985,396739,1336,6037.150197982788,43.42205810546875,-43.63034439086914,14.008028030395508,0.34
395,MetaDrive-test-conv-dropout-norm-lr,65,221.36176601436114,397346,1337,6045.752388000488,41.85190963745117,,11.729377746582031,0.35
396,MetaDrive-test-conv-dropout-norm-lr,65,216.4739157982639,398012,1340,6056.385718822479,37.294090270996094,,20.152435302734375,0.34
397,MetaDrive-test-conv-dropout-norm-lr,65,215.701631361395,399013,1341,6069.309682130814,40.89689636230469,-40.28835678100586,16.515567779541016,0.34
398,MetaDrive-test-conv-dropout-norm-lr,65,217.16444053088267,400254,1344,6086.4957501888275,38.33106231689453,,8.04897689819336,0.34
399,MetaDrive-test-conv-dropout-norm-lr,65,217.72916164098854,401255,1345,6099.549471855164,40.07500457763672,-40.31843948364258,8.007923126220703,0.34
400,MetaDrive-test-conv-dropout-norm-lr,65,216.75394234182514,402159,1348,6114.595805883408,43.71263122558594,-43.98195266723633,5.620205879211426,0.34
401,MetaDrive-test-conv-dropout-norm-lr,65,215.73006695919344,403642,1351,6135.626044750214,44.92448425292969,,5.328719615936279,0.34
402,MetaDrive-test-conv-dropout-norm-lr,65,210.53768801499155,404104,1353,6143.431281089783,44.96446228027344,,6.5170392990112305,0.32
403,MetaDrive-test-conv-dropout-norm-lr,65,210.82519288795686,405813,1355,6169.472706317902,47.56642532348633,-48.31005859375,13.309864044189453,0.3
404,MetaDrive-test-conv-dropout-norm-lr,65,211.567265929532,406440,1356,6177.35778927803,45.560340881347656,,13.23964786529541,0.31
405,MetaDrive-test-conv-dropout-norm-lr,65,214.69881409420498,407215,1357,6187.292900562286,42.09276580810547,-42.555789947509766,6.444891452789307,0.32
406,MetaDrive-test-conv-dropout-norm-lr,65,215.3597485535346,408216,1358,6207.795893669128,40.680442810058594,,21.470203399658203,0.32
407,MetaDrive-test-conv-dropout-norm-lr,65,216.55263723884605,409131,1359,6222.206236124039,39.71332550048828,-40.24723815917969,7.305326461791992,0.32
408,MetaDrive-test-conv-dropout-norm-lr,65,214.97509727213207,410056,1361,6234.196994066238,43.801177978515625,,14.25220775604248,0.32
409,MetaDrive-test-conv-dropout-norm-lr,65,217.42926139703647,411057,1362,6253.936524391174,41.476287841796875,-40.40571975708008,5.435988426208496,0.32
410,MetaDrive-test-conv-dropout-norm-lr,65,217.27621387821802,412382,1364,6271.183960199356,40.04113006591797,,14.220673561096191,0.32
411,MetaDrive-test-conv-dropout-norm-lr,65,217.50809073594988,413205,1365,6283.323631763458,43.07960891723633,-43.26515579223633,6.138669967651367,0.32
412,MetaDrive-test-conv-dropout-norm-lr,65,220.81232936331602,414263,1367,6297.448479652405,46.40861511230469,-47.10703659057617,6.350927352905273,0.33
413,MetaDrive-test-conv-dropout-norm-lr,65,219.9443584913177,415651,1369,6314.19255065918,41.208683013916016,-42.36497497558594,8.467758178710938,0.32
414,MetaDrive-test-conv-dropout-norm-lr,65,217.9799876483138,416599,1371,6327.968186378479,35.53617858886719,-36.909976959228516,26.111026763916016,0.32
415,MetaDrive-test-conv-dropout-norm-lr,65,217.04461738849818,417600,1372,6342.867954730988,45.974853515625,,6.251949310302734,0.32
416,MetaDrive-test-conv-dropout-norm-lr,65,218.85379908781908,418638,1374,6357.542412996292,42.368621826171875,,9.586833953857422,0.33
417,MetaDrive-test-conv-dropout-norm-lr,65,219.29726186858028,419639,1375,6368.14090514183,42.35716247558594,-42.71002197265625,8.247420310974121,0.33
418,MetaDrive-test-conv-dropout-norm-lr,65,218.77473446856996,420261,1376,6376.60357260704,46.958580017089844,-47.103851318359375,10.203482627868652,0.33
419,MetaDrive-test-conv-dropout-norm-lr,65,218.76922026962495,421262,1377,6391.339065551758,45.78451919555664,,9.530513763427734,0.33
420,MetaDrive-test-conv-dropout-norm-lr,65,219.47171471949946,422920,1380,6413.172974824905,41.2558708190918,,26.877765655517578,0.32
421,MetaDrive-test-conv-dropout-norm-lr,65,219.24459027108207,423282,1381,6419.036772489548,41.79945373535156,,11.118768692016602,0.32
422,MetaDrive-test-conv-dropout-norm-lr,65,218.25342665434,424283,1382,6430.663547039032,42.02215576171875,-43.01987075805664,9.50294303894043,0.31
423,MetaDrive-test-conv-dropout-norm-lr,65,219.6672087170114,425284,1383,6445.030140399933,43.10662841796875,,10.689796447753906,0.31
424,MetaDrive-test-conv-dropout-norm-lr,65,220.2764113744783,426285,1384,6458.906502246857,42.74712371826172,-43.00845718383789,25.11630630493164,0.31
425,MetaDrive-test-conv-dropout-norm-lr,66,221.54662828506974,427286,1385,6470.947448253632,44.1719970703125,,8.845640182495117,0.31
426,MetaDrive-test-conv-dropout-norm-lr,66,222.18066437957648,428287,1386,6484.282922506332,37.523162841796875,-36.392539978027344,13.958538055419922,0.31
427,MetaDrive-test-conv-dropout-norm-lr,66,221.17863697744005,429045,1387,6494.5753262043,45.31435775756836,-45.17824172973633,7.156148910522461,0.31
428,MetaDrive-test-conv-dropout-norm-lr,66,223.54809179426113,430669,1389,6521.930651664734,37.14008331298828,-37.94282531738281,14.536437034606934,0.31
429,MetaDrive-test-conv-dropout-norm-lr,66,224.29316469515908,431048,1390,6527.779682159424,45.366172790527344,,8.64016342163086,0.31
430,MetaDrive-test-conv-dropout-norm-lr,66,224.34059777402908,432471,1392,6544.092636108398,43.566890716552734,-43.02301788330078,8.752105712890625,0.31
431,MetaDrive-test-conv-dropout-norm-lr,66,222.6096623193137,433521,1394,6559.691789865494,41.641231536865234,-42.93012237548828,17.437232971191406,0.3
432,MetaDrive-test-conv-dropout-norm-lr,66,220.7203861567086,434522,1395,6571.420582771301,44.655609130859375,,16.63553237915039,0.29
433,MetaDrive-test-conv-dropout-norm-lr,66,224.67071039654147,435523,1396,6586.288616657257,41.55706024169922,-41.4407958984375,22.441171646118164,0.29
434,MetaDrive-test-conv-dropout-norm-lr,66,221.16786842772706,436208,1398,6594.351106405258,41.361263275146484,,10.008392333984375,0.28
435,MetaDrive-test-conv-dropout-norm-lr,66,220.19599711902316,437725,1400,6616.174280405045,40.570858001708984,-40.3486328125,145.8333740234375,0.27
436,MetaDrive-test-conv-dropout-norm-lr,66,220.43306378622935,438074,1401,6622.228180885315,38.299110412597656,,13.437115669250488,0.27
437,MetaDrive-test-conv-dropout-norm-lr,66,221.29030681755984,439278,1403,6639.2950937747955,43.754608154296875,,6.320744514465332,0.27
438,MetaDrive-test-conv-dropout-norm-lr,66,224.4910077568802,440279,1404,6653.724348783493,42.93231964111328,-42.09819412231445,9.66915512084961,0.27
439,MetaDrive-test-conv-dropout-norm-lr,66,224.08594235229674,441280,1405,6668.689930200577,43.47956466674805,,9.092061996459961,0.26
440,MetaDrive-test-conv-dropout-norm-lr,66,224.3130368818519,442556,1407,6688.676687479019,45.826744079589844,,12.560081481933594,0.25
441,MetaDrive-test-conv-dropout-norm-lr,66,223.95078258677952,443557,1408,6702.578379154205,39.83866882324219,-39.85002517700195,11.855074882507324,0.24
442,MetaDrive-test-conv-dropout-norm-lr,66,222.38278099448823,444151,1409,6712.121477842331,43.91246795654297,-43.67588806152344,3.3231279850006104,0.23
443,MetaDrive-test-conv-dropout-norm-lr,66,225.0712699503533,445152,1410,6724.498583078384,32.53090286254883,,12.207374572753906,0.23
444,MetaDrive-test-conv-dropout-norm-lr,66,226.12253018854062,446153,1411,6740.426035404205,40.608604431152344,-41.445472717285156,10.61412525177002,0.22
445,MetaDrive-test-conv-dropout-norm-lr,66,225.16749235657156,447217,1413,6755.99830532074,38.485408782958984,-38.638519287109375,40.74095916748047,0.21
446,MetaDrive-test-conv-dropout-norm-lr,66,226.23475972875661,448218,1414,6775.48437833786,42.965293884277344,,7.865667343139648,0.2
447,MetaDrive-test-conv-dropout-norm-lr,66,226.15946207084005,449219,1415,6786.732652664185,37.6416015625,-38.9801025390625,6.390514850616455,0.19
448,MetaDrive-test-conv-dropout-norm-lr,66,228.40394984807426,450220,1416,6798.522786855698,38.69584655761719,,16.058582305908203,0.19
449,MetaDrive-test-conv-dropout-norm-lr,66,227.18826227096898,451221,1417,6810.54535484314,46.36750793457031,-46.78539276123047,11.488329887390137,0.18
450,MetaDrive-test-conv-dropout-norm-lr,66,227.60700409848826,452241,1419,6827.339270830154,42.143001556396484,-41.94184112548828,9.415924072265625,0.17
451,MetaDrive-test-conv-dropout-norm-lr,66,230.04204790559461,453242,1420,6838.9411153793335,42.17695999145508,,9.140739440917969,0.17
452,MetaDrive-test-conv-dropout-norm-lr,66,228.9864906913016,454243,1421,6850.051178455353,40.40794372558594,-40.556427001953125,11.692289352416992,0.16
453,MetaDrive-test-conv-dropout-norm-lr,66,228.11877253987916,455244,1422,6862.004468679428,44.00463104248047,,11.464391708374023,0.16
454,MetaDrive-test-conv-dropout-norm-lr,66,226.46023333363377,456572,1424,6878.644949674606,42.868770599365234,,6.178459167480469,0.15
455,MetaDrive-test-conv-dropout-norm-lr,66,222.3748522384419,457781,1426,6893.399089813232,45.91504669189453,-45.5916748046875,14.276987075805664,0.14
456,MetaDrive-test-conv-dropout-norm-lr,66,220.94898795723887,458105,1427,6898.276875734329,39.72376251220703,-39.604331970214844,5.418480396270752,0.14
457,MetaDrive-test-conv-dropout-norm-lr,66,223.7977463738265,459106,1428,6914.508967876434,42.86854553222656,,20.127172470092773,0.14
458,MetaDrive-test-conv-dropout-norm-lr,66,225.2524484440342,460107,1429,6933.788826227188,40.045555114746094,-39.84989929199219,5.817232131958008,0.14
459,MetaDrive-test-conv-dropout-norm-lr,66,224.12926044008145,461371,1431,6951.014947414398,40.62969207763672,-41.56361389160156,11.407044410705566,0.13
460,MetaDrive-test-conv-dropout-norm-lr,66,223.52313548434344,462022,1432,6960.013221025467,41.265438079833984,,16.60952377319336,0.13
461,MetaDrive-test-conv-dropout-norm-lr,66,226.72893688679545,463023,1433,6976.612122058868,39.26271057128906,-38.92387390136719,6.734447479248047,0.13
462,MetaDrive-test-conv-dropout-norm-lr,66,229.0873081737542,464396,1435,6996.325638055801,39.66278839111328,,9.986316680908203,0.14
463,MetaDrive-test-conv-dropout-norm-lr,66,230.86058262571632,465985,1438,7015.724308729172,40.460411071777344,-40.76970672607422,9.532155990600586,0.12
464,MetaDrive-test-conv-dropout-norm-lr,66,232.84603177498437,466986,1439,7029.849436759949,42.45796203613281,,6.493792533874512,0.12
465,MetaDrive-test-conv-dropout-norm-lr,66,233.25946257794004,467311,1440,7035.05709028244,44.92689514160156,-45.50716018676758,19.004737854003906,0.12
466,MetaDrive-test-conv-dropout-norm-lr,66,235.0472383759396,468429,1442,7048.22499704361,37.58592987060547,-37.358612060546875,10.191766738891602,0.13
467,MetaDrive-test-conv-dropout-norm-lr,66,234.9357204584395,469702,1444,7070.5601580142975,40.55944061279297,,5.86590576171875,0.12
468,MetaDrive-test-conv-dropout-norm-lr,66,235.75631281722744,470703,1445,7082.858656644821,37.50236892700195,-38.34988021850586,7.5086445808410645,0.12
469,MetaDrive-test-conv-dropout-norm-lr,66,236.7915609020911,471484,1446,7093.522780895233,39.329017639160156,,11.210537910461426,0.13
470,MetaDrive-test-conv-dropout-norm-lr,66,239.97380144283852,472169,1447,7103.390286684036,44.00987243652344,-44.503116607666016,19.775012969970703,0.14
471,MetaDrive-test-conv-dropout-norm-lr,66,242.3662392494684,473328,1449,7117.133794546127,41.40077209472656,,16.024497985839844,0.15
472,MetaDrive-test-conv-dropout-norm-lr,66,242.35991640868508,474194,1452,7129.120332241058,43.99320983886719,,32.8226318359375,0.15
473,MetaDrive-test-conv-dropout-norm-lr,66,242.21633971433025,475106,1454,7140.170916557312,35.96735382080078,,16.838516235351562,0.16
474,MetaDrive-test-conv-dropout-norm-lr,66,241.25977527710162,476240,1456,7158.811403274536,37.266746520996094,,4.231252193450928,0.15
475,MetaDrive-test-conv-dropout-norm-lr,66,238.99807431181043,477332,1458,7174.806182146072,40.848854064941406,,7.85837459564209,0.14
476,MetaDrive-test-conv-dropout-norm-lr,66,238.88001140158485,478219,1459,7187.662855625153,36.774024963378906,-36.462493896484375,8.592744827270508,0.14
477,MetaDrive-test-conv-dropout-norm-lr,66,240.0519171102322,479084,1460,7199.120265483856,37.33594512939453,,9.811102867126465,0.14
478,MetaDrive-test-conv-dropout-norm-lr,66,242.69465387301946,480735,1462,7222.775741577148,41.700653076171875,-42.823978424072266,5.590023040771484,0.16
479,MetaDrive-test-conv-dropout-norm-lr,66,242.5201401437401,481386,1463,7231.109203577042,40.7121467590332,,10.5136079788208,0.16
480,MetaDrive-test-conv-dropout-norm-lr,66,243.60931526460752,482162,1464,7241.893265724182,41.70906066894531,,8.79775619506836,0.17
481,MetaDrive-test-conv-dropout-norm-lr,66,243.33778560562354,483709,1467,7263.332257986069,34.37186050415039,-35.791664123535156,14.562872886657715,0.17
482,MetaDrive-test-conv-dropout-norm-lr,66,246.3231118096922,484645,1468,7276.0462329387665,36.181610107421875,-35.90778732299805,6.788793087005615,0.18
483,MetaDrive-test-conv-dropout-norm-lr,66,246.40493992326464,485340,1469,7286.556807279587,40.95697021484375,,3.7259647846221924,0.19
484,MetaDrive-test-conv-dropout-norm-lr,66,247.3457235395159,486607,1471,7302.0052263736725,43.691688537597656,-44.37398910522461,4.0318284034729,0.19
485,MetaDrive-test-conv-dropout-norm-lr,66,247.15128663121118,487155,1472,7310.322510242462,37.278289794921875,-36.28769302368164,10.812559127807617,0.19
486,MetaDrive-test-conv-dropout-norm-lr,66,249.2679296081473,488613,1474,7333.256924629211,39.24894714355469,-38.80718231201172,21.234407424926758,0.2
487,MetaDrive-test-conv-dropout-norm-lr,66,251.77455495566355,489614,1475,7353.784161329269,39.58489227294922,,8.257835388183594,0.2
488,MetaDrive-test-conv-dropout-norm-lr,66,253.27942977837193,490397,1476,7366.102208375931,41.58908462524414,-41.512107849121094,15.314271926879883,0.2
489,MetaDrive-test-conv-dropout-norm-lr,66,254.08357500809223,491398,1477,7382.093798160553,36.46784973144531,,4.896365642547607,0.2
490,MetaDrive-test-conv-dropout-norm-lr,66,253.5168498357421,492067,1479,7391.312730312347,39.538455963134766,-39.50661087036133,9.876371383666992,0.2
491,MetaDrive-test-conv-dropout-norm-lr,66,255.71019575556423,493275,1481,7409.0012819767,39.03931427001953,-39.71282958984375,9.821488380432129,0.21
492,MetaDrive-test-conv-dropout-norm-lr,66,255.5841677366873,494452,1483,7426.216316461563,42.40406799316406,,9.236669540405273,0.22
493,MetaDrive-test-conv-dropout-norm-lr,66,254.8489641827247,495438,1485,7439.083375930786,38.4915771484375,,22.566242218017578,0.24
494,MetaDrive-test-conv-dropout-norm-lr,66,254.90003660991468,496387,1487,7453.253795146942,41.0052604675293,-41.449920654296875,18.62533950805664,0.25
495,MetaDrive-test-conv-dropout-norm-lr,66,256.6972445714907,497388,1488,7473.395699977875,41.87944030761719,,4.8620076179504395,0.25
496,MetaDrive-test-conv-dropout-norm-lr,66,255.90687010248078,498121,1490,7483.331130743027,37.408729553222656,-37.647705078125,14.946072578430176,0.26
497,MetaDrive-test-conv-dropout-norm-lr,66,258.5189496497219,499122,1491,7504.112371921539,41.33624267578125,,4.9241814613342285,0.26
