TanmayH/CS269-RL-project-code/MetaDrive-td3combine-expt_with_safe-leaky-adamw-in-q-weighted-corrected-diff-arch/MetaDrive-Gen-Next-v0/td3/progress.csv
,log_dir,frame_per_second,episode_reward,total_steps,total_episodes,total_time,actor_loss,critic_loss,target_q,success_rate
0,MetaDrive-td3combine-expt_with_safe-leaky-adamw-in-q-weighted-corrected-diff-arch,921,5.825609123925861,1016,2,1.1029260158538818,,0.0013676738599315286,-0.02846895530819893,0.0
1,MetaDrive-td3combine-expt_with_safe-leaky-adamw-in-q-weighted-corrected-diff-arch,106,-2.0927256421572173,2466,19,23.11345911026001,,0.014255844056606293,-0.03874552622437477,0.0
2,MetaDrive-td3combine-expt_with_safe-leaky-adamw-in-q-weighted-corrected-diff-arch,91,-1.9266284571880608,3467,20,38.057154178619385,0.028602130711078644,0.0047894734889268875,-0.031675659120082855,0.0
3,MetaDrive-td3combine-expt_with_safe-leaky-adamw-in-q-weighted-corrected-diff-arch,83,-1.955436740555588,4692,22,55.92844104766846,,0.008346849121153355,-0.0625520870089531,0.0
4,MetaDrive-td3combine-expt_with_safe-leaky-adamw-in-q-weighted-corrected-diff-arch,79,-1.9881835142473634,5986,24,75.26157021522522,,0.009773059748113155,-0.08521795272827148,0.0
5,MetaDrive-td3combine-expt_with_safe-leaky-adamw-in-q-weighted-corrected-diff-arch,77,-1.9591482309522692,6987,25,90.01699995994568,0.0754227489233017,0.0031236722134053707,-0.0710986778140068,0.0
6,MetaDrive-td3combine-expt_with_safe-leaky-adamw-in-q-weighted-corrected-diff-arch,76,-2.0419510211326513,7899,26,103.38588500022888,0.10783655941486359,0.007403230294585228,-0.08014780282974243,0.0
7,MetaDrive-td3combine-expt_with_safe-leaky-adamw-in-q-weighted-corrected-diff-arch,75,-1.9304459613996987,8900,27,118.2118411064148,,0.012837111949920654,-0.12220819294452667,0.0
8,MetaDrive-td3combine-expt_with_safe-leaky-adamw-in-q-weighted-corrected-diff-arch,74,-1.9406957192938512,9901,28,132.48084211349487,0.10086499899625778,0.0016300359275192022,-0.10577312856912613,0.0
9,MetaDrive-td3combine-expt_with_safe-leaky-adamw-in-q-weighted-corrected-diff-arch,74,-2.048498879296674,10001,29,134.027850151062,0.10450232774019241,0.025516431778669357,-0.11754768341779709,0.0
10,MetaDrive-td3combine-expt_with_safe-leaky-adamw-in-q-weighted-corrected-diff-arch,73,-2.491925915139829,11001,37,149.56687116622925,0.20832011103630066,0.013920621946454048,-0.13969185948371887,0.0
11,MetaDrive-td3combine-expt_with_safe-leaky-adamw-in-q-weighted-corrected-diff-arch,71,-0.96633498379648,12003,68,167.60441184043884,0.03528305143117905,0.005202029831707478,-0.06859717518091202,0.0
12,MetaDrive-td3combine-expt_with_safe-leaky-adamw-in-q-weighted-corrected-diff-arch,70,-0.37004327063966186,13005,88,184.4568099975586,0.03335373103618622,0.024739881977438927,-0.012570327147841454,0.0
13,MetaDrive-td3combine-expt_with_safe-leaky-adamw-in-q-weighted-corrected-diff-arch,69,0.6363323766706885,14061,109,202.41079306602478,-0.10742182284593582,0.02252001315355301,0.07175693660974503,0.0
14,MetaDrive-td3combine-expt_with_safe-leaky-adamw-in-q-weighted-corrected-diff-arch,68,1.2196855983182722,15004,134,218.6297962665558,,0.9202524423599243,0.0525752454996109,0.0
15,MetaDrive-td3combine-expt_with_safe-leaky-adamw-in-q-weighted-corrected-diff-arch,68,1.3544649912984839,16035,156,235.58605289459229,-0.22215688228607178,0.014261744916439056,0.17334146797657013,0.0
16,MetaDrive-td3combine-expt_with_safe-leaky-adamw-in-q-weighted-corrected-diff-arch,67,2.0984866410789844,17038,167,251.2936499118805,,0.032196640968322754,0.34441789984703064,0.0
17,MetaDrive-td3combine-expt_with_safe-leaky-adamw-in-q-weighted-corrected-diff-arch,67,2.517089533182793,18134,186,269.656751871109,,0.4790413975715637,0.3228159248828888,0.0
18,MetaDrive-td3combine-expt_with_safe-leaky-adamw-in-q-weighted-corrected-diff-arch,66,2.1771151010641208,19031,206,284.49767804145813,-0.7683695554733276,0.03553011640906334,0.7549921870231628,0.0
19,MetaDrive-td3combine-expt_with_safe-leaky-adamw-in-q-weighted-corrected-diff-arch,66,3.0937389192327807,20054,226,301.26997208595276,,0.5604140162467957,0.590447723865509,0.0
20,MetaDrive-td3combine-expt_with_safe-leaky-adamw-in-q-weighted-corrected-diff-arch,66,4.653241229839138,21025,240,317.1241338253021,-1.0170025825500488,0.11095581948757172,1.0001475811004639,0.0
21,MetaDrive-td3combine-expt_with_safe-leaky-adamw-in-q-weighted-corrected-diff-arch,66,6.619797274197582,22136,253,335.0839970111847,,0.2647719979286194,1.175783634185791,0.0
22,MetaDrive-td3combine-expt_with_safe-leaky-adamw-in-q-weighted-corrected-diff-arch,66,8.635155054796451,23802,262,360.4184992313385,,0.07398392260074615,1.5089890956878662,0.0
23,MetaDrive-td3combine-expt_with_safe-leaky-adamw-in-q-weighted-corrected-diff-arch,66,9.50777732927283,24173,265,365.9647390842438,-1.6997301578521729,0.06214107200503349,1.6395601034164429,0.0
24,MetaDrive-td3combine-expt_with_safe-leaky-adamw-in-q-weighted-corrected-diff-arch,66,11.18686526956659,25332,272,383.44766497612,,0.6951342821121216,1.853149175643921,0.0
25,MetaDrive-td3combine-expt_with_safe-leaky-adamw-in-q-weighted-corrected-diff-arch,66,12.852868420278572,26114,276,395.6084201335907,,0.08430568128824234,2.2489404678344727,0.0
26,MetaDrive-td3combine-expt_with_safe-leaky-adamw-in-q-weighted-corrected-diff-arch,66,14.994234758578237,27066,280,409.9416570663452,,0.09902078658342361,2.6101653575897217,0.01
27,MetaDrive-td3combine-expt_with_safe-leaky-adamw-in-q-weighted-corrected-diff-arch,66,17.072339639890327,28014,282,424.33682203292847,,0.1663215458393097,2.8028042316436768,0.01
28,MetaDrive-td3combine-expt_with_safe-leaky-adamw-in-q-weighted-corrected-diff-arch,66,20.076757727796203,29138,284,440.8879590034485,,1.6551995277404785,3.07405686378479,0.02
29,MetaDrive-td3combine-expt_with_safe-leaky-adamw-in-q-weighted-corrected-diff-arch,66,22.368041603116158,30004,287,453.83260011672974,,0.09127555787563324,3.500638484954834,0.03
30,MetaDrive-td3combine-expt_with_safe-leaky-adamw-in-q-weighted-corrected-diff-arch,66,24.84531181908436,31260,289,472.4015188217163,,2.618474006652832,3.861860990524292,0.04
31,MetaDrive-td3combine-expt_with_safe-leaky-adamw-in-q-weighted-corrected-diff-arch,66,27.235715048698616,32102,290,485.14451789855957,,1.3785202503204346,4.239291191101074,0.05
32,MetaDrive-td3combine-expt_with_safe-leaky-adamw-in-q-weighted-corrected-diff-arch,66,29.94633525719514,33012,291,498.7337439060211,,0.14596325159072876,4.88167667388916,0.06
33,MetaDrive-td3combine-expt_with_safe-leaky-adamw-in-q-weighted-corrected-diff-arch,66,30.898994532353043,34095,293,514.8724448680878,-5.047607898712158,0.23878538608551025,5.015146255493164,0.06
34,MetaDrive-td3combine-expt_with_safe-leaky-adamw-in-q-weighted-corrected-diff-arch,66,36.06560317976195,35942,295,542.9240410327911,,0.2565251588821411,5.727545738220215,0.07
35,MetaDrive-td3combine-expt_with_safe-leaky-adamw-in-q-weighted-corrected-diff-arch,66,38.1713129448727,36551,296,551.9323880672455,-6.581739902496338,0.15852591395378113,6.402941703796387,0.08
36,MetaDrive-td3combine-expt_with_safe-leaky-adamw-in-q-weighted-corrected-diff-arch,66,39.255783348196516,37065,298,559.7278871536255,-6.332198143005371,0.2575746774673462,6.281013011932373,0.08
37,MetaDrive-td3combine-expt_with_safe-leaky-adamw-in-q-weighted-corrected-diff-arch,66,42.40404299491518,38146,300,575.9424252510071,,1.136075735092163,6.774101734161377,0.08
38,MetaDrive-td3combine-expt_with_safe-leaky-adamw-in-q-weighted-corrected-diff-arch,66,43.62786596277666,39147,301,590.9399921894073,-7.40794038772583,2.3029732704162598,7.166340351104736,0.08
39,MetaDrive-td3combine-expt_with_safe-leaky-adamw-in-q-weighted-corrected-diff-arch,66,47.0346268646522,40832,304,616.2525451183319,,0.8175445795059204,7.550027847290039,0.09
40,MetaDrive-td3combine-expt_with_safe-leaky-adamw-in-q-weighted-corrected-diff-arch,66,48.09739799643946,41833,305,631.2560021877289,-8.584478378295898,0.11053718626499176,8.4169340133667,0.09
41,MetaDrive-td3combine-expt_with_safe-leaky-adamw-in-q-weighted-corrected-diff-arch,66,49.738957571651966,42345,307,639.0268559455872,-8.432748794555664,0.6954699754714966,8.561504364013672,0.1
42,MetaDrive-td3combine-expt_with_safe-leaky-adamw-in-q-weighted-corrected-diff-arch,66,52.725187135256995,43357,309,654.6437089443207,-9.207341194152832,0.21935918927192688,8.981125831604004,0.1
43,MetaDrive-td3combine-expt_with_safe-leaky-adamw-in-q-weighted-corrected-diff-arch,66,53.69476686603978,44358,310,669.2074491977692,,5.569338798522949,8.801663398742676,0.1
44,MetaDrive-td3combine-expt_with_safe-leaky-adamw-in-q-weighted-corrected-diff-arch,66,54.534283699145796,45490,312,685.8857641220093,,0.7217098474502563,10.135422706604004,0.1
45,MetaDrive-td3combine-expt_with_safe-leaky-adamw-in-q-weighted-corrected-diff-arch,66,55.50476295594647,46491,313,700.9036889076233,-10.517955780029297,17.695144653320312,9.4972505569458,0.1
46,MetaDrive-td3combine-expt_with_safe-leaky-adamw-in-q-weighted-corrected-diff-arch,66,55.97980410813138,47492,314,716.059741973877,,7.43467378616333,10.064053535461426,0.1
47,MetaDrive-td3combine-expt_with_safe-leaky-adamw-in-q-weighted-corrected-diff-arch,66,56.449910281258965,48493,315,730.8451430797577,-10.982558250427246,0.3895338177680969,10.49072265625,0.1
48,MetaDrive-td3combine-expt_with_safe-leaky-adamw-in-q-weighted-corrected-diff-arch,66,57.02438926131303,49494,316,746.0301909446716,,0.6905255913734436,10.497892379760742,0.1
49,MetaDrive-td3combine-expt_with_safe-leaky-adamw-in-q-weighted-corrected-diff-arch,66,58.009492646681736,50495,317,761.2013051509857,-12.167539596557617,10.485746383666992,11.721453666687012,0.1
50,MetaDrive-td3combine-expt_with_safe-leaky-adamw-in-q-weighted-corrected-diff-arch,66,58.17494371349207,51496,318,776.6412091255188,,4.540513515472412,10.939982414245605,0.1
51,MetaDrive-td3combine-expt_with_safe-leaky-adamw-in-q-weighted-corrected-diff-arch,66,59.792327532371175,52036,319,784.5410161018372,,9.389141082763672,11.121557235717773,0.11
52,MetaDrive-td3combine-expt_with_safe-leaky-adamw-in-q-weighted-corrected-diff-arch,66,61.039561168203626,53136,321,800.4888079166412,,0.32774704694747925,12.25279426574707,0.11
53,MetaDrive-td3combine-expt_with_safe-leaky-adamw-in-q-weighted-corrected-diff-arch,66,61.1193031331601,54137,322,815.6960699558258,-12.127090454101562,0.3910142779350281,12.071964263916016,0.11
54,MetaDrive-td3combine-expt_with_safe-leaky-adamw-in-q-weighted-corrected-diff-arch,66,61.853805727041106,55138,323,830.4128630161285,,0.6431245803833008,12.721678733825684,0.11
55,MetaDrive-td3combine-expt_with_safe-leaky-adamw-in-q-weighted-corrected-diff-arch,66,63.120681941948824,56139,324,845.4355049133301,-12.74907112121582,1.5440247058868408,12.942394256591797,0.11
56,MetaDrive-td3combine-expt_with_safe-leaky-adamw-in-q-weighted-corrected-diff-arch,66,66.41727678629245,57667,326,868.9768300056458,-14.4981050491333,22.337751388549805,13.754790306091309,0.12
57,MetaDrive-td3combine-expt_with_safe-leaky-adamw-in-q-weighted-corrected-diff-arch,66,69.04539803428668,58284,327,878.6980259418488,,0.9962148666381836,14.83096694946289,0.13
58,MetaDrive-td3combine-expt_with_safe-leaky-adamw-in-q-weighted-corrected-diff-arch,66,70.92520974500387,59285,328,894.3863019943237,-12.91584300994873,1.0196377038955688,12.575182914733887,0.13
59,MetaDrive-td3combine-expt_with_safe-leaky-adamw-in-q-weighted-corrected-diff-arch,66,72.79047325983268,60344,330,909.9815299510956,,15.526418685913086,12.336959838867188,0.15
60,MetaDrive-td3combine-expt_with_safe-leaky-adamw-in-q-weighted-corrected-diff-arch,66,73.12097189733257,61345,331,924.8496041297913,-14.210826873779297,1.2854640483856201,13.381636619567871,0.15
61,MetaDrive-td3combine-expt_with_safe-leaky-adamw-in-q-weighted-corrected-diff-arch,66,73.87154135210564,62346,332,940.0024111270905,,5.40977144241333,15.527461051940918,0.15
62,MetaDrive-td3combine-expt_with_safe-leaky-adamw-in-q-weighted-corrected-diff-arch,66,76.224863337688,63589,334,958.943311214447,-15.738253593444824,1.2767267227172852,14.73995590209961,0.15
63,MetaDrive-td3combine-expt_with_safe-leaky-adamw-in-q-weighted-corrected-diff-arch,66,79.92579778722552,64830,336,977.8227248191833,,1.9427263736724854,17.54456329345703,0.16
64,MetaDrive-td3combine-expt_with_safe-leaky-adamw-in-q-weighted-corrected-diff-arch,66,81.29528082061942,65195,337,983.253781080246,-15.183333396911621,8.168132781982422,14.623984336853027,0.17
65,MetaDrive-td3combine-expt_with_safe-leaky-adamw-in-q-weighted-corrected-diff-arch,66,82.43885571743543,66196,338,999.0389378070831,,0.50286865234375,17.5105037689209,0.17
66,MetaDrive-td3combine-expt_with_safe-leaky-adamw-in-q-weighted-corrected-diff-arch,66,84.594120937313,67649,340,1020.6579170227051,-14.522838592529297,16.629913330078125,14.539139747619629,0.18
67,MetaDrive-td3combine-expt_with_safe-leaky-adamw-in-q-weighted-corrected-diff-arch,66,85.53857174370569,68149,341,1028.1721138954163,-16.65196990966797,1.7594610452651978,16.297719955444336,0.19
68,MetaDrive-td3combine-expt_with_safe-leaky-adamw-in-q-weighted-corrected-diff-arch,66,85.92837719482601,69150,342,1043.1357250213623,,0.934058427810669,15.570369720458984,0.19
69,MetaDrive-td3combine-expt_with_safe-leaky-adamw-in-q-weighted-corrected-diff-arch,66,86.41209302820296,70151,343,1058.1804790496826,-16.474716186523438,0.5844944715499878,16.41798210144043,0.19
70,MetaDrive-td3combine-expt_with_safe-leaky-adamw-in-q-weighted-corrected-diff-arch,66,87.1528844883497,71152,344,1073.3285911083221,,2.3238182067871094,17.5122127532959,0.19
71,MetaDrive-td3combine-expt_with_safe-leaky-adamw-in-q-weighted-corrected-diff-arch,66,88.30439788545978,72569,347,1094.453980922699,-17.079011917114258,14.086446762084961,16.553068161010742,0.19
72,MetaDrive-td3combine-expt_with_safe-leaky-adamw-in-q-weighted-corrected-diff-arch,66,90.7211924786081,73570,348,1109.613578081131,,18.66977310180664,18.738731384277344,0.19
73,MetaDrive-td3combine-expt_with_safe-leaky-adamw-in-q-weighted-corrected-diff-arch,66,91.00487496794015,74571,349,1124.8882791996002,-18.209287643432617,24.306142807006836,17.171607971191406,0.19
74,MetaDrive-td3combine-expt_with_safe-leaky-adamw-in-q-weighted-corrected-diff-arch,66,91.6632112894205,75572,350,1139.3756549358368,,1.5184580087661743,16.510665893554688,0.19
75,MetaDrive-td3combine-expt_with_safe-leaky-adamw-in-q-weighted-corrected-diff-arch,66,91.61792228276305,76573,351,1154.6448409557343,-19.254764556884766,1.7864089012145996,19.134965896606445,0.19
76,MetaDrive-td3combine-expt_with_safe-leaky-adamw-in-q-weighted-corrected-diff-arch,66,91.80693179275926,77574,352,1169.6499562263489,,1.729353904724121,18.46521759033203,0.19
77,MetaDrive-td3combine-expt_with_safe-leaky-adamw-in-q-weighted-corrected-diff-arch,66,93.61855504544992,78575,353,1184.6942751407623,-17.767513275146484,12.822694778442383,18.027000427246094,0.19
78,MetaDrive-td3combine-expt_with_safe-leaky-adamw-in-q-weighted-corrected-diff-arch,66,94.10195657092245,79786,356,1203.3638689517975,,0.8856857419013977,19.652101516723633,0.19
79,MetaDrive-td3combine-expt_with_safe-leaky-adamw-in-q-weighted-corrected-diff-arch,66,94.41130632933819,80787,357,1218.6004610061646,-19.86551284790039,1.254759669303894,19.45578384399414,0.19
80,MetaDrive-td3combine-expt_with_safe-leaky-adamw-in-q-weighted-corrected-diff-arch,66,96.03612680267122,81788,358,1233.794457912445,,2.6213936805725098,17.35784149169922,0.19
81,MetaDrive-td3combine-expt_with_safe-leaky-adamw-in-q-weighted-corrected-diff-arch,66,98.24363940359456,82789,359,1249.1946921348572,-19.25160789489746,2.705716609954834,19.10409927368164,0.19
82,MetaDrive-td3combine-expt_with_safe-leaky-adamw-in-q-weighted-corrected-diff-arch,66,100.50510768792881,83883,361,1265.2642331123352,-21.051097869873047,1.6464635133743286,20.830886840820312,0.19
83,MetaDrive-td3combine-expt_with_safe-leaky-adamw-in-q-weighted-corrected-diff-arch,66,99.07156842968293,84884,362,1280.2971289157867,,1.2370641231536865,18.813974380493164,0.19
84,MetaDrive-td3combine-expt_with_safe-leaky-adamw-in-q-weighted-corrected-diff-arch,66,100.66434257231651,85885,363,1295.2078568935394,-20.004566192626953,1.361159324645996,19.81833267211914,0.19
85,MetaDrive-td3combine-expt_with_safe-leaky-adamw-in-q-weighted-corrected-diff-arch,66,101.27514204830528,86096,364,1298.3193769454956,,2.0508902072906494,22.27284049987793,0.19
86,MetaDrive-td3combine-expt_with_safe-leaky-adamw-in-q-weighted-corrected-diff-arch,66,101.61637691471302,87097,365,1313.4116880893707,-24.185935974121094,6.642503261566162,23.459915161132812,0.19
87,MetaDrive-td3combine-expt_with_safe-leaky-adamw-in-q-weighted-corrected-diff-arch,66,102.3982785590191,88735,368,1337.849153995514,-22.72532081604004,1.8826472759246826,22.757883071899414,0.19
88,MetaDrive-td3combine-expt_with_safe-leaky-adamw-in-q-weighted-corrected-diff-arch,66,102.60785053691116,89019,369,1342.1096370220184,-20.053970336914062,1.7326011657714844,19.893798828125,0.19
89,MetaDrive-td3combine-expt_with_safe-leaky-adamw-in-q-weighted-corrected-diff-arch,66,105.56733590647391,90107,371,1358.376361131668,-18.23848533630371,1.1975599527359009,17.619935989379883,0.19
90,MetaDrive-td3combine-expt_with_safe-leaky-adamw-in-q-weighted-corrected-diff-arch,66,105.3563853487546,91108,372,1373.3076632022858,,39.550071716308594,21.885805130004883,0.19
91,MetaDrive-td3combine-expt_with_safe-leaky-adamw-in-q-weighted-corrected-diff-arch,66,105.34174410424215,92109,373,1388.4399089813232,-18.44822883605957,2.2192201614379883,18.439132690429688,0.19
92,MetaDrive-td3combine-expt_with_safe-leaky-adamw-in-q-weighted-corrected-diff-arch,66,106.84179918613539,93110,374,1403.5905051231384,,4.582829475402832,20.880401611328125,0.19
93,MetaDrive-td3combine-expt_with_safe-leaky-adamw-in-q-weighted-corrected-diff-arch,66,107.24898955998209,94111,375,1418.338462114334,-21.005292892456055,3.0874977111816406,21.408496856689453,0.19
94,MetaDrive-td3combine-expt_with_safe-leaky-adamw-in-q-weighted-corrected-diff-arch,66,107.32044723681605,95112,376,1433.1166231632233,,2.5924651622772217,18.85512924194336,0.19
95,MetaDrive-td3combine-expt_with_safe-leaky-adamw-in-q-weighted-corrected-diff-arch,66,105.84431335455344,96508,378,1454.5831408500671,,1.9974867105484009,22.64672088623047,0.19
96,MetaDrive-td3combine-expt_with_safe-leaky-adamw-in-q-weighted-corrected-diff-arch,66,107.94625404603208,97509,379,1470.305594921112,-22.688146591186523,1.7776910066604614,22.48148536682129,0.19
97,MetaDrive-td3combine-expt_with_safe-leaky-adamw-in-q-weighted-corrected-diff-arch,66,108.63337765574866,98510,380,1485.883810043335,,5.021519660949707,16.873046875,0.19
98,MetaDrive-td3combine-expt_with_safe-leaky-adamw-in-q-weighted-corrected-diff-arch,66,109.57834392547893,99511,381,1500.7503628730774,-17.159467697143555,2.8306663036346436,17.170291900634766,0.19
99,MetaDrive-td3combine-expt_with_safe-leaky-adamw-in-q-weighted-corrected-diff-arch,66,107.13894646123948,100504,383,1515.6304252147675,,4.660408973693848,17.780929565429688,0.19
100,MetaDrive-td3combine-expt_with_safe-leaky-adamw-in-q-weighted-corrected-diff-arch,66,104.31767384005872,101616,385,1532.0727109909058,,1.637265920639038,19.293991088867188,0.17
101,MetaDrive-td3combine-expt_with_safe-leaky-adamw-in-q-weighted-corrected-diff-arch,66,104.3720848889721,102617,386,1547.0379540920258,-20.887386322021484,43.71906280517578,20.191421508789062,0.17
102,MetaDrive-td3combine-expt_with_safe-leaky-adamw-in-q-weighted-corrected-diff-arch,66,104.58693776613575,103471,389,1559.9824049472809,-17.580533981323242,4.47383975982666,17.11594009399414,0.17
103,MetaDrive-td3combine-expt_with_safe-leaky-adamw-in-q-weighted-corrected-diff-arch,66,103.03743931123373,104472,390,1575.61478805542,,2.0841140747070312,20.05011558532715,0.16
104,MetaDrive-td3combine-expt_with_safe-leaky-adamw-in-q-weighted-corrected-diff-arch,66,101.09620546599044,105473,391,1590.957437992096,-20.600244522094727,3.7964768409729004,20.047189712524414,0.15
105,MetaDrive-td3combine-expt_with_safe-leaky-adamw-in-q-weighted-corrected-diff-arch,66,101.70926695527405,106474,392,1605.912381887436,,1.8161954879760742,19.35877227783203,0.15
106,MetaDrive-td3combine-expt_with_safe-leaky-adamw-in-q-weighted-corrected-diff-arch,66,101.76844996148209,107475,393,1620.8667268753052,-18.498266220092773,3.491208791732788,18.408300399780273,0.15
107,MetaDrive-td3combine-expt_with_safe-leaky-adamw-in-q-weighted-corrected-diff-arch,66,97.66433604280634,108963,397,1642.9528920650482,-18.969831466674805,3.95308256149292,19.5398006439209,0.14
108,MetaDrive-td3combine-expt_with_safe-leaky-adamw-in-q-weighted-corrected-diff-arch,66,98.41574679073125,109352,398,1648.6312158107758,,3.789597749710083,18.59540557861328,0.15
109,MetaDrive-td3combine-expt_with_safe-leaky-adamw-in-q-weighted-corrected-diff-arch,66,96.393110275593,110753,401,1669.4572670459747,-13.881291389465332,31.151309967041016,13.725890159606934,0.16
110,MetaDrive-td3combine-expt_with_safe-leaky-adamw-in-q-weighted-corrected-diff-arch,66,98.05360655899399,111067,402,1674.20685505867,-19.904756546020508,45.11130142211914,18.824810028076172,0.17
111,MetaDrive-td3combine-expt_with_safe-leaky-adamw-in-q-weighted-corrected-diff-arch,66,97.3116605248294,112068,403,1689.9816479682922,,29.31275177001953,17.004140853881836,0.16
112,MetaDrive-td3combine-expt_with_safe-leaky-adamw-in-q-weighted-corrected-diff-arch,66,98.03096076404452,113069,404,1705.0739889144897,-19.821578979492188,4.66197395324707,19.512115478515625,0.16
113,MetaDrive-td3combine-expt_with_safe-leaky-adamw-in-q-weighted-corrected-diff-arch,66,98.03376531169899,114070,405,1719.7953040599823,,46.59812927246094,18.495502471923828,0.16
114,MetaDrive-td3combine-expt_with_safe-leaky-adamw-in-q-weighted-corrected-diff-arch,66,100.09658609746592,115071,406,1734.7338230609894,-16.82475471496582,26.26231575012207,16.788280487060547,0.16
115,MetaDrive-td3combine-expt_with_safe-leaky-adamw-in-q-weighted-corrected-diff-arch,66,99.68122703769012,116072,407,1749.8008048534393,,5.954381942749023,17.773590087890625,0.15
116,MetaDrive-td3combine-expt_with_safe-leaky-adamw-in-q-weighted-corrected-diff-arch,66,100.1835730300603,117652,409,1773.6841180324554,,1.9432334899902344,17.310564041137695,0.16
117,MetaDrive-td3combine-expt_with_safe-leaky-adamw-in-q-weighted-corrected-diff-arch,66,100.2078699578487,118653,410,1788.6338639259338,-14.804952621459961,15.450057983398438,13.877732276916504,0.16
118,MetaDrive-td3combine-expt_with_safe-leaky-adamw-in-q-weighted-corrected-diff-arch,66,102.77922212486622,119969,412,1808.3304660320282,-20.641849517822266,7.77911376953125,20.387989044189453,0.17
119,MetaDrive-td3combine-expt_with_safe-leaky-adamw-in-q-weighted-corrected-diff-arch,66,101.94044298770922,120094,413,1810.2137920856476,,4.690199375152588,13.30850887298584,0.17
120,MetaDrive-td3combine-expt_with_safe-leaky-adamw-in-q-weighted-corrected-diff-arch,66,101.6605896664275,121198,415,1827.048465013504,,22.238670349121094,14.257952690124512,0.17
121,MetaDrive-td3combine-expt_with_safe-leaky-adamw-in-q-weighted-corrected-diff-arch,66,102.93539900114078,122199,416,1842.0866010189056,-16.928407669067383,3.555534839630127,16.940303802490234,0.17
122,MetaDrive-td3combine-expt_with_safe-leaky-adamw-in-q-weighted-corrected-diff-arch,66,102.30208735024591,123200,417,1856.653976202011,,5.181532859802246,16.641401290893555,0.17
123,MetaDrive-td3combine-expt_with_safe-leaky-adamw-in-q-weighted-corrected-diff-arch,66,104.01141789563896,124544,419,1876.5782978534698,,32.74502944946289,15.130651473999023,0.17
124,MetaDrive-td3combine-expt_with_safe-leaky-adamw-in-q-weighted-corrected-diff-arch,66,104.51435258440914,125699,421,1893.7461640834808,-14.534896850585938,68.09756469726562,13.507694244384766,0.17
125,MetaDrive-td3combine-expt_with_safe-leaky-adamw-in-q-weighted-corrected-diff-arch,66,105.01832838380977,126700,422,1909.0856230258942,,3.8448469638824463,19.067537307739258,0.17
126,MetaDrive-td3combine-expt_with_safe-leaky-adamw-in-q-weighted-corrected-diff-arch,66,106.78787672072005,127100,423,1915.3478181362152,,12.615564346313477,18.63248062133789,0.18
127,MetaDrive-td3combine-expt_with_safe-leaky-adamw-in-q-weighted-corrected-diff-arch,66,107.57786192719792,128101,424,1931.1525168418884,-24.970306396484375,5.211854934692383,25.270648956298828,0.18
128,MetaDrive-td3combine-expt_with_safe-leaky-adamw-in-q-weighted-corrected-diff-arch,66,106.31856046800988,129646,426,1953.7925698757172,,2.7327747344970703,17.710693359375,0.18
129,MetaDrive-td3combine-expt_with_safe-leaky-adamw-in-q-weighted-corrected-diff-arch,66,103.83380481401213,130647,427,1968.57870221138,-15.364876747131348,5.417779922485352,15.877941131591797,0.17
130,MetaDrive-td3combine-expt_with_safe-leaky-adamw-in-q-weighted-corrected-diff-arch,66,103.72413749512214,131125,428,1975.920527935028,-15.393548965454102,6.525760173797607,15.460742950439453,0.18
131,MetaDrive-td3combine-expt_with_safe-leaky-adamw-in-q-weighted-corrected-diff-arch,66,103.96055279765692,133001,431,2004.0162408351898,-14.74195671081543,4.985285758972168,14.238380432128906,0.17
132,MetaDrive-td3combine-expt_with_safe-leaky-adamw-in-q-weighted-corrected-diff-arch,66,104.68031860886421,134002,432,2019.3420190811157,,5.925563812255859,22.699617385864258,0.17
133,MetaDrive-td3combine-expt_with_safe-leaky-adamw-in-q-weighted-corrected-diff-arch,66,104.24568462884852,135003,433,2034.1504950523376,-18.595993041992188,10.097349166870117,18.237789154052734,0.17
134,MetaDrive-td3combine-expt_with_safe-leaky-adamw-in-q-weighted-corrected-diff-arch,66,102.85583133945487,136230,435,2052.3824808597565,,48.738616943359375,18.191139221191406,0.17
135,MetaDrive-td3combine-expt_with_safe-leaky-adamw-in-q-weighted-corrected-diff-arch,66,100.52199228804082,137986,438,2078.961639881134,,65.4516830444336,18.57567596435547,0.17
136,MetaDrive-td3combine-expt_with_safe-leaky-adamw-in-q-weighted-corrected-diff-arch,66,99.9782467786575,138987,439,2093.712588071823,-17.537578582763672,8.489256858825684,16.79583168029785,0.16
137,MetaDrive-td3combine-expt_with_safe-leaky-adamw-in-q-weighted-corrected-diff-arch,66,99.79884708010196,139639,440,2103.2391629219055,-20.766887664794922,5.215438365936279,20.40068244934082,0.16
138,MetaDrive-td3combine-expt_with_safe-leaky-adamw-in-q-weighted-corrected-diff-arch,66,99.90929381471759,140640,441,2118.0876171588898,,3.911695957183838,18.563594818115234,0.15
139,MetaDrive-td3combine-expt_with_safe-leaky-adamw-in-q-weighted-corrected-diff-arch,66,100.1896709272665,141641,442,2133.326851129532,-16.860580444335938,2.7380478382110596,16.315515518188477,0.15
140,MetaDrive-td3combine-expt_with_safe-leaky-adamw-in-q-weighted-corrected-diff-arch,66,100.03429381967636,142642,443,2147.9660589694977,,22.979206085205078,18.099170684814453,0.15
141,MetaDrive-td3combine-expt_with_safe-leaky-adamw-in-q-weighted-corrected-diff-arch,66,100.17770653456012,143643,444,2162.8428270816803,-20.071374893188477,12.012986183166504,19.041973114013672,0.15
142,MetaDrive-td3combine-expt_with_safe-leaky-adamw-in-q-weighted-corrected-diff-arch,66,101.74131643917785,144064,446,2169.2962551116943,,10.7061128616333,17.430259704589844,0.16
143,MetaDrive-td3combine-expt_with_safe-leaky-adamw-in-q-weighted-corrected-diff-arch,66,102.06343320347077,145065,447,2184.2380092144012,-17.124069213867188,4.510094165802002,17.215293884277344,0.16
144,MetaDrive-td3combine-expt_with_safe-leaky-adamw-in-q-weighted-corrected-diff-arch,66,100.30902606553587,146066,448,2199.222489118576,,2.3919594287872314,19.6138973236084,0.16
145,MetaDrive-td3combine-expt_with_safe-leaky-adamw-in-q-weighted-corrected-diff-arch,66,101.88711432899727,147071,450,2214.3292281627655,-16.881397247314453,2.6777186393737793,16.059547424316406,0.17
146,MetaDrive-td3combine-expt_with_safe-leaky-adamw-in-q-weighted-corrected-diff-arch,66,103.05354339190283,148072,451,2229.1209449768066,,2.2146658897399902,12.788118362426758,0.17
147,MetaDrive-td3combine-expt_with_safe-leaky-adamw-in-q-weighted-corrected-diff-arch,66,104.92961503009916,149073,452,2243.8426740169525,-20.742786407470703,4.064571380615234,20.843948364257812,0.17
148,MetaDrive-td3combine-expt_with_safe-leaky-adamw-in-q-weighted-corrected-diff-arch,66,103.33245976798248,150074,453,2258.4814579486847,,1.973886251449585,17.81496810913086,0.17
149,MetaDrive-td3combine-expt_with_safe-leaky-adamw-in-q-weighted-corrected-diff-arch,66,103.46678724299025,151407,456,2278.552211999893,-17.898944854736328,4.546677589416504,17.958696365356445,0.17
150,MetaDrive-td3combine-expt_with_safe-leaky-adamw-in-q-weighted-corrected-diff-arch,66,104.02854512832974,152408,457,2293.87957406044,,3.5307817459106445,12.846030235290527,0.17
151,MetaDrive-td3combine-expt_with_safe-leaky-adamw-in-q-weighted-corrected-diff-arch,66,101.61969169489208,153633,459,2312.2341692447662,-19.24289894104004,3.4847521781921387,19.481956481933594,0.17
152,MetaDrive-td3combine-expt_with_safe-leaky-adamw-in-q-weighted-corrected-diff-arch,66,102.67491806378757,154634,460,2328.274836063385,,11.586236953735352,18.37877655029297,0.17
153,MetaDrive-td3combine-expt_with_safe-leaky-adamw-in-q-weighted-corrected-diff-arch,66,102.11963317445651,155335,462,2338.6076090335846,-14.305953025817871,5.409512519836426,13.806316375732422,0.18
154,MetaDrive-td3combine-expt_with_safe-leaky-adamw-in-q-weighted-corrected-diff-arch,66,100.75272534133045,156336,463,2353.5474569797516,,13.545633316040039,20.358652114868164,0.18
155,MetaDrive-td3combine-expt_with_safe-leaky-adamw-in-q-weighted-corrected-diff-arch,66,101.73011529611385,157483,465,2370.5510489940643,-17.847488403320312,4.786781311035156,17.568151473999023,0.18
156,MetaDrive-td3combine-expt_with_safe-leaky-adamw-in-q-weighted-corrected-diff-arch,66,102.11017325699927,158484,466,2385.078084230423,,5.280409812927246,13.12585735321045,0.18
157,MetaDrive-td3combine-expt_with_safe-leaky-adamw-in-q-weighted-corrected-diff-arch,66,101.42508442897771,159626,468,2401.8747799396515,,21.791950225830078,17.003673553466797,0.18
158,MetaDrive-td3combine-expt_with_safe-leaky-adamw-in-q-weighted-corrected-diff-arch,66,101.67271463680746,160627,469,2416.8116760253906,-18.416017532348633,5.471022129058838,18.178293228149414,0.18
159,MetaDrive-td3combine-expt_with_safe-leaky-adamw-in-q-weighted-corrected-diff-arch,66,102.15780423665247,161628,470,2431.4895617961884,,9.479494094848633,23.02904510498047,0.18
160,MetaDrive-td3combine-expt_with_safe-leaky-adamw-in-q-weighted-corrected-diff-arch,66,100.15042658187232,162629,471,2446.248146057129,-15.474130630493164,4.42108154296875,14.50394058227539,0.18
161,MetaDrive-td3combine-expt_with_safe-leaky-adamw-in-q-weighted-corrected-diff-arch,66,100.8262288610863,163630,472,2461.346524953842,,5.998055458068848,17.143226623535156,0.18
162,MetaDrive-td3combine-expt_with_safe-leaky-adamw-in-q-weighted-corrected-diff-arch,66,101.09225853189102,164631,473,2475.6859431266785,-17.74007225036621,9.663124084472656,16.966697692871094,0.18
163,MetaDrive-td3combine-expt_with_safe-leaky-adamw-in-q-weighted-corrected-diff-arch,66,99.65983049310145,165759,475,2492.2961139678955,-13.742609024047852,4.208854675292969,13.845335006713867,0.18
164,MetaDrive-td3combine-expt_with_safe-leaky-adamw-in-q-weighted-corrected-diff-arch,66,101.09785027382206,166084,476,2497.3662950992584,,35.29857635498047,13.234210014343262,0.19
165,MetaDrive-td3combine-expt_with_safe-leaky-adamw-in-q-weighted-corrected-diff-arch,66,100.46751763749617,167072,479,2512.119684934616,,5.288773536682129,21.91230583190918,0.19
166,MetaDrive-td3combine-expt_with_safe-leaky-adamw-in-q-weighted-corrected-diff-arch,66,102.42714478007916,168073,480,2527.096862077713,-20.440229415893555,4.169458389282227,20.481979370117188,0.19
167,MetaDrive-td3combine-expt_with_safe-leaky-adamw-in-q-weighted-corrected-diff-arch,66,102.90007568413556,169405,482,2546.988389968872,-17.44695281982422,4.621586322784424,17.045291900634766,0.19
168,MetaDrive-td3combine-expt_with_safe-leaky-adamw-in-q-weighted-corrected-diff-arch,66,104.37242626611388,170406,483,2562.114513874054,,12.243817329406738,18.836591720581055,0.19
169,MetaDrive-td3combine-expt_with_safe-leaky-adamw-in-q-weighted-corrected-diff-arch,66,108.44928382689483,171995,486,2585.7561349868774,-17.66375732421875,42.223060607910156,15.746477127075195,0.2
170,MetaDrive-td3combine-expt_with_safe-leaky-adamw-in-q-weighted-corrected-diff-arch,66,109.81107059518837,172511,487,2593.3762991428375,-18.187877655029297,6.888803482055664,17.505661010742188,0.21
171,MetaDrive-td3combine-expt_with_safe-leaky-adamw-in-q-weighted-corrected-diff-arch,66,111.05284136352046,173512,488,2608.343498945236,,11.675947189331055,10.969635009765625,0.21
172,MetaDrive-td3combine-expt_with_safe-leaky-adamw-in-q-weighted-corrected-diff-arch,66,109.76486857758772,174513,489,2623.3243470191956,-14.531707763671875,4.196778774261475,14.313678741455078,0.2
173,MetaDrive-td3combine-expt_with_safe-leaky-adamw-in-q-weighted-corrected-diff-arch,66,109.2980308258026,175677,491,2641.0181860923767,-16.305818557739258,4.305131912231445,16.770111083984375,0.2
174,MetaDrive-td3combine-expt_with_safe-leaky-adamw-in-q-weighted-corrected-diff-arch,66,109.61562722145169,176678,492,2656.167149066925,,59.60304641723633,16.130544662475586,0.2
175,MetaDrive-td3combine-expt_with_safe-leaky-adamw-in-q-weighted-corrected-diff-arch,66,111.1560659224902,177679,493,2671.963492155075,-16.589141845703125,7.852624893188477,16.887571334838867,0.2
176,MetaDrive-td3combine-expt_with_safe-leaky-adamw-in-q-weighted-corrected-diff-arch,66,111.97202673000476,178680,494,2688.320328950882,,22.666366577148438,19.937620162963867,0.2
177,MetaDrive-td3combine-expt_with_safe-leaky-adamw-in-q-weighted-corrected-diff-arch,66,110.35777631383931,179681,495,2703.5171599388123,-11.368681907653809,23.136852264404297,10.03984260559082,0.19
178,MetaDrive-td3combine-expt_with_safe-leaky-adamw-in-q-weighted-corrected-diff-arch,66,110.11430609579782,180822,497,2720.0783870220184,,3.202908992767334,14.54570484161377,0.19
179,MetaDrive-td3combine-expt_with_safe-leaky-adamw-in-q-weighted-corrected-diff-arch,66,109.94377041473697,181823,498,2735.448426961899,-14.508939743041992,5.9750285148620605,15.18138599395752,0.18
180,MetaDrive-td3combine-expt_with_safe-leaky-adamw-in-q-weighted-corrected-diff-arch,66,110.43386896150551,182824,499,2750.3779940605164,,11.499103546142578,12.789380073547363,0.18
181,MetaDrive-td3combine-expt_with_safe-leaky-adamw-in-q-weighted-corrected-diff-arch,66,109.79381785442452,183825,500,2765.1717801094055,-15.732551574707031,2.8094496726989746,14.99069595336914,0.17
182,MetaDrive-td3combine-expt_with_safe-leaky-adamw-in-q-weighted-corrected-diff-arch,66,109.47932165507282,184826,501,2779.926024913788,,3.3237428665161133,16.309799194335938,0.17
183,MetaDrive-td3combine-expt_with_safe-leaky-adamw-in-q-weighted-corrected-diff-arch,66,108.9989297447873,185827,502,2795.423264026642,-13.928210258483887,9.399762153625488,14.01250171661377,0.16
184,MetaDrive-td3combine-expt_with_safe-leaky-adamw-in-q-weighted-corrected-diff-arch,66,107.19475517790674,186949,504,2812.858850002289,-14.311431884765625,2.868208408355713,14.021177291870117,0.16
185,MetaDrive-td3combine-expt_with_safe-leaky-adamw-in-q-weighted-corrected-diff-arch,66,107.00588637263972,187950,505,2828.1940438747406,,5.373201370239258,11.764914512634277,0.16
186,MetaDrive-td3combine-expt_with_safe-leaky-adamw-in-q-weighted-corrected-diff-arch,66,105.50614191715849,188537,506,2836.9711561203003,-14.493185997009277,3.0779521465301514,13.754236221313477,0.16
187,MetaDrive-td3combine-expt_with_safe-leaky-adamw-in-q-weighted-corrected-diff-arch,66,104.29764365927082,189457,507,2850.737327814102,-14.376615524291992,1.8636598587036133,14.681346893310547,0.16
188,MetaDrive-td3combine-expt_with_safe-leaky-adamw-in-q-weighted-corrected-diff-arch,66,103.65024361577933,190348,508,2864.3183031082153,,10.50355339050293,12.239730834960938,0.16
189,MetaDrive-td3combine-expt_with_safe-leaky-adamw-in-q-weighted-corrected-diff-arch,66,105.11035738961829,191349,509,2879.2565240859985,-18.059001922607422,5.8563642501831055,17.822036743164062,0.16
190,MetaDrive-td3combine-expt_with_safe-leaky-adamw-in-q-weighted-corrected-diff-arch,66,104.69191806837729,192350,510,2894.2674219608307,,3.5433573722839355,17.34796142578125,0.16
191,MetaDrive-td3combine-expt_with_safe-leaky-adamw-in-q-weighted-corrected-diff-arch,66,104.03383464538456,193351,511,2910.19002699852,-15.883298873901367,3.4522578716278076,14.76686954498291,0.15
192,MetaDrive-td3combine-expt_with_safe-leaky-adamw-in-q-weighted-corrected-diff-arch,66,104.59742639568094,194352,512,2925.808424949646,,6.677005767822266,18.028806686401367,0.15
193,MetaDrive-td3combine-expt_with_safe-leaky-adamw-in-q-weighted-corrected-diff-arch,66,108.32913779430534,195161,514,2938.7946271896362,-15.801161766052246,5.904019355773926,15.432781219482422,0.16
194,MetaDrive-td3combine-expt_with_safe-leaky-adamw-in-q-weighted-corrected-diff-arch,66,108.52525517523358,196162,515,2953.706349134445,,5.613184928894043,14.636178970336914,0.16
195,MetaDrive-td3combine-expt_with_safe-leaky-adamw-in-q-weighted-corrected-diff-arch,66,107.50220473072044,197309,517,2970.8179829120636,-19.56999969482422,2.3914308547973633,19.282812118530273,0.16
196,MetaDrive-td3combine-expt_with_safe-leaky-adamw-in-q-weighted-corrected-diff-arch,66,106.18154887600446,198310,518,2986.6750280857086,,8.176694869995117,16.190658569335938,0.15
197,MetaDrive-td3combine-expt_with_safe-leaky-adamw-in-q-weighted-corrected-diff-arch,66,105.7201481667235,199311,519,3001.734076023102,-21.466161727905273,17.665016174316406,19.793237686157227,0.15
198,MetaDrive-td3combine-expt_with_safe-leaky-adamw-in-q-weighted-corrected-diff-arch,66,105.65234922324822,200312,520,3016.8775730133057,,6.299680233001709,15.224000930786133,0.15
199,MetaDrive-td3combine-expt_with_safe-leaky-adamw-in-q-weighted-corrected-diff-arch,66,104.41177408363045,201313,521,3032.0571160316467,-17.770185470581055,33.2789192199707,17.565378189086914,0.15
200,MetaDrive-td3combine-expt_with_safe-leaky-adamw-in-q-weighted-corrected-diff-arch,66,104.77316442790587,202314,522,3047.734090089798,,19.50281524658203,18.050765991210938,0.15
201,MetaDrive-td3combine-expt_with_safe-leaky-adamw-in-q-weighted-corrected-diff-arch,66,103.18196670443433,203315,523,3062.7763431072235,-19.017669677734375,4.942513465881348,19.016416549682617,0.14
202,MetaDrive-td3combine-expt_with_safe-leaky-adamw-in-q-weighted-corrected-diff-arch,66,102.33501065029053,204316,524,3077.845428943634,,3.463623523712158,17.452022552490234,0.14
203,MetaDrive-td3combine-expt_with_safe-leaky-adamw-in-q-weighted-corrected-diff-arch,66,102.63249777205999,205317,525,3092.942715883255,-16.033344268798828,3.9710752964019775,15.821386337280273,0.13
204,MetaDrive-td3combine-expt_with_safe-leaky-adamw-in-q-weighted-corrected-diff-arch,66,103.76710522292512,206318,526,3108.025840997696,,7.7652907371521,23.74428939819336,0.13
205,MetaDrive-td3combine-expt_with_safe-leaky-adamw-in-q-weighted-corrected-diff-arch,66,105.16330451887572,207319,527,3122.982099056244,-13.022785186767578,5.088374137878418,12.97598648071289,0.13
206,MetaDrive-td3combine-expt_with_safe-leaky-adamw-in-q-weighted-corrected-diff-arch,66,103.86778703692745,208320,528,3138.6784160137177,,6.197865009307861,22.443769454956055,0.12
207,MetaDrive-td3combine-expt_with_safe-leaky-adamw-in-q-weighted-corrected-diff-arch,66,103.91479451732319,209157,530,3151.5366830825806,-20.066162109375,9.772578239440918,18.793996810913086,0.11
208,MetaDrive-td3combine-expt_with_safe-leaky-adamw-in-q-weighted-corrected-diff-arch,66,102.90564683678916,210251,532,3168.520292043686,-12.288291931152344,5.824415683746338,11.620331764221191,0.11
209,MetaDrive-td3combine-expt_with_safe-leaky-adamw-in-q-weighted-corrected-diff-arch,66,102.76704964467666,211252,533,3183.8503110408783,,2.2216684818267822,15.582592964172363,0.11
210,MetaDrive-td3combine-expt_with_safe-leaky-adamw-in-q-weighted-corrected-diff-arch,66,103.69346184730227,212253,534,3199.0675020217896,-17.852760314941406,8.7481050491333,17.37615394592285,0.11
211,MetaDrive-td3combine-expt_with_safe-leaky-adamw-in-q-weighted-corrected-diff-arch,66,102.44292839505755,213053,537,3211.2438061237335,-16.22477912902832,3.1390676498413086,15.07999038696289,0.1
212,MetaDrive-td3combine-expt_with_safe-leaky-adamw-in-q-weighted-corrected-diff-arch,66,101.89076067308665,214192,539,3228.9588680267334,,25.169986724853516,17.627897262573242,0.1
213,MetaDrive-td3combine-expt_with_safe-leaky-adamw-in-q-weighted-corrected-diff-arch,66,102.28993604937536,215193,540,3244.460646867752,-13.893235206604004,49.75279998779297,13.126620292663574,0.1
214,MetaDrive-td3combine-expt_with_safe-leaky-adamw-in-q-weighted-corrected-diff-arch,66,102.35512875995892,216194,541,3260.1333298683167,,134.28500366210938,19.694589614868164,0.1
215,MetaDrive-td3combine-expt_with_safe-leaky-adamw-in-q-weighted-corrected-diff-arch,66,101.9343680866447,217393,543,3279.5432069301605,-20.67566680908203,8.144224166870117,19.796295166015625,0.1
216,MetaDrive-td3combine-expt_with_safe-leaky-adamw-in-q-weighted-corrected-diff-arch,66,101.72670363002237,218394,544,3295.1288521289825,,3.9291281700134277,13.848625183105469,0.1
217,MetaDrive-td3combine-expt_with_safe-leaky-adamw-in-q-weighted-corrected-diff-arch,66,100.37973027298577,219620,546,3314.0774788856506,,2.7059237957000732,13.028371810913086,0.09
218,MetaDrive-td3combine-expt_with_safe-leaky-adamw-in-q-weighted-corrected-diff-arch,66,101.42012255093485,220303,547,3324.4271051883698,-15.993185997009277,12.805814743041992,16.305850982666016,0.1
219,MetaDrive-td3combine-expt_with_safe-leaky-adamw-in-q-weighted-corrected-diff-arch,66,101.76922670083712,221304,548,3339.6928119659424,,8.016565322875977,14.62845230102539,0.1
220,MetaDrive-td3combine-expt_with_safe-leaky-adamw-in-q-weighted-corrected-diff-arch,66,100.54383529847424,222096,551,3352.148465871811,,10.287914276123047,21.874820709228516,0.1
221,MetaDrive-td3combine-expt_with_safe-leaky-adamw-in-q-weighted-corrected-diff-arch,66,99.08758963470369,223097,552,3367.4840140342712,-15.989775657653809,3.99556827545166,15.372122764587402,0.1
222,MetaDrive-td3combine-expt_with_safe-leaky-adamw-in-q-weighted-corrected-diff-arch,66,98.67008505751903,224098,553,3382.9586341381073,,22.217449188232422,14.263382911682129,0.1
223,MetaDrive-td3combine-expt_with_safe-leaky-adamw-in-q-weighted-corrected-diff-arch,66,99.62728556204551,225099,554,3398.744436979294,-23.373172760009766,9.271195411682129,22.893617630004883,0.1
224,MetaDrive-td3combine-expt_with_safe-leaky-adamw-in-q-weighted-corrected-diff-arch,66,99.7000659661965,226100,555,3414.2561328411102,,33.57807159423828,12.750842094421387,0.1
225,MetaDrive-td3combine-expt_with_safe-leaky-adamw-in-q-weighted-corrected-diff-arch,66,100.35468951307932,227101,556,3430.1296520233154,-14.221327781677246,2.937863349914551,13.333040237426758,0.1
226,MetaDrive-td3combine-expt_with_safe-leaky-adamw-in-q-weighted-corrected-diff-arch,66,102.80240703384176,228876,559,3457.8568580150604,,2.9450342655181885,17.683475494384766,0.11
227,MetaDrive-td3combine-expt_with_safe-leaky-adamw-in-q-weighted-corrected-diff-arch,66,101.91198426244922,229019,561,3460.398409128189,-22.525745391845703,3.119478225708008,21.71577262878418,0.11
228,MetaDrive-td3combine-expt_with_safe-leaky-adamw-in-q-weighted-corrected-diff-arch,66,100.44142373715815,230115,563,3477.539545059204,-19.59682846069336,7.536123752593994,19.815338134765625,0.1
229,MetaDrive-td3combine-expt_with_safe-leaky-adamw-in-q-weighted-corrected-diff-arch,66,101.19132324791975,231933,566,3505.864933013916,-16.8814697265625,2.3324265480041504,16.096445083618164,0.11
230,MetaDrive-td3combine-expt_with_safe-leaky-adamw-in-q-weighted-corrected-diff-arch,66,103.83243868746453,232934,567,3521.9740841388702,,7.456418991088867,17.533714294433594,0.11
231,MetaDrive-td3combine-expt_with_safe-leaky-adamw-in-q-weighted-corrected-diff-arch,66,103.70863445347162,233069,568,3524.213865041733,-21.40522575378418,11.92020320892334,21.361295700073242,0.11
232,MetaDrive-td3combine-expt_with_safe-leaky-adamw-in-q-weighted-corrected-diff-arch,66,104.64909542329322,234234,570,3542.2059111595154,,4.01145076751709,20.094440460205078,0.11
233,MetaDrive-td3combine-expt_with_safe-leaky-adamw-in-q-weighted-corrected-diff-arch,66,103.96192239313098,235032,572,3554.897057056427,,2.9101624488830566,13.2152099609375,0.11
234,MetaDrive-td3combine-expt_with_safe-leaky-adamw-in-q-weighted-corrected-diff-arch,66,104.05251919052088,236033,573,3570.8847980499268,-17.539052963256836,6.570075988769531,17.30974578857422,0.11
235,MetaDrive-td3combine-expt_with_safe-leaky-adamw-in-q-weighted-corrected-diff-arch,66,104.88802300810671,237336,575,3591.604010105133,,6.827637672424316,19.983928680419922,0.11
236,MetaDrive-td3combine-expt_with_safe-leaky-adamw-in-q-weighted-corrected-diff-arch,66,103.14701124802987,238337,576,3607.086555957794,-17.301589965820312,6.346966743469238,16.980541229248047,0.1
237,MetaDrive-td3combine-expt_with_safe-leaky-adamw-in-q-weighted-corrected-diff-arch,66,103.69162213840762,239754,578,3628.934739112854,,8.326465606689453,17.575355529785156,0.1
238,MetaDrive-td3combine-expt_with_safe-leaky-adamw-in-q-weighted-corrected-diff-arch,66,104.12139308335435,240755,579,3644.683489084244,-19.569387435913086,7.007477760314941,20.208044052124023,0.1
239,MetaDrive-td3combine-expt_with_safe-leaky-adamw-in-q-weighted-corrected-diff-arch,66,104.26910873338493,241215,580,3652.083493947983,-26.130218505859375,5.772524833679199,26.34791374206543,0.11
240,MetaDrive-td3combine-expt_with_safe-leaky-adamw-in-q-weighted-corrected-diff-arch,66,104.15576196886428,242216,581,3668.080773830414,,5.105303764343262,23.040929794311523,0.11
241,MetaDrive-td3combine-expt_with_safe-leaky-adamw-in-q-weighted-corrected-diff-arch,66,103.69178272197638,243897,583,3694.4109020233154,-19.039371490478516,4.406189441680908,19.08922576904297,0.11
242,MetaDrive-td3combine-expt_with_safe-leaky-adamw-in-q-weighted-corrected-diff-arch,66,101.88649907042482,244898,584,3710.4822301864624,,14.546820640563965,16.965187072753906,0.1
243,MetaDrive-td3combine-expt_with_safe-leaky-adamw-in-q-weighted-corrected-diff-arch,65,102.18276849836695,245899,585,3726.5420620441437,-14.173044204711914,53.06047821044922,13.770796775817871,0.1
244,MetaDrive-td3combine-expt_with_safe-leaky-adamw-in-q-weighted-corrected-diff-arch,65,101.73180202301087,246416,586,3734.5608220100403,,14.7086181640625,10.043317794799805,0.11
245,MetaDrive-td3combine-expt_with_safe-leaky-adamw-in-q-weighted-corrected-diff-arch,65,101.44144435216752,247779,588,3756.091572999954,-17.528886795043945,4.207102298736572,17.15658187866211,0.11
246,MetaDrive-td3combine-expt_with_safe-leaky-adamw-in-q-weighted-corrected-diff-arch,65,101.12671825939411,248780,589,3771.7150962352753,,3.587378978729248,23.696739196777344,0.11
247,MetaDrive-td3combine-expt_with_safe-leaky-adamw-in-q-weighted-corrected-diff-arch,65,102.67684225981968,249781,590,3787.9704620838165,-18.426977157592773,9.05712604522705,18.289600372314453,0.11
248,MetaDrive-td3combine-expt_with_safe-leaky-adamw-in-q-weighted-corrected-diff-arch,65,102.9301167638644,250782,591,3803.6552839279175,,4.854123115539551,21.67054557800293,0.11
249,MetaDrive-td3combine-expt_with_safe-leaky-adamw-in-q-weighted-corrected-diff-arch,65,104.90933248186556,251783,592,3819.1814799308777,-23.156482696533203,7.2983269691467285,22.653383255004883,0.11
250,MetaDrive-td3combine-expt_with_safe-leaky-adamw-in-q-weighted-corrected-diff-arch,65,103.8491988660401,252609,593,3832.2537281513214,-19.650909423828125,8.927177429199219,19.600149154663086,0.11
251,MetaDrive-td3combine-expt_with_safe-leaky-adamw-in-q-weighted-corrected-diff-arch,65,103.66009270884692,253610,594,3848.388270139694,,59.24650573730469,19.127676010131836,0.11
252,MetaDrive-td3combine-expt_with_safe-leaky-adamw-in-q-weighted-corrected-diff-arch,65,103.11202503234516,254611,595,3864.4582421779633,-15.94943618774414,5.983636856079102,15.673437118530273,0.11
253,MetaDrive-td3combine-expt_with_safe-leaky-adamw-in-q-weighted-corrected-diff-arch,65,106.307623933789,255200,596,3874.996636867523,,3.578321933746338,20.341651916503906,0.12
254,MetaDrive-td3combine-expt_with_safe-leaky-adamw-in-q-weighted-corrected-diff-arch,65,105.36223942505916,256349,598,3893.4478940963745,-21.3055477142334,2.6396536827087402,21.03900718688965,0.12
255,MetaDrive-td3combine-expt_with_safe-leaky-adamw-in-q-weighted-corrected-diff-arch,65,106.79286875296457,257847,601,3917.152936935425,-21.23204803466797,21.169292449951172,20.41057014465332,0.13
256,MetaDrive-td3combine-expt_with_safe-leaky-adamw-in-q-weighted-corrected-diff-arch,65,107.82511700108003,258343,602,3925.3476901054382,-23.885820388793945,4.047280311584473,23.082359313964844,0.14
257,MetaDrive-td3combine-expt_with_safe-leaky-adamw-in-q-weighted-corrected-diff-arch,65,107.99461893322297,259344,603,3940.984822034836,,3.567291259765625,23.33087158203125,0.14
258,MetaDrive-td3combine-expt_with_safe-leaky-adamw-in-q-weighted-corrected-diff-arch,65,107.61883105961145,260345,604,3956.3598232269287,-20.35944366455078,6.492280006408691,19.539081573486328,0.14
259,MetaDrive-td3combine-expt_with_safe-leaky-adamw-in-q-weighted-corrected-diff-arch,65,108.8073076182318,261205,606,3969.674872159958,-20.398515701293945,7.783625602722168,20.92215919494629,0.15
260,MetaDrive-td3combine-expt_with_safe-leaky-adamw-in-q-weighted-corrected-diff-arch,65,109.14385553092578,262206,607,3985.011819124222,,14.659331321716309,16.480831146240234,0.15
261,MetaDrive-td3combine-expt_with_safe-leaky-adamw-in-q-weighted-corrected-diff-arch,65,108.10352627786584,263812,609,4009.869915008545,,7.027790069580078,17.508073806762695,0.15
262,MetaDrive-td3combine-expt_with_safe-leaky-adamw-in-q-weighted-corrected-diff-arch,65,108.14522454107359,264813,610,4025.642787218094,-21.538196563720703,3.356870651245117,20.396696090698242,0.15
263,MetaDrive-td3combine-expt_with_safe-leaky-adamw-in-q-weighted-corrected-diff-arch,65,107.17254233843269,265069,611,4029.614459991455,-23.375890731811523,8.140008926391602,21.936840057373047,0.15
264,MetaDrive-td3combine-expt_with_safe-leaky-adamw-in-q-weighted-corrected-diff-arch,65,109.45436571357851,266334,613,4049.3052339553833,,11.98200511932373,15.53154182434082,0.15
265,MetaDrive-td3combine-expt_with_safe-leaky-adamw-in-q-weighted-corrected-diff-arch,65,106.63428121318935,267577,615,4069.556227207184,-19.843441009521484,6.5672287940979,19.47804069519043,0.14
266,MetaDrive-td3combine-expt_with_safe-leaky-adamw-in-q-weighted-corrected-diff-arch,65,106.9919837353389,268578,616,4084.859643936157,,6.170316696166992,17.047483444213867,0.14
267,MetaDrive-td3combine-expt_with_safe-leaky-adamw-in-q-weighted-corrected-diff-arch,65,107.34892769959426,269574,618,4100.630739927292,,13.630512237548828,19.01998519897461,0.14
268,MetaDrive-td3combine-expt_with_safe-leaky-adamw-in-q-weighted-corrected-diff-arch,65,109.9568941436809,270723,620,4118.672105073929,-14.978321075439453,17.824520111083984,14.675859451293945,0.14
269,MetaDrive-td3combine-expt_with_safe-leaky-adamw-in-q-weighted-corrected-diff-arch,65,110.54281655958233,271724,621,4134.378401994705,,9.564738273620605,19.95644760131836,0.14
270,MetaDrive-td3combine-expt_with_safe-leaky-adamw-in-q-weighted-corrected-diff-arch,65,111.1093281092331,272190,622,4141.91187787056,,9.06115436553955,16.667373657226562,0.15
271,MetaDrive-td3combine-expt_with_safe-leaky-adamw-in-q-weighted-corrected-diff-arch,65,110.67157452091617,273375,624,4160.613798856735,-13.798994064331055,11.385101318359375,13.244330406188965,0.15
272,MetaDrive-td3combine-expt_with_safe-leaky-adamw-in-q-weighted-corrected-diff-arch,65,110.03645806611559,274962,626,4186.032502174377,,11.070062637329102,20.993270874023438,0.16
273,MetaDrive-td3combine-expt_with_safe-leaky-adamw-in-q-weighted-corrected-diff-arch,65,108.82358213496765,275144,627,4188.950667142868,,4.435759544372559,18.065664291381836,0.16
274,MetaDrive-td3combine-expt_with_safe-leaky-adamw-in-q-weighted-corrected-diff-arch,65,110.81222484857295,276715,629,4213.82196521759,-9.770059585571289,10.69047737121582,9.416271209716797,0.17
275,MetaDrive-td3combine-expt_with_safe-leaky-adamw-in-q-weighted-corrected-diff-arch,65,109.21753626347054,277924,632,4233.103945016861,,14.063704490661621,17.289175033569336,0.17
276,MetaDrive-td3combine-expt_with_safe-leaky-adamw-in-q-weighted-corrected-diff-arch,65,109.91759475625308,278925,633,4248.883128166199,-15.021856307983398,7.260415554046631,14.709892272949219,0.17
277,MetaDrive-td3combine-expt_with_safe-leaky-adamw-in-q-weighted-corrected-diff-arch,65,109.96021588283334,279227,634,4253.771065235138,-17.524728775024414,7.89682674407959,17.3960018157959,0.17
278,MetaDrive-td3combine-expt_with_safe-leaky-adamw-in-q-weighted-corrected-diff-arch,65,108.91801131414063,280343,636,4271.623829126358,-20.274385452270508,8.036140441894531,20.44905662536621,0.16
279,MetaDrive-td3combine-expt_with_safe-leaky-adamw-in-q-weighted-corrected-diff-arch,65,110.89986543847834,281564,638,4291.50775718689,,74.26290893554688,20.46561622619629,0.16
280,MetaDrive-td3combine-expt_with_safe-leaky-adamw-in-q-weighted-corrected-diff-arch,65,112.30513451090447,282565,639,4307.212004899979,-24.089069366455078,98.07920837402344,23.834882736206055,0.16
281,MetaDrive-td3combine-expt_with_safe-leaky-adamw-in-q-weighted-corrected-diff-arch,65,112.86199058727222,283218,640,4317.44960808754,,3.292259693145752,18.020219802856445,0.17
282,MetaDrive-td3combine-expt_with_safe-leaky-adamw-in-q-weighted-corrected-diff-arch,65,112.41834835103437,284219,641,4333.469112157822,-20.57227897644043,19.826099395751953,20.031980514526367,0.17
283,MetaDrive-td3combine-expt_with_safe-leaky-adamw-in-q-weighted-corrected-diff-arch,65,112.40828138426755,285873,646,4360.555949211121,-16.647836685180664,8.697916030883789,15.675193786621094,0.17
284,MetaDrive-td3combine-expt_with_safe-leaky-adamw-in-q-weighted-corrected-diff-arch,65,110.60960479495876,286999,648,4379.339257955551,-17.23909568786621,33.35345458984375,16.718048095703125,0.16
285,MetaDrive-td3combine-expt_with_safe-leaky-adamw-in-q-weighted-corrected-diff-arch,65,108.72547052918786,288000,649,4394.524592876434,,8.271483421325684,18.930395126342773,0.15
286,MetaDrive-td3combine-expt_with_safe-leaky-adamw-in-q-weighted-corrected-diff-arch,65,109.35233069326323,289655,651,4419.401156902313,-18.944387435913086,8.179563522338867,18.068296432495117,0.15
287,MetaDrive-td3combine-expt_with_safe-leaky-adamw-in-q-weighted-corrected-diff-arch,65,109.60802837321586,290963,653,4439.090319156647,-20.43381118774414,14.845457077026367,19.603710174560547,0.15
288,MetaDrive-td3combine-expt_with_safe-leaky-adamw-in-q-weighted-corrected-diff-arch,65,109.41103734593004,291964,654,4453.802396059036,,7.114499092102051,17.657005310058594,0.15
289,MetaDrive-td3combine-expt_with_safe-leaky-adamw-in-q-weighted-corrected-diff-arch,65,109.64253856536763,292965,655,4468.200776100159,-18.047473907470703,6.508752822875977,17.727603912353516,0.15
290,MetaDrive-td3combine-expt_with_safe-leaky-adamw-in-q-weighted-corrected-diff-arch,65,108.92055670921151,293118,656,4470.511496067047,,6.522393226623535,17.877277374267578,0.15
291,MetaDrive-td3combine-expt_with_safe-leaky-adamw-in-q-weighted-corrected-diff-arch,65,106.95812294801611,294840,659,4497.197990894318,,7.30013370513916,20.97252082824707,0.14
292,MetaDrive-td3combine-expt_with_safe-leaky-adamw-in-q-weighted-corrected-diff-arch,65,109.25491433035685,295316,660,4504.322466135025,,6.064218521118164,21.896554946899414,0.15
293,MetaDrive-td3combine-expt_with_safe-leaky-adamw-in-q-weighted-corrected-diff-arch,65,109.89472812344907,296317,661,4519.660341024399,-18.193471908569336,11.342123985290527,17.4394588470459,0.15
294,MetaDrive-td3combine-expt_with_safe-leaky-adamw-in-q-weighted-corrected-diff-arch,65,111.87596969335208,297318,662,4534.400187015533,,5.802900791168213,17.995256423950195,0.15
295,MetaDrive-td3combine-expt_with_safe-leaky-adamw-in-q-weighted-corrected-diff-arch,65,112.10454119807464,298319,663,4549.418297052383,-18.694005966186523,6.630083084106445,18.272056579589844,0.15
296,MetaDrive-td3combine-expt_with_safe-leaky-adamw-in-q-weighted-corrected-diff-arch,65,110.67713674683274,299842,666,4571.822337150574,,8.843951225280762,20.27007484436035,0.15
297,MetaDrive-td3combine-expt_with_safe-leaky-adamw-in-q-weighted-corrected-diff-arch,65,108.28422295524173,300843,667,4586.40305685997,-12.813389778137207,4.825182914733887,13.120833396911621,0.15
298,MetaDrive-td3combine-expt_with_safe-leaky-adamw-in-q-weighted-corrected-diff-arch,65,108.65776028461583,301433,668,4595.2825400829315,-24.696592330932617,10.693441390991211,23.860727310180664,0.15
299,MetaDrive-td3combine-expt_with_safe-leaky-adamw-in-q-weighted-corrected-diff-arch,65,109.35194287857655,302525,670,4611.5927131175995,-20.194110870361328,11.01175594329834,20.67914581298828,0.15
300,MetaDrive-td3combine-expt_with_safe-leaky-adamw-in-q-weighted-corrected-diff-arch,65,109.29158978438161,303526,671,4626.481822967529,,2.8880109786987305,19.523082733154297,0.15
301,MetaDrive-td3combine-expt_with_safe-leaky-adamw-in-q-weighted-corrected-diff-arch,65,111.77045330410574,304302,673,4638.332370996475,,8.586833000183105,15.152113914489746,0.16
302,MetaDrive-td3combine-expt_with_safe-leaky-adamw-in-q-weighted-corrected-diff-arch,65,114.64876335461499,305150,676,4651.196408033371,,15.468477249145508,13.976323127746582,0.18
303,MetaDrive-td3combine-expt_with_safe-leaky-adamw-in-q-weighted-corrected-diff-arch,65,116.81850777096271,306034,678,4664.364327907562,,18.064464569091797,13.664512634277344,0.18
304,MetaDrive-td3combine-expt_with_safe-leaky-adamw-in-q-weighted-corrected-diff-arch,65,117.93105710464818,307035,679,4679.378859996796,-15.040071487426758,10.66914176940918,15.304266929626465,0.18
305,MetaDrive-td3combine-expt_with_safe-leaky-adamw-in-q-weighted-corrected-diff-arch,65,115.6931326213543,308036,680,4694.066466093063,,7.481389999389648,16.946136474609375,0.17
306,MetaDrive-td3combine-expt_with_safe-leaky-adamw-in-q-weighted-corrected-diff-arch,65,116.3871792205795,309037,681,4709.602546930313,-19.833145141601562,13.666006088256836,19.37397003173828,0.17
307,MetaDrive-td3combine-expt_with_safe-leaky-adamw-in-q-weighted-corrected-diff-arch,65,117.25956845720948,310038,682,4724.392350912094,,7.804238319396973,16.679758071899414,0.17
308,MetaDrive-td3combine-expt_with_safe-leaky-adamw-in-q-weighted-corrected-diff-arch,65,116.24856971091745,311039,683,4739.482594013214,-17.479276657104492,13.655233383178711,16.57440185546875,0.17
309,MetaDrive-td3combine-expt_with_safe-leaky-adamw-in-q-weighted-corrected-diff-arch,65,116.34054857888817,312040,684,4753.878486156464,,6.981159687042236,23.941028594970703,0.17
310,MetaDrive-td3combine-expt_with_safe-leaky-adamw-in-q-weighted-corrected-diff-arch,65,116.77216097451193,313041,685,4769.049507141113,-11.575912475585938,2.898148536682129,11.233887672424316,0.17
311,MetaDrive-td3combine-expt_with_safe-leaky-adamw-in-q-weighted-corrected-diff-arch,65,113.27499901925238,314166,687,4785.805390119553,,29.148038864135742,18.14902114868164,0.15
312,MetaDrive-td3combine-expt_with_safe-leaky-adamw-in-q-weighted-corrected-diff-arch,65,113.88668685141252,315167,688,4801.846663951874,-17.59819221496582,10.180386543273926,17.920795440673828,0.15
313,MetaDrive-td3combine-expt_with_safe-leaky-adamw-in-q-weighted-corrected-diff-arch,65,113.73655507829213,316168,689,4816.526540994644,,3.838510513305664,14.942073822021484,0.15
314,MetaDrive-td3combine-expt_with_safe-leaky-adamw-in-q-weighted-corrected-diff-arch,65,112.46091946870256,317169,690,4831.49528503418,-22.395824432373047,11.111443519592285,21.869335174560547,0.15
315,MetaDrive-td3combine-expt_with_safe-leaky-adamw-in-q-weighted-corrected-diff-arch,65,112.11867007902825,318170,691,4846.169836997986,,16.578384399414062,22.877166748046875,0.15
316,MetaDrive-td3combine-expt_with_safe-leaky-adamw-in-q-weighted-corrected-diff-arch,65,112.09869777345679,319060,693,4859.481203079224,,39.191673278808594,16.236125946044922,0.17
317,MetaDrive-td3combine-expt_with_safe-leaky-adamw-in-q-weighted-corrected-diff-arch,65,113.23477880301478,320174,695,4875.977618932724,,2.9769186973571777,15.988625526428223,0.18
318,MetaDrive-td3combine-expt_with_safe-leaky-adamw-in-q-weighted-corrected-diff-arch,65,111.87286328177206,321579,697,4897.401913881302,-20.47119903564453,15.160017013549805,19.118898391723633,0.17
319,MetaDrive-td3combine-expt_with_safe-leaky-adamw-in-q-weighted-corrected-diff-arch,65,114.19767891096049,322005,698,4904.032145023346,-17.179794311523438,7.99014139175415,16.647045135498047,0.18
320,MetaDrive-td3combine-expt_with_safe-leaky-adamw-in-q-weighted-corrected-diff-arch,65,112.26416770991085,323887,700,4932.940666913986,-16.94444465637207,4.5182647705078125,16.949581146240234,0.17
321,MetaDrive-td3combine-expt_with_safe-leaky-adamw-in-q-weighted-corrected-diff-arch,65,114.22184199219848,324326,701,4939.735840082169,,4.073765754699707,19.394134521484375,0.18
322,MetaDrive-td3combine-expt_with_safe-leaky-adamw-in-q-weighted-corrected-diff-arch,65,115.15465222676507,325251,703,4953.550041913986,-20.413829803466797,2.9998903274536133,19.6022891998291,0.18
323,MetaDrive-td3combine-expt_with_safe-leaky-adamw-in-q-weighted-corrected-diff-arch,65,114.90761098265315,326252,704,4968.484036207199,,18.612211227416992,16.550018310546875,0.18
324,MetaDrive-td3combine-expt_with_safe-leaky-adamw-in-q-weighted-corrected-diff-arch,65,113.75815791966383,327356,706,4984.814208030701,,3.2110371589660645,16.430797576904297,0.17
325,MetaDrive-td3combine-expt_with_safe-leaky-adamw-in-q-weighted-corrected-diff-arch,65,111.01826624698678,328579,709,5003.372447013855,-19.166378021240234,11.497135162353516,18.841459274291992,0.16
326,MetaDrive-td3combine-expt_with_safe-leaky-adamw-in-q-weighted-corrected-diff-arch,65,112.29669250494504,329365,710,5015.11400103569,-20.012407302856445,2.391883373260498,20.030378341674805,0.17
327,MetaDrive-td3combine-expt_with_safe-leaky-adamw-in-q-weighted-corrected-diff-arch,65,112.37326644471854,330366,711,5031.106862783432,,10.21384048461914,24.58853530883789,0.17
328,MetaDrive-td3combine-expt_with_safe-leaky-adamw-in-q-weighted-corrected-diff-arch,65,113.5212375090501,331797,713,5053.576541900635,-17.888835906982422,5.460905075073242,18.258527755737305,0.18
329,MetaDrive-td3combine-expt_with_safe-leaky-adamw-in-q-weighted-corrected-diff-arch,65,115.75706575523223,332320,714,5061.340281248093,,11.656291961669922,22.066204071044922,0.19
330,MetaDrive-td3combine-expt_with_safe-leaky-adamw-in-q-weighted-corrected-diff-arch,65,115.19090254278763,333013,715,5072.448824167252,-25.271623611450195,9.338436126708984,24.707883834838867,0.19
331,MetaDrive-td3combine-expt_with_safe-leaky-adamw-in-q-weighted-corrected-diff-arch,65,116.92831397993012,334423,717,5094.30886721611,-20.087419509887695,3.735985279083252,20.08112335205078,0.2
332,MetaDrive-td3combine-expt_with_safe-leaky-adamw-in-q-weighted-corrected-diff-arch,65,115.78630557080155,335424,718,5109.311257839203,,34.51058578491211,20.3349609375,0.2
333,MetaDrive-td3combine-expt_with_safe-leaky-adamw-in-q-weighted-corrected-diff-arch,65,112.91705583009826,336971,720,5132.508258104324,-18.755407333374023,14.724401473999023,18.046201705932617,0.2
334,MetaDrive-td3combine-expt_with_safe-leaky-adamw-in-q-weighted-corrected-diff-arch,65,113.96315648250845,337972,721,5147.080500125885,,6.268877029418945,18.31288719177246,0.2
335,MetaDrive-td3combine-expt_with_safe-leaky-adamw-in-q-weighted-corrected-diff-arch,65,115.14570605728072,338421,722,5153.966423034668,-16.413288116455078,16.657245635986328,16.737167358398438,0.2
336,MetaDrive-td3combine-expt_with_safe-leaky-adamw-in-q-weighted-corrected-diff-arch,65,116.4484400105034,339422,723,5168.600004196167,,11.338281631469727,17.13931655883789,0.2
337,MetaDrive-td3combine-expt_with_safe-leaky-adamw-in-q-weighted-corrected-diff-arch,65,114.23116536858736,340317,725,5181.5908639431,-18.23094940185547,11.581388473510742,17.20206642150879,0.19
338,MetaDrive-td3combine-expt_with_safe-leaky-adamw-in-q-weighted-corrected-diff-arch,65,115.87373961184808,341961,728,5206.371349096298,-16.14287757873535,7.594766616821289,16.09593391418457,0.19
339,MetaDrive-td3combine-expt_with_safe-leaky-adamw-in-q-weighted-corrected-diff-arch,65,116.90606552938965,342962,729,5220.970175027847,,8.444807052612305,13.35716724395752,0.19
340,MetaDrive-td3combine-expt_with_safe-leaky-adamw-in-q-weighted-corrected-diff-arch,65,117.34619419807586,343963,730,5235.932996034622,-20.989572525024414,10.848134994506836,20.99523162841797,0.19
341,MetaDrive-td3combine-expt_with_safe-leaky-adamw-in-q-weighted-corrected-diff-arch,65,117.41581372779996,344964,731,5251.089924097061,,56.764190673828125,12.37299633026123,0.19
342,MetaDrive-td3combine-expt_with_safe-leaky-adamw-in-q-weighted-corrected-diff-arch,65,117.37107604216689,345965,732,5265.998128890991,-17.501605987548828,5.620626449584961,17.77764892578125,0.19
343,MetaDrive-td3combine-expt_with_safe-leaky-adamw-in-q-weighted-corrected-diff-arch,65,117.39543648920673,346966,733,5281.522747039795,,7.645066261291504,17.783096313476562,0.19
344,MetaDrive-td3combine-expt_with_safe-leaky-adamw-in-q-weighted-corrected-diff-arch,65,116.72764443955009,347059,734,5282.997181892395,-20.557289123535156,6.668914794921875,20.154064178466797,0.19
345,MetaDrive-td3combine-expt_with_safe-leaky-adamw-in-q-weighted-corrected-diff-arch,65,118.63811154664154,348963,737,5311.03981590271,-23.35165023803711,12.787433624267578,22.810922622680664,0.2
346,MetaDrive-td3combine-expt_with_safe-leaky-adamw-in-q-weighted-corrected-diff-arch,65,118.89875031250708,349470,738,5318.448876142502,,7.4634904861450195,13.155632019042969,0.2
347,MetaDrive-td3combine-expt_with_safe-leaky-adamw-in-q-weighted-corrected-diff-arch,65,116.48284169689056,350568,740,5334.618029117584,,8.98946475982666,14.442227363586426,0.19
348,MetaDrive-td3combine-expt_with_safe-leaky-adamw-in-q-weighted-corrected-diff-arch,65,118.21233519490715,351569,741,5349.409706115723,-16.330516815185547,2.6861515045166016,16.887779235839844,0.19
349,MetaDrive-td3combine-expt_with_safe-leaky-adamw-in-q-weighted-corrected-diff-arch,65,121.7168363510551,352538,743,5363.84180521965,,13.426490783691406,19.94407844543457,0.2
350,MetaDrive-td3combine-expt_with_safe-leaky-adamw-in-q-weighted-corrected-diff-arch,65,123.20552586313025,353855,746,5383.840302944183,-24.20602798461914,4.287295341491699,23.69268035888672,0.2
351,MetaDrive-td3combine-expt_with_safe-leaky-adamw-in-q-weighted-corrected-diff-arch,65,124.42172345728379,354242,747,5389.5290949344635,,7.415829658508301,19.972307205200195,0.2
352,MetaDrive-td3combine-expt_with_safe-leaky-adamw-in-q-weighted-corrected-diff-arch,65,124.29529052457461,355807,750,5413.485643148422,-20.216035842895508,5.794998645782471,19.169294357299805,0.2
353,MetaDrive-td3combine-expt_with_safe-leaky-adamw-in-q-weighted-corrected-diff-arch,65,123.69057487085848,356012,751,5416.682406902313,,4.291362762451172,24.0325927734375,0.2
354,MetaDrive-td3combine-expt_with_safe-leaky-adamw-in-q-weighted-corrected-diff-arch,65,124.41383390990795,357013,752,5431.72766494751,-13.965007781982422,5.281247138977051,13.458688735961914,0.2
355,MetaDrive-td3combine-expt_with_safe-leaky-adamw-in-q-weighted-corrected-diff-arch,65,124.79269631775503,358014,753,5446.600477933884,,5.618163585662842,17.6398868560791,0.2
356,MetaDrive-td3combine-expt_with_safe-leaky-adamw-in-q-weighted-corrected-diff-arch,65,125.37886294796644,359371,755,5467.084548950195,-23.631319046020508,5.025981426239014,23.907697677612305,0.2
357,MetaDrive-td3combine-expt_with_safe-leaky-adamw-in-q-weighted-corrected-diff-arch,65,128.48199251411265,360066,757,5477.6208782196045,,12.787102699279785,16.16826820373535,0.22
358,MetaDrive-td3combine-expt_with_safe-leaky-adamw-in-q-weighted-corrected-diff-arch,65,130.4548717472073,361762,759,5506.804675102234,,13.587393760681152,16.895076751708984,0.23
359,MetaDrive-td3combine-expt_with_safe-leaky-adamw-in-q-weighted-corrected-diff-arch,65,129.9577207035607,362610,760,5521.906862020493,,7.988480567932129,22.562305450439453,0.23
360,MetaDrive-td3combine-expt_with_safe-leaky-adamw-in-q-weighted-corrected-diff-arch,65,129.806983401565,363611,761,5538.747051000595,-14.042616844177246,9.823257446289062,13.530067443847656,0.23
361,MetaDrive-td3combine-expt_with_safe-leaky-adamw-in-q-weighted-corrected-diff-arch,65,129.25659859474484,364957,763,5560.06032204628,-13.384239196777344,36.11339569091797,13.50179672241211,0.24
362,MetaDrive-td3combine-expt_with_safe-leaky-adamw-in-q-weighted-corrected-diff-arch,65,130.76306184159634,365367,764,5566.293486118317,-21.20621109008789,9.194883346557617,21.18642807006836,0.25
363,MetaDrive-td3combine-expt_with_safe-leaky-adamw-in-q-weighted-corrected-diff-arch,65,129.65433325523884,366368,765,5583.796547174454,,9.025812149047852,19.12945556640625,0.24
364,MetaDrive-td3combine-expt_with_safe-leaky-adamw-in-q-weighted-corrected-diff-arch,65,130.2061309083155,367369,766,5600.403110027313,-21.0262393951416,5.217695236206055,20.68186378479004,0.24
365,MetaDrive-td3combine-expt_with_safe-leaky-adamw-in-q-weighted-corrected-diff-arch,65,132.59134511237582,368425,769,5616.757760047913,-25.779264450073242,19.128122329711914,25.550460815429688,0.25
366,MetaDrive-td3combine-expt_with_safe-leaky-adamw-in-q-weighted-corrected-diff-arch,65,131.0497509900306,369426,770,5632.327465057373,,7.19047737121582,16.65216827392578,0.25
367,MetaDrive-td3combine-expt_with_safe-leaky-adamw-in-q-weighted-corrected-diff-arch,65,130.36745664023684,370896,772,5654.902103185654,,7.920967102050781,19.28428077697754,0.24
368,MetaDrive-td3combine-expt_with_safe-leaky-adamw-in-q-weighted-corrected-diff-arch,65,129.53254539515314,371897,773,5671.570927858353,-23.208621978759766,7.926140785217285,22.56420135498047,0.24
369,MetaDrive-td3combine-expt_with_safe-leaky-adamw-in-q-weighted-corrected-diff-arch,65,128.46279305973536,372898,774,5688.580804824829,,10.950750350952148,19.770862579345703,0.23
370,MetaDrive-td3combine-expt_with_safe-leaky-adamw-in-q-weighted-corrected-diff-arch,65,127.85783341882197,373899,775,5704.751730918884,-15.415522575378418,11.799394607543945,15.06403923034668,0.23
371,MetaDrive-td3combine-expt_with_safe-leaky-adamw-in-q-weighted-corrected-diff-arch,65,128.27577411100756,374596,776,5715.482390165329,,4.344415664672852,19.43310546875,0.23
372,MetaDrive-td3combine-expt_with_safe-leaky-adamw-in-q-weighted-corrected-diff-arch,65,126.08880461573155,375597,777,5730.96403503418,-15.934786796569824,16.124683380126953,14.799905776977539,0.23
373,MetaDrive-td3combine-expt_with_safe-leaky-adamw-in-q-weighted-corrected-diff-arch,65,126.8475497194079,376938,779,5751.977246046066,,22.76331329345703,21.029760360717773,0.22
374,MetaDrive-td3combine-expt_with_safe-leaky-adamw-in-q-weighted-corrected-diff-arch,65,127.2641124465891,377939,780,5767.558543920517,-20.718040466308594,10.08156967163086,20.646976470947266,0.22
375,MetaDrive-td3combine-expt_with_safe-leaky-adamw-in-q-weighted-corrected-diff-arch,65,126.11619280266376,378204,781,5771.815433979034,,6.20741081237793,16.429630279541016,0.22
376,MetaDrive-td3combine-expt_with_safe-leaky-adamw-in-q-weighted-corrected-diff-arch,65,125.74595377038767,379575,783,5793.493574857712,-29.636791229248047,9.249197006225586,30.361238479614258,0.22
377,MetaDrive-td3combine-expt_with_safe-leaky-adamw-in-q-weighted-corrected-diff-arch,65,125.65930463872193,380576,784,5809.044219017029,,6.5533552169799805,20.057464599609375,0.22
378,MetaDrive-td3combine-expt_with_safe-leaky-adamw-in-q-weighted-corrected-diff-arch,65,125.35346617390891,381577,785,5824.979732990265,-21.4655704498291,7.495599746704102,21.161081314086914,0.22
379,MetaDrive-td3combine-expt_with_safe-leaky-adamw-in-q-weighted-corrected-diff-arch,65,127.97863211339707,382257,786,5835.6585240364075,-22.764434814453125,12.24380111694336,21.8612003326416,0.23
380,MetaDrive-td3combine-expt_with_safe-leaky-adamw-in-q-weighted-corrected-diff-arch,65,127.28073765807663,383400,788,5854.348798036575,,15.214192390441895,22.603971481323242,0.23
381,MetaDrive-td3combine-expt_with_safe-leaky-adamw-in-q-weighted-corrected-diff-arch,65,127.38950724636507,384401,789,5870.887161254883,-15.591740608215332,11.433743476867676,15.156380653381348,0.23
382,MetaDrive-td3combine-expt_with_safe-leaky-adamw-in-q-weighted-corrected-diff-arch,65,129.68482322686768,385402,790,5886.961298942566,,17.843448638916016,14.97240924835205,0.23
383,MetaDrive-td3combine-expt_with_safe-leaky-adamw-in-q-weighted-corrected-diff-arch,65,130.0918536755025,386403,791,5903.5866911411285,-22.921600341796875,6.251320838928223,22.485610961914062,0.23
384,MetaDrive-td3combine-expt_with_safe-leaky-adamw-in-q-weighted-corrected-diff-arch,65,129.14755854527573,387726,793,5924.5996170043945,,16.765117645263672,17.265344619750977,0.22
385,MetaDrive-td3combine-expt_with_safe-leaky-adamw-in-q-weighted-corrected-diff-arch,65,129.37059340138728,388266,795,5933.570201158524,,8.361515045166016,21.67133331298828,0.22
386,MetaDrive-td3combine-expt_with_safe-leaky-adamw-in-q-weighted-corrected-diff-arch,65,130.46581109369623,389267,796,5949.256063938141,-21.081037521362305,6.208960056304932,21.677106857299805,0.22
387,MetaDrive-td3combine-expt_with_safe-leaky-adamw-in-q-weighted-corrected-diff-arch,65,129.7240297628683,390770,798,5972.846170902252,,10.695951461791992,20.766672134399414,0.21
388,MetaDrive-td3combine-expt_with_safe-leaky-adamw-in-q-weighted-corrected-diff-arch,65,129.54801375843215,391443,799,5983.611886024475,-15.643911361694336,51.12800979614258,14.97441291809082,0.21
389,MetaDrive-td3combine-expt_with_safe-leaky-adamw-in-q-weighted-corrected-diff-arch,65,129.05512434212523,392654,801,6002.493303060532,,18.928653717041016,17.27730369567871,0.2
390,MetaDrive-td3combine-expt_with_safe-leaky-adamw-in-q-weighted-corrected-diff-arch,65,125.64385220438886,393587,803,6017.336091041565,-21.56761360168457,17.926353454589844,20.508773803710938,0.19
391,MetaDrive-td3combine-expt_with_safe-leaky-adamw-in-q-weighted-corrected-diff-arch,65,126.03263367684451,394140,804,6026.383326053619,,4.452367305755615,14.866617202758789,0.19
392,MetaDrive-td3combine-expt_with_safe-leaky-adamw-in-q-weighted-corrected-diff-arch,65,126.96468891090576,395141,805,6042.232820034027,-24.807781219482422,14.44293212890625,23.989612579345703,0.19
393,MetaDrive-td3combine-expt_with_safe-leaky-adamw-in-q-weighted-corrected-diff-arch,65,128.56484234948903,396064,807,6057.523109912872,,10.701379776000977,20.362104415893555,0.19
394,MetaDrive-td3combine-expt_with_safe-leaky-adamw-in-q-weighted-corrected-diff-arch,65,129.35908655065586,397065,808,6073.660753965378,-23.750064849853516,71.40126037597656,23.35776138305664,0.19
395,MetaDrive-td3combine-expt_with_safe-leaky-adamw-in-q-weighted-corrected-diff-arch,65,130.31487194325075,398066,809,6089.598446130753,,15.396553039550781,21.094667434692383,0.19
396,MetaDrive-td3combine-expt_with_safe-leaky-adamw-in-q-weighted-corrected-diff-arch,65,128.31484743427413,399203,811,6108.577661991119,-20.870115280151367,10.082576751708984,20.33584213256836,0.18
