TanmayH/CS269-RL-project-code/MetaDrive-testbn2/td3/progress.csv
,log_dir,frame_per_second,episode_reward,total_steps,total_episodes,total_time,actor_loss,critic_loss,target_q,success_rate
0,MetaDrive-testbn2,183,7.694085778611825,1080,2,5.896466970443726,,0.0017017140053212643,-0.09314270317554474,0.0
1,MetaDrive-testbn2,97,-1.8641046934362366,2642,25,27.086766958236694,,2.1734180450439453,-0.3092148005962372,0.0
2,MetaDrive-testbn2,100,-2.203845129049527,3746,28,37.18137860298157,,0.018674202263355255,-0.09544747322797775,0.0
3,MetaDrive-testbn2,104,-2.0193794030229273,4747,29,45.603243827819824,0.1695745289325714,0.023394782096147537,-0.11008548736572266,0.0
4,MetaDrive-testbn2,105,-2.0295578386007342,5973,32,56.386046409606934,0.09107476472854614,0.011418426409363747,-0.09730026125907898,0.0
5,MetaDrive-testbn2,106,-1.8625057562414904,6974,33,65.1981086730957,,0.002726116217672825,-0.11903828382492065,0.0
6,MetaDrive-testbn2,106,-1.9555563865349195,7071,34,66.13040828704834,0.14344926178455353,0.01080050878226757,-0.12850669026374817,0.0
7,MetaDrive-testbn2,108,-1.9263487359818814,8328,36,76.78689980506897,,0.0011877348879352212,-0.13251784443855286,0.0
8,MetaDrive-testbn2,109,-1.8651530047723863,9440,38,86.09824895858765,,0.02795768715441227,-0.14866819977760315,0.0
9,MetaDrive-testbn2,109,-2.0300272461705045,10256,40,93.36398673057556,,0.009747182950377464,-0.23938243091106415,0.0
10,MetaDrive-testbn2,109,-2.109726760231098,11956,42,108.8997893333435,,0.008902711793780327,-0.1652374565601349,0.0
11,MetaDrive-testbn2,110,-2.1985744002832277,12423,43,112.775794506073,0.18946030735969543,0.6105130910873413,-0.2653891444206238,0.0
12,MetaDrive-testbn2,110,-2.191870740943272,13424,44,121.2846896648407,,0.7054257392883301,-0.26639753580093384,0.0
13,MetaDrive-testbn2,110,-2.062409594645614,14425,45,130.2124695777893,0.21918150782585144,0.004063456319272518,-0.19927211105823517,0.0
14,MetaDrive-testbn2,111,-2.06301671264679,15426,46,138.69688892364502,,0.004261065740138292,-0.1998996138572693,0.0
15,MetaDrive-testbn2,110,-2.0652441190791775,16427,47,148.43101143836975,0.22640103101730347,0.004166203550994396,-0.21775436401367188,0.0
16,MetaDrive-testbn2,110,-2.182957486248269,17636,50,159.93921065330505,,0.004564044997096062,-0.22432756423950195,0.0
17,MetaDrive-testbn2,110,-2.1299223343548133,18723,52,169.1805715560913,0.24448104202747345,0.005324090365320444,-0.2277677059173584,0.0
18,MetaDrive-testbn2,110,-2.1560323452150136,19491,53,176.06157636642456,0.21413114666938782,0.02093007043004036,-0.23959699273109436,0.0
19,MetaDrive-testbn2,109,-2.2319712024600937,20050,54,182.9611692428589,,0.006650571245700121,-0.24722592532634735,0.0
20,MetaDrive-testbn2,109,-2.125717839168126,21051,55,191.65343141555786,0.27042457461357117,0.0015339574310928583,-0.2362610548734665,0.0
21,MetaDrive-testbn2,110,-2.093360250271899,22188,57,201.1419460773468,,0.0011409807484596968,-0.25323745608329773,0.0
22,MetaDrive-testbn2,110,-1.9950063814403713,23189,58,209.34750413894653,0.2399095594882965,0.003998906351625919,-0.2751842141151428,0.0
23,MetaDrive-testbn2,110,-1.9160507910678097,24190,59,219.2749273777008,,0.0013088311534374952,-0.23904430866241455,0.0
24,MetaDrive-testbn2,110,-2.0060916152982555,25271,61,228.91230940818787,0.21040324866771698,0.00707009295001626,-0.25474119186401367,0.0
25,MetaDrive-testbn2,108,-1.404872035845567,26009,86,239.83925437927246,0.1457425206899643,0.03516247496008873,-0.19034188985824585,0.0
26,MetaDrive-testbn2,106,1.2329616877494554,27018,110,253.0945222377777,,0.008708562701940536,-0.008081271313130856,0.0
27,MetaDrive-testbn2,105,3.491306216397328,28034,139,266.77979159355164,,0.08810053765773773,0.264274001121521,0.0
28,MetaDrive-testbn2,103,6.029359972624547,29012,164,280.33368277549744,,1.6694259643554688,0.379877507686615,0.0
29,MetaDrive-testbn2,102,10.114958801404631,30039,184,293.77427554130554,-0.8698520660400391,0.1978832185268402,0.9575316905975342,0.0
30,MetaDrive-testbn2,101,11.358904833757656,31057,205,306.1557352542877,-1.3839304447174072,0.07499155402183533,1.2307124137878418,0.0
31,MetaDrive-testbn2,100,13.084073239535169,32024,227,318.16135692596436,,0.21073542535305023,1.6151925325393677,0.0
32,MetaDrive-testbn2,99,15.424465051939842,33021,248,331.58122420310974,-2.3455746173858643,2.0062766075134277,1.9672367572784424,0.0
33,MetaDrive-testbn2,97,14.988475614375904,34005,272,346.9914162158966,-2.5455322265625,0.04710248112678528,2.390697956085205,0.0
34,MetaDrive-testbn2,97,16.48994690996766,35015,290,359.36297488212585,-3.0838770866394043,3.0915114879608154,2.6565775871276855,0.0
35,MetaDrive-testbn2,96,16.039838713467717,36019,312,371.6748802661896,-3.5929713249206543,2.430107593536377,3.1171858310699463,0.0
36,MetaDrive-testbn2,96,15.850480074106848,37025,333,383.6958830356598,-3.8817520141601562,0.04387938231229782,3.6306068897247314,0.0
37,MetaDrive-testbn2,95,16.666963239417043,38072,354,397.6578137874603,,0.38720446825027466,4.137914657592773,0.0
38,MetaDrive-testbn2,95,15.69729276805013,39006,376,409.3761727809906,,2.751156806945801,4.41898250579834,0.0
39,MetaDrive-testbn2,94,17.885296420964725,40060,393,421.81132555007935,,0.4740409851074219,5.127668857574463,0.0
40,MetaDrive-testbn2,94,23.188912796074987,41084,405,433.9426736831665,,2.916020154953003,5.526728630065918,0.0
41,MetaDrive-testbn2,94,27.35110890112883,42011,416,444.8887655735016,-6.312952995300293,7.181021213531494,5.733859539031982,0.0
42,MetaDrive-testbn2,94,32.3469119727443,43054,429,455.9401865005493,,1.2303149700164795,6.46243953704834,0.0
43,MetaDrive-testbn2,94,36.406285641067264,44027,440,466.23771715164185,-7.577779769897461,0.37196722626686096,7.449620246887207,0.0
44,MetaDrive-testbn2,94,41.46747398922823,45039,452,477.79323148727417,-8.173637390136719,0.30256760120391846,7.854465484619141,0.0
45,MetaDrive-testbn2,94,46.636530524679344,46082,463,489.4081802368164,,4.298408508300781,8.350351333618164,0.0
46,MetaDrive-testbn2,93,52.09801167540324,47021,473,500.6673882007599,-9.293989181518555,0.29136499762535095,9.220752716064453,0.0
47,MetaDrive-testbn2,93,58.75310563237983,48057,483,515.4287297725677,-10.165641784667969,0.2835713028907776,9.911539077758789,0.0
48,MetaDrive-testbn2,93,61.927947585687534,49019,492,526.5596745014191,-11.082054138183594,0.28230050206184387,10.687495231628418,0.0
49,MetaDrive-testbn2,92,64.11651280643557,50073,501,538.8697440624237,-11.230347633361816,0.4925970435142517,11.111722946166992,0.0
50,MetaDrive-testbn2,92,66.75865440974457,51067,510,550.0684394836426,-11.991426467895508,0.39995241165161133,11.702751159667969,0.0
51,MetaDrive-testbn2,92,68.56798720640363,52011,519,561.7885224819183,-13.130759239196777,11.48069953918457,12.288629531860352,0.0
52,MetaDrive-testbn2,92,71.74057773666112,53070,528,574.2314937114716,,12.13429069519043,12.889242172241211,0.0
53,MetaDrive-testbn2,92,72.94458998916772,54021,537,584.1236751079559,-13.96915054321289,12.564711570739746,13.38111686706543,0.0
54,MetaDrive-testbn2,92,76.00615871256295,55094,547,596.5969033241272,,5.061396598815918,14.714471817016602,0.0
55,MetaDrive-testbn2,92,76.52057567737242,56037,555,607.0152688026428,-15.972491264343262,1.0693206787109375,15.818300247192383,0.0
56,MetaDrive-testbn2,92,79.90115060550153,57107,563,618.7599670886993,-16.727798461914062,0.8389715552330017,16.28453826904297,0.0
57,MetaDrive-testbn2,91,83.34692278168872,58083,569,631.8629212379456,-16.98773956298828,1.410750150680542,16.88103675842285,0.0
58,MetaDrive-testbn2,91,86.9051229749612,59077,575,642.9795570373535,-18.232643127441406,0.5023007988929749,18.013427734375,0.0
59,MetaDrive-testbn2,91,89.20534107695697,60059,582,655.6870465278625,-18.098018646240234,18.134275436401367,17.49420928955078,0.0
60,MetaDrive-testbn2,91,89.70761417056032,61145,591,667.6654431819916,-18.86659812927246,16.083574295043945,18.06134033203125,0.0
61,MetaDrive-testbn2,91,89.26155634486364,62097,599,679.3644573688507,-20.330928802490234,0.8184837102890015,19.586673736572266,0.0
62,MetaDrive-testbn2,90,90.68240968593066,63048,605,693.1438846588135,,16.222976684570312,18.535242080688477,0.0
63,MetaDrive-testbn2,90,91.49344909704696,64071,612,704.3348631858826,-20.580642700195312,16.537012100219727,19.705318450927734,0.01
64,MetaDrive-testbn2,90,97.74428564644077,65183,616,721.2172040939331,-21.342798233032227,1.0215389728546143,20.548433303833008,0.02
65,MetaDrive-testbn2,90,100.86127038060764,66289,622,735.1213176250458,-21.599533081054688,1.7119743824005127,21.28809356689453,0.02
66,MetaDrive-testbn2,89,101.05368958405846,67153,628,746.5156714916229,-21.65750503540039,0.8980447053909302,21.567298889160156,0.02
67,MetaDrive-testbn2,89,102.70208272624888,68099,635,756.7236764431,-21.054344177246094,1.631166934967041,21.109081268310547,0.02
68,MetaDrive-testbn2,89,103.81316696500738,69038,643,767.2157824039459,,1.0510880947113037,22.01996421813965,0.02
69,MetaDrive-testbn2,90,104.41279126926683,70027,650,777.2899956703186,-20.498929977416992,12.726332664489746,20.955825805664062,0.02
70,MetaDrive-testbn2,90,107.67467226529494,71017,656,788.6902861595154,-22.27230453491211,2.166349172592163,22.33380699157715,0.03
71,MetaDrive-testbn2,89,108.02411704328395,72063,664,801.2182819843292,-21.768997192382812,1.6858882904052734,21.815250396728516,0.03
72,MetaDrive-testbn2,89,102.64112134800003,73094,672,814.1735596656799,,1.8944523334503174,21.317697525024414,0.03
73,MetaDrive-testbn2,89,102.46647850305573,74077,679,824.5740795135498,-23.411190032958984,19.317127227783203,22.32037925720215,0.03
74,MetaDrive-testbn2,89,103.06190675342528,75039,687,837.5194206237793,-24.56562042236328,2.168745994567871,23.842430114746094,0.03
75,MetaDrive-testbn2,89,104.72375996028094,76044,695,848.6758768558502,,2.379202365875244,24.4796142578125,0.03
76,MetaDrive-testbn2,89,102.67609737793502,77036,703,859.8799166679382,,37.27234649658203,22.968948364257812,0.03
77,MetaDrive-testbn2,89,105.27336024138012,78015,711,871.5582320690155,-22.55713653564453,29.704872131347656,22.088716506958008,0.03
78,MetaDrive-testbn2,89,99.768194750188,79058,718,884.5122604370117,,14.42747688293457,22.841440200805664,0.01
79,MetaDrive-testbn2,89,96.53622904561698,80052,727,896.4340946674347,,1.5058081150054932,24.65776824951172,0.01
80,MetaDrive-testbn2,89,94.16943912553053,81057,737,907.3046088218689,-22.666900634765625,6.00628662109375,22.340457916259766,0.01
81,MetaDrive-testbn2,89,93.48381438093779,82068,745,919.085921049118,,1.7195518016815186,24.99022102355957,0.01
82,MetaDrive-testbn2,89,91.81304674777401,83040,754,929.2782599925995,,2.6068801879882812,23.27729606628418,0.01
83,MetaDrive-testbn2,89,88.87923285845157,84012,763,940.4943311214447,,11.550085067749023,25.95771598815918,0.0
84,MetaDrive-testbn2,89,88.22907137071266,85109,772,952.9435877799988,-25.503013610839844,2.503328323364258,25.559123992919922,0.0
85,MetaDrive-testbn2,89,88.01734872519987,86081,779,964.5806260108948,-25.798067092895508,11.235065460205078,25.27948570251465,0.0
86,MetaDrive-testbn2,89,88.58012412416291,87085,787,976.1095018386841,-25.916915893554688,2.9399986267089844,25.76104736328125,0.0
87,MetaDrive-testbn2,89,88.43237145605339,88057,795,986.0781569480896,-26.404067993164062,7.752410411834717,25.365306854248047,0.0
88,MetaDrive-testbn2,89,89.8881769271932,89067,802,999.8847835063934,-26.604629516601562,6.231104850769043,25.655357360839844,0.0
89,MetaDrive-testbn2,89,88.96067035093965,90023,809,1010.6722157001495,-26.302881240844727,6.276008605957031,26.077499389648438,0.0
90,MetaDrive-testbn2,89,87.60421412485213,91094,818,1023.4771795272827,,5.401669502258301,30.920188903808594,0.0
91,MetaDrive-testbn2,88,93.05180974340863,92227,823,1039.1787905693054,-28.9146785736084,3.219233989715576,28.184682846069336,0.0
92,MetaDrive-testbn2,88,93.55320733921398,93033,830,1048.2801005840302,-26.449508666992188,9.546573638916016,25.854633331298828,0.0
93,MetaDrive-testbn2,88,95.10490066838904,94067,838,1061.0348315238953,-29.82834243774414,3.257072925567627,28.919097900390625,0.0
94,MetaDrive-testbn2,88,97.10494876090328,95110,845,1073.7620589733124,,7.0014262199401855,28.79897689819336,0.0
95,MetaDrive-testbn2,88,100.34301306685649,96322,852,1090.6350104808807,,7.152719497680664,27.086204528808594,0.01
96,MetaDrive-testbn2,88,101.88620844525269,97043,858,1099.5007343292236,-29.445167541503906,2.9073660373687744,28.6243896484375,0.01
97,MetaDrive-testbn2,88,100.96785071427733,98042,867,1110.9958910942078,,2.2949912548065186,27.846054077148438,0.01
98,MetaDrive-testbn2,88,102.1356875881297,99002,874,1121.066281080246,,6.827202796936035,27.936689376831055,0.02
99,MetaDrive-testbn2,88,102.6803404198839,100219,881,1136.6145987510681,-30.328746795654297,3.1869187355041504,30.06439781188965,0.03
100,MetaDrive-testbn2,88,101.17394773094833,101043,889,1146.28515958786,-27.02983856201172,6.808803081512451,27.158035278320312,0.03
101,MetaDrive-testbn2,88,100.81806066369671,102146,898,1159.680379152298,,8.00942611694336,30.18010902404785,0.03
102,MetaDrive-testbn2,88,102.29563359941228,103042,902,1169.7274663448334,,14.926474571228027,27.442169189453125,0.04
103,MetaDrive-testbn2,87,106.37881481907186,104070,904,1184.0463325977325,,21.41611671447754,30.337434768676758,0.05
104,MetaDrive-testbn2,87,109.02541867815054,105176,907,1196.676954984665,,6.343005180358887,30.098384857177734,0.07
105,MetaDrive-testbn2,87,111.80490039512436,106023,910,1205.7684876918793,-30.864038467407227,3.965278148651123,30.00509262084961,0.08
106,MetaDrive-testbn2,88,112.30334995031158,107003,915,1215.8172588348389,-28.617137908935547,10.254825592041016,28.32171630859375,0.08
107,MetaDrive-testbn2,88,114.46818378081292,108169,920,1228.8372914791107,-31.613264083862305,3.6625959873199463,31.3731632232666,0.09
108,MetaDrive-testbn2,88,112.46208409241841,109243,925,1240.4721989631653,-30.088794708251953,38.634979248046875,29.41765785217285,0.1
109,MetaDrive-testbn2,87,117.46251657085713,110571,927,1258.3756530284882,-31.612472534179688,17.418792724609375,30.894489288330078,0.11
110,MetaDrive-testbn2,87,120.72101671347524,111388,929,1268.8932645320892,,4.188932418823242,29.486473083496094,0.11
111,MetaDrive-testbn2,87,122.07058164227308,112123,932,1278.2970345020294,-30.61821746826172,34.313106536865234,29.516422271728516,0.11
112,MetaDrive-testbn2,87,125.00953662933136,113360,936,1293.4683275222778,,2.578244209289551,30.08592987060547,0.12
113,MetaDrive-testbn2,87,128.00316365998978,114673,938,1315.9699783325195,-28.628894805908203,4.740616798400879,27.424884796142578,0.12
114,MetaDrive-testbn2,87,130.0678741346157,115090,939,1320.4592757225037,,7.381986618041992,32.42536163330078,0.13
115,MetaDrive-testbn2,87,130.99807334946286,116060,942,1332.1019084453583,,27.78931999206543,26.514854431152344,0.13
116,MetaDrive-testbn2,87,133.10592834604532,117106,947,1344.793050289154,,9.377845764160156,30.121524810791016,0.13
117,MetaDrive-testbn2,87,132.99878560185292,118120,951,1356.067120552063,,8.835249900817871,29.31841278076172,0.13
118,MetaDrive-testbn2,87,132.15664439121855,119389,955,1370.5910613536835,-30.55076789855957,4.150990962982178,29.531475067138672,0.12
119,MetaDrive-testbn2,87,132.90172650054166,120279,959,1380.0841324329376,-25.951066970825195,25.985698699951172,24.940414428710938,0.13
120,MetaDrive-testbn2,87,135.01064228167078,121317,965,1391.2803983688354,-30.126174926757812,13.497479438781738,29.850440979003906,0.14
121,MetaDrive-testbn2,87,137.6347056642244,122177,968,1401.825413942337,-30.28075408935547,50.147369384765625,29.221555709838867,0.14
122,MetaDrive-testbn2,87,139.6705221774988,123328,971,1414.7344665527344,,12.732606887817383,30.676746368408203,0.14
123,MetaDrive-testbn2,87,143.72724573715564,124170,972,1424.2218549251556,,3.262380599975586,28.474760055541992,0.15
124,MetaDrive-testbn2,87,144.23001992697453,125163,976,1434.6570873260498,-30.448047637939453,16.052959442138672,30.825687408447266,0.16
125,MetaDrive-testbn2,87,146.39628776634052,126323,980,1447.2931678295135,-32.5427360534668,24.382732391357422,32.28518295288086,0.17
126,MetaDrive-testbn2,87,144.94753991510356,127176,983,1455.7693011760712,,2.645688533782959,32.18450927734375,0.17
127,MetaDrive-testbn2,87,148.70601345142444,128064,985,1466.5005424022675,,10.998634338378906,30.84357452392578,0.18
128,MetaDrive-testbn2,87,152.4254093033492,129792,988,1487.9124948978424,,4.015155792236328,28.328777313232422,0.19
129,MetaDrive-testbn2,87,155.0936112097716,130264,989,1492.25439786911,,17.827781677246094,29.878150939941406,0.2
130,MetaDrive-testbn2,87,158.0632010261552,131179,991,1503.4245414733887,-31.65392303466797,7.1344499588012695,31.271766662597656,0.21
131,MetaDrive-testbn2,87,161.88063420876063,132332,994,1516.0647070407867,,5.910303115844727,29.83765983581543,0.21
132,MetaDrive-testbn2,87,162.0186764233489,133018,995,1522.0139527320862,,5.178882598876953,30.910503387451172,0.21
133,MetaDrive-testbn2,87,164.91556721790576,134646,1000,1539.1047070026398,,5.11070442199707,28.847179412841797,0.22
134,MetaDrive-testbn2,87,166.07270770795407,135010,1001,1543.7781643867493,,5.035524845123291,28.51441192626953,0.22
135,MetaDrive-testbn2,87,162.97353320243644,136383,1005,1558.6741485595703,-29.12200164794922,3.410860300064087,28.85291862487793,0.21
136,MetaDrive-testbn2,87,160.3545879033324,137329,1009,1570.4363119602203,-29.319576263427734,14.557476043701172,29.313688278198242,0.19
137,MetaDrive-testbn2,87,164.5691196837532,138315,1012,1581.5924441814423,-28.326169967651367,100.50624084472656,28.66005516052246,0.2
138,MetaDrive-testbn2,87,164.48144532983264,139408,1016,1593.877959728241,,8.853663444519043,28.270233154296875,0.2
139,MetaDrive-testbn2,87,167.15006584375666,140010,1018,1600.1936733722687,,6.457610130310059,29.701461791992188,0.21
140,MetaDrive-testbn2,87,169.06879290396867,141120,1022,1612.1258256435394,,10.002347946166992,33.97315979003906,0.23
141,MetaDrive-testbn2,87,173.6237524284004,142886,1025,1635.8938653469086,,11.105033874511719,30.670318603515625,0.24
142,MetaDrive-testbn2,87,169.23944818583135,143974,1027,1649.2661497592926,,34.572364807128906,30.986177444458008,0.23
143,MetaDrive-testbn2,87,167.8647078581881,144067,1028,1650.310264825821,-32.01678466796875,3.0253217220306396,31.479949951171875,0.23
144,MetaDrive-testbn2,87,170.6864430295491,145297,1031,1661.6773693561554,-30.0703125,31.678552627563477,30.025882720947266,0.24
145,MetaDrive-testbn2,87,171.04334908952785,146694,1034,1678.6294584274292,,2.288104772567749,29.231277465820312,0.25
146,MetaDrive-testbn2,87,172.41996753894986,147205,1035,1685.8364751338959,-33.290191650390625,2.2987027168273926,32.92457962036133,0.25
147,MetaDrive-testbn2,87,169.74960013732746,148044,1038,1696.208554983139,,5.648800849914551,32.480133056640625,0.25
148,MetaDrive-testbn2,87,169.81473435296445,149152,1042,1707.8999259471893,,4.045087814331055,28.94444465637207,0.26
149,MetaDrive-testbn2,87,172.06798024240157,150209,1045,1720.6770017147064,-33.498680114746094,2.910806179046631,33.01927947998047,0.27
150,MetaDrive-testbn2,87,174.98725264863663,151102,1047,1730.8551762104034,,2.010495662689209,33.845428466796875,0.29
151,MetaDrive-testbn2,87,180.20874067184113,152521,1052,1746.3901937007904,-33.1872444152832,9.753091812133789,32.080055236816406,0.31
152,MetaDrive-testbn2,87,179.87463671554593,153025,1054,1751.6508305072784,-33.41454315185547,6.713468074798584,33.196903228759766,0.31
153,MetaDrive-testbn2,87,182.99286107321768,154260,1058,1764.6775279045105,,28.72577476501465,32.59173583984375,0.33
154,MetaDrive-testbn2,87,184.08279212518926,155360,1062,1776.9973578453064,,3.8341636657714844,34.31092834472656,0.33
155,MetaDrive-testbn2,87,182.55437543448056,156115,1066,1787.5728824138641,-29.90985679626465,9.584211349487305,29.683425903320312,0.32
156,MetaDrive-testbn2,87,184.8869449304036,157038,1068,1802.580399274826,,7.493507385253906,34.76799011230469,0.32
157,MetaDrive-testbn2,87,180.18425901493276,158197,1074,1817.0701344013214,-30.812267303466797,7.880308628082275,31.267654418945312,0.3
158,MetaDrive-testbn2,87,181.06424288501435,159061,1078,1827.9959681034088,-30.26323127746582,7.71959114074707,30.560110092163086,0.29
159,MetaDrive-testbn2,87,183.59205957782126,160397,1082,1840.7421476840973,-31.299087524414062,5.2862324714660645,30.498497009277344,0.29
160,MetaDrive-testbn2,87,185.61919382799326,161104,1083,1850.7513172626495,,38.95708084106445,35.96651077270508,0.29
161,MetaDrive-testbn2,86,188.9674537037324,162048,1084,1864.2145791053772,,64.01116180419922,33.37636947631836,0.29
162,MetaDrive-testbn2,87,180.09781559015767,163381,1090,1877.347305059433,-32.32367706298828,4.502240180969238,31.8753719329834,0.27
163,MetaDrive-testbn2,87,182.12245313485542,164161,1093,1885.4908392429352,-36.71108627319336,70.14533996582031,35.801963806152344,0.27
164,MetaDrive-testbn2,86,181.43084317890535,165016,1097,1897.5619554519653,,49.02181625366211,34.499664306640625,0.27
165,MetaDrive-testbn2,86,179.80347862010055,166476,1102,1914.4005024433136,,6.702079772949219,31.509746551513672,0.28
166,MetaDrive-testbn2,86,182.97294225829265,167195,1103,1923.670303106308,-35.597137451171875,6.301857948303223,35.75748062133789,0.29
167,MetaDrive-testbn2,86,183.42247794517712,168271,1106,1937.2512803077698,-28.533248901367188,4.434130668640137,28.179298400878906,0.28
168,MetaDrive-testbn2,86,184.18116627663193,169179,1109,1951.4432685375214,-33.15727996826172,6.214411735534668,33.10093688964844,0.28
169,MetaDrive-testbn2,86,179.82051973664292,170067,1114,1961.3836500644684,-32.948028564453125,18.628015518188477,32.10054397583008,0.27
170,MetaDrive-testbn2,86,178.02208758637175,171334,1119,1978.2606773376465,,5.622844696044922,33.17573547363281,0.25
171,MetaDrive-testbn2,86,175.88116220435964,172230,1123,1987.7705309391022,,9.829557418823242,34.66632080078125,0.23
172,MetaDrive-testbn2,86,172.34173883566112,173063,1127,1995.8615155220032,-36.540313720703125,5.579273223876953,36.35179138183594,0.22
173,MetaDrive-testbn2,86,176.7421041245726,174076,1129,2012.1217560768127,,8.46143627166748,33.048545837402344,0.23
174,MetaDrive-testbn2,86,176.1435583975916,175110,1131,2025.0910093784332,,4.894150733947754,32.893646240234375,0.23
175,MetaDrive-testbn2,86,176.53026981599632,176435,1135,2041.090568304062,-33.863128662109375,7.347932815551758,32.65509796142578,0.23
176,MetaDrive-testbn2,86,178.59224714709683,177282,1137,2051.578063726425,,7.2451653480529785,32.65222930908203,0.24
177,MetaDrive-testbn2,86,178.02710370952266,178079,1140,2062.4979729652405,-31.153505325317383,64.27933502197266,30.184925079345703,0.23
178,MetaDrive-testbn2,86,177.3375341866775,179217,1143,2077.548062324524,-33.1658935546875,5.811448097229004,32.17292022705078,0.22
179,MetaDrive-testbn2,86,174.93417150998187,180712,1146,2098.1376447677612,,6.9859514236450195,32.28571319580078,0.2
180,MetaDrive-testbn2,86,173.34244559102285,181376,1148,2106.3905177116394,,65.74031066894531,33.03901672363281,0.19
181,MetaDrive-testbn2,85,177.55350596304388,182344,1149,2122.1576092243195,,59.06242370605469,33.73075866699219,0.2
182,MetaDrive-testbn2,85,173.43254945920273,183189,1154,2131.0360884666443,-35.74732208251953,5.54620361328125,35.572654724121094,0.2
183,MetaDrive-testbn2,85,173.40458589306706,184503,1157,2151.608458518982,-34.08513259887695,4.862771511077881,33.192543029785156,0.18
184,MetaDrive-testbn2,85,175.4907884264808,185042,1158,2158.2939672470093,,7.46683406829834,33.80154037475586,0.19
185,MetaDrive-testbn2,85,178.51523116887117,186043,1159,2169.1946835517883,-36.82030487060547,17.414039611816406,36.1619873046875,0.19
186,MetaDrive-testbn2,85,181.65306133676117,187912,1162,2193.3585901260376,,8.067647933959961,33.51094055175781,0.19
187,MetaDrive-testbn2,85,185.31132067677828,188575,1163,2201.0671191215515,-33.06864547729492,16.74331283569336,33.792327880859375,0.2
188,MetaDrive-testbn2,85,188.9535546854444,189854,1165,2219.5807852745056,,5.340129852294922,35.25017547607422,0.2
189,MetaDrive-testbn2,85,189.24418735023315,190168,1166,2223.231601715088,,4.634797096252441,37.31952667236328,0.2
190,MetaDrive-testbn2,85,188.513898711184,191095,1168,2233.3680584430695,-34.5562744140625,9.48694133758545,33.7714958190918,0.21
191,MetaDrive-testbn2,85,188.46759756085766,192357,1174,2247.0791194438934,-34.55615997314453,4.777665138244629,34.748321533203125,0.22
192,MetaDrive-testbn2,85,191.72338187800636,193093,1176,2254.5283267498016,-29.65982437133789,10.057961463928223,30.70000648498535,0.23
193,MetaDrive-testbn2,85,194.65218871845758,194550,1179,2276.1570620536804,,5.277408599853516,34.22913360595703,0.24
194,MetaDrive-testbn2,85,197.16588483295862,195339,1181,2285.200121641159,-34.041778564453125,7.203657627105713,34.05179977416992,0.25
195,MetaDrive-testbn2,85,191.1640311875722,196075,1183,2295.2711369991302,-33.670005798339844,22.596637725830078,34.128929138183594,0.23
196,MetaDrive-testbn2,85,192.97927701618738,197898,1186,2314.7350516319275,,27.454730987548828,34.98753356933594,0.24
197,MetaDrive-testbn2,85,193.78839781636648,198998,1188,2326.7770545482635,,5.945366382598877,35.67169952392578,0.24
198,MetaDrive-testbn2,85,192.76636326130821,199349,1189,2330.7409999370575,-33.58564376831055,6.316864013671875,33.72296905517578,0.23
199,MetaDrive-testbn2,85,192.87067334360196,200245,1190,2341.3022084236145,-36.05081558227539,7.9210615158081055,34.494140625,0.22
200,MetaDrive-testbn2,85,194.35207152952898,201087,1192,2350.6883211135864,-35.843814849853516,5.330626964569092,35.061866760253906,0.23
201,MetaDrive-testbn2,85,194.3201321349028,202088,1193,2366.783511161804,,7.3193840980529785,35.17732238769531,0.23
202,MetaDrive-testbn2,85,193.6567663840899,203079,1198,2377.1706471443176,-37.30988311767578,2.4763877391815186,36.31797790527344,0.24
203,MetaDrive-testbn2,85,194.60834883506374,204857,1200,2397.227714538574,-32.018131256103516,11.676528930664062,32.301734924316406,0.23
204,MetaDrive-testbn2,85,196.84922090866098,205304,1201,2401.494889974594,,4.89377498626709,33.58661651611328,0.24
205,MetaDrive-testbn2,85,195.8448970917615,206104,1203,2409.4178700447083,,4.738425254821777,37.071441650390625,0.24
206,MetaDrive-testbn2,85,197.11731185872907,207498,1207,2425.034030675888,,5.284953594207764,33.565128326416016,0.25
207,MetaDrive-testbn2,85,195.93063329051824,208173,1209,2433.2613656520844,-33.32402801513672,39.738155364990234,32.13871765136719,0.25
208,MetaDrive-testbn2,85,198.4551053174573,209176,1212,2443.8442096710205,,7.664181709289551,34.49198913574219,0.26
209,MetaDrive-testbn2,85,202.36711309012483,210386,1215,2458.1492409706116,,6.760064125061035,32.55072784423828,0.28
210,MetaDrive-testbn2,85,204.84207876138566,211387,1216,2470.689098596573,-36.13665771484375,10.53284740447998,35.88101577758789,0.28
211,MetaDrive-testbn2,85,208.77153260581585,212060,1218,2477.0717277526855,,8.144429206848145,33.4149055480957,0.3
212,MetaDrive-testbn2,85,210.35126039945814,213038,1220,2487.4980642795563,,4.894309997558594,37.32098388671875,0.31
213,MetaDrive-testbn2,85,210.30876103359194,214039,1221,2498.6534271240234,-39.311485290527344,3.639921188354492,38.563053131103516,0.31
214,MetaDrive-testbn2,85,213.03647089035346,215040,1222,2514.1168830394745,,14.241872787475586,38.501495361328125,0.31
215,MetaDrive-testbn2,85,217.6827713017916,216597,1224,2534.7908005714417,-36.654396057128906,8.281413078308105,36.21105194091797,0.33
216,MetaDrive-testbn2,85,219.93926824774226,217598,1225,2553.060621738434,,22.84347152709961,32.417816162109375,0.33
217,MetaDrive-testbn2,85,222.73861488284794,218645,1227,2563.885978460312,-35.876487731933594,27.36480140686035,34.5777587890625,0.34
218,MetaDrive-testbn2,85,226.19805490727526,219466,1228,2575.3651287555695,,5.6791229248046875,39.458248138427734,0.35
219,MetaDrive-testbn2,85,224.29636328948698,220374,1230,2586.627436876297,,5.5713090896606445,39.715023040771484,0.35
220,MetaDrive-testbn2,85,223.65435075817294,221467,1232,2601.6898329257965,-35.53411102294922,23.4992733001709,35.30591583251953,0.35
221,MetaDrive-testbn2,85,225.66675492604935,222075,1233,2607.6211121082306,-40.17512512207031,7.3493266105651855,39.233726501464844,0.36
222,MetaDrive-testbn2,85,225.057589396365,223008,1236,2619.011826276779,,2.9204647541046143,36.9498291015625,0.36
223,MetaDrive-testbn2,85,227.5313771575107,224337,1239,2633.2938408851624,-36.0836296081543,4.722433567047119,36.12938690185547,0.36
224,MetaDrive-testbn2,85,226.66392547590084,225378,1241,2645.534893989563,,4.422954559326172,34.91379165649414,0.36
225,MetaDrive-testbn2,85,230.85267678885987,226331,1242,2659.2413985729218,-36.45375442504883,5.198770046234131,35.96796417236328,0.37
226,MetaDrive-testbn2,85,230.63414860643866,227009,1244,2666.2981176376343,-39.34136199951172,7.956171989440918,38.538089752197266,0.37
227,MetaDrive-testbn2,85,232.763192807806,228408,1247,2684.1598646640778,,5.717283248901367,34.85926818847656,0.37
228,MetaDrive-testbn2,85,232.18814970146593,229371,1249,2695.0862522125244,-37.91161346435547,4.529694557189941,37.419921875,0.37
229,MetaDrive-testbn2,85,235.71976202130406,230186,1250,2702.1320462226868,,9.587611198425293,40.11412048339844,0.38
230,MetaDrive-testbn2,85,238.3803397973905,231131,1251,2715.138432741165,-38.876678466796875,8.101150512695312,38.68887710571289,0.38
231,MetaDrive-testbn2,84,242.4215547253684,232683,1254,2738.4778110980988,-34.35006332397461,18.035133361816406,34.03815460205078,0.38
232,MetaDrive-testbn2,84,243.97900375704674,233125,1255,2745.3269250392914,-34.381011962890625,31.835071563720703,34.47184371948242,0.38
233,MetaDrive-testbn2,84,247.7454165337535,234759,1257,2771.367522716522,-38.28904724121094,7.760696887969971,38.545318603515625,0.39
234,MetaDrive-testbn2,84,247.30574452462523,235126,1258,2775.4796226024628,,8.833468437194824,38.321380615234375,0.39
235,MetaDrive-testbn2,84,242.55088477113,236355,1262,2787.933119058609,-39.77581024169922,4.532973766326904,39.01292419433594,0.4
236,MetaDrive-testbn2,84,241.1839570267132,237338,1264,2799.1698672771454,,4.484737396240234,36.1043815612793,0.4
237,MetaDrive-testbn2,84,239.36115768207176,238151,1266,2809.140297651291,-36.70759582519531,7.182732105255127,35.59815216064453,0.41
238,MetaDrive-testbn2,84,237.8844613064157,239106,1270,2818.924339056015,,8.811107635498047,35.120819091796875,0.41
239,MetaDrive-testbn2,84,243.19926371832233,240341,1272,2835.331060409546,-37.09092712402344,27.260623931884766,37.00463104248047,0.42
240,MetaDrive-testbn2,84,245.62006558510802,241001,1273,2844.2677352428436,-38.24527359008789,24.40508270263672,36.74028778076172,0.43
241,MetaDrive-testbn2,84,246.8129418999082,242071,1275,2856.864548444748,-37.63445281982422,6.877250671386719,36.985023498535156,0.43
242,MetaDrive-testbn2,84,246.57090535350198,243136,1277,2870.6975317001343,,9.257083892822266,38.29969024658203,0.43
243,MetaDrive-testbn2,84,247.0520266355437,244137,1278,2884.719361305237,-37.75096130371094,17.504810333251953,38.10700225830078,0.42
244,MetaDrive-testbn2,84,248.99106498616325,245395,1280,2901.784151315689,-36.141624450683594,8.743706703186035,35.35486602783203,0.43
245,MetaDrive-testbn2,84,249.1087806410034,246049,1281,2910.014479637146,-36.22120666503906,8.701618194580078,37.575416564941406,0.43
246,MetaDrive-testbn2,84,246.57356054375097,247098,1284,2923.05548286438,,13.987774848937988,36.337791442871094,0.42
247,MetaDrive-testbn2,84,249.58033900390686,248603,1286,2942.7020769119263,-38.577667236328125,6.338863372802734,38.531463623046875,0.44
248,MetaDrive-testbn2,84,253.57437767533884,249475,1288,2953.4203341007233,-37.56924057006836,50.096099853515625,36.91978073120117,0.45
249,MetaDrive-testbn2,84,256.3220518262078,250376,1289,2961.5248584747314,,17.031063079833984,37.166656494140625,0.46
250,MetaDrive-testbn2,84,254.9019078194187,251100,1291,2969.9439601898193,,4.467580795288086,39.97041320800781,0.47
251,MetaDrive-testbn2,84,253.43696865989492,252577,1295,2988.003608942032,-37.72315979003906,4.177277565002441,36.899078369140625,0.47
252,MetaDrive-testbn2,84,256.18068503377117,253297,1296,2997.5087027549744,-36.22426986694336,6.888456344604492,36.06889343261719,0.48
253,MetaDrive-testbn2,84,260.97778926289715,254201,1298,3007.638556241989,-37.60601043701172,5.871184825897217,38.18212890625,0.5
254,MetaDrive-testbn2,84,260.32630503315636,255237,1300,3018.6567482948303,-40.80445098876953,6.941277503967285,40.55305480957031,0.51
255,MetaDrive-testbn2,84,262.093386372001,256645,1302,3034.301969766617,-36.802894592285156,43.693660736083984,35.57276916503906,0.5
256,MetaDrive-testbn2,84,263.24884582855947,257271,1304,3041.1531155109406,-39.00457000732422,6.859655857086182,38.830299377441406,0.5
257,MetaDrive-testbn2,84,259.37819109127287,258080,1307,3050.205538034439,,7.54459285736084,39.72686004638672,0.48
258,MetaDrive-testbn2,84,261.9774865974561,259446,1309,3069.2288093566895,,4.841510772705078,34.9499397277832,0.49
259,MetaDrive-testbn2,84,262.0324527643551,260250,1312,3076.8708102703094,,6.902422904968262,36.38232421875,0.49
260,MetaDrive-testbn2,84,261.8174149129046,261547,1315,3092.8446729183197,-38.44233703613281,10.714488983154297,38.23265075683594,0.49
261,MetaDrive-testbn2,84,258.61994037372284,262054,1317,3098.0216975212097,,17.86952781677246,37.93882369995117,0.49
262,MetaDrive-testbn2,84,257.4350935025502,263454,1321,3115.204087972641,,72.50703430175781,39.04761505126953,0.48
263,MetaDrive-testbn2,84,251.14450584453087,264322,1324,3123.30175948143,,11.328973770141602,38.01786422729492,0.48
264,MetaDrive-testbn2,84,249.18384888480455,265299,1326,3134.3601574897766,-39.53545379638672,20.434696197509766,38.551658630371094,0.48
265,MetaDrive-testbn2,84,246.38847544140307,266197,1328,3142.9401247501373,-41.153099060058594,5.986596584320068,40.706932067871094,0.47
266,MetaDrive-testbn2,84,248.528261275063,267666,1331,3164.1658420562744,,5.612375259399414,37.68135452270508,0.48
267,MetaDrive-testbn2,84,248.17141461924854,268667,1332,3180.705066204071,-40.34513854980469,7.939716815948486,41.202205657958984,0.47
268,MetaDrive-testbn2,84,247.27216127844497,269083,1333,3185.1798882484436,-40.134857177734375,9.583477020263672,40.14312744140625,0.47
269,MetaDrive-testbn2,84,249.26146720763103,270180,1336,3197.0957310199738,,4.948056221008301,41.18266296386719,0.46
270,MetaDrive-testbn2,84,248.94813159253044,271181,1337,3220.201005935669,-37.433834075927734,8.358835220336914,36.37419891357422,0.45
271,MetaDrive-testbn2,84,250.49441631667705,272182,1338,3231.844566822052,,8.618552207946777,39.890357971191406,0.45
272,MetaDrive-testbn2,84,242.91776333332365,273088,1342,3241.747756958008,,10.74404525756836,40.038421630859375,0.44
273,MetaDrive-testbn2,84,244.68993763905667,274602,1345,3261.351662158966,,5.270010948181152,41.624542236328125,0.46
274,MetaDrive-testbn2,84,247.06558111631497,275003,1346,3265.2878346443176,-38.618614196777344,4.329750061035156,38.137027740478516,0.47
275,MetaDrive-testbn2,84,248.96880162115656,276004,1347,3281.1411542892456,,9.783191680908203,40.16090774536133,0.47
276,MetaDrive-testbn2,84,244.64633790054427,277200,1350,3295.9461801052094,,45.874610900878906,40.568077087402344,0.45
277,MetaDrive-testbn2,84,243.5913140586513,278413,1353,3308.9699239730835,-43.627174377441406,5.599089622497559,43.72303009033203,0.44
278,MetaDrive-testbn2,84,244.20137883444232,279249,1354,3318.7294771671295,-40.00548553466797,7.523085117340088,39.677757263183594,0.45
279,MetaDrive-testbn2,84,243.74776697902905,280229,1356,3329.284666776657,-39.39757537841797,4.703564643859863,39.18026351928711,0.46
280,MetaDrive-testbn2,84,245.11382754810515,281831,1358,3352.5137054920197,-38.64448547363281,13.204726219177246,37.709503173828125,0.47
281,MetaDrive-testbn2,84,244.66806457905875,282432,1360,3360.3777055740356,,7.006147384643555,41.50053405761719,0.46
282,MetaDrive-testbn2,84,248.01435698044241,283053,1361,3366.1726562976837,-40.55060958862305,14.144878387451172,39.95763397216797,0.47
283,MetaDrive-testbn2,84,250.61762670355927,284199,1363,3380.2779841423035,-36.42144775390625,5.093071460723877,36.82080078125,0.47
284,MetaDrive-testbn2,84,249.8357228002399,285048,1365,3389.535069465637,,9.243841171264648,40.08173751831055,0.47
285,MetaDrive-testbn2,84,250.0491040257061,286028,1367,3402.7207527160645,,5.890486240386963,40.93987274169922,0.46
286,MetaDrive-testbn2,84,256.12650547346266,287803,1370,3425.103592634201,-45.84095001220703,3.8916001319885254,45.220130920410156,0.48
287,MetaDrive-testbn2,84,256.8444187079866,288385,1371,3432.3245713710785,-40.845848083496094,8.04914665222168,40.775177001953125,0.49
288,MetaDrive-testbn2,84,257.33179630889913,289088,1372,3441.0163781642914,,13.487709045410156,41.16576385498047,0.49
289,MetaDrive-testbn2,83,253.18890035350714,290085,1375,3455.7827191352844,-46.10316467285156,7.609375,44.727203369140625,0.48
290,MetaDrive-testbn2,83,254.01425059340414,291217,1377,3472.150241613388,-41.595298767089844,5.59271240234375,41.43169403076172,0.48
291,MetaDrive-testbn2,83,253.24768446213196,292065,1379,3481.2889993190765,-44.293724060058594,9.154106140136719,44.293758392333984,0.49
292,MetaDrive-testbn2,83,249.2394199556138,293202,1382,3495.168126344681,,4.640045166015625,38.858665466308594,0.48
293,MetaDrive-testbn2,83,253.89925500520118,294682,1384,3516.1272246837616,,7.305331230163574,37.70123291015625,0.49
294,MetaDrive-testbn2,83,252.64284222085578,295385,1385,3525.061833381653,-40.24790573120117,9.092253684997559,39.7140007019043,0.48
295,MetaDrive-testbn2,83,251.47956260748933,296082,1387,3534.407608270645,,7.7412109375,42.7079963684082,0.48
296,MetaDrive-testbn2,83,249.757021963778,297252,1389,3551.413344860077,,4.023881912231445,38.76869583129883,0.47
297,MetaDrive-testbn2,83,250.7631115473928,298253,1390,3568.8359332084656,-39.77145767211914,6.104046821594238,40.015846252441406,0.46
298,MetaDrive-testbn2,83,254.356720788002,299854,1393,3589.342562675476,,27.625347137451172,42.64176559448242,0.47
299,MetaDrive-testbn2,83,256.6449675071736,300301,1394,3593.1507205963135,-41.69134521484375,8.17362117767334,41.57659149169922,0.48
300,MetaDrive-testbn2,83,253.79329256261192,301101,1396,3601.3064181804657,-42.46696853637695,11.012350082397461,41.918704986572266,0.47
301,MetaDrive-testbn2,83,253.27512041357397,302024,1398,3610.1214423179626,,6.072690010070801,43.508766174316406,0.47
302,MetaDrive-testbn2,83,249.50220321604357,303391,1402,3624.2894303798676,-44.68301010131836,7.4979095458984375,42.791969299316406,0.46
303,MetaDrive-testbn2,83,250.572707075668,304466,1405,3636.5225138664246,,28.60568618774414,39.212013244628906,0.45
304,MetaDrive-testbn2,83,249.21260937753053,305864,1408,3655.265768289566,,18.554126739501953,37.70296859741211,0.45
305,MetaDrive-testbn2,83,248.21665006129743,306675,1409,3663.869374036789,-46.89400100708008,5.842833995819092,45.70228576660156,0.45
306,MetaDrive-testbn2,83,252.49111578175194,307852,1411,3680.9598047733307,,12.251204490661621,41.16790771484375,0.46
307,MetaDrive-testbn2,83,253.02495263704503,308464,1412,3690.645599126816,,9.093913078308105,43.52638244628906,0.46
308,MetaDrive-testbn2,83,254.06169047741258,309070,1413,3697.620488882065,,43.39371109008789,41.143428802490234,0.46
309,MetaDrive-testbn2,83,256.6314017276924,310753,1416,3715.368758201599,-42.0456657409668,4.496146202087402,41.47332763671875,0.46
310,MetaDrive-testbn2,83,257.2607185864574,311190,1417,3719.137390613556,,20.763671875,43.40531921386719,0.46
311,MetaDrive-testbn2,83,260.1934754983364,312426,1420,3734.1342368125916,,28.299331665039062,41.67308044433594,0.47
312,MetaDrive-testbn2,83,260.6984528925502,313073,1421,3740.488651752472,-39.52381134033203,5.644279956817627,38.12799072265625,0.47
313,MetaDrive-testbn2,83,259.70742575479153,314046,1424,3750.1909623146057,,8.530733108520508,42.32624053955078,0.46
314,MetaDrive-testbn2,83,261.83522806382314,315173,1426,3761.705705165863,-42.11256408691406,5.3277482986450195,42.04449462890625,0.47
315,MetaDrive-testbn2,83,260.9768918717529,316051,1428,3770.792512178421,-40.42613220214844,12.711688041687012,40.73900604248047,0.47
316,MetaDrive-testbn2,83,258.49903101854034,317115,1431,3782.268840789795,-39.87361145019531,9.353851318359375,39.901268005371094,0.46
317,MetaDrive-testbn2,83,256.4830204626341,318386,1434,3795.2221364974976,,6.089298248291016,39.463253021240234,0.47
318,MetaDrive-testbn2,83,258.1076987031039,319352,1436,3806.8651959896088,,11.465568542480469,42.816627502441406,0.49
319,MetaDrive-testbn2,83,255.23661072064883,320101,1438,3814.23184633255,-46.1254768371582,56.67391586303711,45.9329948425293,0.5
320,MetaDrive-testbn2,83,258.10302924935667,321549,1441,3830.5513954162598,-41.874717712402344,6.577996253967285,41.32408142089844,0.51
321,MetaDrive-testbn2,83,254.52613137807276,322136,1444,3837.2338149547577,,5.078396797180176,42.9041748046875,0.49
322,MetaDrive-testbn2,83,251.6351654623461,323304,1446,3853.0993535518646,,3.3623580932617188,42.90596389770508,0.48
323,MetaDrive-testbn2,83,249.90678475749246,324955,1449,3877.039703845978,-42.19379425048828,14.054702758789062,42.50309371948242,0.48
324,MetaDrive-testbn2,83,252.75363874372422,325819,1450,3885.9015243053436,-44.178260803222656,6.645586013793945,43.63182830810547,0.49
325,MetaDrive-testbn2,83,254.40237298184226,326375,1451,3892.650812625885,-37.8662223815918,16.544910430908203,38.47368621826172,0.5
326,MetaDrive-testbn2,83,254.67766239834748,327300,1453,3903.015941619873,,9.014293670654297,37.53239440917969,0.51
327,MetaDrive-testbn2,83,252.14149751863766,328079,1455,3911.6746397018433,-41.81151580810547,18.66079330444336,42.17992401123047,0.5
328,MetaDrive-testbn2,83,250.9176739209675,329063,1457,3925.1507182121277,-42.01386260986328,8.072607040405273,42.285255432128906,0.49
329,MetaDrive-testbn2,83,251.68948537136706,330586,1459,3944.8108761310577,,7.66920280456543,47.671424865722656,0.5
330,MetaDrive-testbn2,83,252.17877699496526,331254,1460,3951.5400018692017,,10.816377639770508,45.716583251953125,0.51
331,MetaDrive-testbn2,83,252.08160298149215,332765,1462,3974.402487039566,-43.176185607910156,7.796878337860107,42.745460510253906,0.49
332,MetaDrive-testbn2,83,255.30835853067285,333695,1463,3990.2287957668304,-41.337318420410156,39.96184539794922,40.34035110473633,0.5
333,MetaDrive-testbn2,83,257.20022748892296,334285,1464,3996.327661037445,-39.884368896484375,3.754483461380005,40.163108825683594,0.51
334,MetaDrive-testbn2,83,254.6114404319126,335230,1466,4009.284362077713,,5.12785005569458,42.774131774902344,0.5
335,MetaDrive-testbn2,83,256.1574988824513,336829,1468,4027.4800486564636,-46.364112854003906,21.77869415283203,45.208961486816406,0.51
336,MetaDrive-testbn2,83,255.841935823217,337452,1469,4035.6392781734467,,81.9278335571289,45.6357421875,0.5
337,MetaDrive-testbn2,83,250.15834846241614,338541,1472,4047.950276851654,-45.573219299316406,5.277770042419434,46.27742004394531,0.48
338,MetaDrive-testbn2,83,255.13225673805388,339542,1473,4061.383083820343,,6.894375801086426,44.764060974121094,0.48
339,MetaDrive-testbn2,83,256.8668118293645,340046,1474,4066.088649749756,,7.289999485015869,37.54901123046875,0.49
340,MetaDrive-testbn2,83,256.92632928150084,341155,1476,4078.360335588455,-46.75078582763672,4.161842346191406,46.48172378540039,0.5
341,MetaDrive-testbn2,83,255.55685915632338,342178,1478,4089.908754825592,,4.5711517333984375,42.03264617919922,0.49
342,MetaDrive-testbn2,83,257.19487858521353,343076,1480,4099.486332416534,,7.3605451583862305,40.36851119995117,0.49
343,MetaDrive-testbn2,83,257.2124255450546,344375,1482,4113.836300849915,-44.42231750488281,6.835356712341309,43.592437744140625,0.49
344,MetaDrive-testbn2,83,253.76003307470248,345078,1484,4121.877277612686,,13.050113677978516,42.236263275146484,0.49
345,MetaDrive-testbn2,83,253.28010315976238,346271,1487,4136.6600658893585,-43.169090270996094,5.295985698699951,42.68841552734375,0.48
346,MetaDrive-testbn2,83,255.68229863240123,347013,1488,4145.740785360336,-36.8770866394043,18.588451385498047,36.529930114746094,0.49
347,MetaDrive-testbn2,83,248.6082445429474,348283,1492,4158.7312116622925,-44.932830810546875,10.762219429016113,43.92736053466797,0.49
348,MetaDrive-testbn2,83,245.78759788838306,349154,1494,4170.195971250534,,8.875905990600586,41.91223907470703,0.48
349,MetaDrive-testbn2,83,244.12310598850644,350717,1498,4186.827714920044,-46.37518310546875,14.76829719543457,46.27423095703125,0.47
350,MetaDrive-testbn2,83,247.65305037802187,351354,1499,4192.745223283768,,55.28003692626953,41.16461181640625,0.48
351,MetaDrive-testbn2,83,249.86440314257206,352355,1500,4208.593816995621,-41.46491241455078,10.939804077148438,40.755218505859375,0.48
352,MetaDrive-testbn2,83,252.770144899083,353105,1501,4216.293286561966,-48.066619873046875,10.045954704284668,46.81106948852539,0.49
353,MetaDrive-testbn2,83,252.2524786030265,354462,1505,4230.86327290535,,6.765430450439453,43.111968994140625,0.5
354,MetaDrive-testbn2,83,253.03862119859411,355127,1507,4237.115328788757,-40.94021224975586,6.457157135009766,40.78551483154297,0.51
355,MetaDrive-testbn2,83,254.04472179034255,356869,1510,4256.212616443634,-43.87921142578125,14.045330047607422,43.76599884033203,0.5
356,MetaDrive-testbn2,83,250.8085539681725,357117,1511,4258.71634721756,-43.37680435180664,14.191984176635742,43.96208572387695,0.49
357,MetaDrive-testbn2,83,247.9658276560652,358291,1514,4271.3082575798035,-42.67326354980469,4.932132720947266,42.54591369628906,0.47
358,MetaDrive-testbn2,83,248.91865966768432,359883,1516,4290.83606004715,-37.74428939819336,11.582296371459961,36.57639694213867,0.48
359,MetaDrive-testbn2,83,248.71487607111627,360435,1517,4297.191401720047,-45.12669372558594,6.919735908508301,44.97251892089844,0.48
360,MetaDrive-testbn2,83,253.10516607144302,361633,1519,4310.371784210205,-39.48477554321289,9.397576332092285,39.23060607910156,0.5
361,MetaDrive-testbn2,83,250.05371807162527,362634,1520,4322.004947423935,,5.812802314758301,44.47062683105469,0.49
362,MetaDrive-testbn2,83,248.799950674767,363102,1521,4327.489906787872,,5.440423011779785,45.26871109008789,0.48
363,MetaDrive-testbn2,83,252.11916209310849,364194,1523,4338.116345643997,,16.888874053955078,46.951759338378906,0.5
364,MetaDrive-testbn2,84,250.65091082609956,365643,1526,4351.093765258789,-45.024436950683594,5.005399703979492,44.87760543823242,0.49
365,MetaDrive-testbn2,84,252.98247363178302,366329,1527,4359.991707801819,-45.30613708496094,8.247933387756348,44.94709014892578,0.5
366,MetaDrive-testbn2,84,251.2378612924339,367891,1529,4374.262603521347,-42.47848129272461,25.42116928100586,40.86946105957031,0.5
367,MetaDrive-testbn2,84,251.35284224113622,368374,1530,4379.791332960129,,14.406379699707031,44.45012664794922,0.5
368,MetaDrive-testbn2,84,255.7454239166534,369152,1531,4389.820233345032,,5.066005229949951,43.67038345336914,0.51
369,MetaDrive-testbn2,84,257.2370466307309,370219,1533,4402.881025791168,-47.840816497802734,21.02149200439453,47.38339614868164,0.51
370,MetaDrive-testbn2,84,254.67255602601261,371384,1536,4414.394779682159,,25.63646697998047,39.56354522705078,0.5
371,MetaDrive-testbn2,84,256.22908861424776,372434,1538,4423.172768115997,,8.661396980285645,44.67063522338867,0.51
372,MetaDrive-testbn2,84,258.80090327384266,373323,1540,4434.661349058151,-45.10271072387695,33.14032745361328,44.143585205078125,0.52
373,MetaDrive-testbn2,84,259.26051404688536,374191,1542,4446.857959270477,-44.38021469116211,4.363357067108154,44.240047454833984,0.51
374,MetaDrive-testbn2,84,263.65690027415394,375406,1544,4461.226349592209,,8.58401870727539,46.04045867919922,0.52
375,MetaDrive-testbn2,84,265.702761961714,376038,1545,4469.725596666336,,5.360258102416992,50.645286560058594,0.53
376,MetaDrive-testbn2,84,266.9561071160569,377676,1548,4490.69332909584,,4.597729682922363,44.92431640625,0.53
377,MetaDrive-testbn2,84,267.5606378092172,378563,1549,4502.510052680969,-42.382266998291016,84.99815368652344,41.56907653808594,0.54
378,MetaDrive-testbn2,84,265.0439808591681,379436,1551,4514.111036539078,,5.869141101837158,43.158660888671875,0.52
379,MetaDrive-testbn2,84,266.53693788172285,380108,1552,4521.344575405121,,15.48100757598877,37.521209716796875,0.53
380,MetaDrive-testbn2,84,264.7751034587095,381745,1555,4541.449866294861,-43.72334289550781,9.56822395324707,43.46165084838867,0.51
381,MetaDrive-testbn2,84,263.64569650985305,382261,1556,4546.472368717194,-41.98673629760742,6.7320990562438965,41.20415496826172,0.51
382,MetaDrive-testbn2,84,265.0624509269349,383462,1558,4559.730254411697,,8.186285972595215,38.61976623535156,0.51
383,MetaDrive-testbn2,84,263.6221650535152,384689,1560,4573.3169367313385,-45.13977813720703,7.5133867263793945,43.74121856689453,0.5
384,MetaDrive-testbn2,84,263.36745538351164,385212,1561,4577.717829465866,,16.643020629882812,46.142311096191406,0.51
385,MetaDrive-testbn2,84,262.6931769248956,386138,1562,4588.099616527557,,89.86404418945312,44.57636642456055,0.52
386,MetaDrive-testbn2,84,260.5301347736976,387564,1565,4603.987907886505,,88.31263732910156,40.16998291015625,0.51
387,MetaDrive-testbn2,84,260.27460823305154,388179,1566,4609.935071229935,-45.22118377685547,10.931661605834961,44.30360412597656,0.51
388,MetaDrive-testbn2,84,259.2400583392681,389431,1569,4626.185064077377,-43.76404571533203,6.709129333496094,42.65399169921875,0.51
389,MetaDrive-testbn2,84,261.5970507920996,390089,1570,4632.512287855148,-45.70018005371094,7.5594329833984375,45.037086486816406,0.52
390,MetaDrive-testbn2,84,255.8854446008563,391459,1574,4645.978193283081,-42.57501983642578,35.61615753173828,41.775489807128906,0.51
391,MetaDrive-testbn2,84,254.64669047369068,392460,1575,4660.584639310837,,10.397319793701172,48.18708038330078,0.5
392,MetaDrive-testbn2,84,253.36357022565502,393855,1577,4676.1622858047485,-42.43202209472656,6.927363395690918,43.68123245239258,0.5
393,MetaDrive-testbn2,84,256.4950071791079,394515,1578,4683.000861406326,-44.74313735961914,7.909936904907227,43.97633361816406,0.51
394,MetaDrive-testbn2,84,259.5582189265961,395484,1579,4693.25022149086,,9.446687698364258,41.041751861572266,0.52
395,MetaDrive-testbn2,84,258.76244251056994,396061,1580,4698.79439496994,-43.84545135498047,5.787722587585449,43.510440826416016,0.52
396,MetaDrive-testbn2,84,261.1820799394914,397632,1582,4715.211125612259,,16.41828155517578,45.49419403076172,0.53
397,MetaDrive-testbn2,84,261.9620096083423,398633,1583,4726.8930604457855,-43.899749755859375,15.809131622314453,43.29857635498047,0.52
398,MetaDrive-testbn2,84,264.25458091062455,399322,1584,4736.7174344062805,,6.0336103439331055,44.49518585205078,0.52
399,MetaDrive-testbn2,84,264.2272463506593,400258,1586,4745.847714424133,,5.637414455413818,45.49227523803711,0.53
400,MetaDrive-testbn2,84,263.4763722736298,401227,1588,4756.115427970886,-42.288787841796875,10.496498107910156,41.30375671386719,0.53
401,MetaDrive-testbn2,84,266.1843460548083,402414,1590,4771.201112747192,,6.16789436340332,43.27278137207031,0.53
402,MetaDrive-testbn2,84,268.56682404957564,403074,1591,4779.283854722977,,4.448853969573975,45.40461730957031,0.53
403,MetaDrive-testbn2,84,270.39218133024514,404839,1593,4800.074782848358,-44.791603088378906,5.64302921295166,44.500579833984375,0.52
404,MetaDrive-testbn2,84,272.1702160646478,405488,1594,4807.803091049194,,7.208459854125977,40.059417724609375,0.53
405,MetaDrive-testbn2,84,274.66875254134686,406085,1595,4815.712127685547,-38.7877197265625,11.992823600769043,39.06376647949219,0.54
406,MetaDrive-testbn2,84,275.26325144113963,407086,1596,4828.194500207901,,9.367265701293945,40.57221221923828,0.54
407,MetaDrive-testbn2,84,275.03136181626456,408124,1598,4837.482588291168,,7.13945198059082,40.485008239746094,0.54
408,MetaDrive-testbn2,84,274.3592957610741,409897,1600,4862.089560508728,-39.85795593261719,12.140233993530273,39.70246124267578,0.55
409,MetaDrive-testbn2,84,272.5377775446803,410427,1601,4867.27977514267,-42.406150817871094,5.294924736022949,41.67138671875,0.55
410,MetaDrive-testbn2,84,274.9732815610638,411340,1603,4876.559205055237,,5.004156112670898,45.3580207824707,0.56
411,MetaDrive-testbn2,84,273.8782351494277,412006,1605,4882.718806743622,,9.387496948242188,44.50974655151367,0.56
412,MetaDrive-testbn2,84,276.0234091587466,413081,1607,4893.502037286758,-46.630496978759766,4.850165367126465,46.10124969482422,0.56
413,MetaDrive-testbn2,84,278.50003739855447,414413,1609,4905.868916273117,-46.183746337890625,14.260729789733887,45.53340148925781,0.58
414,MetaDrive-testbn2,84,278.84567967311307,415126,1610,4912.742267370224,,12.085325241088867,42.723758697509766,0.59
415,MetaDrive-testbn2,84,279.11991321158024,416797,1612,4932.759605884552,-45.53532409667969,10.367958068847656,46.604759216308594,0.6
416,MetaDrive-testbn2,84,280.2748675809773,417312,1613,4937.708252191544,,8.797840118408203,41.42164611816406,0.61
417,MetaDrive-testbn2,84,282.83752896853053,418245,1614,4950.337683677673,-42.87153625488281,4.44388484954834,42.9141960144043,0.62
418,MetaDrive-testbn2,84,279.4159508706627,419207,1616,4959.534411907196,-40.37300109863281,22.518592834472656,41.638336181640625,0.61
419,MetaDrive-testbn2,84,279.14277480947493,420208,1617,4973.747454404831,,71.03599548339844,45.14543914794922,0.6
420,MetaDrive-testbn2,84,276.2925224205022,421560,1620,4988.02850985527,,5.559567451477051,47.25511169433594,0.59
421,MetaDrive-testbn2,84,277.5446187321909,422261,1621,4996.464812755585,-43.03446578979492,8.500873565673828,42.560638427734375,0.6
422,MetaDrive-testbn2,84,277.2114811970048,423301,1623,5008.734961032867,-45.584083557128906,14.003355026245117,45.10072326660156,0.58
423,MetaDrive-testbn2,84,278.3174609159393,424414,1625,5020.958446979523,,16.178062438964844,43.24763107299805,0.58
424,MetaDrive-testbn2,84,278.19380341095155,425245,1626,5032.281452178955,-42.272918701171875,9.293018341064453,42.401084899902344,0.58
425,MetaDrive-testbn2,84,274.43748411048887,426119,1629,5039.66352558136,-43.26287078857422,12.273946762084961,43.255859375,0.57
426,MetaDrive-testbn2,84,271.7175142706194,427093,1631,5049.986978769302,-44.67411422729492,7.5103254318237305,43.832244873046875,0.56
427,MetaDrive-testbn2,84,268.4862576556566,428056,1634,5059.135625362396,,28.396099090576172,43.91743850708008,0.55
428,MetaDrive-testbn2,84,270.5004056608987,429549,1636,5076.609053134918,-46.25233459472656,23.61811637878418,44.75782775878906,0.55
429,MetaDrive-testbn2,84,270.22896273727105,430550,1637,5094.7895703315735,,6.878849029541016,40.006080627441406,0.54
430,MetaDrive-testbn2,84,270.1248552315798,431088,1638,5099.4975826740265,,7.687624931335449,41.22992706298828,0.53
431,MetaDrive-testbn2,84,272.87186589720136,432729,1640,5123.574334621429,-43.67751693725586,123.02046203613281,43.125946044921875,0.53
432,MetaDrive-testbn2,84,275.86140315723134,433702,1641,5140.367782831192,,109.32603454589844,42.80711364746094,0.54
433,MetaDrive-testbn2,84,273.5965903042183,434268,1643,5146.632165193558,,15.453712463378906,47.0181999206543,0.53
434,MetaDrive-testbn2,84,272.5741854393462,435035,1644,5159.410477399826,-44.807838439941406,22.48687171936035,44.7366828918457,0.53
435,MetaDrive-testbn2,84,274.8464851294226,436301,1646,5178.050397872925,-41.84175109863281,10.628571510314941,41.732444763183594,0.53
436,MetaDrive-testbn2,84,274.1429203538721,437020,1647,5185.38286113739,,10.833255767822266,46.70762634277344,0.53
437,MetaDrive-testbn2,84,270.83036101019917,438193,1649,5196.107636928558,-40.20893096923828,7.656895160675049,39.4215087890625,0.53
438,MetaDrive-testbn2,84,271.1411860706153,439505,1651,5211.5195055007935,-44.46559524536133,5.358406066894531,44.481101989746094,0.54
439,MetaDrive-testbn2,84,271.3160519558045,440243,1652,5220.452193975449,-40.75700759887695,7.121123313903809,39.41621398925781,0.54
440,MetaDrive-testbn2,84,272.5259153189134,441091,1654,5229.363182544708,-46.21945571899414,10.80562973022461,45.73017883300781,0.55
441,MetaDrive-testbn2,84,272.3906100305851,442002,1655,5238.394136667252,,5.756004333496094,45.94989776611328,0.56
442,MetaDrive-testbn2,84,273.82326712035234,443733,1657,5258.797833919525,-43.31277847290039,10.896739959716797,42.901031494140625,0.56
443,MetaDrive-testbn2,84,273.46470126951687,444203,1658,5263.375395536423,-43.15117263793945,7.000003814697266,42.24773406982422,0.56
444,MetaDrive-testbn2,84,270.810089742721,445342,1661,5275.163333654404,,12.683199882507324,42.713905334472656,0.55
445,MetaDrive-testbn2,84,270.4536291361668,446141,1662,5284.633147478104,-47.756858825683594,4.62634801864624,47.080787658691406,0.55
446,MetaDrive-testbn2,84,272.50206196245335,447228,1664,5297.781045675278,,8.649635314941406,43.540489196777344,0.56
447,MetaDrive-testbn2,84,270.7053379621247,448303,1666,5312.280267000198,-48.18058395385742,8.631103515625,48.120086669921875,0.56
448,MetaDrive-testbn2,84,270.8761176659827,449181,1667,5322.955286502838,-42.1502571105957,5.16191291809082,41.889122009277344,0.55
