TanmayH/CS269-RL-project-code/MetaDrive-test-combined-actor-loss/td3/progress.csv
,log_dir,frame_per_second,episode_reward,total_steps,total_episodes,total_time,target_q,actor_loss,critic_loss,success_rate
0,MetaDrive-test-combined-actor-loss,495,11.472308867893918,2001,2,4.040241003036499,,,,0.0
1,MetaDrive-test-combined-actor-loss,540,9.007055504860954,3581,4,6.624387979507446,,,,0.0
2,MetaDrive-test-combined-actor-loss,514,9.383682486346824,4582,5,8.900865077972412,,,,0.0
3,MetaDrive-test-combined-actor-loss,450,16.110808701806345,5139,6,11.399320125579834,0.018801704049110413,-0.0396965816617012,0.0007651534397155046,0.0
4,MetaDrive-test-combined-actor-loss,224,-0.8164988307237181,6024,43,26.8440420627594,0.049278900027275085,,0.009196590632200241,0.0
5,MetaDrive-test-combined-actor-loss,151,-1.6581370544555458,7930,67,52.45063018798828,-0.179909348487854,,2.197868824005127,0.0
6,MetaDrive-test-combined-actor-loss,140,-1.6651686892969133,8931,68,63.48595714569092,-0.10617069900035858,0.04221786558628082,1.2837471961975098,0.0
7,MetaDrive-test-combined-actor-loss,131,-1.6701349774865526,9932,69,75.3877899646759,0.0862838625907898,,0.017583299428224564,0.0
8,MetaDrive-test-combined-actor-loss,125,-1.670655710900969,10933,70,87.28336000442505,0.1537473201751709,-0.11410929262638092,0.02885780856013298,0.0
9,MetaDrive-test-combined-actor-loss,124,-1.7170537464885272,11056,71,88.6756579875946,0.12929779291152954,,0.032164815813302994,0.0
10,MetaDrive-test-combined-actor-loss,119,-1.8098603392723913,12224,74,102.341068983078,0.08705703914165497,,0.012685381807386875,0.0
11,MetaDrive-test-combined-actor-loss,115,-1.7365600409691788,13225,75,114.19322323799133,-0.03445347398519516,0.03198309242725372,0.37513935565948486,0.0
12,MetaDrive-test-combined-actor-loss,112,-1.6668364391509518,14226,76,126.54959511756897,-0.06004935875535011,,0.008200500160455704,0.0
13,MetaDrive-test-combined-actor-loss,109,-1.6733072630817116,15227,77,138.64998507499695,0.001363738439977169,-0.038073305040597916,0.008472266606986523,0.0
14,MetaDrive-test-combined-actor-loss,108,-1.6132819186721465,16228,78,149.88705825805664,0.058606505393981934,,0.014923634938895702,0.0
15,MetaDrive-test-combined-actor-loss,106,-1.6509423445242555,17353,80,162.83569192886353,0.026769423857331276,0.03152565285563469,0.009044471196830273,0.0
16,MetaDrive-test-combined-actor-loss,104,-1.7443530325869023,18553,83,176.79337310791016,-0.05683949217200279,0.007919397205114365,0.31613439321517944,0.0
17,MetaDrive-test-combined-actor-loss,103,-1.7557482831251447,19554,84,188.384418964386,-0.08038091659545898,,0.2855871915817261,0.0
18,MetaDrive-test-combined-actor-loss,102,-1.390679189027977,20051,96,195.82289505004883,-0.09144491702318192,0.007924256846308708,0.7582085728645325,0.0
19,MetaDrive-test-combined-actor-loss,100,-0.6368407766548633,21022,107,210.11304903030396,-0.011160186491906643,,0.009878138080239296,0.0
20,MetaDrive-test-combined-actor-loss,98,1.1748198058974477,22025,123,224.2590708732605,-0.0954521968960762,0.03350256383419037,0.193773090839386,0.0
21,MetaDrive-test-combined-actor-loss,96,4.5707498976372225,23016,143,238.68364691734314,0.022315528243780136,,0.9006128311157227,0.0
22,MetaDrive-test-combined-actor-loss,94,7.769994820529838,24056,169,254.42082905769348,0.3418940305709839,,0.04257558286190033,0.0
23,MetaDrive-test-combined-actor-loss,93,10.83312465374324,25012,192,268.36696219444275,0.3864217698574066,,1.9594330787658691,0.0
24,MetaDrive-test-combined-actor-loss,91,12.22649333564482,26024,213,283.219740152359,0.7147377133369446,,1.6666133403778076,0.0
25,MetaDrive-test-combined-actor-loss,90,13.645556895615151,27024,235,297.74490904808044,0.8857867121696472,,0.05408020317554474,0.0
26,MetaDrive-test-combined-actor-loss,89,14.335552152522594,28021,257,313.0634479522705,1.2567142248153687,-1.5048775672912598,0.1987367868423462,0.0
27,MetaDrive-test-combined-actor-loss,88,13.509867519103224,29011,280,327.3039290904999,1.667623519897461,-1.862459421157837,1.3216594457626343,0.0
28,MetaDrive-test-combined-actor-loss,87,14.30691406113865,30017,302,342.444580078125,2.354613780975342,-2.285980224609375,0.28535065054893494,0.0
29,MetaDrive-test-combined-actor-loss,87,14.927014339784483,31008,322,355.87519097328186,3.04170560836792,,0.2597804069519043,0.0
30,MetaDrive-test-combined-actor-loss,86,15.755445623228582,32025,343,372.27944016456604,2.49458384513855,-2.661428928375244,7.219476222991943,0.0
31,MetaDrive-test-combined-actor-loss,85,16.030884753630065,33026,364,388.0366370677948,2.913029909133911,,7.802173614501953,0.0
32,MetaDrive-test-combined-actor-loss,84,18.21888199172713,34051,383,404.2769320011139,3.909940242767334,-4.045383930206299,5.775958061218262,0.0
33,MetaDrive-test-combined-actor-loss,83,20.706403577769628,35042,399,420.2919189929962,4.666638374328613,,0.4931212067604065,0.0
34,MetaDrive-test-combined-actor-loss,82,23.712649889160037,36146,414,439.12213015556335,5.142195701599121,,0.5556105971336365,0.0
35,MetaDrive-test-combined-actor-loss,81,26.098747449531107,37050,427,454.964457988739,5.590658187866211,,0.28146445751190186,0.0
36,MetaDrive-test-combined-actor-loss,80,30.04461479442641,38026,441,473.57084703445435,5.874726295471191,,9.429286003112793,0.0
37,MetaDrive-test-combined-actor-loss,79,32.89997896871679,39032,456,490.0329399108887,6.248744487762451,,8.490073204040527,0.0
38,MetaDrive-test-combined-actor-loss,79,34.91335430527438,40028,470,504.88208198547363,7.508842945098877,,7.615818023681641,0.0
39,MetaDrive-test-combined-actor-loss,78,39.00896435009339,41011,482,519.3622109889984,7.341177463531494,-7.432692050933838,3.555143356323242,0.0
40,MetaDrive-test-combined-actor-loss,78,41.50983915528989,42057,495,534.8711762428284,8.304296493530273,-8.173715591430664,0.6675504446029663,0.0
41,MetaDrive-test-combined-actor-loss,78,44.01959271313997,43016,507,548.9147911071777,9.045741081237793,,3.2677805423736572,0.0
42,MetaDrive-test-combined-actor-loss,78,46.004623228128224,44061,518,564.63942694664,10.060091018676758,-9.78251838684082,2.0148229598999023,0.0
43,MetaDrive-test-combined-actor-loss,77,45.92380505173427,45023,531,578.9753551483154,10.47796630859375,-11.108123779296875,0.6086660623550415,0.0
44,MetaDrive-test-combined-actor-loss,77,49.65496788009084,46053,543,594.3707120418549,10.919510841369629,-10.960834503173828,0.4036087095737457,0.0
45,MetaDrive-test-combined-actor-loss,77,52.42773900494873,47019,553,608.9127750396729,11.248941421508789,-11.811670303344727,0.9459609985351562,0.0
46,MetaDrive-test-combined-actor-loss,76,55.17497940377114,48047,564,625.092796087265,12.023755073547363,-11.882787704467773,0.7338453531265259,0.0
47,MetaDrive-test-combined-actor-loss,76,56.98089278632793,49068,573,641.059895992279,12.477642059326172,,0.6419180631637573,0.0
48,MetaDrive-test-combined-actor-loss,76,57.304682926755525,50023,585,655.9389350414276,12.564825057983398,-12.887182235717773,0.5511144399642944,0.0
49,MetaDrive-test-combined-actor-loss,76,57.666249138249995,51119,597,671.4221460819244,14.681808471679688,-15.084354400634766,16.373126983642578,0.0
50,MetaDrive-test-combined-actor-loss,75,58.444518922999094,52058,607,685.8014180660248,14.137182235717773,,0.4196004867553711,0.0
51,MetaDrive-test-combined-actor-loss,75,60.95625540443557,53004,616,699.5892689228058,14.926262855529785,,9.408846855163574,0.0
52,MetaDrive-test-combined-actor-loss,75,63.61132110612876,54038,625,715.6608459949493,15.509259223937988,,1.760685920715332,0.0
53,MetaDrive-test-combined-actor-loss,75,66.57133255199172,55033,633,731.1565251350403,14.439908027648926,-14.949556350708008,24.364933013916016,0.0
54,MetaDrive-test-combined-actor-loss,75,68.27457219743482,56001,641,745.4685699939728,15.604373931884766,-16.731178283691406,57.9197998046875,0.0
55,MetaDrive-test-combined-actor-loss,74,69.73763849604778,57067,650,761.596232175827,16.552730560302734,-16.930931091308594,32.02883529663086,0.0
56,MetaDrive-test-combined-actor-loss,74,72.32455027391983,58057,654,777.7711610794067,17.669965744018555,-17.651458740234375,1.227732539176941,0.01
57,MetaDrive-test-combined-actor-loss,74,75.67721671305475,59023,662,792.6972279548645,18.525609970092773,-18.046255111694336,2.283813953399658,0.02
58,MetaDrive-test-combined-actor-loss,74,77.740669777365,60053,670,808.6077980995178,17.84579849243164,-17.910844802856445,2.0607850551605225,0.02
59,MetaDrive-test-combined-actor-loss,74,79.6772910980423,61081,680,824.1436519622803,18.7098445892334,-18.876953125,18.246259689331055,0.02
60,MetaDrive-test-combined-actor-loss,74,82.76225992473627,62067,690,838.382050037384,18.68939971923828,-19.28343963623047,25.335304260253906,0.02
61,MetaDrive-test-combined-actor-loss,73,84.28641942403097,63054,700,852.4989039897919,19.821533203125,,2.341777801513672,0.02
62,MetaDrive-test-combined-actor-loss,73,85.6885739090326,64009,708,867.6268091201782,19.15774917602539,-19.372577667236328,1.677413821220398,0.02
63,MetaDrive-test-combined-actor-loss,73,86.37209825095113,65008,718,881.435683965683,20.405418395996094,,28.551191329956055,0.02
64,MetaDrive-test-combined-actor-loss,73,85.65424878791602,66080,729,897.6533920764923,21.280616760253906,,2.310177803039551,0.02
65,MetaDrive-test-combined-actor-loss,73,83.34946308047378,67019,737,911.9111421108246,21.42777442932129,-21.55459213256836,15.977497100830078,0.02
66,MetaDrive-test-combined-actor-loss,73,83.62721769886198,68056,746,927.0402901172638,22.322277069091797,,2.4774515628814697,0.02
67,MetaDrive-test-combined-actor-loss,73,78.84012958140025,69072,756,942.2672519683838,21.150693893432617,,28.30767059326172,0.01
68,MetaDrive-test-combined-actor-loss,73,78.06757765585252,70077,765,957.2582461833954,23.826976776123047,-24.828781127929688,1.526151418685913,0.0
69,MetaDrive-test-combined-actor-loss,73,77.56178521053899,71115,775,972.4459271430969,22.904998779296875,-22.82802963256836,2.6378374099731445,0.0
70,MetaDrive-test-combined-actor-loss,73,77.77372160304067,72001,784,984.7255852222443,23.27608871459961,-23.361709594726562,25.203594207763672,0.0
71,MetaDrive-test-combined-actor-loss,73,82.10845849565801,73155,791,1001.0266721248627,24.198923110961914,-24.264238357543945,2.6709232330322266,0.01
72,MetaDrive-test-combined-actor-loss,73,81.53623079355171,74063,798,1014.4089720249176,23.995248794555664,-24.67483901977539,33.40282440185547,0.01
73,MetaDrive-test-combined-actor-loss,72,80.14158201359265,75076,808,1029.4868378639221,24.664209365844727,,19.967304229736328,0.01
74,MetaDrive-test-combined-actor-loss,72,79.53758090955807,76017,817,1043.9470682144165,23.543720245361328,-23.786537170410156,31.31572723388672,0.01
75,MetaDrive-test-combined-actor-loss,72,82.40599532138476,77018,822,1060.0673189163208,25.401094436645508,,21.43038558959961,0.02
76,MetaDrive-test-combined-actor-loss,72,88.4767419677672,78174,830,1076.8236861228943,24.6416015625,,24.13351821899414,0.03
77,MetaDrive-test-combined-actor-loss,72,90.18136011664141,79079,836,1090.403244972229,25.242097854614258,-25.756771087646484,27.424667358398438,0.03
78,MetaDrive-test-combined-actor-loss,72,91.81094782850319,80084,839,1106.3282721042633,26.52396583557129,,59.559654235839844,0.03
79,MetaDrive-test-combined-actor-loss,72,93.74178736797488,81089,845,1120.8803701400757,25.21445083618164,-26.115924835205078,6.795844554901123,0.04
80,MetaDrive-test-combined-actor-loss,72,97.67676239995761,82406,849,1140.3245470523834,27.77495574951172,,2.6415326595306396,0.05
81,MetaDrive-test-combined-actor-loss,72,97.1950887778543,83088,855,1150.5337500572205,25.4536190032959,,12.318814277648926,0.05
82,MetaDrive-test-combined-actor-loss,72,100.75065194626923,84020,858,1165.170511007309,26.906719207763672,,5.5972065925598145,0.05
83,MetaDrive-test-combined-actor-loss,72,100.25739766660745,85069,865,1180.9428720474243,28.87204360961914,-29.363998413085938,2.2419028282165527,0.05
84,MetaDrive-test-combined-actor-loss,71,105.58972699766586,86072,868,1198.125862121582,29.337078094482422,,36.4573974609375,0.06
85,MetaDrive-test-combined-actor-loss,71,106.08422256262962,87039,872,1212.1343050003052,27.668922424316406,-27.921493530273438,2.6434133052825928,0.06
86,MetaDrive-test-combined-actor-loss,71,108.61046755886302,88132,877,1227.7917528152466,26.900501251220703,,5.657902717590332,0.06
87,MetaDrive-test-combined-actor-loss,71,110.05782069670182,89103,882,1242.8948130607605,26.265045166015625,-27.8831844329834,96.25127410888672,0.06
88,MetaDrive-test-combined-actor-loss,71,113.67329602109236,90094,885,1258.1501359939575,28.844881057739258,,38.182777404785156,0.07
89,MetaDrive-test-combined-actor-loss,71,114.05212878518603,91095,886,1273.6476590633392,28.746448516845703,-29.32199478149414,39.06385040283203,0.07
90,MetaDrive-test-combined-actor-loss,71,119.37975462929306,92273,890,1291.3730709552765,29.57418441772461,-29.070556640625,8.557693481445312,0.08
91,MetaDrive-test-combined-actor-loss,71,117.49147742282054,93031,896,1303.206971168518,30.272180557250977,-31.35467529296875,35.23746109008789,0.08
92,MetaDrive-test-combined-actor-loss,71,120.23929995878642,94258,901,1321.7995960712433,31.039386749267578,,11.709260940551758,0.09
93,MetaDrive-test-combined-actor-loss,71,123.07080598857719,95153,905,1336.0708470344543,32.515968322753906,-32.984779357910156,27.0916690826416,0.1
94,MetaDrive-test-combined-actor-loss,71,125.22237954804235,96019,910,1349.160835981369,31.53152084350586,-32.91344451904297,8.914655685424805,0.1
95,MetaDrive-test-combined-actor-loss,71,124.39066773069689,97029,918,1364.496455192566,32.2642936706543,-32.07140350341797,5.324161529541016,0.1
96,MetaDrive-test-combined-actor-loss,70,125.55346291515849,98069,921,1381.6439089775085,30.47091293334961,-30.95189094543457,27.44656753540039,0.1
97,MetaDrive-test-combined-actor-loss,70,130.3780911762863,99199,926,1399.0202050209045,31.224346160888672,-31.89765167236328,5.522904396057129,0.11
98,MetaDrive-test-combined-actor-loss,70,130.01153018297845,100637,932,1420.7699880599976,34.74769973754883,-35.93266296386719,4.56512451171875,0.11
99,MetaDrive-test-combined-actor-loss,70,130.360387706231,101032,933,1426.8005821704865,33.09275817871094,,6.328457355499268,0.11
100,MetaDrive-test-combined-actor-loss,70,130.8141955584373,102437,940,1448.5371181964874,32.1576042175293,-31.739273071289062,8.450567245483398,0.12
101,MetaDrive-test-combined-actor-loss,70,130.55045285510528,103123,944,1458.8096070289612,30.940643310546875,-31.857162475585938,4.861276626586914,0.11
102,MetaDrive-test-combined-actor-loss,70,130.36538654088633,104207,950,1474.9117412567139,33.063499450683594,-32.79560089111328,6.5015058517456055,0.11
103,MetaDrive-test-combined-actor-loss,70,131.54592002337156,105592,956,1496.2918162345886,36.63706970214844,,4.351836204528809,0.12
104,MetaDrive-test-combined-actor-loss,70,128.08436582493286,106060,959,1502.9938259124756,31.068836212158203,,38.93408966064453,0.12
105,MetaDrive-test-combined-actor-loss,70,129.77283112480444,107104,965,1519.1781120300293,28.62869644165039,,132.49139404296875,0.13
106,MetaDrive-test-combined-actor-loss,70,129.8055428659445,108503,968,1540.136104106903,34.95582962036133,-35.52705383300781,8.582050323486328,0.12
107,MetaDrive-test-combined-actor-loss,70,130.2559018652833,109187,972,1550.353931903839,31.763505935668945,-32.75568389892578,9.467704772949219,0.13
108,MetaDrive-test-combined-actor-loss,70,129.86785973447834,110097,977,1563.3041331768036,32.83209991455078,-31.88534164428711,5.566037654876709,0.14
109,MetaDrive-test-combined-actor-loss,70,130.8352700684352,111061,982,1578.056340932846,33.87616729736328,-34.13229751586914,5.758129119873047,0.15
110,MetaDrive-test-combined-actor-loss,70,132.38249784987377,112184,985,1595.6581490039825,33.848304748535156,,33.5174560546875,0.16
111,MetaDrive-test-combined-actor-loss,70,130.87779836050885,113559,989,1617.8005402088165,32.09016036987305,-32.75928497314453,7.873068809509277,0.15
112,MetaDrive-test-combined-actor-loss,70,130.91782797469045,114118,991,1627.200082063675,34.951881408691406,,16.278671264648438,0.15
113,MetaDrive-test-combined-actor-loss,70,134.36800070233448,115149,995,1643.0997240543365,33.43446350097656,-33.18830871582031,7.495989799499512,0.16
114,MetaDrive-test-combined-actor-loss,70,134.49041512865563,116068,999,1656.086786031723,34.384883880615234,,9.448270797729492,0.16
115,MetaDrive-test-combined-actor-loss,70,132.92368642441033,117125,1005,1672.6838829517365,30.975955963134766,-31.36326026916504,4.2379069328308105,0.15
116,MetaDrive-test-combined-actor-loss,69,134.46140748315926,118293,1011,1690.1896131038666,37.12794494628906,-38.002655029296875,4.460216522216797,0.16
117,MetaDrive-test-combined-actor-loss,69,138.7213967397504,119449,1015,1707.3435728549957,33.89047622680664,-34.41736602783203,6.184877395629883,0.17
118,MetaDrive-test-combined-actor-loss,69,140.4233708272136,120183,1018,1718.307946920395,33.408424377441406,-34.05360412597656,6.812006950378418,0.18
119,MetaDrive-test-combined-actor-loss,69,138.48032667563118,121031,1022,1730.5409560203552,33.336761474609375,-33.572227478027344,3.3639745712280273,0.17
120,MetaDrive-test-combined-actor-loss,69,133.04020094544617,122024,1029,1744.9117670059204,33.73550796508789,,5.8658294677734375,0.16
121,MetaDrive-test-combined-actor-loss,69,133.56699061470735,123900,1035,1773.9120490550995,35.64748764038086,,31.991100311279297,0.15
122,MetaDrive-test-combined-actor-loss,69,132.2831608573089,124096,1037,1776.8206901550293,33.71345138549805,,32.156768798828125,0.15
123,MetaDrive-test-combined-actor-loss,69,132.25392963377166,125020,1043,1790.730749130249,34.639652252197266,,5.614401817321777,0.15
124,MetaDrive-test-combined-actor-loss,69,128.86497601039707,126033,1048,1805.8144721984863,33.50223159790039,-34.11652374267578,5.958797454833984,0.14
125,MetaDrive-test-combined-actor-loss,69,132.7082984185092,127340,1054,1825.662201166153,35.82978439331055,,3.50174617767334,0.15
126,MetaDrive-test-combined-actor-loss,69,131.5477950074347,128160,1058,1838.951592206955,35.08098220825195,,10.136981964111328,0.14
127,MetaDrive-test-combined-actor-loss,69,138.11779098781392,129396,1061,1855.919144153595,32.59508514404297,,10.813728332519531,0.17
128,MetaDrive-test-combined-actor-loss,69,140.53439706148478,130114,1064,1866.7523171901703,38.498741149902344,,5.102547645568848,0.17
129,MetaDrive-test-combined-actor-loss,69,137.47193329635024,131262,1069,1883.9823861122131,36.02227020263672,,12.135927200317383,0.16
130,MetaDrive-test-combined-actor-loss,69,138.61629788607698,132034,1072,1894.9601430892944,30.954330444335938,,36.90245819091797,0.16
131,MetaDrive-test-combined-actor-loss,69,139.2894454767211,133965,1078,1926.2644882202148,35.05156707763672,-35.41938781738281,64.77635955810547,0.14
132,MetaDrive-test-combined-actor-loss,69,138.3655689418514,134063,1079,1927.7102019786835,37.79758071899414,-37.906585693359375,6.303703308105469,0.14
133,MetaDrive-test-combined-actor-loss,69,142.95322044327074,135129,1083,1943.7029099464417,39.56708908081055,-40.00812911987305,5.172684669494629,0.15
134,MetaDrive-test-combined-actor-loss,69,133.50128797552622,136075,1090,1957.292473077774,34.380374908447266,-36.601722717285156,40.10071563720703,0.12
135,MetaDrive-test-combined-actor-loss,69,131.90610256969444,137107,1097,1972.36230802536,39.239662170410156,-38.47772216796875,9.094526290893555,0.11
136,MetaDrive-test-combined-actor-loss,69,133.36463818842054,138247,1102,1989.564211845398,38.764686584472656,-39.00788116455078,6.866072654724121,0.11
137,MetaDrive-test-combined-actor-loss,69,135.80788904816677,139350,1105,2008.1556949615479,38.42887878417969,,28.670713424682617,0.12
138,MetaDrive-test-combined-actor-loss,69,137.80364387445965,140103,1107,2019.647777080536,35.9127311706543,-36.42298126220703,18.122310638427734,0.13
139,MetaDrive-test-combined-actor-loss,69,141.04963553935227,141323,1111,2038.0974371433258,36.14337158203125,-36.910194396972656,22.82373046875,0.13
140,MetaDrive-test-combined-actor-loss,69,143.91778459303296,142581,1114,2056.8094749450684,35.88892364501953,-37.0948486328125,30.974212646484375,0.14
141,MetaDrive-test-combined-actor-loss,69,143.65112960365622,143228,1117,2066.4278361797333,37.090763092041016,,7.798036575317383,0.13
142,MetaDrive-test-combined-actor-loss,69,139.4834154402781,144083,1123,2079.1038870811462,35.298770904541016,-36.293128967285156,47.46244430541992,0.12
143,MetaDrive-test-combined-actor-loss,69,143.68106132548607,145408,1127,2099.8358829021454,37.54875564575195,,2.763988971710205,0.12
144,MetaDrive-test-combined-actor-loss,69,145.03202177945147,146202,1131,2111.442659139633,39.44199752807617,,39.131324768066406,0.13
145,MetaDrive-test-combined-actor-loss,69,145.2587672526956,147097,1135,2124.5613000392914,36.997657775878906,-37.50837707519531,5.8555803298950195,0.14
146,MetaDrive-test-combined-actor-loss,69,145.70143160312438,148031,1139,2138.5119280815125,40.304927825927734,-40.409584045410156,10.22546100616455,0.14
147,MetaDrive-test-combined-actor-loss,69,148.7747470060236,149332,1146,2157.1801760196686,38.052772521972656,,6.595677852630615,0.14
148,MetaDrive-test-combined-actor-loss,69,150.2569303778743,150852,1149,2180.76336812973,36.83642578125,,12.805316925048828,0.14
149,MetaDrive-test-combined-actor-loss,69,149.63466370360507,151034,1150,2183.811397075653,39.269630432128906,,13.253767013549805,0.14
150,MetaDrive-test-combined-actor-loss,69,151.84081414623085,152080,1154,2200.191416978836,35.50619125366211,,50.865421295166016,0.14
151,MetaDrive-test-combined-actor-loss,69,152.48222485145322,153220,1158,2218.5875041484833,38.8029899597168,,5.420110702514648,0.15
152,MetaDrive-test-combined-actor-loss,68,151.99961983309922,154221,1159,2237.572559118271,38.99262237548828,-38.969635009765625,4.12100076675415,0.14
153,MetaDrive-test-combined-actor-loss,68,149.31661586546934,155143,1162,2252.427320957184,39.96833801269531,-39.94139862060547,27.08919906616211,0.12
154,MetaDrive-test-combined-actor-loss,68,151.50898477836716,156549,1166,2273.8200550079346,35.0440559387207,-34.97251892089844,79.81169128417969,0.14
155,MetaDrive-test-combined-actor-loss,68,146.70213738985484,157065,1170,2281.707874059677,37.42131042480469,-38.6971435546875,5.599250793457031,0.13
156,MetaDrive-test-combined-actor-loss,68,146.2081641088151,158498,1173,2305.0168850421906,40.983314514160156,,7.303706169128418,0.13
157,MetaDrive-test-combined-actor-loss,68,148.21315669708892,159615,1177,2322.8215470314026,40.704566955566406,-41.18955993652344,14.876218795776367,0.14
158,MetaDrive-test-combined-actor-loss,68,146.71089668579114,160025,1178,2329.2814531326294,37.861515045166016,-39.26690673828125,7.632073402404785,0.14
159,MetaDrive-test-combined-actor-loss,68,145.18039498172172,161283,1184,2348.492392063141,36.65315246582031,-36.85536193847656,4.662012100219727,0.13
160,MetaDrive-test-combined-actor-loss,68,147.94412589246463,162885,1187,2376.6466920375824,38.83327865600586,-38.64341735839844,20.90656089782715,0.13
161,MetaDrive-test-combined-actor-loss,68,148.77734975195338,163258,1189,2382.711186170578,35.88323974609375,,3.635404348373413,0.13
162,MetaDrive-test-combined-actor-loss,68,153.9082345975724,164358,1191,2400.3038482666016,40.663665771484375,,8.739713668823242,0.15
163,MetaDrive-test-combined-actor-loss,68,153.65058664203153,165006,1196,2410.9124772548676,40.207923889160156,,6.409072399139404,0.16
164,MetaDrive-test-combined-actor-loss,68,154.5253847051432,166043,1200,2429.2727642059326,38.504520416259766,-39.58324432373047,8.98412799835205,0.17
165,MetaDrive-test-combined-actor-loss,68,154.10978446494155,167130,1204,2445.926868915558,35.710227966308594,,18.402252197265625,0.17
166,MetaDrive-test-combined-actor-loss,68,150.10439093260769,168077,1207,2460.8366510868073,42.21984100341797,-42.55061721801758,4.560576915740967,0.16
167,MetaDrive-test-combined-actor-loss,68,150.12088304881692,169794,1211,2489.2553992271423,45.38340377807617,,4.376869201660156,0.17
168,MetaDrive-test-combined-actor-loss,68,148.1372879797245,170050,1213,2493.1998682022095,37.7868766784668,,33.047889709472656,0.16
169,MetaDrive-test-combined-actor-loss,68,149.29260714061556,171484,1217,2517.87282204628,39.22343826293945,,7.959685325622559,0.17
170,MetaDrive-test-combined-actor-loss,68,149.68131700730487,172183,1221,2530.111659049988,41.55923080444336,-43.092918395996094,22.905624389648438,0.17
171,MetaDrive-test-combined-actor-loss,67,153.99907877683592,173008,1222,2544.776153087616,38.98075485229492,,11.186598777770996,0.18
172,MetaDrive-test-combined-actor-loss,67,156.3789008720376,174061,1224,2564.282718896866,39.822471618652344,-39.6138801574707,6.8567986488342285,0.19
173,MetaDrive-test-combined-actor-loss,67,159.2715328545784,175047,1226,2579.6646060943604,40.6146240234375,-41.252479553222656,6.22284460067749,0.21
174,MetaDrive-test-combined-actor-loss,67,162.46551512676274,176471,1228,2605.38978099823,39.911094665527344,-39.47229766845703,7.358659744262695,0.23
175,MetaDrive-test-combined-actor-loss,67,161.47789337050946,177090,1231,2617.9772231578827,36.67570495605469,,8.0805082321167,0.23
176,MetaDrive-test-combined-actor-loss,67,159.07135890612517,178466,1236,2639.2533559799194,35.12348556518555,,61.83360290527344,0.22
177,MetaDrive-test-combined-actor-loss,67,163.87119439317902,179669,1238,2658.4618480205536,40.81172561645508,-41.45404815673828,4.507734298706055,0.23
178,MetaDrive-test-combined-actor-loss,67,161.3056531893197,180338,1240,2669.206566095352,38.883811950683594,,15.350643157958984,0.22
179,MetaDrive-test-combined-actor-loss,67,166.42271011830633,181359,1242,2684.840831041336,37.80609130859375,-37.71865463256836,13.908197402954102,0.24
180,MetaDrive-test-combined-actor-loss,67,169.15709617101894,182046,1244,2694.9241230487823,38.29090881347656,,11.428218841552734,0.25
181,MetaDrive-test-combined-actor-loss,67,171.80160586962418,183014,1247,2709.4785199165344,37.74013137817383,,8.853296279907227,0.27
182,MetaDrive-test-combined-actor-loss,67,167.56857749736469,184206,1252,2727.61461186409,39.75410842895508,,5.416799545288086,0.27
183,MetaDrive-test-combined-actor-loss,67,171.32589573231908,185665,1254,2750.1443979740143,37.44072341918945,-37.47171401977539,8.258245468139648,0.28
184,MetaDrive-test-combined-actor-loss,67,169.24078835226527,186004,1257,2755.3646619319916,41.77217483520508,,7.570538520812988,0.27
185,MetaDrive-test-combined-actor-loss,67,169.04245270973828,187058,1260,2770.7223069667816,38.5271110534668,,77.44998168945312,0.29
186,MetaDrive-test-combined-actor-loss,67,171.58331475567869,188275,1263,2789.194412946701,39.02615737915039,-40.22287368774414,22.64690399169922,0.3
187,MetaDrive-test-combined-actor-loss,67,173.44793608178057,189254,1264,2804.3267431259155,38.57707977294922,,4.475362777709961,0.3
188,MetaDrive-test-combined-actor-loss,67,175.76953623051577,190458,1267,2822.452679157257,38.95588302612305,,13.054214477539062,0.31
189,MetaDrive-test-combined-actor-loss,67,179.014989908009,191801,1269,2845.2867720127106,40.27111053466797,-40.63105010986328,5.808398723602295,0.31
190,MetaDrive-test-combined-actor-loss,67,181.03749453714528,192190,1270,2851.1227130889893,39.43097686767578,,8.4952974319458,0.32
191,MetaDrive-test-combined-actor-loss,67,182.7510183823531,193549,1274,2872.26651597023,42.381690979003906,-42.54298782348633,15.281625747680664,0.33
192,MetaDrive-test-combined-actor-loss,67,180.4702906246061,194811,1277,2892.027951002121,38.176597595214844,-37.82508087158203,13.24498462677002,0.32
193,MetaDrive-test-combined-actor-loss,67,179.42902744462265,195102,1279,2896.014629125595,39.916019439697266,,78.14205932617188,0.32
194,MetaDrive-test-combined-actor-loss,67,181.4393830675715,196059,1282,2910.229714155197,43.83091354370117,-44.900733947753906,7.733572006225586,0.33
195,MetaDrive-test-combined-actor-loss,67,178.80167117488054,197252,1287,2928.442961215973,37.18186950683594,,19.741100311279297,0.34
196,MetaDrive-test-combined-actor-loss,67,181.18827788543223,198009,1289,2939.964774131775,41.469703674316406,-42.49736785888672,4.027988433837891,0.34
197,MetaDrive-test-combined-actor-loss,67,179.82612740490768,199038,1291,2955.0737719535828,40.36368942260742,,9.479339599609375,0.34
198,MetaDrive-test-combined-actor-loss,67,181.90082835648525,200039,1292,2972.470696926117,38.025447845458984,-38.90940475463867,17.838886260986328,0.34
199,MetaDrive-test-combined-actor-loss,67,188.02748910887945,201263,1295,2991.977399110794,41.34257507324219,-41.96704864501953,6.933645248413086,0.36
200,MetaDrive-test-combined-actor-loss,67,187.38919039803812,202249,1297,3007.5120980739594,37.5138053894043,-37.88677215576172,14.036094665527344,0.35
201,MetaDrive-test-combined-actor-loss,67,188.62771462043042,203018,1300,3020.760549068451,41.47640609741211,,4.454067707061768,0.35
202,MetaDrive-test-combined-actor-loss,67,185.14724067579928,204216,1307,3039.0422241687775,38.16712188720703,,7.85289192199707,0.34
203,MetaDrive-test-combined-actor-loss,67,187.2838632473114,205433,1309,3057.237116098404,38.19071960449219,-39.04063415527344,7.417614936828613,0.35
204,MetaDrive-test-combined-actor-loss,67,188.62979554005076,206188,1311,3069.170298099518,39.12004852294922,,9.98525333404541,0.35
205,MetaDrive-test-combined-actor-loss,67,186.76795519989884,207132,1316,3082.7590901851654,39.25730895996094,,34.572776794433594,0.35
206,MetaDrive-test-combined-actor-loss,67,187.6488261314036,208090,1319,3097.2107009887695,37.29341506958008,,6.157994270324707,0.36
207,MetaDrive-test-combined-actor-loss,67,182.17212397104876,209137,1323,3112.078339099884,39.71306228637695,-39.77874755859375,9.201594352722168,0.36
208,MetaDrive-test-combined-actor-loss,67,171.35267508722595,210101,1329,3126.363422870636,38.69971466064453,-39.41135025024414,3.514227867126465,0.32
209,MetaDrive-test-combined-actor-loss,67,174.7219468378403,211048,1332,3141.1089310646057,36.37910842895508,,29.437744140625,0.33
210,MetaDrive-test-combined-actor-loss,67,174.84051975041976,212248,1337,3158.5130648612976,38.12538528442383,,3.4699816703796387,0.33
211,MetaDrive-test-combined-actor-loss,67,174.34280245328867,213043,1340,3170.587146997452,40.104217529296875,-40.46460723876953,17.136188507080078,0.33
212,MetaDrive-test-combined-actor-loss,67,170.6484983475194,214180,1344,3187.6461129188538,40.247764587402344,,5.421911239624023,0.32
213,MetaDrive-test-combined-actor-loss,67,171.0501869378133,215180,1346,3203.6034059524536,40.65753173828125,,5.843487739562988,0.32
214,MetaDrive-test-combined-actor-loss,67,173.7192390044529,216340,1349,3222.1050641536713,38.673744201660156,,10.033798217773438,0.33
215,MetaDrive-test-combined-actor-loss,67,167.59817477566412,217097,1354,3233.114047050476,37.433834075927734,-38.57073211669922,9.11729621887207,0.31
216,MetaDrive-test-combined-actor-loss,67,171.14836316616467,218101,1358,3248.1707220077515,38.952659606933594,-41.173160552978516,12.42782211303711,0.32
217,MetaDrive-test-combined-actor-loss,67,171.77862189251184,219471,1361,3270.1998529434204,41.017086029052734,-41.32312774658203,70.8155746459961,0.32
218,MetaDrive-test-combined-actor-loss,67,163.7959413650746,220029,1364,3278.916321992874,38.757720947265625,-39.42293167114258,84.88517761230469,0.29
219,MetaDrive-test-combined-actor-loss,67,162.50633593091956,221176,1368,3296.9527060985565,39.839195251464844,,7.127237319946289,0.29
220,MetaDrive-test-combined-actor-loss,67,161.47428832371918,222667,1370,3320.2949731349945,37.2686767578125,-37.24665832519531,5.110069751739502,0.29
221,MetaDrive-test-combined-actor-loss,67,162.11517057824068,223019,1371,3325.2496650218964,40.16225814819336,-41.05103302001953,5.661679267883301,0.3
222,MetaDrive-test-combined-actor-loss,67,162.28541386940884,224292,1377,3344.3617930412292,39.010677337646484,,7.260063171386719,0.3
223,MetaDrive-test-combined-actor-loss,67,166.00350988847538,225147,1379,3358.5924899578094,40.979068756103516,-41.08020782470703,17.575693130493164,0.3
224,MetaDrive-test-combined-actor-loss,67,165.33563853945492,226148,1380,3374.7248680591583,42.09819793701172,,12.268707275390625,0.3
225,MetaDrive-test-combined-actor-loss,67,167.54839107972407,227440,1383,3393.674638032913,36.00794982910156,,28.532642364501953,0.31
226,MetaDrive-test-combined-actor-loss,66,170.83729105210557,228143,1385,3405.381742954254,38.9117431640625,-39.43909454345703,6.258066177368164,0.31
227,MetaDrive-test-combined-actor-loss,66,171.02270238313088,229090,1387,3422.0013041496277,36.728309631347656,,15.852910041809082,0.3
228,MetaDrive-test-combined-actor-loss,66,171.34505327309336,230279,1390,3440.979073047638,42.20336151123047,-42.321563720703125,15.26832103729248,0.3
229,MetaDrive-test-combined-actor-loss,66,169.39018437125205,231021,1392,3453.1077868938446,40.383750915527344,-41.145896911621094,7.012294769287109,0.3
230,MetaDrive-test-combined-actor-loss,66,165.13920956014564,232633,1396,3482.1034631729126,39.32404327392578,-40.14514923095703,40.218544006347656,0.27
231,MetaDrive-test-combined-actor-loss,66,163.66861282322955,233212,1398,3491.4678630828857,35.89669418334961,,9.729480743408203,0.27
232,MetaDrive-test-combined-actor-loss,66,166.84398461894165,234389,1401,3509.7779948711395,39.3388557434082,-40.36398696899414,9.429496765136719,0.28
233,MetaDrive-test-combined-actor-loss,66,172.94702966789603,235467,1403,3527.0541501045227,39.319618225097656,-40.15966033935547,47.555152893066406,0.29
234,MetaDrive-test-combined-actor-loss,66,175.815776089023,236259,1404,3539.954206943512,40.4561653137207,-40.41517639160156,21.58264923095703,0.3
235,MetaDrive-test-combined-actor-loss,66,177.42544999587236,237061,1407,3552.247567176819,39.022544860839844,-39.338932037353516,61.46220016479492,0.31
236,MetaDrive-test-combined-actor-loss,66,177.60180152396057,238264,1409,3572.5388462543488,38.002750396728516,,20.873931884765625,0.31
237,MetaDrive-test-combined-actor-loss,66,180.43432283578252,239205,1410,3590.684508085251,38.88682174682617,-38.930946350097656,17.873432159423828,0.31
238,MetaDrive-test-combined-actor-loss,66,184.55666967037558,240205,1413,3606.28892993927,35.07320785522461,-35.75556182861328,13.466861724853516,0.33
239,MetaDrive-test-combined-actor-loss,66,184.85789721938724,241183,1417,3621.6544930934906,37.979736328125,-38.56135559082031,12.011377334594727,0.33
240,MetaDrive-test-combined-actor-loss,66,187.79401042135393,242328,1419,3638.9551951885223,39.81476974487305,,33.653602600097656,0.34
241,MetaDrive-test-combined-actor-loss,66,190.63072082434013,243280,1422,3652.9806830883026,40.420562744140625,,27.620241165161133,0.35
242,MetaDrive-test-combined-actor-loss,66,190.64802602823585,244170,1424,3665.626449108124,41.5059700012207,,9.480388641357422,0.35
243,MetaDrive-test-combined-actor-loss,66,196.04436371041567,245343,1426,3684.570436000824,39.52568435668945,-38.77347946166992,10.254646301269531,0.37
244,MetaDrive-test-combined-actor-loss,66,198.42659732483736,246682,1428,3706.915248155594,39.42365264892578,,3.5698094367980957,0.37
245,MetaDrive-test-combined-actor-loss,66,201.03401081930727,247683,1429,3727.0769782066345,42.81828689575195,-44.49736404418945,7.22850227355957,0.37
246,MetaDrive-test-combined-actor-loss,66,201.2800524043014,248374,1430,3739.2167699337006,39.18014907836914,,4.366792678833008,0.37
247,MetaDrive-test-combined-actor-loss,66,205.3810621211822,249340,1431,3756.057603120804,37.68743133544922,,48.51332092285156,0.38
248,MetaDrive-test-combined-actor-loss,66,207.6683021593005,250179,1433,3771.6568281650543,37.164451599121094,-37.34049987792969,3.652203321456909,0.38
249,MetaDrive-test-combined-actor-loss,66,209.66712596606487,251180,1434,3792.8977909088135,39.104984283447266,,8.912736892700195,0.38
250,MetaDrive-test-combined-actor-loss,66,211.78184065140172,252761,1437,3820.4268260002136,39.46674728393555,-38.909847259521484,14.845443725585938,0.38
251,MetaDrive-test-combined-actor-loss,66,211.53765587453196,253467,1440,3830.83660197258,39.61014175415039,-40.06694030761719,8.969608306884766,0.39
252,MetaDrive-test-combined-actor-loss,66,211.9366560630445,254091,1442,3839.954498052597,35.412933349609375,-36.29783630371094,23.904338836669922,0.39
253,MetaDrive-test-combined-actor-loss,66,215.859552815789,255704,1445,3868.4193720817566,38.24788284301758,,11.142080307006836,0.39
254,MetaDrive-test-combined-actor-loss,66,216.59799170433888,256112,1446,3875.226329088211,36.81281280517578,,6.349369049072266,0.4
255,MetaDrive-test-combined-actor-loss,66,215.45750631647493,257187,1449,3893.2135570049286,42.90977478027344,-43.660728454589844,8.462235450744629,0.39
256,MetaDrive-test-combined-actor-loss,66,220.8275223513982,258319,1451,3911.9763650894165,41.177513122558594,-41.18895721435547,11.283758163452148,0.41
257,MetaDrive-test-combined-actor-loss,66,222.9709537612966,259049,1454,3924.671091079712,40.126346588134766,-41.5845832824707,11.01865291595459,0.42
258,MetaDrive-test-combined-actor-loss,65,225.9285199419914,260166,1457,3943.221309185028,37.590370178222656,,4.246485710144043,0.42
259,MetaDrive-test-combined-actor-loss,65,225.54138227433887,261201,1460,3961.242954969406,37.58319091796875,-37.38505172729492,6.820647239685059,0.43
260,MetaDrive-test-combined-actor-loss,65,226.16767347786194,262042,1462,3976.4316561222076,37.2567253112793,,7.010319709777832,0.43
261,MetaDrive-test-combined-actor-loss,65,229.528903323682,263531,1464,4001.9780991077423,36.14719009399414,-36.262901306152344,4.604018211364746,0.44
262,MetaDrive-test-combined-actor-loss,65,231.9108916641388,264044,1465,4010.692453145981,37.844200134277344,,8.480696678161621,0.45
263,MetaDrive-test-combined-actor-loss,65,231.1198425748463,265045,1466,4027.145632982254,37.917694091796875,-39.56658172607422,11.594932556152344,0.44
264,MetaDrive-test-combined-actor-loss,65,234.35419922831997,266169,1468,4047.1472549438477,39.391170501708984,-39.931114196777344,5.621360778808594,0.44
265,MetaDrive-test-combined-actor-loss,65,235.1464210245621,267170,1469,4065.7028789520264,40.98283386230469,,30.750503540039062,0.43
266,MetaDrive-test-combined-actor-loss,65,236.1690054559323,268271,1471,4088.307221889496,36.21467208862305,-37.387428283691406,12.718791961669922,0.42
267,MetaDrive-test-combined-actor-loss,65,240.58223514328824,269059,1473,4101.351760149002,41.21066665649414,-41.457950592041016,3.94449782371521,0.44
268,MetaDrive-test-combined-actor-loss,65,243.7050736588143,270827,1475,4129.283342123032,36.60661697387695,-37.706886291503906,6.467460632324219,0.45
269,MetaDrive-test-combined-actor-loss,65,243.98409342622656,271121,1476,4134.290004014969,33.483551025390625,-33.30963897705078,7.130894184112549,0.45
270,MetaDrive-test-combined-actor-loss,65,245.02749393325973,272059,1478,4148.301800966263,41.45689392089844,-41.72102355957031,9.694501876831055,0.46
271,MetaDrive-test-combined-actor-loss,65,243.4969043540841,273128,1481,4166.716428041458,36.86487579345703,,8.832853317260742,0.46
272,MetaDrive-test-combined-actor-loss,65,242.99950716915075,274008,1484,4179.972301006317,40.4799690246582,,70.68204498291016,0.46
273,MetaDrive-test-combined-actor-loss,65,242.56790951903426,275009,1485,4197.186797142029,38.871158599853516,-39.075950622558594,7.335591793060303,0.46
274,MetaDrive-test-combined-actor-loss,65,244.09353775536044,276284,1487,4219.100977182388,37.557132720947266,,12.246376991271973,0.47
275,MetaDrive-test-combined-actor-loss,65,243.4265115977959,277012,1488,4232.037476062775,39.20442199707031,,4.87984561920166,0.47
276,MetaDrive-test-combined-actor-loss,65,243.84983853167031,278272,1491,4253.5748500823975,39.769779205322266,,6.2343292236328125,0.48
277,MetaDrive-test-combined-actor-loss,65,246.73687321713135,279091,1493,4266.705877065659,38.51871109008789,-38.87173843383789,9.9502592086792,0.49
278,MetaDrive-test-combined-actor-loss,65,249.5075308256238,280301,1495,4290.727543115616,39.276309967041016,-39.78681945800781,14.475876808166504,0.49
279,MetaDrive-test-combined-actor-loss,65,248.074542448924,281026,1497,4302.250754117966,39.49311828613281,,6.316427230834961,0.5
280,MetaDrive-test-combined-actor-loss,65,248.62017174497777,282689,1501,4332.263773202896,40.20714569091797,-40.319000244140625,8.098092079162598,0.5
281,MetaDrive-test-combined-actor-loss,65,248.32078408712698,283690,1502,4352.294675111771,42.11609649658203,,7.738840579986572,0.5
282,MetaDrive-test-combined-actor-loss,65,244.26358682642456,284805,1504,4371.60563492775,36.99277877807617,-37.52371597290039,19.727611541748047,0.49
283,MetaDrive-test-combined-actor-loss,65,246.11336793636187,285141,1505,4376.463285923004,38.29295349121094,-38.111480712890625,8.553200721740723,0.5
284,MetaDrive-test-combined-actor-loss,65,247.83593263676747,286124,1507,4393.501554250717,41.79474639892578,,6.308312892913818,0.5
285,MetaDrive-test-combined-actor-loss,65,247.44542550890276,287167,1509,4411.713238954544,40.073726654052734,-41.27477264404297,8.418545722961426,0.5
286,MetaDrive-test-combined-actor-loss,65,245.38141110600228,288031,1510,4425.725394248962,40.29930877685547,-40.42842102050781,8.698274612426758,0.5
287,MetaDrive-test-combined-actor-loss,65,246.834311223213,289008,1511,4444.118705034256,45.25592803955078,,4.949352264404297,0.5
288,MetaDrive-test-combined-actor-loss,64,247.8417049567003,290019,1513,4461.939807891846,39.43179702758789,-40.131568908691406,7.988478660583496,0.5
289,MetaDrive-test-combined-actor-loss,64,252.34753516684222,291052,1516,4479.033536911011,40.13706588745117,,75.73239135742188,0.52
290,MetaDrive-test-combined-actor-loss,64,253.7519656112641,292053,1517,4500.021785974503,40.27751541137695,-39.90092468261719,7.539438247680664,0.51
291,MetaDrive-test-combined-actor-loss,64,250.0898797071413,293232,1521,4520.845050096512,40.86323165893555,,31.56493377685547,0.48
292,MetaDrive-test-combined-actor-loss,64,253.15543713807799,294637,1523,4544.533705949783,40.32512283325195,-41.19183349609375,15.632890701293945,0.47
293,MetaDrive-test-combined-actor-loss,64,252.81892913929266,295074,1524,4551.572307109833,41.09856033325195,,9.493085861206055,0.47
294,MetaDrive-test-combined-actor-loss,64,253.5197481205851,296316,1526,4573.850383043289,40.442874908447266,,4.675490856170654,0.47
295,MetaDrive-test-combined-actor-loss,64,254.55499724850216,297111,1528,4587.108996152878,38.308963775634766,-39.28399658203125,7.537643909454346,0.48
296,MetaDrive-test-combined-actor-loss,64,249.4403642606026,298202,1531,4605.520472049713,37.76580810546875,,16.46255111694336,0.48
297,MetaDrive-test-combined-actor-loss,64,251.69122139007843,299731,1533,4635.293883085251,40.19114685058594,-39.681190490722656,6.338184356689453,0.49
298,MetaDrive-test-combined-actor-loss,64,248.97282893337962,300693,1534,4651.757189035416,38.98460388183594,-40.2220573425293,8.176740646362305,0.49
299,MetaDrive-test-combined-actor-loss,64,247.26144054133897,301016,1536,4656.821870088577,40.46538162231445,,65.09464263916016,0.48
300,MetaDrive-test-combined-actor-loss,64,245.44298039773108,302017,1537,4673.987109184265,37.55002975463867,-37.96027374267578,10.65073013305664,0.48
301,MetaDrive-test-combined-actor-loss,64,249.9123787856497,303310,1539,4696.410495042801,39.31710433959961,,7.651307106018066,0.49
302,MetaDrive-test-combined-actor-loss,64,249.02901683433305,304393,1541,4716.973992824554,42.202945709228516,-42.7928466796875,7.772009372711182,0.48
303,MetaDrive-test-combined-actor-loss,64,251.9359802803058,305050,1542,4728.741170167923,37.96562194824219,,78.37135314941406,0.49
304,MetaDrive-test-combined-actor-loss,64,253.98138143553325,306234,1544,4747.961119890213,38.35942077636719,,20.761945724487305,0.5
305,MetaDrive-test-combined-actor-loss,64,253.48683064430116,307473,1546,4770.6942892074585,35.906620025634766,-36.93463134765625,77.64118194580078,0.5
306,MetaDrive-test-combined-actor-loss,64,255.1370803701273,308200,1547,4784.7202360630035,40.22260284423828,,7.444890975952148,0.5
307,MetaDrive-test-combined-actor-loss,64,259.1652197740426,309361,1549,4805.624115943909,40.70997619628906,-40.97406005859375,4.600887298583984,0.52
308,MetaDrive-test-combined-actor-loss,64,259.3616964682893,310039,1550,4816.258805036545,38.4926643371582,-39.86103820800781,14.980964660644531,0.52
309,MetaDrive-test-combined-actor-loss,64,261.72312770887015,311306,1553,4839.134069919586,39.43828582763672,,6.1603498458862305,0.52
310,MetaDrive-test-combined-actor-loss,64,262.3517109924822,312307,1554,4862.469811201096,37.55967712402344,-37.65618896484375,3.8341152667999268,0.51
311,MetaDrive-test-combined-actor-loss,64,261.533492782736,313106,1555,4875.983955144882,40.83186340332031,,6.560449123382568,0.51
312,MetaDrive-test-combined-actor-loss,64,263.08973172805713,314606,1558,4901.65953707695,37.79925537109375,,14.222061157226562,0.52
313,MetaDrive-test-combined-actor-loss,64,264.88185625330254,315607,1559,4919.691845178604,41.1381950378418,-41.657470703125,3.794577121734619,0.52
314,MetaDrive-test-combined-actor-loss,64,264.73553039065894,316182,1560,4929.525141000748,39.53171920776367,,7.384914875030518,0.52
315,MetaDrive-test-combined-actor-loss,64,266.23783268344937,317195,1562,4946.135270118713,38.73912811279297,-38.625003814697266,11.727338790893555,0.53
316,MetaDrive-test-combined-actor-loss,64,265.49026920190903,318641,1565,4972.963132143021,42.138370513916016,-42.573707580566406,11.59886646270752,0.53
317,MetaDrive-test-combined-actor-loss,64,266.02908570059134,319043,1566,4980.058590173721,40.62615203857422,-41.61116027832031,7.602949142456055,0.54
318,MetaDrive-test-combined-actor-loss,63,265.63582348255505,320959,1569,5018.426172018051,38.00197219848633,-37.531166076660156,33.43083953857422,0.55
319,MetaDrive-test-combined-actor-loss,63,268.3631578881044,321668,1570,5031.658196926117,43.30653762817383,,6.941195487976074,0.56
320,MetaDrive-test-combined-actor-loss,63,266.77133571223595,322086,1571,5038.269984960556,39.73635482788086,,17.205909729003906,0.57
321,MetaDrive-test-combined-actor-loss,63,264.4395784168037,323338,1574,5057.7542979717255,38.49539566040039,,44.183815002441406,0.55
322,MetaDrive-test-combined-actor-loss,63,268.5025797229973,324768,1576,5082.046684026718,38.55461883544922,,14.028385162353516,0.57
323,MetaDrive-test-combined-actor-loss,63,269.48110227422944,325756,1577,5099.601846933365,41.102149963378906,,5.5908308029174805,0.57
324,MetaDrive-test-combined-actor-loss,63,271.570860435397,326474,1578,5113.186018943787,38.53337860107422,,6.290999889373779,0.57
325,MetaDrive-test-combined-actor-loss,63,272.4829559945916,327216,1579,5126.579806089401,42.11465835571289,,34.148136138916016,0.57
326,MetaDrive-test-combined-actor-loss,63,275.6371225531118,328375,1581,5147.013200044632,37.33784103393555,-37.374534606933594,6.595459938049316,0.58
327,MetaDrive-test-combined-actor-loss,63,280.95933470924075,329622,1583,5171.367383956909,42.682884216308594,,7.054889678955078,0.6
328,MetaDrive-test-combined-actor-loss,63,281.6631621514704,330483,1584,5186.933569908142,43.36486053466797,-43.887451171875,4.232912063598633,0.6
329,MetaDrive-test-combined-actor-loss,63,283.0479935897729,331538,1586,5206.8227660655975,43.349273681640625,,10.166280746459961,0.61
330,MetaDrive-test-combined-actor-loss,63,278.44718613137127,332041,1588,5215.753459215164,38.66969680786133,-39.54084014892578,9.700946807861328,0.6
331,MetaDrive-test-combined-actor-loss,63,280.64782726577613,333101,1590,5235.121110916138,41.38750076293945,-42.27488327026367,80.13780212402344,0.61
332,MetaDrive-test-combined-actor-loss,63,281.06760034964236,334476,1593,5260.057773113251,36.058387756347656,,6.774204254150391,0.6
333,MetaDrive-test-combined-actor-loss,63,280.815482643901,335243,1595,5273.641522169113,40.482810974121094,-40.63319396972656,5.475266933441162,0.61
334,MetaDrive-test-combined-actor-loss,63,282.2213944178318,336110,1597,5289.251987218857,44.59871292114258,,9.117960929870605,0.61
335,MetaDrive-test-combined-actor-loss,63,284.7006932070176,337227,1599,5307.790025949478,38.986724853515625,-39.39793395996094,47.48548889160156,0.61
336,MetaDrive-test-combined-actor-loss,63,286.9028062944154,338491,1601,5332.296247005463,36.76143264770508,-37.299564361572266,7.332269191741943,0.62
337,MetaDrive-test-combined-actor-loss,63,287.81505584123124,339144,1602,5343.680467844009,42.71819305419922,,8.962359428405762,0.63
338,MetaDrive-test-combined-actor-loss,63,291.4262845652914,340308,1604,5363.318062067032,42.77079391479492,,7.363531112670898,0.64
339,MetaDrive-test-combined-actor-loss,63,291.19641940064344,341309,1605,5383.688568115234,39.528018951416016,-38.83197021484375,8.547277450561523,0.63
340,MetaDrive-test-combined-actor-loss,63,293.95515829338166,342115,1606,5399.970819950104,42.8182373046875,-43.21744155883789,5.890987396240234,0.64
341,MetaDrive-test-combined-actor-loss,63,291.49358119024424,343224,1608,5424.288213968277,40.91594696044922,,10.061529159545898,0.62
342,MetaDrive-test-combined-actor-loss,63,285.6047348191542,344244,1611,5441.348997116089,40.34170150756836,,6.9947285652160645,0.6
343,MetaDrive-test-combined-actor-loss,63,286.4040430658284,345179,1612,5459.079149961472,41.39390563964844,-42.35400390625,7.057508945465088,0.6
344,MetaDrive-test-combined-actor-loss,63,285.18973806626536,346003,1615,5474.194089889526,42.92708206176758,-43.741310119628906,9.240676879882812,0.6
345,MetaDrive-test-combined-actor-loss,63,283.92109684478146,347360,1618,5497.651929140091,40.757904052734375,,64.17481994628906,0.61
346,MetaDrive-test-combined-actor-loss,63,285.9870874356892,348574,1620,5523.108934164047,39.84285354614258,,6.603053092956543,0.61
347,MetaDrive-test-combined-actor-loss,63,284.81179845992557,349375,1622,5537.907051086426,42.57355499267578,-42.447296142578125,10.169204711914062,0.61
348,MetaDrive-test-combined-actor-loss,63,282.13714560365037,350057,1624,5550.393388032913,43.20061111450195,-44.93320846557617,10.375632286071777,0.61
349,MetaDrive-test-combined-actor-loss,63,280.3831920272701,351430,1627,5574.183638095856,44.47362518310547,,8.435604095458984,0.6
350,MetaDrive-test-combined-actor-loss,63,282.6984481297333,352564,1629,5595.864186048508,42.08411407470703,,6.763541221618652,0.6
351,MetaDrive-test-combined-actor-loss,62,284.617987449486,353058,1630,5606.103451013565,41.08051300048828,,19.978923797607422,0.6
352,MetaDrive-test-combined-actor-loss,62,284.2971879083612,354028,1631,5624.411834001541,39.33156204223633,,11.588005065917969,0.59
353,MetaDrive-test-combined-actor-loss,62,284.9093996662683,355178,1633,5644.082813978195,37.045955657958984,,29.608707427978516,0.6
354,MetaDrive-test-combined-actor-loss,62,288.5497825046703,356276,1635,5663.141379117966,39.254825592041016,,19.817489624023438,0.62
355,MetaDrive-test-combined-actor-loss,62,293.5367992648488,357425,1637,5682.652294158936,38.91150665283203,-39.64574432373047,9.6801176071167,0.64
356,MetaDrive-test-combined-actor-loss,62,291.7594178452543,358933,1640,5711.013057947159,44.64729309082031,-44.110496520996094,4.959094047546387,0.63
357,MetaDrive-test-combined-actor-loss,62,288.6445485050121,359269,1641,5716.787718057632,44.869754791259766,-45.06548309326172,6.306968688964844,0.62
358,MetaDrive-test-combined-actor-loss,62,287.4644334947807,360463,1643,5738.4444699287415,41.90559387207031,-43.229801177978516,6.753017425537109,0.62
359,MetaDrive-test-combined-actor-loss,62,285.5823866401957,361429,1645,5755.988760948181,42.77411651611328,-43.24220275878906,6.025999069213867,0.61
360,MetaDrive-test-combined-actor-loss,62,283.4936960920267,362601,1647,5776.596215963364,41.203453063964844,-41.009002685546875,8.046594619750977,0.61
361,MetaDrive-test-combined-actor-loss,62,281.87148624760573,363624,1649,5795.142758131027,44.565093994140625,,14.469552993774414,0.6
362,MetaDrive-test-combined-actor-loss,62,282.79408441356924,364445,1650,5811.492560148239,39.962135314941406,-39.37220001220703,17.271167755126953,0.6
363,MetaDrive-test-combined-actor-loss,62,281.7582978975702,365175,1652,5825.544517993927,45.0518684387207,-45.78390884399414,6.427432060241699,0.59
364,MetaDrive-test-combined-actor-loss,62,284.8261454971913,366176,1653,5848.166000127792,40.70215606689453,,7.962274551391602,0.59
365,MetaDrive-test-combined-actor-loss,62,283.3460271465643,367927,1655,5876.990255117416,40.4410400390625,-40.57964324951172,7.760683059692383,0.59
366,MetaDrive-test-combined-actor-loss,62,284.7649545446439,368358,1656,5882.208158969879,42.36741638183594,,6.597719669342041,0.6
367,MetaDrive-test-combined-actor-loss,62,285.85336723527473,369147,1657,5893.54495716095,38.031471252441406,-38.49560546875,6.1627702713012695,0.6
368,MetaDrive-test-combined-actor-loss,62,283.9031765215141,370271,1660,5908.428830862045,42.72414016723633,-43.28546142578125,9.252388000488281,0.58
369,MetaDrive-test-combined-actor-loss,62,282.2133564153574,371244,1662,5920.822220087051,40.62647247314453,,12.714426040649414,0.56
370,MetaDrive-test-combined-actor-loss,62,281.85760575132883,372277,1665,5934.361617088318,43.36742401123047,-42.51814651489258,8.84544563293457,0.56
371,MetaDrive-test-combined-actor-loss,62,281.6561692339303,373375,1667,5948.3649570941925,42.960044860839844,-42.72650146484375,7.505908966064453,0.56
372,MetaDrive-test-combined-actor-loss,62,278.3516605172032,374991,1670,5970.664999246597,41.35393524169922,-41.812313079833984,7.788084506988525,0.55
373,MetaDrive-test-combined-actor-loss,62,279.3398004704792,375696,1671,5982.726718902588,43.42115020751953,,8.831233978271484,0.54
374,MetaDrive-test-combined-actor-loss,62,276.820679659473,376010,1673,5986.408663034439,49.04346466064453,,8.914249420166016,0.54
375,MetaDrive-test-combined-actor-loss,62,270.06459657081353,377382,1676,6005.119009971619,41.45598220825195,,10.145621299743652,0.51
376,MetaDrive-test-combined-actor-loss,62,262.22424269460834,378366,1679,6018.241213083267,42.95363998413086,,10.451492309570312,0.49
377,MetaDrive-test-combined-actor-loss,62,261.3282327325012,379063,1680,6026.977722167969,44.601707458496094,-44.87803649902344,20.515975952148438,0.49
378,MetaDrive-test-combined-actor-loss,62,255.29857877431525,380017,1683,6039.645732164383,42.0463752746582,-43.77033615112305,7.633224964141846,0.46
379,MetaDrive-test-combined-actor-loss,62,256.82971448265084,381202,1685,6054.596638202667,41.07612609863281,,7.499865531921387,0.47
380,MetaDrive-test-combined-actor-loss,62,256.7740828368718,382012,1687,6064.596349954605,45.05642318725586,,8.542745590209961,0.47
381,MetaDrive-test-combined-actor-loss,63,256.4936028516767,383113,1689,6079.062088251114,45.738037109375,-46.577362060546875,8.816102981567383,0.47
382,MetaDrive-test-combined-actor-loss,63,257.92390038850584,384078,1691,6091.435123920441,42.41851806640625,,5.939607620239258,0.47
383,MetaDrive-test-combined-actor-loss,63,257.4546939723642,385129,1693,6104.93631196022,41.638153076171875,-42.51594543457031,7.9744391441345215,0.47
384,MetaDrive-test-combined-actor-loss,63,261.125668386404,386633,1695,6126.35430598259,42.825103759765625,-43.90620803833008,9.223529815673828,0.48
385,MetaDrive-test-combined-actor-loss,63,259.3285392089036,387280,1697,6134.002864122391,38.299625396728516,,13.446885108947754,0.48
386,MetaDrive-test-combined-actor-loss,63,258.93800644828184,388280,1699,6145.714942932129,42.349124908447266,,7.433393478393555,0.49
387,MetaDrive-test-combined-actor-loss,63,259.509357017872,389027,1700,6154.6062960624695,44.48796844482422,-44.952545166015625,6.404025077819824,0.49
388,MetaDrive-test-combined-actor-loss,63,255.19903884831197,390257,1703,6170.283496141434,40.67034149169922,-39.69422912597656,10.820344924926758,0.48
389,MetaDrive-test-combined-actor-loss,63,256.0299771708863,391289,1705,6182.104247093201,41.37323760986328,-41.479461669921875,13.91482925415039,0.49
390,MetaDrive-test-combined-actor-loss,63,256.5111903802272,392201,1706,6194.8609790802,41.82777786254883,-41.39683151245117,15.157910346984863,0.49
391,MetaDrive-test-combined-actor-loss,63,257.99225211967166,393230,1708,6206.667865037918,42.199432373046875,,7.314530849456787,0.51
392,MetaDrive-test-combined-actor-loss,63,258.7402355612206,394076,1710,6215.998025894165,42.007442474365234,,9.798937797546387,0.52
393,MetaDrive-test-combined-actor-loss,63,258.6027475374115,395071,1713,6228.14661026001,45.59587097167969,-46.19818878173828,9.52631664276123,0.53
394,MetaDrive-test-combined-actor-loss,63,258.52901730200165,396456,1715,6243.155024051666,48.39734649658203,,7.3638105392456055,0.53
395,MetaDrive-test-combined-actor-loss,63,255.93115819992832,397104,1717,6251.1256980896,41.41573715209961,,7.276634216308594,0.52
396,MetaDrive-test-combined-actor-loss,63,253.5133549471268,398317,1721,6267.205528974533,44.55575942993164,-44.63494110107422,10.51871109008789,0.51
397,MetaDrive-test-combined-actor-loss,63,252.0096608331634,399413,1724,6280.459612131119,43.982330322265625,-44.961402893066406,8.304973602294922,0.5
398,MetaDrive-test-combined-actor-loss,63,251.63182699306964,400289,1726,6291.262891054153,45.7561149597168,-46.425437927246094,10.390585899353027,0.5
399,MetaDrive-test-combined-actor-loss,63,253.53290462467766,401389,1728,6305.29981303215,40.037132263183594,-40.90654754638672,7.996800899505615,0.5
400,MetaDrive-test-combined-actor-loss,63,251.97997428186216,402410,1730,6318.0961990356445,48.03996658325195,,5.406340599060059,0.5
401,MetaDrive-test-combined-actor-loss,63,252.34317545584614,403283,1731,6330.915652990341,42.49174880981445,-43.717716217041016,87.69722747802734,0.51
402,MetaDrive-test-combined-actor-loss,63,250.19738095988185,404067,1733,6340.638932943344,41.39263153076172,-42.16133117675781,21.521202087402344,0.5
403,MetaDrive-test-combined-actor-loss,63,247.96698981315222,405068,1734,6352.970499038696,41.27013397216797,,27.747493743896484,0.49
404,MetaDrive-test-combined-actor-loss,63,248.41998111970713,406348,1736,6368.173176050186,46.04591369628906,,6.101570129394531,0.49
405,MetaDrive-test-combined-actor-loss,63,248.00848929737526,407400,1738,6380.92320394516,42.99026107788086,,13.401372909545898,0.5
406,MetaDrive-test-combined-actor-loss,63,250.98540920857852,408255,1739,6391.811630010605,45.80120849609375,-45.819053649902344,14.314276695251465,0.51
407,MetaDrive-test-combined-actor-loss,63,244.8275940831952,409299,1744,6404.674426078796,43.37439727783203,-43.34825897216797,11.311311721801758,0.49
408,MetaDrive-test-combined-actor-loss,63,245.55084339305694,410391,1746,6417.19926905632,46.631591796875,-47.025543212890625,4.963732719421387,0.49
409,MetaDrive-test-combined-actor-loss,63,244.18227066168367,411163,1748,6425.8746111392975,45.66404724121094,-45.4659538269043,8.644495964050293,0.49
410,MetaDrive-test-combined-actor-loss,64,242.73413675766358,412613,1750,6445.948246955872,41.60997009277344,-42.04313659667969,7.174847602844238,0.48
411,MetaDrive-test-combined-actor-loss,64,244.83395864713893,413232,1751,6453.635092020035,40.38445281982422,,23.6409854888916,0.49
412,MetaDrive-test-combined-actor-loss,64,244.85383754437603,414378,1753,6468.087869882584,45.20827865600586,,5.694398880004883,0.5
413,MetaDrive-test-combined-actor-loss,64,244.95929071561312,415045,1754,6477.354760885239,46.73951721191406,-46.45579528808594,6.403660774230957,0.5
414,MetaDrive-test-combined-actor-loss,64,245.78677774558494,416235,1756,6492.600249052048,46.72700500488281,-45.68024826049805,10.507698059082031,0.49
415,MetaDrive-test-combined-actor-loss,64,245.8867881857484,417137,1758,6504.536860227585,39.63309097290039,-39.68901062011719,20.576404571533203,0.49
416,MetaDrive-test-combined-actor-loss,64,245.96562411115667,418055,1760,6515.875224113464,45.684364318847656,-45.34162139892578,9.25113296508789,0.5
417,MetaDrive-test-combined-actor-loss,64,247.78839927289326,419411,1762,6536.555763959885,43.35276794433594,-43.884788513183594,8.30873966217041,0.51
418,MetaDrive-test-combined-actor-loss,64,249.61324975048146,420098,1763,6546.575461149216,45.614219665527344,,7.916406631469727,0.51
419,MetaDrive-test-combined-actor-loss,64,247.58152075432588,421108,1766,6558.726603031158,44.84684753417969,,12.567036628723145,0.51
420,MetaDrive-test-combined-actor-loss,64,245.9539835911404,422363,1769,6576.182619094849,47.345420837402344,-47.50359344482422,8.554269790649414,0.51
421,MetaDrive-test-combined-actor-loss,64,249.27612809206764,423301,1770,6589.455867052078,46.39509201049805,-46.77507400512695,5.156429290771484,0.52
422,MetaDrive-test-combined-actor-loss,64,249.7218577695606,424225,1772,6601.372788906097,40.5740966796875,-43.18153762817383,136.294189453125,0.52
423,MetaDrive-test-combined-actor-loss,64,252.2751031201707,425050,1774,6612.699178934097,41.863765716552734,,8.084671020507812,0.53
424,MetaDrive-test-combined-actor-loss,64,256.48356342868647,426280,1776,6627.9740970134735,41.92350387573242,,21.498435974121094,0.55
425,MetaDrive-test-combined-actor-loss,64,254.71877595895106,427149,1779,6638.705902099609,44.5149040222168,-44.857383728027344,5.805716037750244,0.54
426,MetaDrive-test-combined-actor-loss,64,256.64405849928846,428446,1782,6655.589108943939,42.763511657714844,,10.137709617614746,0.55
427,MetaDrive-test-combined-actor-loss,64,258.48800345781797,429037,1783,6663.495699882507,42.29145431518555,-42.969757080078125,10.881753921508789,0.56
428,MetaDrive-test-combined-actor-loss,64,255.36860320229715,430253,1786,6678.917426109314,48.42782974243164,-48.67101287841797,30.308055877685547,0.54
429,MetaDrive-test-combined-actor-loss,64,252.23268327935872,431352,1788,6693.064225912094,47.399131774902344,,11.322324752807617,0.53
430,MetaDrive-test-combined-actor-loss,64,250.24638236739935,432082,1790,6701.798975944519,45.611122131347656,,13.03321647644043,0.53
431,MetaDrive-test-combined-actor-loss,64,251.63063659063894,433249,1792,6716.510377883911,41.8901252746582,-41.939720153808594,16.099889755249023,0.54
432,MetaDrive-test-combined-actor-loss,64,250.69826445328272,434519,1794,6731.354397058487,47.82059860229492,-48.49977493286133,12.042379379272461,0.54
433,MetaDrive-test-combined-actor-loss,64,248.83435124019485,435176,1796,6738.688264846802,38.38569641113281,,18.390933990478516,0.54
434,MetaDrive-test-combined-actor-loss,64,247.78860214762318,436337,1799,6752.9697189331055,45.605403900146484,-46.212608337402344,5.27577018737793,0.52
435,MetaDrive-test-combined-actor-loss,64,246.71946944049103,437210,1801,6763.762624979019,44.07701873779297,,14.76345443725586,0.51
436,MetaDrive-test-combined-actor-loss,64,245.0650160954084,438166,1803,6775.635756015778,44.023101806640625,,9.77212905883789,0.51
437,MetaDrive-test-combined-actor-loss,64,241.16903713453573,439452,1806,6792.144389152527,42.292320251464844,,12.12558650970459,0.5
438,MetaDrive-test-combined-actor-loss,64,242.37064081889847,440176,1807,6801.376173019409,45.73896408081055,,13.500778198242188,0.5
439,MetaDrive-test-combined-actor-loss,64,243.21163478377449,441062,1808,6813.9262619018555,45.12287902832031,,18.708667755126953,0.5
440,MetaDrive-test-combined-actor-loss,64,245.81256841006484,442765,1810,6839.571424007416,45.67196273803711,-44.31413269042969,14.236722946166992,0.49
441,MetaDrive-test-combined-actor-loss,64,248.81921971322953,443456,1811,6849.170506000519,45.293479919433594,,47.9935302734375,0.5
442,MetaDrive-test-combined-actor-loss,64,249.12327613318678,444457,1812,6865.4294419288635,50.10210418701172,-50.267601013183594,7.485708713531494,0.49
443,MetaDrive-test-combined-actor-loss,64,247.0520563796417,445056,1814,6873.0232989788055,46.74744415283203,,6.483620643615723,0.47
444,MetaDrive-test-combined-actor-loss,64,250.72084600407837,446784,1816,6901.3339738845825,43.97877502441406,,14.78585433959961,0.47
445,MetaDrive-test-combined-actor-loss,64,252.300442762646,447307,1817,6907.689481973648,48.087608337402344,-47.99704360961914,5.902867317199707,0.48
446,MetaDrive-test-combined-actor-loss,64,252.73324596647518,448439,1819,6926.744600057602,43.884925842285156,-43.4001579284668,61.41448211669922,0.48
447,MetaDrive-test-combined-actor-loss,64,254.77923296218697,449154,1820,6936.472321987152,49.034542083740234,,10.08269214630127,0.49
448,MetaDrive-test-combined-actor-loss,64,256.68458733508885,450471,1822,6956.762068986893,48.96287155151367,-48.76418685913086,12.80589771270752,0.49
449,MetaDrive-test-combined-actor-loss,64,256.76765660082066,451405,1824,6967.797906160355,45.12864685058594,-45.34529495239258,13.643272399902344,0.49
450,MetaDrive-test-combined-actor-loss,64,259.78013288306425,452129,1825,6977.045565128326,45.695777893066406,-45.4112548828125,9.31390380859375,0.5
451,MetaDrive-test-combined-actor-loss,64,257.8429598391693,453228,1827,6993.506588220596,43.557777404785156,,5.754854202270508,0.5
452,MetaDrive-test-combined-actor-loss,64,257.860958057409,454369,1829,7006.9174880981445,45.39508819580078,-46.56312561035156,23.206100463867188,0.51
453,MetaDrive-test-combined-actor-loss,64,254.0766793725538,455275,1832,7020.042567253113,42.30269241333008,-42.257537841796875,11.518688201904297,0.49
454,MetaDrive-test-combined-actor-loss,64,257.450170402035,456497,1834,7035.103199005127,46.332923889160156,-46.23969650268555,8.402105331420898,0.5
455,MetaDrive-test-combined-actor-loss,64,254.76117154197388,457790,1837,7052.284427881241,44.573360443115234,,12.543069839477539,0.48
456,MetaDrive-test-combined-actor-loss,64,255.11189763144222,458328,1838,7058.401505947113,47.5651969909668,,11.569948196411133,0.48
457,MetaDrive-test-combined-actor-loss,64,255.21386939081873,459340,1840,7071.14440202713,41.75218200683594,,28.80748748779297,0.48
458,MetaDrive-test-combined-actor-loss,64,259.01587833267706,460586,1842,7086.926921844482,43.605010986328125,,18.89221954345703,0.5
459,MetaDrive-test-combined-actor-loss,65,261.30301694560154,461362,1843,7097.409039020538,43.41271209716797,,13.52695083618164,0.51
460,MetaDrive-test-combined-actor-loss,65,263.2479900863789,462094,1844,7107.190274953842,47.45149612426758,,16.891437530517578,0.52
461,MetaDrive-test-combined-actor-loss,65,262.53339213223074,463107,1846,7119.959640979767,41.99396514892578,-42.047454833984375,18.090288162231445,0.51
462,MetaDrive-test-combined-actor-loss,65,263.0807764005204,464395,1849,7136.813598155975,46.46656036376953,-46.044822692871094,7.4283928871154785,0.52
463,MetaDrive-test-combined-actor-loss,65,254.6111518117884,465149,1852,7146.358597993851,48.25362014770508,-47.53484344482422,7.857089996337891,0.5
464,MetaDrive-test-combined-actor-loss,65,254.44715859283025,466570,1854,7165.503293037415,44.63213348388672,,16.92599868774414,0.5
465,MetaDrive-test-combined-actor-loss,65,256.3878901933308,467239,1855,7173.56272983551,43.31918716430664,-43.3948974609375,16.816730499267578,0.51
466,MetaDrive-test-combined-actor-loss,65,256.3873079030462,468029,1856,7183.689252138138,42.4874267578125,-44.13577651977539,18.245052337646484,0.51
467,MetaDrive-test-combined-actor-loss,65,259.78872320626874,469784,1858,7205.949226856232,44.702842712402344,,10.43362045288086,0.52
468,MetaDrive-test-combined-actor-loss,65,258.0359025511063,470078,1859,7210.116815090179,44.536128997802734,,14.106952667236328,0.51
469,MetaDrive-test-combined-actor-loss,65,256.8906594303003,471084,1862,7222.891971111298,48.45050811767578,,13.363861083984375,0.51
470,MetaDrive-test-combined-actor-loss,65,254.55833649948593,472053,1864,7235.163643121719,43.291805267333984,-43.8720703125,11.533683776855469,0.49
471,MetaDrive-test-combined-actor-loss,65,256.2068243935963,473035,1866,7246.210839986801,42.17053985595703,-41.58731460571289,11.237793922424316,0.49
472,MetaDrive-test-combined-actor-loss,65,256.48927119765625,474104,1869,7258.861778259277,46.60700607299805,,15.796411514282227,0.49
473,MetaDrive-test-combined-actor-loss,65,252.96379313077924,475186,1871,7270.411816835403,43.907569885253906,,15.462287902832031,0.49
474,MetaDrive-test-combined-actor-loss,65,254.36621011364824,476528,1874,7286.402904033661,43.751522064208984,,8.491657257080078,0.49
475,MetaDrive-test-combined-actor-loss,65,253.3507199732445,477185,1875,7294.165468215942,44.25169372558594,-44.65214157104492,5.326745986938477,0.49
476,MetaDrive-test-combined-actor-loss,65,254.3576839631742,478056,1876,7304.4969830513,45.63286590576172,,8.710433006286621,0.49
477,MetaDrive-test-combined-actor-loss,65,258.3955689568125,479530,1879,7323.372669935226,42.58938217163086,,6.046216011047363,0.5
478,MetaDrive-test-combined-actor-loss,65,257.32600792838855,480161,1881,7331.511188983917,46.716854095458984,-47.48908996582031,7.589457988739014,0.49
479,MetaDrive-test-combined-actor-loss,65,257.30763007011757,481406,1883,7344.506276130676,46.105995178222656,,8.20091724395752,0.5
480,MetaDrive-test-combined-actor-loss,65,259.63519876607444,482034,1884,7350.9554171562195,43.152381896972656,,28.792007446289062,0.51
481,MetaDrive-test-combined-actor-loss,65,262.9676968311375,483656,1886,7371.507741212845,43.57297897338867,,10.067770004272461,0.52
482,MetaDrive-test-combined-actor-loss,65,266.2324158773945,484402,1887,7379.332782030106,42.95811462402344,,16.574913024902344,0.53
483,MetaDrive-test-combined-actor-loss,65,268.4599796681707,485134,1888,7388.175800085068,49.086692810058594,,5.632554531097412,0.54
484,MetaDrive-test-combined-actor-loss,65,270.9750395193651,486228,1890,7402.968919992447,44.688812255859375,,13.064970016479492,0.54
485,MetaDrive-test-combined-actor-loss,65,270.99757288722975,487312,1892,7414.404336214066,39.7378044128418,,10.040081024169922,0.54
486,MetaDrive-test-combined-actor-loss,65,269.4316254201075,488405,1894,7428.65588092804,47.20594024658203,-46.66639709472656,6.374522686004639,0.53
487,MetaDrive-test-combined-actor-loss,65,270.16515356291967,489198,1896,7437.62716627121,46.79850769042969,,8.817037582397461,0.53
488,MetaDrive-test-combined-actor-loss,65,267.4147256959251,490337,1899,7450.539393901825,45.002838134765625,-45.20611572265625,9.079299926757812,0.52
489,MetaDrive-test-combined-actor-loss,65,269.0608229364138,491572,1901,7464.853101968765,45.67097854614258,,6.54304313659668,0.53
490,MetaDrive-test-combined-actor-loss,65,270.19439752733194,492432,1902,7474.971848249435,45.852664947509766,,9.844337463378906,0.53
491,MetaDrive-test-combined-actor-loss,65,271.5963220473829,493350,1904,7485.146174907684,38.74873733520508,,15.964681625366211,0.52
492,MetaDrive-test-combined-actor-loss,65,270.54333112543094,494078,1906,7493.044097900391,43.77817916870117,,8.323225021362305,0.51
493,MetaDrive-test-combined-actor-loss,65,269.02886494903817,495386,1908,7507.254966974258,45.57262420654297,,14.154314041137695,0.51
494,MetaDrive-test-combined-actor-loss,66,269.16151204151015,496770,1910,7523.156685113907,44.689178466796875,,11.796079635620117,0.52
495,MetaDrive-test-combined-actor-loss,66,269.0271666232642,497415,1911,7531.484659194946,47.654296875,-48.586368560791016,9.653417587280273,0.51
496,MetaDrive-test-combined-actor-loss,66,266.79099761211705,498064,1913,7538.463073968887,42.365562438964844,,82.57388305664062,0.51
497,MetaDrive-test-combined-actor-loss,66,265.12716212201656,499101,1916,7551.065180063248,45.928382873535156,-46.994110107421875,14.789278030395508,0.52
