TanmayH/CS269-RL-project-code/MetaDrive-test-weighted-td3/td3/progress.csv
,log_dir,frame_per_second,episode_reward,total_steps,total_episodes,total_time,target_q,actor_loss,critic_loss,success_rate
0,MetaDrive-test-weighted-td3,559,8.58225984014669,1958,2,3.5013108253479004,,,,0.0
1,MetaDrive-test-weighted-td3,621,6.255478464344152,2624,3,4.218796968460083,,,,0.0
2,MetaDrive-test-weighted-td3,529,7.236850491520797,3625,4,6.8457300662994385,,,,0.0
3,MetaDrive-test-weighted-td3,542,7.880904916023994,4626,5,8.533282995223999,,,,0.0
4,MetaDrive-test-weighted-td3,501,7.928076417425977,5058,6,10.082564115524292,0.03312269598245621,,0.0008740160847082734,0.0
5,MetaDrive-test-weighted-td3,263,-0.7582999029726488,6017,43,22.821821928024292,0.07286946475505829,-0.025328971445560455,0.014714980497956276,0.0
6,MetaDrive-test-weighted-td3,206,-1.3585580194719342,7256,59,35.086548805236816,0.09481769800186157,,0.0229681134223938,0.0
7,MetaDrive-test-weighted-td3,189,-1.280164643939122,8257,60,43.535730838775635,0.09871786832809448,-0.07156554609537125,0.02163967303931713,0.0
8,MetaDrive-test-weighted-td3,176,-1.2657762827942267,9341,62,52.788578033447266,0.10093419998884201,-0.14489644765853882,0.005033429712057114,0.0
9,MetaDrive-test-weighted-td3,168,-1.232043255222503,10342,63,61.29996204376221,0.11158983409404755,,0.01958104595541954,0.0
10,MetaDrive-test-weighted-td3,161,-1.132317535186794,11342,66,70.32872486114502,0.05704784765839577,,0.6959292888641357,0.0
11,MetaDrive-test-weighted-td3,154,-0.024917233961396428,12080,77,77.98022389411926,0.18168166279792786,,0.014577032998204231,0.0
12,MetaDrive-test-weighted-td3,147,1.4780112520446662,13001,90,88.04797887802124,0.2524966895580292,-0.27935028076171875,0.0028047438245266676,0.0
13,MetaDrive-test-weighted-td3,140,2.4424758629238745,14032,110,99.53660988807678,0.36952388286590576,,0.036462657153606415,0.0
14,MetaDrive-test-weighted-td3,135,6.269113128265315,15010,123,110.56316494941711,0.4260193407535553,,1.3701119422912598,0.0
15,MetaDrive-test-weighted-td3,130,8.948857282667081,16017,148,122.61025500297546,0.8188301920890808,-0.8485091924667358,0.08970311284065247,0.0
16,MetaDrive-test-weighted-td3,127,12.5673543042903,17007,167,133.48488688468933,1.217411994934082,-1.2151814699172974,0.07771467417478561,0.0
17,MetaDrive-test-weighted-td3,124,12.569415939965298,18002,191,144.66522789001465,1.2428604364395142,,2.4844326972961426,0.0
18,MetaDrive-test-weighted-td3,121,14.676215364430035,19035,211,156.0875599384308,2.0240132808685303,-2.2780020236968994,0.10771776735782623,0.0
19,MetaDrive-test-weighted-td3,120,15.054098447101847,20032,228,166.56439590454102,2.391841173171997,,1.4923245906829834,0.0
20,MetaDrive-test-weighted-td3,118,17.530419433897922,21014,247,177.42459106445312,3.0995259284973145,,0.1220807135105133,0.0
21,MetaDrive-test-weighted-td3,116,21.546882223407582,22032,261,188.44966793060303,3.608426809310913,,3.1563637256622314,0.0
22,MetaDrive-test-weighted-td3,115,26.95214374918448,23035,272,198.73871684074402,4.330272674560547,-4.2302045822143555,0.604061484336853,0.0
23,MetaDrive-test-weighted-td3,114,32.134038989818684,24041,284,209.25703382492065,5.149714469909668,-5.534649848937988,0.27545166015625,0.0
24,MetaDrive-test-weighted-td3,113,36.47880121499206,25048,298,219.8425920009613,5.294871807098389,,7.805428981781006,0.0
25,MetaDrive-test-weighted-td3,112,40.018581599541584,26004,309,230.65341782569885,6.591916084289551,,5.143199920654297,0.0
26,MetaDrive-test-weighted-td3,111,45.732657724211194,27136,320,242.55959296226501,6.97482442855835,,8.62762451171875,0.0
27,MetaDrive-test-weighted-td3,111,49.14544719148423,28083,329,252.63170981407166,8.606168746948242,-9.06390380859375,0.4505755305290222,0.0
28,MetaDrive-test-weighted-td3,110,55.8285437874591,29155,338,263.5697178840637,9.46944808959961,-9.738561630249023,0.6607745885848999,0.0
29,MetaDrive-test-weighted-td3,110,61.005907923569794,30074,347,273.29014801979065,9.208895683288574,,23.658647537231445,0.0
30,MetaDrive-test-weighted-td3,109,62.278319148230594,31021,357,282.6763970851898,11.575296401977539,-11.593170166015625,0.6800646781921387,0.0
31,MetaDrive-test-weighted-td3,109,64.04692682499567,32025,367,293.06623101234436,12.453289031982422,-12.388986587524414,0.9403253793716431,0.0
32,MetaDrive-test-weighted-td3,108,66.37407500829887,33085,377,303.7153420448303,11.286596298217773,-11.747036933898926,11.984898567199707,0.0
33,MetaDrive-test-weighted-td3,108,69.09122427888353,34039,384,313.5372519493103,14.135478973388672,-14.281705856323242,1.1243813037872314,0.0
34,MetaDrive-test-weighted-td3,108,73.6557393921897,35130,393,325.21040201187134,14.582469940185547,,1.6297869682312012,0.0
35,MetaDrive-test-weighted-td3,107,75.51279599537799,36064,402,334.444944858551,16.579252243041992,,1.7039010524749756,0.0
36,MetaDrive-test-weighted-td3,107,78.15570748888112,37043,410,344.5638439655304,17.40785026550293,-17.952945709228516,1.1779158115386963,0.0
37,MetaDrive-test-weighted-td3,107,80.35905348014188,38012,418,355.15591382980347,16.68861198425293,,23.368303298950195,0.0
38,MetaDrive-test-weighted-td3,106,80.55865110690841,39080,427,366.12032675743103,16.411550521850586,,31.721595764160156,0.0
39,MetaDrive-test-weighted-td3,106,83.2102485148652,40128,434,377.7398838996887,18.61954689025879,,2.2778091430664062,0.0
40,MetaDrive-test-weighted-td3,105,83.68793534510806,41093,440,387.7641499042511,17.895015716552734,-18.760021209716797,41.52518844604492,0.0
41,MetaDrive-test-weighted-td3,105,86.9743155479077,42008,445,396.5519368648529,20.901042938232422,,5.206617832183838,0.0
42,MetaDrive-test-weighted-td3,104,92.80749741971589,43703,451,416.36677598953247,21.3613224029541,-22.09349250793457,36.46295166015625,0.0
43,MetaDrive-test-weighted-td3,104,95.66405234844095,44326,452,423.6015748977661,22.69733428955078,,13.451774597167969,0.01
44,MetaDrive-test-weighted-td3,104,101.39847005658736,45836,456,439.7641530036926,21.759761810302734,,36.088260650634766,0.02
45,MetaDrive-test-weighted-td3,103,103.79777303943374,46701,457,449.5155189037323,25.504228591918945,-26.37289810180664,29.11176872253418,0.02
46,MetaDrive-test-weighted-td3,103,103.92559744357376,47779,459,462.00276708602905,22.659160614013672,-23.141084671020508,3.130892753601074,0.02
47,MetaDrive-test-weighted-td3,103,104.17276787555649,48076,460,464.95506596565247,24.019458770751953,,26.529224395751953,0.02
48,MetaDrive-test-weighted-td3,103,108.36927196948619,49741,465,481.33637499809265,24.830623626708984,-24.955001831054688,1.9106369018554688,0.03
49,MetaDrive-test-weighted-td3,103,108.71075672529373,50853,467,493.2422959804535,24.902084350585938,-25.148714065551758,3.611018657684326,0.03
50,MetaDrive-test-weighted-td3,103,110.50001520620748,51426,468,498.70440888404846,25.919254302978516,,5.948616981506348,0.03
51,MetaDrive-test-weighted-td3,103,113.99637977228896,52540,471,508.8489799499512,26.067428588867188,,11.99559211730957,0.04
52,MetaDrive-test-weighted-td3,102,116.35043859800614,53805,473,523.8427629470825,29.431774139404297,-29.611358642578125,29.01110076904297,0.04
53,MetaDrive-test-weighted-td3,102,116.36231026417585,54933,475,533.5973098278046,28.36741828918457,-28.359296798706055,5.773502349853516,0.04
54,MetaDrive-test-weighted-td3,102,115.78780679455889,55031,476,534.5418429374695,27.831623077392578,-28.696975708007812,3.6479134559631348,0.04
55,MetaDrive-test-weighted-td3,102,119.18792230407891,56320,481,548.2131938934326,28.038047790527344,,2.7014811038970947,0.05
56,MetaDrive-test-weighted-td3,102,119.35783170357523,57321,482,556.9762680530548,28.414159774780273,-28.3547306060791,3.7989871501922607,0.05
57,MetaDrive-test-weighted-td3,102,119.2133771447045,58214,486,566.4893870353699,29.529865264892578,,31.88326644897461,0.05
58,MetaDrive-test-weighted-td3,102,119.47859861897751,59586,491,579.6485559940338,28.797340393066406,,41.59193801879883,0.05
59,MetaDrive-test-weighted-td3,102,124.39119859156692,60501,492,590.7688059806824,29.707374572753906,-29.836273193359375,3.2198305130004883,0.06
60,MetaDrive-test-weighted-td3,102,125.27219935285797,61068,495,596.4019629955292,29.41305923461914,,5.757585525512695,0.06
61,MetaDrive-test-weighted-td3,102,126.93191033512278,62026,501,605.9904320240021,32.8269157409668,,5.784067153930664,0.06
62,MetaDrive-test-weighted-td3,102,129.24844752599108,63079,507,616.6435208320618,33.35408401489258,-33.583282470703125,4.843013286590576,0.07
63,MetaDrive-test-weighted-td3,102,129.05853240693602,64050,514,625.9282379150391,34.23432540893555,,24.40022087097168,0.07
64,MetaDrive-test-weighted-td3,102,130.83633755825488,65813,519,642.1372358798981,34.688541412353516,-35.673946380615234,6.8144049644470215,0.08
65,MetaDrive-test-weighted-td3,102,132.15180990022685,66072,521,644.5972189903259,32.011226654052734,,4.694123268127441,0.08
66,MetaDrive-test-weighted-td3,102,132.68533766527688,67168,527,655.9854130744934,30.29599380493164,,4.714895725250244,0.08
67,MetaDrive-test-weighted-td3,102,133.29104515128105,68038,532,665.2023859024048,31.961837768554688,,8.636367797851562,0.08
68,MetaDrive-test-weighted-td3,102,134.1086878908201,69111,538,676.1166498661041,36.618797302246094,-36.680362701416016,5.940276622772217,0.09
69,MetaDrive-test-weighted-td3,102,135.15902712569482,70030,542,685.7475929260254,33.017024993896484,,5.06904935836792,0.1
70,MetaDrive-test-weighted-td3,101,138.1940275557278,71188,546,698.2175979614258,33.929134368896484,,10.42763614654541,0.1
71,MetaDrive-test-weighted-td3,101,141.62181666262023,72370,549,711.4052379131317,36.11684799194336,,6.1336469650268555,0.11
72,MetaDrive-test-weighted-td3,101,138.7982297174958,73270,553,720.3673708438873,36.53790283203125,,3.8463644981384277,0.12
73,MetaDrive-test-weighted-td3,101,136.00822617714957,74427,557,732.5151448249817,38.75312042236328,-37.900264739990234,10.15473461151123,0.12
74,MetaDrive-test-weighted-td3,101,137.15037539181594,75106,560,739.7660090923309,39.290096282958984,,4.827959060668945,0.13
75,MetaDrive-test-weighted-td3,101,138.81724703018904,76420,563,752.4563918113708,35.18659210205078,,48.29705810546875,0.13
76,MetaDrive-test-weighted-td3,101,140.44934917836764,77068,566,760.0010838508606,37.480323791503906,,4.878710746765137,0.13
77,MetaDrive-test-weighted-td3,101,139.84420164326764,78491,571,775.7768669128418,36.96974563598633,-37.579261779785156,6.3716325759887695,0.13
78,MetaDrive-test-weighted-td3,101,141.65913138647707,79543,573,785.9106259346008,37.46797561645508,-37.078590393066406,10.985079765319824,0.15
79,MetaDrive-test-weighted-td3,101,143.2526458029096,80321,576,793.4375638961792,38.135833740234375,-38.57014465332031,3.341670274734497,0.15
80,MetaDrive-test-weighted-td3,101,138.80324715739232,81181,583,803.1196439266205,39.130950927734375,-39.991031646728516,24.338977813720703,0.14
81,MetaDrive-test-weighted-td3,100,140.0847773335052,82075,586,813.7138910293579,40.20665740966797,-40.03483581542969,8.4814453125,0.14
82,MetaDrive-test-weighted-td3,100,145.15022688253651,83278,590,826.1155691146851,43.69184494018555,,4.702051162719727,0.15
83,MetaDrive-test-weighted-td3,100,141.38039737013077,84382,594,837.1927101612091,38.12184143066406,,4.584543704986572,0.15
84,MetaDrive-test-weighted-td3,100,143.09444266107818,85036,597,843.8077948093414,35.250980377197266,,4.266221046447754,0.15
85,MetaDrive-test-weighted-td3,100,145.2048020076678,86042,599,853.487447977066,38.896602630615234,,5.393999099731445,0.15
86,MetaDrive-test-weighted-td3,100,146.60782909996416,87392,602,867.4012229442596,38.056495666503906,,6.9884772300720215,0.15
87,MetaDrive-test-weighted-td3,100,149.28983633358723,88434,604,877.381190776825,37.393959045410156,,64.94003295898438,0.16
88,MetaDrive-test-weighted-td3,100,150.3425373185802,89163,607,883.814050912857,40.810401916503906,-40.57368087768555,11.059173583984375,0.17
89,MetaDrive-test-weighted-td3,100,153.2784150802336,90320,611,896.2146139144897,38.22936248779297,,175.81723022460938,0.17
90,MetaDrive-test-weighted-td3,100,158.97377906411907,91637,613,910.1981270313263,40.1738395690918,-39.70557403564453,12.07155990600586,0.18
91,MetaDrive-test-weighted-td3,100,159.40230017733543,92115,614,914.4011478424072,40.35161590576172,-41.00861740112305,3.460371494293213,0.19
92,MetaDrive-test-weighted-td3,100,161.68819553581764,93286,616,925.8926110267639,38.628562927246094,,10.55805778503418,0.2
93,MetaDrive-test-weighted-td3,100,162.48756164381766,94427,618,936.4157009124756,35.77879333496094,-36.93095779418945,84.74755859375,0.2
94,MetaDrive-test-weighted-td3,100,161.28271142501953,95171,623,944.0409269332886,42.370479583740234,-42.469303131103516,4.254989147186279,0.2
95,MetaDrive-test-weighted-td3,100,163.58719305663442,96005,625,952.553585767746,38.35576629638672,-38.37897491455078,11.325679779052734,0.2
96,MetaDrive-test-weighted-td3,100,167.32120314481838,97627,628,970.3427498340607,40.272579193115234,-40.99287796020508,3.6932153701782227,0.21
97,MetaDrive-test-weighted-td3,100,167.26718369768597,98030,629,973.7644758224487,43.02566146850586,,5.051830291748047,0.22
98,MetaDrive-test-weighted-td3,100,170.81453255524306,99277,633,985.8937709331512,43.1553840637207,-44.22578048706055,4.159412384033203,0.23
99,MetaDrive-test-weighted-td3,100,171.51896828618973,100080,637,994.4526989459991,40.26597595214844,,3.440369129180908,0.23
100,MetaDrive-test-weighted-td3,100,175.1394480033367,101377,640,1007.7264039516449,42.44721603393555,-43.25164794921875,13.060474395751953,0.25
101,MetaDrive-test-weighted-td3,100,172.64900160838505,102069,643,1014.2462749481201,42.194435119628906,-43.19703674316406,7.186858177185059,0.24
102,MetaDrive-test-weighted-td3,100,174.11561425201126,103118,645,1024.8298480510712,44.65857696533203,,5.763444900512695,0.25
103,MetaDrive-test-weighted-td3,100,170.36289694355847,104068,649,1033.6994910240173,41.308082580566406,,8.055423736572266,0.25
104,MetaDrive-test-weighted-td3,100,171.541765276576,105224,654,1044.913722038269,42.42662048339844,,2.953197717666626,0.25
105,MetaDrive-test-weighted-td3,100,173.8267307360006,106129,656,1054.0839939117432,45.08576202392578,-45.74196243286133,11.282785415649414,0.26
106,MetaDrive-test-weighted-td3,100,171.84123225647804,107358,659,1066.0283150672913,45.499752044677734,,3.282614231109619,0.26
107,MetaDrive-test-weighted-td3,100,170.81576425100292,108284,662,1074.712821006775,40.7381477355957,,27.70905303955078,0.25
108,MetaDrive-test-weighted-td3,100,171.36900047096623,109218,664,1084.198075056076,42.942352294921875,,54.63951873779297,0.25
109,MetaDrive-test-weighted-td3,100,173.0846335552064,110422,668,1095.7183668613434,46.133750915527344,,9.410469055175781,0.26
110,MetaDrive-test-weighted-td3,100,172.59670138834753,111301,671,1103.3570048809052,43.997772216796875,-43.48531723022461,6.437431335449219,0.27
111,MetaDrive-test-weighted-td3,100,172.90115114375237,112362,673,1113.5956740379333,44.4874153137207,,220.94625854492188,0.27
112,MetaDrive-test-weighted-td3,100,175.31758995687207,113218,675,1121.595142841339,43.970428466796875,,9.280043601989746,0.28
113,MetaDrive-test-weighted-td3,100,177.0980393287144,114157,678,1131.1219329833984,42.6356315612793,-43.06011199951172,49.64982604980469,0.29
114,MetaDrive-test-weighted-td3,100,182.79517010395384,115185,680,1141.6862461566925,42.48958206176758,-43.97129440307617,106.86390686035156,0.31
115,MetaDrive-test-weighted-td3,100,186.06806833796549,116093,684,1151.1706399917603,45.4057731628418,-45.92934036254883,5.026459217071533,0.33
116,MetaDrive-test-weighted-td3,100,190.73852295474694,117486,686,1166.8812930583954,41.84881591796875,,5.193513870239258,0.35
117,MetaDrive-test-weighted-td3,100,192.3679821831216,118075,687,1174.1414749622345,46.56340408325195,-46.79785919189453,3.782078266143799,0.35
118,MetaDrive-test-weighted-td3,100,193.5488087855523,119076,688,1186.6923167705536,45.77358627319336,,4.138198375701904,0.35
119,MetaDrive-test-weighted-td3,100,191.3004365434846,120160,691,1198.679703950882,40.922447204589844,,108.67691802978516,0.34
120,MetaDrive-test-weighted-td3,100,193.73849775300152,121249,694,1210.4315040111542,45.379791259765625,-45.348976135253906,8.16152572631836,0.36
121,MetaDrive-test-weighted-td3,100,197.5041347340188,122067,696,1219.1252799034119,42.852046966552734,-42.720211029052734,7.838649272918701,0.37
122,MetaDrive-test-weighted-td3,100,199.8791883698224,123497,698,1234.9019989967346,47.89295959472656,-47.67116165161133,6.906609535217285,0.39
123,MetaDrive-test-weighted-td3,100,200.83702337205366,124090,700,1240.1392607688904,47.199127197265625,,9.39242172241211,0.4
124,MetaDrive-test-weighted-td3,100,199.70494554481627,125165,703,1251.5599200725555,43.47517395019531,-44.08024597167969,8.28674602508545,0.4
125,MetaDrive-test-weighted-td3,99,203.20226417581614,126471,705,1266.087585926056,46.216739654541016,-47.70170211791992,9.36135482788086,0.4
126,MetaDrive-test-weighted-td3,99,203.27010213861388,127057,707,1272.246593952179,44.82435989379883,-44.16855239868164,40.026039123535156,0.39
127,MetaDrive-test-weighted-td3,99,204.62346608939933,128058,708,1284.6421809196472,47.81269836425781,,4.447675704956055,0.39
128,MetaDrive-test-weighted-td3,99,205.36254889382565,129657,711,1301.6097447872162,47.60517501831055,-49.01710510253906,11.05998420715332,0.4
129,MetaDrive-test-weighted-td3,99,202.34711922036723,130312,713,1307.8636000156403,49.388614654541016,,10.700624465942383,0.4
130,MetaDrive-test-weighted-td3,99,204.85279847902103,131563,715,1321.173408985138,47.78843688964844,-48.79039764404297,5.958330154418945,0.4
131,MetaDrive-test-weighted-td3,99,204.0602619607551,132564,716,1334.6000168323517,48.82427215576172,,2.8991575241088867,0.39
132,MetaDrive-test-weighted-td3,99,205.44318301913717,133122,717,1340.638944864273,46.85328674316406,,3.688279151916504,0.39
133,MetaDrive-test-weighted-td3,99,205.46255914382127,134123,718,1352.2491199970245,47.415870666503906,-47.434173583984375,3.5004758834838867,0.39
134,MetaDrive-test-weighted-td3,99,207.96820032809347,135108,719,1362.1087958812714,43.57238006591797,,17.60198402404785,0.4
135,MetaDrive-test-weighted-td3,98,212.9891731129056,136899,722,1384.4525609016418,46.859554290771484,-46.58379364013672,4.072058200836182,0.41
136,MetaDrive-test-weighted-td3,98,215.26452057498827,137534,723,1390.379981994629,47.950897216796875,,112.13371276855469,0.42
137,MetaDrive-test-weighted-td3,98,217.37890712645859,138274,724,1398.2353987693787,49.28071594238281,,8.63961410522461,0.43
138,MetaDrive-test-weighted-td3,98,218.54689444716757,139275,725,1410.676659822464,50.912559509277344,-50.72041702270508,3.7000732421875,0.43
139,MetaDrive-test-weighted-td3,98,219.35754810714872,140911,727,1426.7740268707275,45.74686813354492,-44.95741653442383,15.747230529785156,0.43
140,MetaDrive-test-weighted-td3,98,219.37551897604445,141370,728,1430.8677821159363,48.44650650024414,,4.70928955078125,0.44
141,MetaDrive-test-weighted-td3,98,220.8196118730293,142220,730,1438.7605040073395,45.112037658691406,,3.139861583709717,0.45
142,MetaDrive-test-weighted-td3,98,223.9458639163908,143995,734,1460.4108138084412,49.332679748535156,-48.37572479248047,10.338220596313477,0.45
143,MetaDrive-test-weighted-td3,98,224.3393877684333,144165,735,1462.1229360103607,46.64877700805664,-46.71000289916992,7.101958274841309,0.45
144,MetaDrive-test-weighted-td3,98,224.53523344139458,145078,737,1470.5559659004211,43.85829162597656,,4.880728721618652,0.45
145,MetaDrive-test-weighted-td3,98,222.83709382162735,146193,741,1482.3864450454712,48.69841003417969,-48.44204330444336,9.618560791015625,0.44
146,MetaDrive-test-weighted-td3,98,222.3559261857892,147764,745,1499.2486629486084,45.72825622558594,,32.270328521728516,0.44
147,MetaDrive-test-weighted-td3,98,224.16639651198793,148301,746,1504.617329120636,44.71377182006836,-44.802146911621094,5.324710845947266,0.45
148,MetaDrive-test-weighted-td3,98,224.78932704362182,149040,747,1512.1699991226196,47.46205139160156,,8.338415145874023,0.45
149,MetaDrive-test-weighted-td3,98,228.80073566315758,150259,751,1524.7362558841705,46.87289047241211,-47.987361907958984,5.860903263092041,0.46
150,MetaDrive-test-weighted-td3,98,231.40803574439667,151260,752,1537.6107120513916,47.80402755737305,,11.935358047485352,0.46
151,MetaDrive-test-weighted-td3,98,234.4280987379876,152142,753,1549.0860531330109,47.02397155761719,,16.499507904052734,0.46
152,MetaDrive-test-weighted-td3,98,233.088984483646,153143,754,1560.604432106018,50.68223571777344,-51.94569396972656,7.595849514007568,0.45
153,MetaDrive-test-weighted-td3,98,229.99184406271922,154126,758,1570.1035387516022,45.644676208496094,,3.935899257659912,0.43
154,MetaDrive-test-weighted-td3,98,230.2425324361944,155130,761,1580.3048079013824,48.8383674621582,,4.562567710876465,0.44
155,MetaDrive-test-weighted-td3,98,231.7162837570383,156131,762,1590.8172557353973,50.067413330078125,-50.55124282836914,4.807440757751465,0.44
156,MetaDrive-test-weighted-td3,98,230.78052732291192,157191,766,1600.5594930648804,47.69569396972656,-48.436580657958984,10.934423446655273,0.44
157,MetaDrive-test-weighted-td3,98,234.731257176357,158049,767,1610.7049450874329,47.38358688354492,-47.346412658691406,8.072039604187012,0.45
158,MetaDrive-test-weighted-td3,98,230.32848273558545,159423,772,1623.7674758434296,48.21593475341797,-48.3337287902832,11.948116302490234,0.43
159,MetaDrive-test-weighted-td3,98,227.81139969959705,160013,774,1629.1737179756165,52.40408706665039,-53.94680404663086,6.8019609451293945,0.42
160,MetaDrive-test-weighted-td3,98,228.72219669572343,161080,777,1641.1732499599457,49.30729293823242,,12.297088623046875,0.42
161,MetaDrive-test-weighted-td3,98,230.12086313654873,162383,779,1653.4319369792938,49.229427337646484,-50.00872039794922,5.352997779846191,0.43
162,MetaDrive-test-weighted-td3,98,229.46259239563767,163042,781,1659.9547188282013,45.47395706176758,,11.412813186645508,0.43
163,MetaDrive-test-weighted-td3,98,231.04287666781798,164267,784,1674.4401860237122,47.595924377441406,-47.6180419921875,4.621982574462891,0.42
164,MetaDrive-test-weighted-td3,98,226.35874237711585,165186,787,1683.2796669006348,50.07365417480469,,5.069855690002441,0.41
165,MetaDrive-test-weighted-td3,97,226.66249332906466,166461,790,1701.0321760177612,52.423240661621094,-52.340511322021484,84.16460418701172,0.41
166,MetaDrive-test-weighted-td3,97,226.41067949288936,167253,793,1709.2965769767761,48.82023620605469,-47.47210693359375,10.202733039855957,0.39
167,MetaDrive-test-weighted-td3,97,225.58641617824833,168031,795,1716.4100830554962,51.822181701660156,-53.74230194091797,7.460930824279785,0.39
168,MetaDrive-test-weighted-td3,97,216.36817871181051,169763,800,1734.3994629383087,49.56853485107422,-49.39002227783203,40.869876861572266,0.35
169,MetaDrive-test-weighted-td3,97,219.7611645988657,170524,801,1744.0149269104004,50.41752624511719,,5.8227128982543945,0.36
170,MetaDrive-test-weighted-td3,97,218.3806542854213,171063,803,1749.216284751892,44.564231872558594,-43.89005661010742,11.319828987121582,0.36
171,MetaDrive-test-weighted-td3,97,218.82564112815874,172417,805,1764.4070739746094,50.29922103881836,-50.207664489746094,6.372654438018799,0.37
172,MetaDrive-test-weighted-td3,97,220.63135058333083,173232,807,1772.5399520397186,47.14440155029297,,9.945435523986816,0.38
173,MetaDrive-test-weighted-td3,97,220.82964250199552,174365,810,1784.8494100570679,48.99774169921875,-49.854007720947266,9.54684829711914,0.38
174,MetaDrive-test-weighted-td3,97,224.0548423303356,175339,812,1794.3215758800507,49.08302688598633,-50.112945556640625,4.8276872634887695,0.4
175,MetaDrive-test-weighted-td3,97,218.25425439114468,176188,815,1802.7270970344543,50.1668701171875,,168.11790466308594,0.37
176,MetaDrive-test-weighted-td3,97,219.74410681430393,177598,818,1819.4567821025848,47.67998123168945,,57.403045654296875,0.38
177,MetaDrive-test-weighted-td3,97,217.45264116083462,178288,820,1828.185497045517,44.44519805908203,,10.235536575317383,0.37
178,MetaDrive-test-weighted-td3,97,218.51941786340555,179400,822,1841.6908557415009,49.28302001953125,,6.508981704711914,0.38
179,MetaDrive-test-weighted-td3,97,216.94001474072718,180528,824,1854.5886907577515,48.85499954223633,,5.213544845581055,0.38
180,MetaDrive-test-weighted-td3,97,215.60556032230025,181152,826,1860.7535009384155,49.798179626464844,,104.64418029785156,0.38
181,MetaDrive-test-weighted-td3,97,214.60927296066714,182153,827,1870.8707058429718,50.161102294921875,-50.87715148925781,5.516651153564453,0.38
182,MetaDrive-test-weighted-td3,97,214.39385956709833,183619,830,1886.4668228626251,48.65292739868164,-49.32948684692383,6.727999687194824,0.37
183,MetaDrive-test-weighted-td3,97,215.4416898085057,184478,831,1894.840898990631,51.46331024169922,,6.02495002746582,0.36
184,MetaDrive-test-weighted-td3,97,217.0704825510248,185042,832,1900.695690870285,50.35282897949219,,5.200431823730469,0.37
185,MetaDrive-test-weighted-td3,97,219.1043008895998,186624,836,1916.1907949447632,45.486873626708984,,126.51861572265625,0.39
186,MetaDrive-test-weighted-td3,97,219.74466108769334,187127,837,1921.1427628993988,51.8319206237793,-52.29059600830078,8.151863098144531,0.38
187,MetaDrive-test-weighted-td3,97,219.04479745600503,188150,839,1931.7296228408813,47.02812194824219,,191.52706909179688,0.38
188,MetaDrive-test-weighted-td3,97,222.9949421277618,189404,842,1945.3241820335388,50.11427307128906,,12.28848934173584,0.4
189,MetaDrive-test-weighted-td3,97,227.7534930996158,190435,844,1956.0319850444794,54.67823028564453,-55.596580505371094,6.365572929382324,0.42
190,MetaDrive-test-weighted-td3,97,226.87377705230702,191104,845,1962.6924767494202,48.618682861328125,,107.16018676757812,0.42
191,MetaDrive-test-weighted-td3,97,227.3591773857708,192559,848,1977.0542738437653,47.6341438293457,-48.286285400390625,11.451343536376953,0.42
192,MetaDrive-test-weighted-td3,97,229.2719883446256,193177,849,1983.7044820785522,49.300350189208984,-50.007354736328125,5.450227737426758,0.43
193,MetaDrive-test-weighted-td3,97,229.67412323628244,194363,851,1995.4884400367737,46.63513946533203,-47.189510345458984,49.59443664550781,0.44
194,MetaDrive-test-weighted-td3,97,225.35183575730233,195250,853,2005.1516590118408,46.35086441040039,,24.086320877075195,0.44
195,MetaDrive-test-weighted-td3,97,226.48285260047885,196103,856,2012.6619818210602,49.31010055541992,-49.66023254394531,4.584534645080566,0.45
196,MetaDrive-test-weighted-td3,97,232.46463038220713,197448,858,2027.483855009079,50.39600372314453,,6.916620254516602,0.47
197,MetaDrive-test-weighted-td3,97,231.73549149670035,198120,859,2035.0016770362854,49.967254638671875,,18.57115364074707,0.47
198,MetaDrive-test-weighted-td3,97,234.02362771715642,199129,862,2047.5848059654236,49.77719497680664,-49.73002624511719,5.748544216156006,0.48
199,MetaDrive-test-weighted-td3,97,236.10643871727086,200130,863,2059.453809738159,48.23200607299805,,6.842630386352539,0.48
200,MetaDrive-test-weighted-td3,97,236.54823856702725,201050,865,2069.081871032715,47.47944259643555,,8.358193397521973,0.48
201,MetaDrive-test-weighted-td3,97,235.19049495924372,202533,870,2084.6608119010925,50.46470260620117,-51.054786682128906,7.918038845062256,0.47
202,MetaDrive-test-weighted-td3,97,238.0752089867795,203087,871,2090.8048758506775,50.30012893676758,-50.438480377197266,6.19196891784668,0.48
203,MetaDrive-test-weighted-td3,97,238.62565287255563,204325,874,2104.2947051525116,51.39716339111328,-51.55564498901367,6.903461456298828,0.47
204,MetaDrive-test-weighted-td3,97,239.40262943820312,205374,876,2115.69646692276,51.12203598022461,,9.29971981048584,0.46
205,MetaDrive-test-weighted-td3,97,241.34535481465005,206658,878,2128.0909678936005,48.46968078613281,,12.951336860656738,0.47
206,MetaDrive-test-weighted-td3,97,241.85814799190436,207306,879,2135.248639822006,50.539634704589844,,5.335723876953125,0.47
207,MetaDrive-test-weighted-td3,97,244.01789177070938,208211,881,2143.487250804901,45.911949157714844,-45.90086364746094,7.448607444763184,0.48
208,MetaDrive-test-weighted-td3,97,243.76863290908142,209535,884,2158.3175427913666,49.907737731933594,-50.15622329711914,5.056718349456787,0.49
209,MetaDrive-test-weighted-td3,97,244.16051284704497,210630,887,2169.6084640026093,49.626434326171875,,9.406631469726562,0.48
210,MetaDrive-test-weighted-td3,97,246.98912352720632,211350,888,2177.3192279338837,50.80770492553711,,10.841106414794922,0.49
211,MetaDrive-test-weighted-td3,97,244.26719760022144,212439,890,2189.1295318603516,46.76142120361328,-47.116859436035156,5.93388557434082,0.49
212,MetaDrive-test-weighted-td3,97,243.87871042250208,213673,893,2202.472007751465,50.44718933105469,-50.38372802734375,3.4237303733825684,0.5
213,MetaDrive-test-weighted-td3,97,243.0828463937948,214315,894,2209.1781051158905,50.01580047607422,-50.39659881591797,6.836099147796631,0.5
214,MetaDrive-test-weighted-td3,97,244.02419350118998,215115,897,2217.6600160598755,48.927642822265625,-49.465431213378906,5.972816467285156,0.51
215,MetaDrive-test-weighted-td3,97,247.25513560507162,216010,899,2226.6034569740295,47.81438446044922,,80.04969787597656,0.52
216,MetaDrive-test-weighted-td3,97,247.9798620350453,217756,903,2244.892247915268,48.725006103515625,,6.305373191833496,0.52
217,MetaDrive-test-weighted-td3,97,245.8869163420864,218210,904,2249.3807899951935,51.55381774902344,,8.426700592041016,0.52
218,MetaDrive-test-weighted-td3,96,242.74000216770165,219121,907,2260.924455881119,53.755096435546875,-53.69342803955078,3.1069583892822266,0.5
219,MetaDrive-test-weighted-td3,96,240.9943272077953,220369,911,2273.628571033478,46.908973693847656,-46.818721771240234,14.399297714233398,0.5
220,MetaDrive-test-weighted-td3,96,242.4198305259166,221351,914,2283.828665971756,49.0941162109375,-49.4488639831543,10.949811935424805,0.5
221,MetaDrive-test-weighted-td3,96,244.85622627895359,222565,916,2297.0512409210205,51.898956298828125,-52.44462966918945,11.42485237121582,0.51
222,MetaDrive-test-weighted-td3,96,241.66883882114288,223060,918,2301.8844850063324,49.746726989746094,,7.82272481918335,0.51
223,MetaDrive-test-weighted-td3,96,242.6149960290095,224356,921,2315.321601867676,51.1749153137207,,7.818853378295898,0.52
224,MetaDrive-test-weighted-td3,96,240.78986367035017,225284,923,2325.9765298366547,50.71632766723633,,6.091512203216553,0.5
225,MetaDrive-test-weighted-td3,96,241.1871374481652,226604,925,2340.2371010780334,50.546424865722656,,10.40127182006836,0.5
226,MetaDrive-test-weighted-td3,96,242.59853850521827,227434,927,2348.778023958206,48.782867431640625,,11.38846206665039,0.51
227,MetaDrive-test-weighted-td3,96,242.7915049877213,228109,929,2355.6769618988037,51.32597351074219,-50.900917053222656,9.0713472366333,0.51
228,MetaDrive-test-weighted-td3,96,240.94922301087576,229051,931,2364.68391084671,51.19480895996094,-51.179100036621094,140.50067138671875,0.51
229,MetaDrive-test-weighted-td3,96,236.78811679726812,230478,935,2381.5953979492188,51.827003479003906,,7.570988655090332,0.49
230,MetaDrive-test-weighted-td3,96,235.11906061409525,231053,936,2387.197657108307,46.18134307861328,-46.01311111450195,7.210973739624023,0.49
231,MetaDrive-test-weighted-td3,96,234.73622889720588,232210,938,2399.1895060539246,53.005897521972656,,6.475436210632324,0.49
232,MetaDrive-test-weighted-td3,96,236.04720644395314,233211,939,2410.77414894104,47.9905891418457,-49.72744369506836,32.80904006958008,0.49
233,MetaDrive-test-weighted-td3,96,237.01875299664607,234010,941,2418.223309993744,48.220245361328125,,5.510749816894531,0.48
234,MetaDrive-test-weighted-td3,96,229.3976372651467,235082,944,2428.8015217781067,48.42369079589844,,65.73776245117188,0.45
235,MetaDrive-test-weighted-td3,96,222.97303542150766,236873,949,2449.4140129089355,50.38207244873047,-51.12897491455078,3.549064874649048,0.41
236,MetaDrive-test-weighted-td3,96,222.3266345656822,237186,950,2452.5181868076324,50.868133544921875,,17.050796508789062,0.41
237,MetaDrive-test-weighted-td3,96,221.59395845656118,238198,953,2461.4833369255066,53.11008834838867,,5.223167419433594,0.4
238,MetaDrive-test-weighted-td3,96,223.74090258297755,239309,956,2474.1236851215363,48.914512634277344,-48.67755126953125,7.254901885986328,0.41
239,MetaDrive-test-weighted-td3,96,220.41519219505702,240069,958,2482.742402076721,48.7740364074707,-48.452186584472656,10.817658424377441,0.39
240,MetaDrive-test-weighted-td3,96,218.88127997644904,241233,961,2493.87424492836,52.405792236328125,-51.496490478515625,8.99793815612793,0.38
241,MetaDrive-test-weighted-td3,96,218.29893397116524,242102,963,2502.8446838855743,52.86113739013672,,16.745777130126953,0.39
242,MetaDrive-test-weighted-td3,96,220.8963494988524,243140,965,2513.6354370117188,50.07024383544922,,6.4401936531066895,0.4
243,MetaDrive-test-weighted-td3,96,222.88590945580046,244332,968,2527.5424270629883,51.00355911254883,,3.8099477291107178,0.41
244,MetaDrive-test-weighted-td3,96,223.14180566167934,245606,971,2541.571151971817,47.04712677001953,,5.781493186950684,0.41
245,MetaDrive-test-weighted-td3,96,223.83056156094347,246064,972,2547.174864768982,46.822425842285156,,4.820037841796875,0.41
246,MetaDrive-test-weighted-td3,96,222.86104835578848,247448,974,2562.127941131592,48.67752456665039,,8.707889556884766,0.41
247,MetaDrive-test-weighted-td3,96,224.53011555134245,248008,975,2568.6722910404205,51.17138671875,,69.66773986816406,0.42
248,MetaDrive-test-weighted-td3,96,222.9963180686431,249009,976,2580.275303840637,49.63926696777344,-49.7526969909668,31.699888229370117,0.42
249,MetaDrive-test-weighted-td3,96,219.6913005561217,250732,979,2598.2800228595734,49.71412658691406,,15.495992660522461,0.4
250,MetaDrive-test-weighted-td3,96,219.4029299650709,251159,980,2602.109335899353,46.143577575683594,-46.508056640625,24.381507873535156,0.4
251,MetaDrive-test-weighted-td3,96,220.03438863916057,252451,983,2615.4177479743958,53.06018829345703,-53.088165283203125,5.194021224975586,0.39
252,MetaDrive-test-weighted-td3,96,218.20236732097354,253208,985,2623.7051799297333,50.68423080444336,,5.8942975997924805,0.38
253,MetaDrive-test-weighted-td3,96,219.13208012483517,254209,986,2635.6714680194855,46.44763946533203,-46.31671142578125,46.467742919921875,0.38
254,MetaDrive-test-weighted-td3,96,220.17287957667807,255210,987,2650.7316410541534,48.83439254760742,,8.258926391601562,0.38
255,MetaDrive-test-weighted-td3,96,220.60100165943805,256100,989,2658.874354839325,50.919376373291016,,5.887660026550293,0.38
256,MetaDrive-test-weighted-td3,96,224.6243116957125,257477,991,2673.113455057144,51.67261505126953,-51.20322799682617,4.845877647399902,0.39
257,MetaDrive-test-weighted-td3,96,227.44470319290906,258055,992,2678.3489179611206,52.143836975097656,-52.19956588745117,13.10851001739502,0.4
258,MetaDrive-test-weighted-td3,96,228.16863358544532,259503,994,2693.6875569820404,49.696224212646484,-49.54470443725586,15.007749557495117,0.4
259,MetaDrive-test-weighted-td3,96,228.88260836731578,260554,997,2704.1046109199524,53.092987060546875,,8.391743659973145,0.4
260,MetaDrive-test-weighted-td3,96,230.65776982779883,261804,999,2719.417079925537,46.0274658203125,,5.277731895446777,0.4
261,MetaDrive-test-weighted-td3,96,234.2724849550141,262674,1000,2729.65851688385,48.7606201171875,,3.395106077194214,0.41
262,MetaDrive-test-weighted-td3,96,235.70315828815362,263145,1001,2733.7213718891144,54.84617614746094,-55.5085334777832,10.107778549194336,0.42
263,MetaDrive-test-weighted-td3,96,232.59075546470976,264288,1004,2744.242254972458,52.07098388671875,,7.111425876617432,0.4
264,MetaDrive-test-weighted-td3,96,234.73432707648567,265136,1006,2753.069242954254,51.6328125,,12.599126815795898,0.41
265,MetaDrive-test-weighted-td3,96,240.89796880769714,266561,1008,2769.36958193779,51.82509231567383,-52.299705505371094,7.962362289428711,0.43
266,MetaDrive-test-weighted-td3,96,243.19477945156507,267039,1009,2774.6837828159332,51.31385040283203,-50.82734298706055,5.658713340759277,0.44
267,MetaDrive-test-weighted-td3,96,241.75783486482666,268059,1011,2787.3141617774963,54.393497467041016,-55.13496398925781,4.3798747062683105,0.43
268,MetaDrive-test-weighted-td3,96,245.19344933930526,269774,1013,2804.217440843582,49.399169921875,,6.4820756912231445,0.44
269,MetaDrive-test-weighted-td3,96,245.14361392888134,270198,1014,2808.0941219329834,52.31060791015625,,6.9254069328308105,0.44
270,MetaDrive-test-weighted-td3,96,243.646384015867,271352,1016,2822.5972368717194,51.778770446777344,,6.397743225097656,0.43
271,MetaDrive-test-weighted-td3,96,245.66608377046563,272097,1017,2829.9246728420258,52.34174346923828,-53.3643913269043,5.9140625,0.44
272,MetaDrive-test-weighted-td3,96,244.2622472610433,273095,1020,2839.809018135071,50.97789001464844,-50.43571090698242,5.325995922088623,0.43
273,MetaDrive-test-weighted-td3,96,244.99564806349062,274096,1021,2853.463382959366,52.098976135253906,,6.40555477142334,0.42
274,MetaDrive-test-weighted-td3,96,245.13008834573083,275097,1022,2863.837789773941,47.948936462402344,-49.059364318847656,11.044414520263672,0.42
275,MetaDrive-test-weighted-td3,96,245.0448846721474,276387,1025,2875.346251964569,52.85149002075195,-53.28184127807617,5.377293586730957,0.43
276,MetaDrive-test-weighted-td3,96,246.42058410872204,277389,1027,2884.873543739319,52.45801544189453,-52.52329635620117,5.361212730407715,0.44
277,MetaDrive-test-weighted-td3,96,246.78258562529044,278390,1028,2894.684932947159,52.977439880371094,,8.032264709472656,0.44
278,MetaDrive-test-weighted-td3,96,247.66096686107798,279391,1029,2905.0336849689484,55.42438507080078,-55.368736267089844,5.619419097900391,0.43
279,MetaDrive-test-weighted-td3,96,245.0241479349603,280141,1032,2912.9352889060974,53.98647689819336,-54.47476577758789,15.271888732910156,0.42
280,MetaDrive-test-weighted-td3,96,251.79526857325206,281414,1034,2926.503390789032,53.20107650756836,,7.608154296875,0.44
281,MetaDrive-test-weighted-td3,96,252.19415778409478,282346,1036,2935.2651088237762,48.74933624267578,,12.395280838012695,0.44
282,MetaDrive-test-weighted-td3,96,249.57518466452402,283025,1038,2942.369348049164,53.587032318115234,-53.64722442626953,6.250128746032715,0.44
283,MetaDrive-test-weighted-td3,96,253.27021807274068,284155,1040,2953.9067828655243,52.078346252441406,-52.12151336669922,6.626844882965088,0.46
284,MetaDrive-test-weighted-td3,96,253.8104431254499,285125,1043,2963.6693108081818,53.474266052246094,-54.33314514160156,8.094446182250977,0.47
285,MetaDrive-test-weighted-td3,96,259.57584923039894,286222,1045,2975.0614037513733,50.15254592895508,,24.202476501464844,0.49
286,MetaDrive-test-weighted-td3,96,263.1705940914702,287507,1047,2986.8760328292847,52.648868560791016,-53.000179290771484,17.326675415039062,0.51
287,MetaDrive-test-weighted-td3,96,261.83228552530056,288310,1049,2994.8955059051514,51.566734313964844,,14.447761535644531,0.52
288,MetaDrive-test-weighted-td3,96,262.3726189178968,289079,1051,3002.7809047698975,51.39259719848633,-51.72352600097656,5.570504188537598,0.52
289,MetaDrive-test-weighted-td3,96,260.3139608029117,290320,1054,3015.4286909103394,51.00342559814453,,8.638711929321289,0.51
290,MetaDrive-test-weighted-td3,96,262.522524694125,291231,1056,3025.566374063492,48.749534606933594,-48.76293182373047,162.86004638671875,0.51
291,MetaDrive-test-weighted-td3,96,263.48621535495226,292335,1059,3035.7020909786224,52.458011627197266,-52.58184814453125,5.859832763671875,0.52
292,MetaDrive-test-weighted-td3,96,262.9334256438884,293100,1062,3043.314723968506,51.392372131347656,,29.349027633666992,0.52
293,MetaDrive-test-weighted-td3,96,258.35675435209976,294364,1065,3055.8385660648346,54.274471282958984,,6.886268615722656,0.51
294,MetaDrive-test-weighted-td3,96,261.03135688430996,295394,1067,3066.080757856369,52.54846954345703,,10.690235137939453,0.52
295,MetaDrive-test-weighted-td3,96,261.1728213792301,296906,1069,3085.0476610660553,53.70030975341797,,126.7269058227539,0.51
296,MetaDrive-test-weighted-td3,96,262.8719469389322,297420,1070,3089.8907771110535,55.30973434448242,,7.051627159118652,0.52
297,MetaDrive-test-weighted-td3,96,264.1885511293443,298337,1071,3101.9322209358215,51.30558395385742,-50.76709747314453,22.357072830200195,0.52
298,MetaDrive-test-weighted-td3,96,264.1745249707346,299338,1072,3113.2303290367126,48.75944137573242,,11.760046005249023,0.52
299,MetaDrive-test-weighted-td3,96,266.633644091079,300167,1073,3123.369880914688,49.996368408203125,-49.87862777709961,6.765484809875488,0.53
300,MetaDrive-test-weighted-td3,96,265.10983786355223,301273,1075,3133.6367568969727,50.43910598754883,-50.12220001220703,17.36410140991211,0.53
301,MetaDrive-test-weighted-td3,96,264.85181856858,302499,1078,3146.698068857193,53.311546325683594,-54.085384368896484,5.8083815574646,0.53
302,MetaDrive-test-weighted-td3,96,265.80731539796716,303209,1079,3154.311012983322,52.60844802856445,-52.75303268432617,12.87331771850586,0.54
303,MetaDrive-test-weighted-td3,96,268.34729428219407,304551,1081,3169.1887300014496,50.91659927368164,-51.6113166809082,18.504993438720703,0.55
304,MetaDrive-test-weighted-td3,96,270.62052630458334,305320,1082,3176.8217928409576,50.4923095703125,,12.12939167022705,0.56
305,MetaDrive-test-weighted-td3,96,270.29555681315907,306064,1083,3183.98149394989,55.01483154296875,,29.936065673828125,0.56
306,MetaDrive-test-weighted-td3,96,269.90565115867275,307065,1084,3194.8942000865936,51.87444305419922,-52.93096923828125,3.548649311065674,0.56
307,MetaDrive-test-weighted-td3,96,267.65504832715555,308073,1087,3204.906177997589,51.57025146484375,-52.260704040527344,12.567329406738281,0.57
308,MetaDrive-test-weighted-td3,96,267.3671707023206,309074,1088,3217.6834197044373,48.96186065673828,,5.9237823486328125,0.56
309,MetaDrive-test-weighted-td3,96,270.46186648324164,310374,1090,3232.3110518455505,52.00092697143555,,14.44954776763916,0.58
310,MetaDrive-test-weighted-td3,96,269.5575892450635,311495,1092,3244.0223989486694,51.06855392456055,-50.93234634399414,11.459859848022461,0.58
311,MetaDrive-test-weighted-td3,96,269.20369496253977,312208,1093,3251.641415834427,51.73288345336914,,22.048826217651367,0.57
312,MetaDrive-test-weighted-td3,96,269.6529355429188,313158,1095,3260.0974037647247,50.135597229003906,,83.60696411132812,0.57
313,MetaDrive-test-weighted-td3,96,270.66689095685393,314258,1097,3270.5847170352936,56.39398956298828,,2.9427967071533203,0.58
314,MetaDrive-test-weighted-td3,96,266.5044102196237,315183,1100,3281.341645002365,51.57617950439453,-51.47197723388672,5.546140670776367,0.57
315,MetaDrive-test-weighted-td3,96,266.88705953422107,316475,1103,3294.282944917679,54.299137115478516,-54.69928741455078,22.447919845581055,0.57
316,MetaDrive-test-weighted-td3,96,268.442129449612,317355,1105,3302.1971230506897,54.50707244873047,-55.00569534301758,23.320335388183594,0.58
317,MetaDrive-test-weighted-td3,96,266.9089411441042,318356,1106,3312.44287776947,49.93492126464844,,13.569803237915039,0.57
318,MetaDrive-test-weighted-td3,96,264.0441180635729,319589,1108,3324.1654829978943,52.578758239746094,-52.876930236816406,13.849174499511719,0.57
319,MetaDrive-test-weighted-td3,96,263.79576152961454,320135,1109,3330.1114439964294,50.33837890625,-50.48973083496094,87.16712951660156,0.56
320,MetaDrive-test-weighted-td3,96,264.54835817237944,321463,1111,3342.661530017853,50.79094696044922,-51.144222259521484,7.077188014984131,0.57
321,MetaDrive-test-weighted-td3,96,262.49192565602067,322228,1113,3350.5381350517273,51.771305084228516,,10.790752410888672,0.57
322,MetaDrive-test-weighted-td3,96,265.58657734130713,323311,1115,3361.6709938049316,54.257686614990234,-55.84910202026367,14.573629379272461,0.58
323,MetaDrive-test-weighted-td3,96,263.2704688124694,324212,1118,3371.0996899604797,53.655235290527344,,8.37466049194336,0.58
324,MetaDrive-test-weighted-td3,96,265.31098102710786,325016,1119,3378.982790708542,53.927391052246094,,7.304172992706299,0.58
325,MetaDrive-test-weighted-td3,96,260.5475434495472,326050,1122,3388.84680891037,50.512264251708984,,8.63354206085205,0.58
326,MetaDrive-test-weighted-td3,96,260.74044489084145,327087,1124,3400.9233849048615,53.941749572753906,-55.56778335571289,17.072654724121094,0.57
327,MetaDrive-test-weighted-td3,96,259.64788514847174,328091,1127,3411.6497209072113,54.41398620605469,-53.9823112487793,5.73752498626709,0.55
328,MetaDrive-test-weighted-td3,96,258.0706286254394,329729,1129,3428.5838010311127,57.17466354370117,-57.721012115478516,10.013221740722656,0.56
329,MetaDrive-test-weighted-td3,96,261.5569545145302,330602,1131,3439.565027952194,53.050933837890625,,8.64144515991211,0.56
330,MetaDrive-test-weighted-td3,96,261.31306981076546,331078,1132,3444.253473997116,55.250640869140625,,25.0848388671875,0.56
331,MetaDrive-test-weighted-td3,96,259.2819137193954,332015,1134,3452.7949838638306,54.425880432128906,-55.180511474609375,5.553860664367676,0.55
332,MetaDrive-test-weighted-td3,96,257.6072538113976,333203,1138,3463.5853259563446,52.235782623291016,-53.602630615234375,9.508861541748047,0.54
333,MetaDrive-test-weighted-td3,96,257.30999901712954,334033,1139,3472.6410920619965,51.67628860473633,-51.983917236328125,24.331985473632812,0.54
334,MetaDrive-test-weighted-td3,96,261.9038089817401,335744,1141,3492.0110750198364,56.41950225830078,,138.4212646484375,0.54
335,MetaDrive-test-weighted-td3,96,259.0122927332777,336176,1143,3496.5171508789062,55.47039031982422,,22.57041358947754,0.53
336,MetaDrive-test-weighted-td3,96,257.467088094638,337503,1145,3509.0725507736206,53.07691955566406,-53.26272201538086,4.618862628936768,0.53
337,MetaDrive-test-weighted-td3,96,258.22992193409897,338097,1146,3515.4555399417877,54.80012893676758,-55.725120544433594,9.346209526062012,0.53
338,MetaDrive-test-weighted-td3,96,257.27607788773594,339257,1149,3525.7655498981476,49.33756637573242,-47.842350006103516,30.623750686645508,0.53
339,MetaDrive-test-weighted-td3,96,254.43754100977253,340381,1153,3537.2627499103546,54.7971305847168,-55.022762298583984,16.931882858276367,0.52
340,MetaDrive-test-weighted-td3,96,256.02296791858333,341066,1154,3543.81360411644,53.287906646728516,,12.86056900024414,0.53
341,MetaDrive-test-weighted-td3,96,257.7292518053537,342195,1156,3555.0379300117493,58.230690002441406,-58.08616638183594,8.723733901977539,0.54
342,MetaDrive-test-weighted-td3,96,259.1789862569829,343596,1159,3567.783170938492,50.536956787109375,,11.53049087524414,0.55
343,MetaDrive-test-weighted-td3,96,260.78421344282737,344191,1161,3573.8456428050995,52.91498947143555,-53.55488586425781,24.507678985595703,0.56
344,MetaDrive-test-weighted-td3,96,262.6145443617516,345481,1164,3587.278741836548,52.04256057739258,-52.888771057128906,11.757076263427734,0.55
345,MetaDrive-test-weighted-td3,96,262.6584607809686,346170,1165,3594.2742450237274,50.016475677490234,,8.235504150390625,0.55
346,MetaDrive-test-weighted-td3,96,256.87354326373577,347412,1169,3607.0171048641205,57.36035919189453,,9.053817749023438,0.54
347,MetaDrive-test-weighted-td3,96,253.56221737896576,348135,1171,3614.400379896164,56.37950134277344,-55.799339294433594,7.687821865081787,0.53
348,MetaDrive-test-weighted-td3,96,253.37933375609157,349097,1173,3623.7055909633636,56.227569580078125,-56.634796142578125,9.051033020019531,0.53
349,MetaDrive-test-weighted-td3,96,252.45400886118338,350403,1176,3635.6530148983,53.843170166015625,-53.62504959106445,8.939567565917969,0.53
350,MetaDrive-test-weighted-td3,96,254.47079433693622,351327,1178,3645.0001027584076,52.64054870605469,-53.03501510620117,7.0147624015808105,0.53
351,MetaDrive-test-weighted-td3,96,251.2489711097219,352072,1180,3652.7036559581757,54.73805236816406,,81.85969543457031,0.51
352,MetaDrive-test-weighted-td3,96,248.76249532112806,353194,1182,3663.428205013275,52.447914123535156,,20.004772186279297,0.5
353,MetaDrive-test-weighted-td3,96,251.052839175976,354629,1185,3676.3922069072723,53.409610748291016,-52.961761474609375,13.375677108764648,0.51
354,MetaDrive-test-weighted-td3,96,250.5001191530728,355403,1186,3684.1451449394226,56.96052551269531,-57.156646728515625,13.91091537475586,0.51
355,MetaDrive-test-weighted-td3,96,251.5764325631609,356007,1187,3689.6892688274384,51.90088653564453,-52.53932189941406,5.286086082458496,0.52
356,MetaDrive-test-weighted-td3,96,249.25424318470024,357711,1190,3707.8924190998077,54.229774475097656,-54.360111236572266,13.584100723266602,0.51
357,MetaDrive-test-weighted-td3,96,249.3484597425842,358430,1191,3715.5977568626404,53.16118621826172,,10.774667739868164,0.51
358,MetaDrive-test-weighted-td3,96,248.15924672369636,359338,1193,3724.426929950714,53.941253662109375,,11.582696914672852,0.52
359,MetaDrive-test-weighted-td3,96,247.09249909565742,360241,1195,3732.682466983795,52.44648361206055,-52.264732360839844,6.880732536315918,0.52
360,MetaDrive-test-weighted-td3,96,248.6641985991606,361384,1197,3743.599259853363,56.05406951904297,,7.568675994873047,0.52
361,MetaDrive-test-weighted-td3,96,247.7894740794602,362058,1199,3749.667462825775,50.262786865234375,,9.769744873046875,0.52
362,MetaDrive-test-weighted-td3,96,250.13001470318224,363302,1201,3762.989145040512,56.9621696472168,,4.347789764404297,0.53
363,MetaDrive-test-weighted-td3,96,251.28930809655844,364292,1203,3772.1728167533875,53.3971061706543,,8.211353302001953,0.54
364,MetaDrive-test-weighted-td3,96,252.88714765240198,365379,1205,3782.85049700737,55.99189758300781,-55.99591827392578,14.702104568481445,0.55
365,MetaDrive-test-weighted-td3,96,252.1085387767944,366447,1207,3793.694797039032,56.08211898803711,-55.72884750366211,6.961337089538574,0.54
366,MetaDrive-test-weighted-td3,96,250.39614157131004,367448,1208,3804.1414461135864,51.81868362426758,,6.305900573730469,0.53
367,MetaDrive-test-weighted-td3,96,250.97469088741298,368110,1209,3811.5333359241486,59.79608154296875,,10.358868598937988,0.53
368,MetaDrive-test-weighted-td3,96,248.50955461036176,369131,1212,3821.891312122345,56.56871032714844,-56.203369140625,4.380061626434326,0.51
369,MetaDrive-test-weighted-td3,96,246.37097047811238,370045,1214,3831.6886489391327,56.92613983154297,-57.362056732177734,6.5853118896484375,0.5
370,MetaDrive-test-weighted-td3,96,246.91836464334583,371492,1216,3846.0811760425568,56.310874938964844,,5.570013046264648,0.48
371,MetaDrive-test-weighted-td3,96,249.95875740937922,372419,1217,3856.5231170654297,50.377017974853516,-50.46590805053711,26.634044647216797,0.49
372,MetaDrive-test-weighted-td3,96,249.1211499814842,373332,1219,3868.2773690223694,54.74654006958008,,7.449465751647949,0.49
373,MetaDrive-test-weighted-td3,96,251.94522428740774,374526,1222,3878.4823729991913,54.75202941894531,,13.235666275024414,0.5
374,MetaDrive-test-weighted-td3,96,251.73172743452594,375465,1224,3886.8504769802094,56.264434814453125,-56.81900405883789,7.07829475402832,0.51
375,MetaDrive-test-weighted-td3,96,250.19834468264463,376021,1225,3891.861904144287,53.69373321533203,-54.05400848388672,38.76285171508789,0.51
376,MetaDrive-test-weighted-td3,96,251.10206202209,377471,1227,3906.577742099762,56.64787292480469,-56.9940185546875,6.783395767211914,0.51
377,MetaDrive-test-weighted-td3,96,251.6015219485815,378343,1228,3916.066787958145,54.546058654785156,-54.62969207763672,24.820262908935547,0.51
378,MetaDrive-test-weighted-td3,96,254.85231882993972,379154,1229,3925.3350389003754,56.31523895263672,,13.848956108093262,0.52
379,MetaDrive-test-weighted-td3,96,254.07949443061614,380374,1231,3939.9199211597443,55.78308868408203,,5.8436784744262695,0.52
380,MetaDrive-test-weighted-td3,96,255.30305825063996,381081,1232,3947.996813058853,53.03963088989258,-54.23063659667969,123.36924743652344,0.53
381,MetaDrive-test-weighted-td3,96,256.8633305138575,382619,1234,3962.934962749481,54.24006652832031,-56.01125717163086,158.95840454101562,0.54
382,MetaDrive-test-weighted-td3,96,259.855270858003,383291,1235,3971.1167747974396,52.55997085571289,-53.376922607421875,171.59237670898438,0.55
383,MetaDrive-test-weighted-td3,96,260.6102439825733,384499,1238,3983.346825838089,53.101070404052734,-52.584312438964844,18.637670516967773,0.55
384,MetaDrive-test-weighted-td3,96,261.7491570356512,385324,1239,3991.897430896759,53.82469940185547,,4.335918426513672,0.55
385,MetaDrive-test-weighted-td3,96,260.04425091233975,386573,1241,4004.737955093384,55.46872329711914,-55.01715850830078,4.4791579246521,0.55
386,MetaDrive-test-weighted-td3,96,257.42138240545864,387117,1244,4010.0124459266663,60.496429443359375,-60.63584899902344,15.142980575561523,0.54
387,MetaDrive-test-weighted-td3,96,257.10482403029187,388376,1246,4022.684114933014,56.211700439453125,,12.154510498046875,0.54
388,MetaDrive-test-weighted-td3,96,258.0667980276037,389377,1247,4031.536222934723,52.21807098388672,-53.025970458984375,12.341419219970703,0.53
389,MetaDrive-test-weighted-td3,96,260.45409887405214,390637,1249,4043.612604856491,50.70233154296875,-51.58363342285156,46.06827926635742,0.54
390,MetaDrive-test-weighted-td3,96,260.89714972577275,391148,1250,4049.280695915222,54.95069122314453,,8.4568510055542,0.53
391,MetaDrive-test-weighted-td3,96,263.6694228031784,392811,1252,4066.7076478004456,53.137474060058594,-53.498863220214844,7.125085830688477,0.54
392,MetaDrive-test-weighted-td3,96,265.3494437329982,393662,1253,4075.6963889598846,56.943077087402344,,7.198419570922852,0.55
393,MetaDrive-test-weighted-td3,96,262.3095707295974,394322,1255,4081.989825963974,56.22820281982422,,7.331848621368408,0.54
394,MetaDrive-test-weighted-td3,96,262.79930565644287,395167,1256,4092.04611992836,56.82743835449219,-57.45570755004883,7.998620510101318,0.54
395,MetaDrive-test-weighted-td3,96,263.6227607767833,396168,1257,4101.158541917801,53.48561096191406,,5.6133222579956055,0.53
396,MetaDrive-test-weighted-td3,96,268.00389855303115,397064,1258,4112.060271024704,54.671268463134766,,9.386054039001465,0.54
397,MetaDrive-test-weighted-td3,96,270.20142800486417,398658,1260,4127.862550973892,56.85759735107422,,9.389450073242188,0.54
398,MetaDrive-test-weighted-td3,96,268.9435198178803,399005,1261,4131.2828810215,53.60893630981445,-53.41032028198242,11.896462440490723,0.53
399,MetaDrive-test-weighted-td3,96,272.0203201548357,400192,1263,4142.4571697711945,57.54917907714844,,4.84922981262207,0.55
400,MetaDrive-test-weighted-td3,96,271.655824779153,401997,1265,4160.719935894012,57.48109436035156,-57.27973937988281,7.080376625061035,0.54
401,MetaDrive-test-weighted-td3,96,273.43005766947425,402526,1266,4165.814946889877,54.855228424072266,,19.790485382080078,0.55
402,MetaDrive-test-weighted-td3,96,276.36694734122807,403527,1267,4176.474426031113,59.058231353759766,-58.39280700683594,9.331592559814453,0.55
403,MetaDrive-test-weighted-td3,96,273.57382546395723,404330,1270,4184.299428939819,56.91259765625,,6.5319390296936035,0.54
404,MetaDrive-test-weighted-td3,96,275.86003715940427,405331,1271,4193.153595924377,56.977294921875,-57.46831512451172,3.757937431335449,0.54
405,MetaDrive-test-weighted-td3,96,277.07301290179527,406182,1272,4202.343064069748,56.70912170410156,,8.766252517700195,0.55
406,MetaDrive-test-weighted-td3,96,276.0515522733987,407085,1274,4211.386029958725,53.32078552246094,-53.531639099121094,10.002849578857422,0.54
407,MetaDrive-test-weighted-td3,96,278.99498117548416,408835,1276,4231.9815328121185,52.54533386230469,-53.675540924072266,8.110294342041016,0.54
408,MetaDrive-test-weighted-td3,96,278.83988006126316,409268,1277,4236.450122833252,55.02873611450195,,7.761229515075684,0.54
409,MetaDrive-test-weighted-td3,96,278.7935989264579,410107,1279,4244.69250702858,59.000736236572266,-57.96296310424805,7.404775619506836,0.53
410,MetaDrive-test-weighted-td3,96,278.32191695705933,411211,1281,4256.058388948441,54.35124588012695,-54.28777313232422,6.971243858337402,0.53
411,MetaDrive-test-weighted-td3,96,281.22860077777483,412069,1282,4266.106658935547,55.67192077636719,-55.966121673583984,8.44583511352539,0.54
412,MetaDrive-test-weighted-td3,96,282.03709169990526,413020,1284,4275.905040025711,57.67612838745117,,10.6549711227417,0.54
413,MetaDrive-test-weighted-td3,96,281.12371084097845,414075,1286,4286.412537097931,52.51286315917969,-53.78581237792969,8.910013198852539,0.52
414,MetaDrive-test-weighted-td3,96,280.835988437808,415076,1287,4300.092211961746,56.63146209716797,,8.013197898864746,0.51
415,MetaDrive-test-weighted-td3,96,282.91250084651665,416460,1289,4316.801275014877,56.49973678588867,,44.488136291503906,0.52
416,MetaDrive-test-weighted-td3,96,281.2449075616353,417314,1291,4325.249989032745,56.435707092285156,,7.540864944458008,0.51
417,MetaDrive-test-weighted-td3,96,279.85837081821745,418315,1292,4334.94530081749,56.399330139160156,-56.26567077636719,11.017132759094238,0.5
418,MetaDrive-test-weighted-td3,96,280.87377316575817,419021,1293,4342.466099977493,55.4187126159668,-55.25755310058594,8.79536247253418,0.49
419,MetaDrive-test-weighted-td3,96,279.8110244793061,420263,1296,4354.459640979767,57.46647644042969,-57.99968338012695,76.01297760009766,0.48
420,MetaDrive-test-weighted-td3,96,281.0642455492345,421254,1298,4364.061125993729,55.70676803588867,,14.602088928222656,0.49
421,MetaDrive-test-weighted-td3,96,282.0065777555494,422728,1300,4383.1446080207825,56.999046325683594,,17.360715866088867,0.47
422,MetaDrive-test-weighted-td3,96,283.01689372669335,423729,1301,4395.862862110138,55.732662200927734,-55.76138687133789,4.844358444213867,0.46
423,MetaDrive-test-weighted-td3,96,280.7530838991448,424362,1303,4402.590316057205,59.39073181152344,,4.456268310546875,0.45
424,MetaDrive-test-weighted-td3,96,280.3155663588912,425402,1305,4413.183946847916,60.746612548828125,,9.628483772277832,0.45
425,MetaDrive-test-weighted-td3,96,282.2652087863753,426274,1307,4421.052807807922,57.076576232910156,,8.014102935791016,0.47
426,MetaDrive-test-weighted-td3,96,284.2547457485436,427610,1309,4433.309102058411,56.04408645629883,,4.3434038162231445,0.49
427,MetaDrive-test-weighted-td3,96,285.48728657640567,428761,1311,4447.398525953293,55.460975646972656,-54.538475036621094,7.399757385253906,0.49
428,MetaDrive-test-weighted-td3,96,287.79350696484516,429658,1312,4455.525187969208,55.709312438964844,,14.343157768249512,0.5
429,MetaDrive-test-weighted-td3,96,287.82229498926864,430291,1313,4461.5792899131775,56.718406677246094,-57.391536712646484,6.570318222045898,0.49
430,MetaDrive-test-weighted-td3,96,289.153017416649,431212,1315,4470.44729590416,56.81816101074219,,29.407081604003906,0.5
431,MetaDrive-test-weighted-td3,96,288.84706869804,432495,1317,4484.263675928116,58.471187591552734,-58.069244384765625,5.159750938415527,0.51
432,MetaDrive-test-weighted-td3,96,291.09256983502985,433019,1318,4488.634588956833,54.365657806396484,-55.09428787231445,6.380161285400391,0.52
433,MetaDrive-test-weighted-td3,96,290.55863275051456,434609,1321,4503.536238908768,55.33863830566406,-55.43879318237305,154.9110107421875,0.52
434,MetaDrive-test-weighted-td3,96,290.6837044616211,435199,1322,4509.763617992401,55.761932373046875,-55.2196159362793,8.737101554870605,0.52
435,MetaDrive-test-weighted-td3,96,290.57954347474583,436167,1323,4520.248951911926,53.0947265625,-54.738258361816406,161.78013610839844,0.51
436,MetaDrive-test-weighted-td3,96,291.86584787134444,437168,1324,4531.592045068741,54.92363739013672,,7.82594108581543,0.5
437,MetaDrive-test-weighted-td3,96,291.20473243012185,438211,1327,4542.158300876617,56.32524871826172,-56.74418258666992,5.049464702606201,0.5
438,MetaDrive-test-weighted-td3,96,286.7040171685157,439034,1330,4549.942809104919,57.34466552734375,,6.071827411651611,0.49
439,MetaDrive-test-weighted-td3,96,285.92467746160656,440084,1332,4560.589096784592,50.988746643066406,,9.559709548950195,0.49
440,MetaDrive-test-weighted-td3,96,285.7959802405761,441617,1334,4576.807010889053,57.31138229370117,-57.39863204956055,11.241788864135742,0.48
441,MetaDrive-test-weighted-td3,96,284.3856020301959,442131,1335,4581.575367927551,59.397918701171875,-59.432395935058594,6.500408172607422,0.48
442,MetaDrive-test-weighted-td3,96,286.18124670396355,443027,1337,4589.9349501132965,57.94718933105469,-58.72063446044922,5.102010726928711,0.48
443,MetaDrive-test-weighted-td3,96,284.2476715629147,444270,1339,4601.343147039413,55.0603141784668,,28.076961517333984,0.48
444,MetaDrive-test-weighted-td3,96,283.3729874180416,445853,1341,4616.018564939499,55.835880279541016,-55.970584869384766,7.4931535720825195,0.48
445,MetaDrive-test-weighted-td3,96,283.866731643236,446004,1342,4617.399632692337,54.36323547363281,,4.047268390655518,0.48
446,MetaDrive-test-weighted-td3,96,287.26867486299443,447005,1343,4626.624251842499,57.507080078125,-57.96440887451172,3.888739585876465,0.48
447,MetaDrive-test-weighted-td3,96,287.0911270268379,448492,1346,4641.110151767731,53.60988235473633,,30.90650177001953,0.47
448,MetaDrive-test-weighted-td3,96,287.81671714442143,449330,1347,4648.682148933411,54.445518493652344,,5.876843452453613,0.48
449,MetaDrive-test-weighted-td3,96,285.3609170557269,450350,1349,4658.972170829773,55.25802230834961,,11.158730506896973,0.47
450,MetaDrive-test-weighted-td3,96,285.34043781023365,451600,1351,4672.6069049835205,56.63650894165039,,4.716126918792725,0.47
451,MetaDrive-test-weighted-td3,96,286.18917745953115,452121,1352,4677.693901062012,54.47996520996094,-55.96882629394531,176.679443359375,0.48
452,MetaDrive-test-weighted-td3,96,286.7664602359644,453720,1355,4696.0554459095,55.38032150268555,,7.310090065002441,0.48
453,MetaDrive-test-weighted-td3,96,287.1844189045529,454622,1356,4706.102910995483,52.0349006652832,,6.332121849060059,0.48
454,MetaDrive-test-weighted-td3,96,281.87910492400727,455503,1358,4715.083359003067,57.41169357299805,-57.47591781616211,3.8745217323303223,0.48
455,MetaDrive-test-weighted-td3,96,281.1207444425278,456554,1360,4725.538973808289,52.056312561035156,,10.912145614624023,0.47
456,MetaDrive-test-weighted-td3,96,283.49006535729694,457263,1361,4733.385927915573,53.45077896118164,-54.00679397583008,3.876239538192749,0.48
457,MetaDrive-test-weighted-td3,96,283.6565681542047,458048,1362,4741.317734718323,57.45191955566406,,4.359269142150879,0.47
458,MetaDrive-test-weighted-td3,96,281.3197102723588,459693,1365,4757.895410776138,53.95962142944336,-54.38397216796875,6.931596755981445,0.47
459,MetaDrive-test-weighted-td3,96,276.04938557272214,460205,1367,4762.85031080246,51.13130187988281,-51.23936462402344,13.793907165527344,0.46
460,MetaDrive-test-weighted-td3,96,279.58177811496034,461503,1369,4776.441586971283,48.156158447265625,-49.86243438720703,82.39225769042969,0.47
461,MetaDrive-test-weighted-td3,96,280.5392774893078,462853,1371,4792.831700801849,51.40176773071289,-52.13003921508789,5.5232462882995605,0.46
462,MetaDrive-test-weighted-td3,96,279.37404805918504,463854,1372,4804.499728918076,52.685089111328125,,14.358851432800293,0.45
463,MetaDrive-test-weighted-td3,96,277.88594422353157,464166,1373,4807.470606088638,54.155906677246094,,11.066370010375977,0.44
464,MetaDrive-test-weighted-td3,96,277.7483095099261,465400,1376,4819.830852031708,58.00553894042969,,6.152721405029297,0.45
465,MetaDrive-test-weighted-td3,96,280.5489158085504,466588,1378,4831.186595916748,56.97026062011719,,3.3489484786987305,0.46
466,MetaDrive-test-weighted-td3,96,280.69261098779543,467589,1379,4845.571474790573,55.222511291503906,-55.65536880493164,5.951264381408691,0.46
467,MetaDrive-test-weighted-td3,96,281.62309932383397,468305,1380,4852.4096159935,60.669837951660156,-60.07196044921875,7.28762674331665,0.46
468,MetaDrive-test-weighted-td3,96,283.4122083396807,469874,1382,4871.364464998245,55.38832092285156,,5.372232437133789,0.45
469,MetaDrive-test-weighted-td3,96,283.75511239941363,470439,1383,4877.800117015839,54.255577087402344,-53.775333404541016,8.910749435424805,0.45
470,MetaDrive-test-weighted-td3,96,281.55256728565155,471106,1385,4884.117777824402,55.10239028930664,,4.17914342880249,0.45
471,MetaDrive-test-weighted-td3,96,282.8442099622527,472999,1388,4905.695507764816,54.33916473388672,-53.9794807434082,4.793747425079346,0.45
472,MetaDrive-test-weighted-td3,96,280.3616571398259,473226,1389,4907.869561910629,55.78141784667969,,9.034900665283203,0.44
473,MetaDrive-test-weighted-td3,96,279.96169012453225,474026,1391,4915.75578379631,54.16328048706055,,236.985595703125,0.44
474,MetaDrive-test-weighted-td3,96,280.66513532737775,475009,1393,4925.732899904251,54.154911041259766,-54.68418502807617,9.902933120727539,0.45
475,MetaDrive-test-weighted-td3,96,283.96304668899955,476274,1395,4940.756679773331,52.18394470214844,,25.196704864501953,0.45
476,MetaDrive-test-weighted-td3,96,284.09968879877056,477276,1397,4950.1535568237305,52.53414535522461,,5.31682014465332,0.46
477,MetaDrive-test-weighted-td3,96,284.9166932980044,478084,1398,4959.609373807907,51.33079147338867,,10.774419784545898,0.46
478,MetaDrive-test-weighted-td3,96,279.77675718730023,479289,1401,4971.453916788101,57.1678352355957,-57.878684997558594,20.936058044433594,0.48
479,MetaDrive-test-weighted-td3,96,279.1912724736924,480375,1404,4981.801048994064,58.71154022216797,-59.101539611816406,8.843626022338867,0.46
480,MetaDrive-test-weighted-td3,96,274.69004984628543,481226,1407,4990.809415817261,52.948150634765625,,18.463592529296875,0.44
481,MetaDrive-test-weighted-td3,96,272.1399133941743,482196,1409,5000.407252788544,53.03586959838867,,6.33808708190918,0.43
482,MetaDrive-test-weighted-td3,96,267.55363926366067,483097,1412,5009.738289833069,55.79146194458008,-55.623172760009766,10.947379112243652,0.42
483,MetaDrive-test-weighted-td3,96,264.76045061645544,484334,1415,5022.109698057175,52.09227752685547,,8.21796989440918,0.42
484,MetaDrive-test-weighted-td3,96,261.45946245229015,485129,1417,5030.092923879623,51.12041091918945,-50.45895004272461,159.93194580078125,0.41
485,MetaDrive-test-weighted-td3,96,263.10770289304105,486233,1419,5040.9020819664,53.38154983520508,-53.651954650878906,7.531864166259766,0.42
486,MetaDrive-test-weighted-td3,96,263.55409050257987,487243,1421,5050.363494157791,55.90011978149414,-55.49030685424805,6.1236467361450195,0.42
487,MetaDrive-test-weighted-td3,96,262.13598815677534,488166,1423,5059.5475261211395,53.1371955871582,,13.24645709991455,0.42
488,MetaDrive-test-weighted-td3,96,263.295834767556,489604,1425,5073.346498966217,48.246585845947266,,13.830486297607422,0.43
489,MetaDrive-test-weighted-td3,96,265.9929013258516,490213,1426,5079.755612850189,59.57555389404297,-60.22065353393555,7.321173667907715,0.44
490,MetaDrive-test-weighted-td3,96,266.9209666328484,491214,1427,5091.471325874329,53.35869216918945,,14.727724075317383,0.44
491,MetaDrive-test-weighted-td3,96,266.82654492349053,492291,1430,5102.075777053833,49.79663848876953,-50.251014709472656,35.973358154296875,0.44
492,MetaDrive-test-weighted-td3,96,268.52580312173194,493292,1431,5113.512093782425,53.42957305908203,,11.928479194641113,0.44
493,MetaDrive-test-weighted-td3,96,263.2488700138804,494494,1434,5125.090961933136,52.54800796508789,,6.452241897583008,0.42
494,MetaDrive-test-weighted-td3,96,263.07391896086074,495225,1436,5132.045862913132,51.028499603271484,-51.94174575805664,6.844725131988525,0.42
495,MetaDrive-test-weighted-td3,96,263.29105441158646,496226,1437,5142.136117935181,55.72416305541992,,20.426700592041016,0.42
496,MetaDrive-test-weighted-td3,96,263.18680294913537,497214,1439,5151.597328901291,55.97001266479492,,17.66106414794922,0.42
497,MetaDrive-test-weighted-td3,96,263.51949598375836,498206,1441,5162.561868906021,52.476959228515625,,4.992087364196777,0.41
498,MetaDrive-test-weighted-td3,96,265.87360867290386,499204,1442,5171.596098899841,59.04224395751953,,5.2208170890808105,0.42
