TanmayH/CS269-RL-project-code/MetaDrive-test-noise2-reduction-td3/td3/progress.csv
,log_dir,frame_per_second,episode_reward,total_steps,total_episodes,total_time,target_q,actor_loss,critic_loss,success_rate
0,MetaDrive-test-noise2-reduction-td3,435,9.100664758530574,1911,2,4.38631010055542,,,,0.0
1,MetaDrive-test-noise2-reduction-td3,398,10.002544743585382,2912,3,7.299274921417236,,,,0.0
2,MetaDrive-test-noise2-reduction-td3,414,9.76901173762172,3913,4,9.442684173583984,,,,0.0
3,MetaDrive-test-noise2-reduction-td3,443,10.331542151602077,4914,5,11.085428953170776,,,,0.0
4,MetaDrive-test-noise2-reduction-td3,442,10.696941377686947,5915,6,13.367214918136597,,,,0.0
5,MetaDrive-test-noise2-reduction-td3,462,9.520839613937934,6648,7,14.385376930236816,,,,0.0
6,MetaDrive-test-noise2-reduction-td3,450,9.966086665668449,7649,8,16.972578048706055,,,,0.0
7,MetaDrive-test-noise2-reduction-td3,462,9.30054930189623,8622,9,18.659677028656006,,,,0.0
8,MetaDrive-test-noise2-reduction-td3,483,9.47541447630244,9623,10,19.890355825424194,,,,0.0
9,MetaDrive-test-noise2-reduction-td3,478,8.79234822949109,10040,11,20.989148139953613,0.018033679574728012,,0.0020461382810026407,0.0
10,MetaDrive-test-noise2-reduction-td3,312,0.4614550360863091,11025,49,35.25229597091675,-0.030192259699106216,-0.04922659695148468,0.7976508736610413,0.0
11,MetaDrive-test-noise2-reduction-td3,241,-0.39182710501701556,12513,66,51.86707806587219,0.05926438421010971,-0.09025581181049347,0.006389959715306759,0.0
12,MetaDrive-test-noise2-reduction-td3,219,-0.3367027591691476,13514,67,61.43790602684021,0.10090663284063339,,0.0094141261652112,0.0
13,MetaDrive-test-noise2-reduction-td3,199,-0.3558031434502233,14773,69,74.02620697021484,0.10177536308765411,-0.07838501781225204,0.01119779422879219,0.0
14,MetaDrive-test-noise2-reduction-td3,187,-0.34161240866032194,15774,70,84.03114700317383,0.10498446226119995,,0.020031321793794632,0.0
15,MetaDrive-test-noise2-reduction-td3,179,-0.1277558048733205,16493,71,92.02779293060303,0.12097112089395523,-0.10874085128307343,0.027913972735404968,0.0
16,MetaDrive-test-noise2-reduction-td3,167,0.10248836753057956,17647,75,105.26675486564636,0.1384718269109726,-0.14578481018543243,0.018965333700180054,0.0
17,MetaDrive-test-noise2-reduction-td3,164,0.22498197826374824,18282,76,111.23854994773865,0.08501790463924408,,0.7634165287017822,0.0
18,MetaDrive-test-noise2-reduction-td3,158,1.7503791466572465,19055,88,120.55118083953857,0.20235675573349,-0.24545422196388245,0.011501183733344078,0.0
19,MetaDrive-test-noise2-reduction-td3,150,1.3827514784019643,20018,112,133.2396960258484,0.2673746943473816,,0.030310751870274544,0.0
20,MetaDrive-test-noise2-reduction-td3,144,3.440096019474788,21014,134,145.8404769897461,0.29154741764068604,,0.9253135919570923,0.0
21,MetaDrive-test-noise2-reduction-td3,139,6.303031441162952,22056,159,158.6623499393463,0.3498044013977051,,1.6332759857177734,0.0
22,MetaDrive-test-noise2-reduction-td3,134,6.7423885475380745,23015,184,170.8244059085846,0.6985454559326172,-0.7566611170768738,0.046794187277555466,0.0
23,MetaDrive-test-noise2-reduction-td3,131,7.60823425965031,24013,210,183.22546815872192,0.8969781994819641,-0.8730376958847046,0.12230518460273743,0.0
24,MetaDrive-test-noise2-reduction-td3,128,9.133645891346296,25001,232,195.05442905426025,1.0560696125030518,-1.2656991481781006,1.238828182220459,0.0
25,MetaDrive-test-noise2-reduction-td3,125,10.319541573973275,26025,256,207.91435408592224,1.3460174798965454,-1.4389104843139648,1.4000113010406494,0.0
26,MetaDrive-test-noise2-reduction-td3,122,11.336432927704365,27006,279,220.6433708667755,1.5590810775756836,,2.6254050731658936,0.0
27,MetaDrive-test-noise2-reduction-td3,120,12.457869487259869,28004,302,232.15869998931885,2.162461280822754,,0.1511029452085495,0.0
28,MetaDrive-test-noise2-reduction-td3,118,14.200138712245021,29029,322,244.951180934906,2.5473878383636475,-2.58109974861145,0.29898929595947266,0.0
29,MetaDrive-test-noise2-reduction-td3,117,15.169283441180434,30035,344,256.5745129585266,2.966525077819824,-3.0080149173736572,0.2814367413520813,0.0
30,MetaDrive-test-noise2-reduction-td3,115,15.19978227336132,31037,363,269.21040081977844,2.9896798133850098,-3.660130500793457,5.726375579833984,0.0
31,MetaDrive-test-noise2-reduction-td3,113,17.748278739583384,32050,380,281.6511490345001,3.574312686920166,,5.3042778968811035,0.0
32,MetaDrive-test-noise2-reduction-td3,112,20.347987103847196,33066,397,294.2619791030884,4.410238742828369,,0.24192485213279724,0.0
33,MetaDrive-test-noise2-reduction-td3,111,23.308005096832375,34021,412,305.36932396888733,4.494788646697998,-5.271972179412842,10.436203002929688,0.0
34,MetaDrive-test-noise2-reduction-td3,110,28.493228090320734,35002,422,316.8745059967041,5.654498100280762,,0.2687388062477112,0.01
35,MetaDrive-test-noise2-reduction-td3,109,35.0824890324367,36111,434,330.2199640274048,5.803256511688232,-5.879456996917725,4.092224597930908,0.01
36,MetaDrive-test-noise2-reduction-td3,108,40.73068013128536,37054,444,341.3943977355957,6.780318737030029,,3.4352211952209473,0.01
37,MetaDrive-test-noise2-reduction-td3,107,43.91537126996391,38030,457,353.2024829387665,7.8029465675354,,1.043278694152832,0.01
38,MetaDrive-test-noise2-reduction-td3,106,48.227648192900006,39035,469,365.00797414779663,8.458463668823242,-8.775548934936523,0.4052079916000366,0.01
39,MetaDrive-test-noise2-reduction-td3,105,53.31759425570181,40053,479,378.77081203460693,9.537405967712402,-9.688868522644043,0.5431353449821472,0.01
40,MetaDrive-test-noise2-reduction-td3,104,57.27834013374225,41022,489,392.1926369667053,10.195327758789062,,5.095982551574707,0.01
41,MetaDrive-test-noise2-reduction-td3,103,61.942741642005075,42015,499,406.1255159378052,10.777411460876465,-11.078842163085938,7.510149002075195,0.01
42,MetaDrive-test-noise2-reduction-td3,102,67.4077635443962,43124,509,421.3886799812317,10.676898002624512,,17.148386001586914,0.02
43,MetaDrive-test-noise2-reduction-td3,101,67.13787486641803,44069,518,434.47169494628906,12.16335678100586,-11.76814079284668,1.516573429107666,0.01
44,MetaDrive-test-noise2-reduction-td3,100,71.7020381309786,45059,526,448.63149881362915,13.462251663208008,-13.720541954040527,8.89926528930664,0.01
45,MetaDrive-test-noise2-reduction-td3,99,71.62050259784343,46112,536,461.88746094703674,14.050376892089844,,1.1377348899841309,0.01
46,MetaDrive-test-noise2-reduction-td3,98,75.07266703150206,47102,544,476.68855381011963,14.252388000488281,,11.864930152893066,0.01
47,MetaDrive-test-noise2-reduction-td3,98,79.45637598922934,48036,552,489.1832129955292,15.427239418029785,,1.7752660512924194,0.01
48,MetaDrive-test-noise2-reduction-td3,97,82.26148862665214,49020,561,501.7377498149872,15.416610717773438,,0.8359232544898987,0.01
49,MetaDrive-test-noise2-reduction-td3,97,84.43798311840342,50018,570,514.7305979728699,16.631162643432617,,0.9176780581474304,0.01
50,MetaDrive-test-noise2-reduction-td3,96,85.74298936552383,51033,579,528.1709418296814,17.42658805847168,-16.774614334106445,14.67949390411377,0.01
51,MetaDrive-test-noise2-reduction-td3,95,86.47690232252579,52055,589,543.0622041225433,18.127891540527344,-18.859704971313477,10.705268859863281,0.01
52,MetaDrive-test-noise2-reduction-td3,95,86.45878485347022,53067,599,556.7565281391144,17.519554138183594,-17.824729919433594,1.5717651844024658,0.01
53,MetaDrive-test-noise2-reduction-td3,94,88.84454324317,54025,607,570.2913908958435,18.93913459777832,-19.0875244140625,2.5724124908447266,0.01
54,MetaDrive-test-noise2-reduction-td3,94,87.07924432595797,55073,617,585.2019438743591,19.538963317871094,-20.12740707397461,4.345090389251709,0.0
55,MetaDrive-test-noise2-reduction-td3,93,87.1436531482029,56051,625,600.211030960083,18.558801651000977,-19.61592674255371,4.276130676269531,0.0
56,MetaDrive-test-noise2-reduction-td3,92,88.23454523873644,57019,633,613.6668257713318,18.769866943359375,-19.37039566040039,24.92572593688965,0.0
57,MetaDrive-test-noise2-reduction-td3,92,87.08317862266514,58037,642,628.147213935852,19.907630920410156,-19.73893165588379,2.922013759613037,0.0
58,MetaDrive-test-noise2-reduction-td3,91,87.8789592254209,59007,650,642.032261133194,20.30197525024414,-21.062023162841797,17.979427337646484,0.0
59,MetaDrive-test-noise2-reduction-td3,91,86.96297738168857,60022,660,656.2481799125671,21.963403701782227,,1.9139997959136963,0.0
60,MetaDrive-test-noise2-reduction-td3,91,86.8722157082255,61039,669,669.6964828968048,21.643308639526367,-22.033933639526367,11.990373611450195,0.0
61,MetaDrive-test-noise2-reduction-td3,90,88.33959221824192,62136,677,686.0310151576996,23.181669235229492,,2.982475757598877,0.01
62,MetaDrive-test-noise2-reduction-td3,90,90.13822497823021,63091,683,698.0833508968353,24.006593704223633,-24.922321319580078,3.3998188972473145,0.02
63,MetaDrive-test-noise2-reduction-td3,90,91.8657753086981,64026,687,710.5678129196167,23.246414184570312,,2.6872406005859375,0.03
64,MetaDrive-test-noise2-reduction-td3,89,95.82087115874097,65298,691,726.4956789016724,23.626245498657227,,5.113796234130859,0.04
65,MetaDrive-test-noise2-reduction-td3,89,96.41731134494785,66011,694,736.5418798923492,24.633922576904297,-24.864362716674805,3.625154495239258,0.04
66,MetaDrive-test-noise2-reduction-td3,88,101.40652506987597,67366,697,757.2410237789154,23.629493713378906,,17.306665420532227,0.06
67,MetaDrive-test-noise2-reduction-td3,88,101.03808584172327,68069,703,766.4559359550476,22.759685516357422,-22.50177001953125,6.535353660583496,0.06
68,MetaDrive-test-noise2-reduction-td3,88,104.09780314376162,69538,706,786.1483900547028,25.055402755737305,,17.571542739868164,0.07
69,MetaDrive-test-noise2-reduction-td3,88,105.03585710312389,70029,708,792.2889330387115,25.163856506347656,-25.832326889038086,2.5210318565368652,0.08
70,MetaDrive-test-noise2-reduction-td3,87,108.28787537207309,71156,711,809.6974151134491,24.880870819091797,,26.559953689575195,0.09
71,MetaDrive-test-noise2-reduction-td3,87,112.70826613395482,72651,716,831.9478509426117,29.421632766723633,-30.38312339782715,3.3076438903808594,0.09
72,MetaDrive-test-noise2-reduction-td3,87,111.30227136857158,73046,719,836.9749579429626,26.318702697753906,,30.354568481445312,0.09
73,MetaDrive-test-noise2-reduction-td3,86,114.55889571875323,74193,721,854.9018189907074,28.79706573486328,-28.502517700195312,4.4125142097473145,0.09
74,MetaDrive-test-noise2-reduction-td3,86,115.94137546903866,75080,725,866.7827060222626,25.239004135131836,,28.904836654663086,0.09
75,MetaDrive-test-noise2-reduction-td3,86,118.96716209397437,76147,728,883.0464298725128,23.47834587097168,-23.788347244262695,5.786886692047119,0.1
76,MetaDrive-test-noise2-reduction-td3,86,119.42569705731647,77010,733,893.823578119278,23.933971405029297,,45.993743896484375,0.1
77,MetaDrive-test-noise2-reduction-td3,85,122.20878470825338,78112,736,909.0210819244385,28.257116317749023,,5.127972602844238,0.11
78,MetaDrive-test-noise2-reduction-td3,85,121.23510491326768,79158,744,923.2224419116974,28.865598678588867,,29.542524337768555,0.11
79,MetaDrive-test-noise2-reduction-td3,85,123.17932600676524,80010,747,934.4659259319305,32.418033599853516,,4.74559211730957,0.11
80,MetaDrive-test-noise2-reduction-td3,85,122.68358084557448,81133,754,950.5423951148987,31.035547256469727,-30.634033203125,3.959906816482544,0.11
81,MetaDrive-test-noise2-reduction-td3,85,125.42077465704315,82322,760,966.9241199493408,27.704036712646484,,10.281542778015137,0.11
82,MetaDrive-test-noise2-reduction-td3,84,129.5556378568081,83522,762,984.3516409397125,26.262603759765625,,10.265055656433105,0.12
83,MetaDrive-test-noise2-reduction-td3,84,128.6601552107299,84075,766,991.5644609928131,29.695098876953125,-31.447994232177734,54.74092102050781,0.12
84,MetaDrive-test-noise2-reduction-td3,84,131.07260713014114,85193,773,1006.2429239749908,27.2669734954834,-27.417922973632812,6.829453468322754,0.13
85,MetaDrive-test-noise2-reduction-td3,84,129.26932084752792,86027,778,1017.1288199424744,29.547225952148438,-31.137611389160156,44.544677734375,0.12
86,MetaDrive-test-noise2-reduction-td3,84,135.28712064515798,87172,780,1033.455887079239,31.789798736572266,,4.772884368896484,0.14
87,MetaDrive-test-noise2-reduction-td3,84,138.8200804303126,88298,784,1050.4284451007843,30.914880752563477,,5.293664932250977,0.15
88,MetaDrive-test-noise2-reduction-td3,83,135.50953602345174,89045,789,1061.2274539470673,29.114316940307617,-29.781570434570312,5.966955661773682,0.14
89,MetaDrive-test-noise2-reduction-td3,83,136.36415290468602,90004,792,1074.0916469097137,28.433021545410156,,7.547699451446533,0.14
90,MetaDrive-test-noise2-reduction-td3,83,136.82161861432886,91005,796,1088.3448538780212,33.97757339477539,-33.70112991333008,4.086663722991943,0.15
91,MetaDrive-test-noise2-reduction-td3,83,138.9065036544988,92563,798,1110.8629858493805,31.10146713256836,-32.34526824951172,4.792297840118408,0.16
92,MetaDrive-test-noise2-reduction-td3,83,140.1639377012257,93009,800,1117.3782498836517,32.28594970703125,-32.69742202758789,9.244726181030273,0.16
93,MetaDrive-test-noise2-reduction-td3,82,140.3463050961111,94790,805,1143.3573648929596,33.84717559814453,,3.7682442665100098,0.15
94,MetaDrive-test-noise2-reduction-td3,82,139.24842362192032,95164,806,1149.103842973709,32.38979721069336,,6.976743698120117,0.15
95,MetaDrive-test-noise2-reduction-td3,82,137.66958687592722,96138,810,1163.0539560317993,29.874755859375,,25.44224739074707,0.14
96,MetaDrive-test-noise2-reduction-td3,82,141.29182059350396,97030,813,1175.4313220977783,34.929283142089844,,3.7200121879577637,0.16
97,MetaDrive-test-noise2-reduction-td3,82,141.49321764750914,98125,817,1192.930871963501,32.652870178222656,-32.37062454223633,29.583789825439453,0.17
98,MetaDrive-test-noise2-reduction-td3,81,137.7937957695807,99083,822,1208.409560918808,30.551115036010742,-30.043508529663086,11.028830528259277,0.18
99,MetaDrive-test-noise2-reduction-td3,81,136.38652914406896,100068,827,1224.774796962738,31.217988967895508,,16.483753204345703,0.17
100,MetaDrive-test-noise2-reduction-td3,81,136.05776282442866,101625,831,1249.0448279380798,36.843814849853516,-37.66884994506836,6.194509506225586,0.17
101,MetaDrive-test-noise2-reduction-td3,81,136.88991607352668,102040,833,1255.471403837204,33.73918151855469,,4.204295635223389,0.17
102,MetaDrive-test-noise2-reduction-td3,81,138.09224971115975,103184,837,1271.5390198230743,30.906661987304688,,7.465400695800781,0.18
103,MetaDrive-test-noise2-reduction-td3,81,139.3728753987402,104185,838,1286.040395975113,33.82994842529297,-34.78438186645508,8.982466697692871,0.18
104,MetaDrive-test-noise2-reduction-td3,80,142.75330071016572,105302,842,1300.1252949237823,32.92599868774414,,42.281097412109375,0.19
105,MetaDrive-test-noise2-reduction-td3,80,143.5613343198491,106322,846,1314.3546168804169,36.43853759765625,,4.175413131713867,0.2
106,MetaDrive-test-noise2-reduction-td3,80,144.23793929674076,107491,848,1331.3291249275208,34.344451904296875,-34.27738571166992,14.98736572265625,0.2
107,MetaDrive-test-noise2-reduction-td3,80,147.65794333098222,108246,850,1341.8197491168976,31.971111297607422,,43.693382263183594,0.21
108,MetaDrive-test-noise2-reduction-td3,80,149.51340890533123,109178,853,1354.968913078308,35.65625,,9.558545112609863,0.22
109,MetaDrive-test-noise2-reduction-td3,80,152.64120232555473,110138,855,1368.6703379154205,34.77959060668945,,33.233238220214844,0.23
110,MetaDrive-test-noise2-reduction-td3,80,154.46725628274444,111454,857,1385.8754789829254,33.03412628173828,,26.147672653198242,0.24
111,MetaDrive-test-noise2-reduction-td3,80,155.8245729664517,112273,860,1397.5095739364624,37.614871978759766,-37.73351287841797,4.9220380783081055,0.25
112,MetaDrive-test-noise2-reduction-td3,80,155.53325987425853,113169,862,1412.7741830348969,37.38510513305664,-37.51448440551758,3.4888174533843994,0.24
113,MetaDrive-test-noise2-reduction-td3,79,159.2178101731663,114152,865,1426.9647059440613,32.42335510253906,,14.438278198242188,0.25
114,MetaDrive-test-noise2-reduction-td3,79,160.69689323229989,115330,868,1445.7155199050903,39.19136047363281,,7.191012382507324,0.25
115,MetaDrive-test-noise2-reduction-td3,79,163.01303459166402,116098,871,1457.9561350345612,35.60595703125,,3.0004234313964844,0.25
116,MetaDrive-test-noise2-reduction-td3,79,164.37670058272278,117792,874,1482.8524661064148,35.61577606201172,,6.2121710777282715,0.25
117,MetaDrive-test-noise2-reduction-td3,79,165.49092750485653,118147,875,1488.2766540050507,34.98004150390625,-34.5764274597168,5.820929527282715,0.25
118,MetaDrive-test-noise2-reduction-td3,79,170.2774704403178,119394,877,1507.0362820625305,34.39929962158203,,7.18193244934082,0.27
119,MetaDrive-test-noise2-reduction-td3,79,170.45849130722746,120143,879,1517.2630360126495,34.35907745361328,-35.5305061340332,41.41324996948242,0.28
120,MetaDrive-test-noise2-reduction-td3,79,170.5174316974805,121191,881,1531.7508981227875,37.418033599853516,-38.942100524902344,45.619598388671875,0.28
121,MetaDrive-test-noise2-reduction-td3,79,170.36483830960955,122890,884,1554.9468278884888,35.13031005859375,,5.713208198547363,0.27
122,MetaDrive-test-noise2-reduction-td3,78,170.29798767068223,123019,885,1557.251170873642,36.26247024536133,-37.50566101074219,7.465399742126465,0.27
123,MetaDrive-test-noise2-reduction-td3,78,173.99753731722078,124365,888,1577.373722076416,37.34427261352539,-38.793800354003906,54.09429931640625,0.28
124,MetaDrive-test-noise2-reduction-td3,78,174.9342583192669,125688,890,1595.8500509262085,36.29115676879883,,5.080257415771484,0.28
125,MetaDrive-test-noise2-reduction-td3,78,173.06187912570022,126294,891,1604.8782529830933,38.73452377319336,,8.83334732055664,0.27
126,MetaDrive-test-noise2-reduction-td3,78,172.4954428835139,127022,893,1614.7654130458832,36.19562530517578,,4.48383092880249,0.27
127,MetaDrive-test-noise2-reduction-td3,78,174.77951549052705,128652,895,1638.202203989029,34.67652893066406,,5.177765846252441,0.27
128,MetaDrive-test-noise2-reduction-td3,78,172.62055577079275,129127,897,1645.2103650569916,37.657894134521484,-38.195411682128906,9.281281471252441,0.26
129,MetaDrive-test-noise2-reduction-td3,78,173.0325455514337,130191,900,1659.6506049633026,38.197303771972656,-39.45347213745117,11.054147720336914,0.27
130,MetaDrive-test-noise2-reduction-td3,78,175.7312065500858,131170,902,1674.0084810256958,38.33503723144531,,4.536121368408203,0.29
131,MetaDrive-test-noise2-reduction-td3,78,177.23717001781617,132499,907,1693.9425189495087,32.66399002075195,-33.951393127441406,4.497797966003418,0.3
132,MetaDrive-test-noise2-reduction-td3,78,177.55153154391633,133188,909,1704.585529088974,33.93494415283203,,9.10867691040039,0.3
133,MetaDrive-test-noise2-reduction-td3,77,181.08135224682204,134524,911,1725.9682688713074,35.63726043701172,,4.798674583435059,0.32
134,MetaDrive-test-noise2-reduction-td3,77,181.56012949524103,135304,912,1740.1524860858917,38.91572189331055,,3.774746894836426,0.31
135,MetaDrive-test-noise2-reduction-td3,77,178.02819621582057,136010,914,1751.0708298683167,37.754085540771484,,17.203861236572266,0.29
136,MetaDrive-test-noise2-reduction-td3,77,180.08444336138018,137057,917,1766.6698877811432,37.96997833251953,-39.2733268737793,8.162724494934082,0.3
137,MetaDrive-test-noise2-reduction-td3,77,182.12932426437715,138056,920,1781.1757621765137,34.175315856933594,,4.808734893798828,0.3
138,MetaDrive-test-noise2-reduction-td3,77,185.49275939492446,139218,924,1799.6519379615784,39.004920959472656,,5.942940711975098,0.32
139,MetaDrive-test-noise2-reduction-td3,77,187.83432178064464,140289,927,1815.7812869548798,34.70053482055664,-34.88319778442383,7.0984649658203125,0.34
140,MetaDrive-test-noise2-reduction-td3,77,186.57609008154594,141468,932,1833.9908199310303,36.8691291809082,,4.1565423011779785,0.34
141,MetaDrive-test-noise2-reduction-td3,77,188.0388830353887,142033,933,1842.0544760227203,37.140403747558594,-36.55752944946289,6.499020099639893,0.34
142,MetaDrive-test-noise2-reduction-td3,76,186.10495180977915,143781,938,1868.9406089782715,36.98326873779297,-38.15446472167969,5.611777305603027,0.33
143,MetaDrive-test-noise2-reduction-td3,76,187.02476060761288,144126,940,1875.0416870117188,36.30730056762695,,22.836259841918945,0.33
144,MetaDrive-test-noise2-reduction-td3,76,185.90418953882158,145572,943,1896.5612080097198,38.73457336425781,,4.431335926055908,0.33
145,MetaDrive-test-noise2-reduction-td3,76,185.91803261032717,146144,945,1904.6374261379242,36.272422790527344,,8.821636199951172,0.33
146,MetaDrive-test-noise2-reduction-td3,76,188.658028052281,147915,948,1932.2912600040436,33.75102996826172,-34.153045654296875,16.011892318725586,0.35
147,MetaDrive-test-noise2-reduction-td3,76,187.8352798034213,148413,949,1940.354101896286,38.37905502319336,-38.54605484008789,9.765007019042969,0.34
148,MetaDrive-test-noise2-reduction-td3,76,189.05117779436122,149353,951,1953.4463729858398,32.45023727416992,-33.293617248535156,8.435075759887695,0.35
149,MetaDrive-test-noise2-reduction-td3,76,188.90232083468237,150148,953,1965.0239069461823,35.04334259033203,,5.890090465545654,0.34
150,MetaDrive-test-noise2-reduction-td3,76,186.5828044764039,151506,957,1986.5640280246735,36.15085220336914,,5.53752326965332,0.33
151,MetaDrive-test-noise2-reduction-td3,76,187.32012189320824,152507,958,2001.4127609729767,36.44977951049805,-36.79411315917969,5.768744468688965,0.33
152,MetaDrive-test-noise2-reduction-td3,76,191.51854726129338,153216,959,2013.4739701747894,37.87269592285156,,3.4671928882598877,0.34
153,MetaDrive-test-noise2-reduction-td3,76,186.15920437717034,154016,962,2025.4681639671326,36.23802185058594,,5.971263885498047,0.34
154,MetaDrive-test-noise2-reduction-td3,75,185.93820629669077,155161,965,2045.3960719108582,38.2401123046875,-38.88065719604492,57.73741149902344,0.34
155,MetaDrive-test-noise2-reduction-td3,75,187.44424124166727,156131,968,2059.858921766281,36.38698959350586,-37.05877685546875,5.193389892578125,0.35
156,MetaDrive-test-noise2-reduction-td3,75,189.6781334949891,157355,971,2080.2483139038086,35.99153137207031,-35.78860855102539,3.562605857849121,0.36
157,MetaDrive-test-noise2-reduction-td3,75,185.6398220730102,158025,975,2090.8692009449005,37.268768310546875,-38.13604736328125,6.583840370178223,0.35
158,MetaDrive-test-noise2-reduction-td3,75,183.86039688938715,159687,977,2119.4047679901123,38.714385986328125,-38.997039794921875,8.136310577392578,0.34
159,MetaDrive-test-noise2-reduction-td3,75,176.6949385731711,160038,980,2124.7084069252014,38.681427001953125,,8.343461990356445,0.31
160,MetaDrive-test-noise2-reduction-td3,75,178.6102311652704,161506,982,2148.2266368865967,35.00528335571289,,24.071666717529297,0.31
161,MetaDrive-test-noise2-reduction-td3,75,177.72053704421563,162263,984,2159.87992477417,37.21217727661133,-37.07564163208008,5.915831565856934,0.31
162,MetaDrive-test-noise2-reduction-td3,75,178.49814564606103,163483,987,2179.0242128372192,36.29304504394531,-35.78738784790039,2.7279632091522217,0.32
163,MetaDrive-test-noise2-reduction-td3,74,177.87801878982478,164484,988,2196.447923898697,39.05414581298828,,9.277782440185547,0.31
164,MetaDrive-test-noise2-reduction-td3,74,179.77122454852343,165157,990,2206.214493751526,35.30937576293945,-36.05414581298828,40.79084777832031,0.32
165,MetaDrive-test-noise2-reduction-td3,74,185.68838619600876,166299,992,2225.619934797287,35.852012634277344,-35.44773864746094,3.029355049133301,0.34
166,MetaDrive-test-noise2-reduction-td3,74,186.98754258687134,167255,994,2239.6775221824646,36.444549560546875,-36.4904670715332,3.4516940116882324,0.35
167,MetaDrive-test-noise2-reduction-td3,74,186.75507145945565,168159,997,2253.617693901062,38.07345199584961,-38.011940002441406,3.5280206203460693,0.35
168,MetaDrive-test-noise2-reduction-td3,74,186.14281000123407,169071,1000,2267.5062499046326,34.561004638671875,-36.15095520019531,6.219278335571289,0.34
169,MetaDrive-test-noise2-reduction-td3,74,186.23466623714197,170320,1003,2285.2925119400024,37.477821350097656,,6.704472541809082,0.34
170,MetaDrive-test-noise2-reduction-td3,74,183.74256503647675,171144,1007,2298.664964914322,35.80345916748047,,6.69153356552124,0.33
171,MetaDrive-test-noise2-reduction-td3,74,182.0180773514422,172167,1010,2314.5293090343475,36.06340789794922,-36.68130874633789,87.612548828125,0.32
172,MetaDrive-test-noise2-reduction-td3,74,178.73896513723557,173105,1014,2330.41760802269,35.3339958190918,-34.46889114379883,15.050155639648438,0.32
173,MetaDrive-test-noise2-reduction-td3,74,179.729082525677,174054,1017,2343.746162891388,37.968624114990234,,15.349109649658203,0.33
174,MetaDrive-test-noise2-reduction-td3,74,181.71030463847623,175264,1022,2361.888095855713,35.77833557128906,,5.972002029418945,0.34
175,MetaDrive-test-noise2-reduction-td3,74,179.93884316578223,176092,1025,2375.7261538505554,40.94242477416992,,4.107192039489746,0.32
176,MetaDrive-test-noise2-reduction-td3,74,176.76410171292216,177237,1030,2394.0505759716034,34.124305725097656,-34.99300003051758,24.065309524536133,0.31
177,MetaDrive-test-noise2-reduction-td3,73,175.89455300301637,178223,1033,2409.9621138572693,38.53398513793945,-38.98976135253906,5.2503252029418945,0.31
178,MetaDrive-test-noise2-reduction-td3,73,178.28806657825567,179283,1036,2426.542065143585,36.859676361083984,-36.897369384765625,8.94090461730957,0.32
179,MetaDrive-test-noise2-reduction-td3,73,179.82364737415028,180284,1037,2439.4699850082397,35.18054962158203,,61.70130157470703,0.32
180,MetaDrive-test-noise2-reduction-td3,73,178.98403632394513,181229,1041,2455.4828379154205,36.89765167236328,-36.86038589477539,6.83376407623291,0.32
181,MetaDrive-test-noise2-reduction-td3,73,173.32975624419683,182200,1046,2470.5264019966125,37.5799560546875,,5.704456329345703,0.29
182,MetaDrive-test-noise2-reduction-td3,73,173.11649841724292,183238,1048,2488.1521167755127,36.87558364868164,,9.451242446899414,0.28
183,MetaDrive-test-noise2-reduction-td3,73,167.1418726190428,184007,1053,2501.0201478004456,34.601806640625,-34.739166259765625,16.245439529418945,0.27
184,MetaDrive-test-noise2-reduction-td3,73,170.15696937115933,185024,1056,2517.595046043396,39.850955963134766,,5.710442066192627,0.29
185,MetaDrive-test-noise2-reduction-td3,73,167.0156899268338,186096,1059,2535.466706752777,34.66476058959961,,4.337141990661621,0.28
186,MetaDrive-test-noise2-reduction-td3,73,166.94716322302935,187526,1063,2558.571345090866,35.117008209228516,,14.464794158935547,0.28
187,MetaDrive-test-noise2-reduction-td3,73,166.71754958049965,188009,1066,2566.477592945099,36.565677642822266,-35.98363494873047,5.8755903244018555,0.28
188,MetaDrive-test-noise2-reduction-td3,73,161.0902705552629,189034,1072,2583.277484893799,39.942840576171875,,6.519758224487305,0.26
189,MetaDrive-test-noise2-reduction-td3,73,161.9117782863466,190313,1076,2603.4741401672363,34.95610809326172,-36.44316864013672,21.621021270751953,0.27
190,MetaDrive-test-noise2-reduction-td3,73,163.35865497004232,191033,1078,2615.9185240268707,37.605934143066406,-37.707149505615234,2.1306049823760986,0.27
191,MetaDrive-test-noise2-reduction-td3,72,162.31502650861728,192221,1082,2634.148271083832,33.513092041015625,-34.37833023071289,49.05032730102539,0.27
192,MetaDrive-test-noise2-reduction-td3,72,162.58352595232012,193095,1086,2649.4538140296936,35.09333038330078,-34.7774543762207,6.278351783752441,0.27
193,MetaDrive-test-noise2-reduction-td3,72,159.36254804603132,194203,1090,2667.2033729553223,37.636802673339844,-37.32795333862305,5.526981830596924,0.26
194,MetaDrive-test-noise2-reduction-td3,72,155.3754134045475,195336,1093,2685.282876968384,39.55384826660156,,4.963635444641113,0.24
195,MetaDrive-test-noise2-reduction-td3,72,152.64419286684458,196194,1096,2699.374886035919,38.132999420166016,,9.906906127929688,0.22
196,MetaDrive-test-noise2-reduction-td3,72,153.0301437899168,197195,1097,2714.7599840164185,33.430206298828125,-33.6402702331543,17.13079833984375,0.22
197,MetaDrive-test-noise2-reduction-td3,72,147.07610582351828,198976,1103,2740.074866771698,38.57493591308594,,3.952589273452759,0.19
198,MetaDrive-test-noise2-reduction-td3,72,147.05503671111398,199072,1104,2741.726277112961,33.35010528564453,,5.696969509124756,0.19
199,MetaDrive-test-noise2-reduction-td3,72,150.2260023958894,200251,1107,2762.142554998398,35.553619384765625,-36.23361587524414,8.91269302368164,0.2
200,MetaDrive-test-noise2-reduction-td3,72,152.95308808917463,201403,1110,2781.3970217704773,35.83985137939453,-36.89527893066406,3.630571126937866,0.2
201,MetaDrive-test-noise2-reduction-td3,72,157.45597243666018,202523,1112,2798.6668441295624,34.72907257080078,-35.27191162109375,20.191120147705078,0.22
202,MetaDrive-test-noise2-reduction-td3,72,153.94077904889636,203097,1115,2808.502254009247,37.05577850341797,-36.92453384399414,4.554721832275391,0.2
203,MetaDrive-test-noise2-reduction-td3,72,150.52746178845564,204594,1120,2835.714318037033,39.71276092529297,,8.630897521972656,0.18
204,MetaDrive-test-noise2-reduction-td3,72,151.89276832815827,205462,1122,2851.307849884033,34.75701141357422,,44.29339599609375,0.18
205,MetaDrive-test-noise2-reduction-td3,72,152.77413442061507,206072,1124,2860.868980884552,38.013023376464844,,8.271697044372559,0.19
206,MetaDrive-test-noise2-reduction-td3,71,155.90701382338727,207631,1128,2888.0579018592834,36.961692810058594,-36.54705810546875,6.871856689453125,0.19
207,MetaDrive-test-noise2-reduction-td3,71,159.88129592829068,208305,1129,2900.3001408576965,35.0026741027832,-36.22530746459961,12.891160011291504,0.2
208,MetaDrive-test-noise2-reduction-td3,71,160.43177113554503,209306,1130,2918.3557679653168,40.143253326416016,,17.167814254760742,0.2
209,MetaDrive-test-noise2-reduction-td3,71,160.2205207756737,210191,1133,2934.506016969681,40.844024658203125,-41.17274475097656,3.920163631439209,0.2
210,MetaDrive-test-noise2-reduction-td3,71,157.9583645201057,211195,1137,2951.9410347938538,34.195064544677734,-35.04457092285156,6.229076385498047,0.19
211,MetaDrive-test-noise2-reduction-td3,71,162.9280714086364,212539,1140,2976.2958509922028,35.99334716796875,-35.7320442199707,7.6912384033203125,0.21
212,MetaDrive-test-noise2-reduction-td3,71,163.77579034018044,213353,1142,2989.3595089912415,31.454944610595703,-31.93398666381836,8.784809112548828,0.22
213,MetaDrive-test-noise2-reduction-td3,71,169.42170140894083,214412,1145,3007.9134249687195,37.51072692871094,,14.142393112182617,0.24
214,MetaDrive-test-noise2-reduction-td3,71,168.89361786286412,215231,1148,3020.8076689243317,36.811988830566406,-37.200775146484375,4.530906677246094,0.25
215,MetaDrive-test-noise2-reduction-td3,71,171.22859192876604,216381,1151,3041.7738218307495,35.2383918762207,-36.075035095214844,56.07450866699219,0.26
216,MetaDrive-test-noise2-reduction-td3,71,171.44207751964402,217103,1155,3054.342073917389,36.16535568237305,-36.26044845581055,1.8479655981063843,0.25
217,MetaDrive-test-noise2-reduction-td3,71,173.07165973945678,218396,1158,3075.0670619010925,38.44780731201172,,9.492876052856445,0.25
218,MetaDrive-test-noise2-reduction-td3,70,170.52373135916307,219043,1161,3085.3524289131165,41.096832275390625,-41.86802291870117,13.483183860778809,0.25
219,MetaDrive-test-noise2-reduction-td3,70,169.8870764417859,220142,1166,3105.6328179836273,36.97948455810547,,7.166648864746094,0.24
220,MetaDrive-test-noise2-reduction-td3,70,173.82011563302743,221291,1169,3125.9903190135956,36.113983154296875,-38.614776611328125,142.7083282470703,0.25
221,MetaDrive-test-noise2-reduction-td3,70,174.08313731827084,222411,1174,3145.965338945389,37.84899139404297,-38.55167770385742,11.82776927947998,0.25
222,MetaDrive-test-noise2-reduction-td3,70,175.5327980177692,223178,1176,3158.459508895874,39.431373596191406,,6.430964469909668,0.26
223,MetaDrive-test-noise2-reduction-td3,70,179.36579541044773,224350,1178,3179.230601787567,32.91578674316406,,9.100482940673828,0.27
224,MetaDrive-test-noise2-reduction-td3,70,181.2948799900263,225344,1180,3195.567100048065,40.56575012207031,,7.5861496925354,0.28
225,MetaDrive-test-noise2-reduction-td3,70,185.19073551309597,226025,1181,3207.977467060089,32.766090393066406,-32.90271759033203,11.829570770263672,0.29
226,MetaDrive-test-noise2-reduction-td3,70,188.69321090968396,227257,1183,3233.288465976715,37.85329818725586,-37.299522399902344,7.252598762512207,0.3
227,MetaDrive-test-noise2-reduction-td3,70,191.95694192516723,228406,1187,3253.3929357528687,35.999427795410156,,10.782735824584961,0.31
228,MetaDrive-test-noise2-reduction-td3,70,191.0599246261983,229327,1190,3268.581074953079,40.959983825683594,-41.279518127441406,21.388019561767578,0.31
229,MetaDrive-test-noise2-reduction-td3,70,194.5183632618846,230393,1192,3285.998123884201,36.77125930786133,-37.630393981933594,3.801046371459961,0.33
230,MetaDrive-test-noise2-reduction-td3,70,195.04690150996447,231168,1194,3299.5841970443726,38.98139953613281,,8.677217483520508,0.33
231,MetaDrive-test-noise2-reduction-td3,69,196.98962314337027,232401,1197,3322.7315719127655,39.61497497558594,-39.83966827392578,5.681662559509277,0.34
232,MetaDrive-test-noise2-reduction-td3,69,200.67538447502324,233420,1200,3341.227742910385,35.662940979003906,,67.96456909179688,0.35
233,MetaDrive-test-noise2-reduction-td3,69,202.1973433582001,234308,1204,3356.6273651123047,37.74330139160156,,4.127507209777832,0.35
234,MetaDrive-test-noise2-reduction-td3,69,200.76018263857907,235135,1207,3371.430093050003,38.12067794799805,-39.50010681152344,10.573212623596191,0.35
235,MetaDrive-test-noise2-reduction-td3,69,200.54971126072388,236206,1210,3390.289272069931,36.735069274902344,,9.891485214233398,0.36
236,MetaDrive-test-noise2-reduction-td3,69,196.5590648139139,237005,1213,3405.0112628936768,34.7758674621582,-35.55448532104492,21.469900131225586,0.34
237,MetaDrive-test-noise2-reduction-td3,69,197.88743676599483,238342,1216,3426.0085349082947,36.992488861083984,,17.613113403320312,0.34
238,MetaDrive-test-noise2-reduction-td3,69,199.0108236664194,239015,1219,3437.9087269306183,39.412349700927734,-39.196693420410156,8.239356994628906,0.35
239,MetaDrive-test-noise2-reduction-td3,69,196.51308919401967,240007,1222,3454.8040199279785,37.22117233276367,-36.737060546875,10.596451759338379,0.34
240,MetaDrive-test-noise2-reduction-td3,69,197.65493810613094,241396,1225,3479.632683992386,37.61855697631836,,78.66653442382812,0.34
241,MetaDrive-test-noise2-reduction-td3,69,196.52720784284958,242394,1228,3497.298480987549,40.263641357421875,,5.967560291290283,0.33
242,MetaDrive-test-noise2-reduction-td3,69,197.3339597837813,243660,1230,3519.4500699043274,38.15186309814453,,9.296034812927246,0.34
243,MetaDrive-test-noise2-reduction-td3,69,197.04403706604276,244069,1231,3528.5017368793488,41.27836608886719,-42.20397186279297,10.327984809875488,0.34
244,MetaDrive-test-noise2-reduction-td3,69,198.5912798245495,245370,1235,3551.7344839572906,41.41973876953125,,4.270998001098633,0.35
245,MetaDrive-test-noise2-reduction-td3,68,199.8132250074851,246598,1238,3575.4779438972473,35.942256927490234,,13.37668228149414,0.35
246,MetaDrive-test-noise2-reduction-td3,68,199.36884490888522,247287,1240,3586.959195137024,43.19563674926758,-43.209327697753906,11.234408378601074,0.35
247,MetaDrive-test-noise2-reduction-td3,68,200.44192616723805,248288,1241,3603.233368873596,40.73686981201172,,11.763221740722656,0.35
248,MetaDrive-test-noise2-reduction-td3,68,200.5743969269516,249275,1243,3620.9782218933105,38.434547424316406,-37.77090835571289,8.589043617248535,0.35
249,MetaDrive-test-noise2-reduction-td3,68,197.5264433561111,250077,1247,3634.7008900642395,33.927001953125,-34.47743225097656,16.291717529296875,0.34
250,MetaDrive-test-noise2-reduction-td3,68,198.86927256761464,251005,1250,3650.3376789093018,39.56206512451172,-40.87328338623047,8.861913681030273,0.35
251,MetaDrive-test-noise2-reduction-td3,68,203.8769664213957,252690,1253,3679.436644077301,36.60769271850586,,17.70125961303711,0.37
252,MetaDrive-test-noise2-reduction-td3,68,203.75119743644635,253158,1255,3687.349046945572,40.678096771240234,,22.22254180908203,0.38
253,MetaDrive-test-noise2-reduction-td3,68,198.66461783186548,254279,1259,3707.138333797455,37.10518264770508,-37.79872131347656,24.584367752075195,0.37
254,MetaDrive-test-noise2-reduction-td3,68,203.93614123882514,255410,1262,3726.369724035263,43.1254768371582,,4.16204309463501,0.39
255,MetaDrive-test-noise2-reduction-td3,68,204.9786946202938,256049,1265,3738.2711567878723,36.88337707519531,-37.597660064697266,9.002313613891602,0.39
256,MetaDrive-test-noise2-reduction-td3,68,203.36406627504755,257438,1269,3764.2644939422607,39.48600387573242,,7.134575843811035,0.4
257,MetaDrive-test-noise2-reduction-td3,68,205.90976357693063,258087,1270,3776.30535197258,36.90865707397461,-37.703006744384766,5.348135948181152,0.41
258,MetaDrive-test-noise2-reduction-td3,68,210.21196497512335,259040,1272,3794.6342508792877,36.90901184082031,,11.154305458068848,0.42
259,MetaDrive-test-noise2-reduction-td3,68,209.18809447636792,260197,1274,3816.0132467746735,38.446720123291016,-38.6980094909668,5.145893096923828,0.41
260,MetaDrive-test-noise2-reduction-td3,68,205.3084260815237,261077,1277,3831.8083639144897,38.784061431884766,-39.28019714355469,3.178250312805176,0.39
261,MetaDrive-test-noise2-reduction-td3,68,206.40278979776917,262106,1279,3848.9172909259796,38.04769515991211,,8.411672592163086,0.4
262,MetaDrive-test-noise2-reduction-td3,68,200.5360667804515,263209,1282,3868.8392939567566,41.05144500732422,-40.3112907409668,16.738065719604492,0.39
263,MetaDrive-test-noise2-reduction-td3,67,201.80858529939903,264302,1284,3888.5828630924225,37.887306213378906,,69.42933654785156,0.39
264,MetaDrive-test-noise2-reduction-td3,67,202.46426958955672,265078,1286,3902.496814966202,43.83422088623047,,9.282681465148926,0.39
265,MetaDrive-test-noise2-reduction-td3,67,195.53122473734015,266179,1292,3922.6921288967133,40.3419303894043,-42.16978454589844,30.293827056884766,0.36
266,MetaDrive-test-noise2-reduction-td3,67,197.59908905656943,267661,1295,3949.3223338127136,42.26975631713867,-43.081504821777344,6.982892036437988,0.37
267,MetaDrive-test-noise2-reduction-td3,67,198.57172644852528,268291,1296,3961.133130788803,44.909542083740234,-45.24508285522461,3.9702932834625244,0.38
268,MetaDrive-test-noise2-reduction-td3,67,196.9417587750349,269446,1300,3980.5575449466705,34.89399719238281,,9.756902694702148,0.37
269,MetaDrive-test-noise2-reduction-td3,67,198.3151660973075,270132,1302,3993.27325797081,38.78046798706055,,3.902808904647827,0.37
270,MetaDrive-test-noise2-reduction-td3,67,200.48217911832998,271148,1305,4013.1000390052795,39.323272705078125,,17.235626220703125,0.37
271,MetaDrive-test-noise2-reduction-td3,67,199.00622220485863,272235,1308,4031.718209028244,38.4883918762207,-38.67184829711914,3.8397812843322754,0.37
272,MetaDrive-test-noise2-reduction-td3,67,198.43131841958476,273501,1312,4055.957890033722,39.43787384033203,-40.55906677246094,33.79225158691406,0.37
273,MetaDrive-test-noise2-reduction-td3,67,200.14404678203508,274154,1314,4068.8380970954895,40.08163070678711,,4.710273265838623,0.37
274,MetaDrive-test-noise2-reduction-td3,67,201.2640833227013,275096,1317,4084.313726902008,40.395965576171875,,13.100380897521973,0.38
275,MetaDrive-test-noise2-reduction-td3,67,202.7981429768445,276455,1322,4108.048207998276,40.233001708984375,-39.827144622802734,12.748435974121094,0.39
276,MetaDrive-test-noise2-reduction-td3,67,204.33692989622878,277379,1324,4124.418627023697,40.19987106323242,-40.81910705566406,4.36794376373291,0.4
277,MetaDrive-test-noise2-reduction-td3,67,206.26533658507068,278075,1325,4137.6334109306335,40.76331329345703,-40.95513916015625,21.802871704101562,0.41
278,MetaDrive-test-noise2-reduction-td3,67,205.63633515402435,279474,1329,4163.419336080551,43.48065185546875,,8.56961441040039,0.42
279,MetaDrive-test-noise2-reduction-td3,67,204.98451487019327,280550,1332,4181.563421010971,41.100955963134766,,6.096654891967773,0.43
280,MetaDrive-test-noise2-reduction-td3,67,205.20109647196577,281095,1334,4190.397109985352,40.727317810058594,-40.42976760864258,4.435301780700684,0.42
281,MetaDrive-test-noise2-reduction-td3,67,205.69209256381956,282188,1337,4209.277729034424,39.10236358642578,,34.994384765625,0.42
282,MetaDrive-test-noise2-reduction-td3,66,206.10776698818933,283048,1339,4224.9911868572235,42.663238525390625,,14.075677871704102,0.42
283,MetaDrive-test-noise2-reduction-td3,66,204.99570058973362,284502,1344,4250.9204568862915,38.39686584472656,,6.672377109527588,0.41
284,MetaDrive-test-noise2-reduction-td3,66,206.20121475596693,285297,1345,4264.593040943146,40.196842193603516,-40.86512756347656,6.400415420532227,0.41
285,MetaDrive-test-noise2-reduction-td3,66,208.59887085637584,286083,1347,4278.951941013336,39.874881744384766,-40.43962097167969,9.149251937866211,0.42
286,MetaDrive-test-noise2-reduction-td3,66,208.98010473678426,287042,1349,4296.365074872971,39.81761169433594,,8.110908508300781,0.41
287,MetaDrive-test-noise2-reduction-td3,66,211.52032632817722,288427,1351,4323.23681306839,40.85882568359375,-41.06052780151367,3.5686001777648926,0.4
288,MetaDrive-test-noise2-reduction-td3,66,212.56999069689036,289049,1352,4335.620189189911,43.56987380981445,-44.4505615234375,10.106782913208008,0.4
289,MetaDrive-test-noise2-reduction-td3,66,212.30137510650525,290129,1354,4358.427248954773,39.4463005065918,-39.74346160888672,9.303950309753418,0.38
290,MetaDrive-test-noise2-reduction-td3,66,216.88420074152614,291459,1356,4381.223583936691,44.07649230957031,-44.23426055908203,9.50206184387207,0.39
291,MetaDrive-test-noise2-reduction-td3,66,221.50894793205498,292922,1358,4405.324986934662,42.65790557861328,,4.5046796798706055,0.4
292,MetaDrive-test-noise2-reduction-td3,66,220.1246988416506,293456,1359,4414.714802742004,39.39487838745117,,11.927885055541992,0.39
293,MetaDrive-test-noise2-reduction-td3,66,222.95957936601826,294480,1361,4432.996143102646,39.64948272705078,,14.651208877563477,0.4
294,MetaDrive-test-noise2-reduction-td3,66,225.2727610937881,295416,1363,4449.825052022934,40.83892822265625,,21.062175750732422,0.4
295,MetaDrive-test-noise2-reduction-td3,66,223.45418921197788,296145,1366,4461.520744800568,42.49372863769531,-42.834205627441406,5.047175407409668,0.4
296,MetaDrive-test-noise2-reduction-td3,66,225.1185565677763,297190,1369,4479.476616859436,39.810951232910156,,33.197471618652344,0.4
297,MetaDrive-test-noise2-reduction-td3,66,221.93434287868666,298326,1373,4499.981332778931,39.98411178588867,,33.423126220703125,0.39
298,MetaDrive-test-noise2-reduction-td3,66,222.80032077581672,299407,1375,4519.44254899025,38.96092987060547,-39.247840881347656,4.833107948303223,0.39
299,MetaDrive-test-noise2-reduction-td3,66,222.52117506947386,300666,1378,4542.985911846161,38.258724212646484,,7.040255546569824,0.39
300,MetaDrive-test-noise2-reduction-td3,66,222.22127848588607,301273,1380,4553.354094028473,35.88456344604492,-35.77165985107422,11.685423851013184,0.39
301,MetaDrive-test-noise2-reduction-td3,66,222.43289665815348,302181,1382,4570.612659931183,40.23892593383789,-41.00237274169922,25.81751251220703,0.39
302,MetaDrive-test-noise2-reduction-td3,66,219.5857528963618,303482,1386,4596.230589866638,40.18177032470703,,13.8742094039917,0.38
303,MetaDrive-test-noise2-reduction-td3,65,224.36629495440923,304379,1388,4612.730538845062,38.66984939575195,-39.64033508300781,28.638141632080078,0.39
304,MetaDrive-test-noise2-reduction-td3,65,225.5020305179388,305333,1389,4628.794265031815,41.350738525390625,-41.25315475463867,15.354248046875,0.4
305,MetaDrive-test-noise2-reduction-td3,65,229.36187513792916,306304,1391,4646.61265707016,41.65708923339844,,8.618579864501953,0.41
306,MetaDrive-test-noise2-reduction-td3,65,230.20160247996998,307392,1394,4664.470062017441,41.92146682739258,,5.415362358093262,0.42
307,MetaDrive-test-noise2-reduction-td3,65,229.4789019675491,308237,1395,4681.972906827927,39.993595123291016,-40.70016098022461,7.952996253967285,0.41
308,MetaDrive-test-noise2-reduction-td3,65,230.44372760847403,309006,1396,4696.373042821884,41.88087463378906,,42.462738037109375,0.4
309,MetaDrive-test-noise2-reduction-td3,65,233.58200197239992,310327,1399,4721.962698936462,40.12578201293945,-40.5111198425293,5.092815399169922,0.42
310,MetaDrive-test-noise2-reduction-td3,65,232.22622069866674,311043,1401,4734.78227186203,40.482032775878906,-40.1374397277832,11.616957664489746,0.41
311,MetaDrive-test-noise2-reduction-td3,65,233.77864295656215,312344,1404,4756.245857954025,42.66944122314453,,13.698837280273438,0.43
312,MetaDrive-test-noise2-reduction-td3,65,232.5788660802698,313197,1406,4771.995198965073,42.896018981933594,-43.008270263671875,8.855671882629395,0.42
313,MetaDrive-test-noise2-reduction-td3,65,234.29342161826744,314115,1408,4786.588498830795,44.50459289550781,-45.50906753540039,31.922531127929688,0.43
314,MetaDrive-test-noise2-reduction-td3,65,239.62828949782985,315303,1410,4809.080747842789,39.91510009765625,-39.98701095581055,6.465827941894531,0.43
315,MetaDrive-test-noise2-reduction-td3,65,238.57753048398573,316306,1412,4826.1336879730225,38.3383903503418,,11.054020881652832,0.43
316,MetaDrive-test-noise2-reduction-td3,65,241.5213243562058,317011,1413,4839.6379499435425,39.847618103027344,-40.6461181640625,15.940855979919434,0.44
317,MetaDrive-test-noise2-reduction-td3,65,243.2133757646295,318017,1415,4856.331997156143,41.43724822998047,-42.422359466552734,8.439133644104004,0.45
318,MetaDrive-test-noise2-reduction-td3,65,245.38516324863443,319453,1417,4882.1203598976135,41.68696212768555,-42.12226867675781,13.419960021972656,0.45
319,MetaDrive-test-noise2-reduction-td3,65,246.14670614390923,320154,1418,4894.337490081787,41.34136962890625,,4.172346115112305,0.45
320,MetaDrive-test-noise2-reduction-td3,65,252.06017446803054,321229,1420,4913.462700843811,42.848846435546875,-43.14899444580078,6.85720157623291,0.47
321,MetaDrive-test-noise2-reduction-td3,65,251.5500601761964,322995,1423,4943.052039146423,40.919185638427734,-41.898712158203125,7.980905532836914,0.46
322,MetaDrive-test-noise2-reduction-td3,65,250.36204729961094,323868,1424,4959.807831048965,39.57017517089844,,5.985179901123047,0.45
323,MetaDrive-test-noise2-reduction-td3,65,247.77809613246856,324083,1425,4963.605777978897,42.97728729248047,-42.770057678222656,4.086109161376953,0.44
324,MetaDrive-test-noise2-reduction-td3,65,252.2825733590827,325106,1427,4982.595314741135,39.45802307128906,,13.549049377441406,0.46
325,MetaDrive-test-noise2-reduction-td3,65,248.38501601937293,326124,1431,5001.377596139908,41.743255615234375,,8.379145622253418,0.43
326,MetaDrive-test-noise2-reduction-td3,65,247.24006034144153,327335,1433,5024.848690748215,42.2929573059082,-42.322349548339844,5.270918369293213,0.43
327,MetaDrive-test-noise2-reduction-td3,65,250.83423414343832,328073,1435,5038.034581899643,38.77360534667969,-39.29836654663086,4.868852615356445,0.44
328,MetaDrive-test-noise2-reduction-td3,65,248.65795915692217,329090,1438,5055.727746963501,42.89813232421875,,6.1260271072387695,0.44
329,MetaDrive-test-noise2-reduction-td3,65,252.56870487231765,330564,1440,5082.2954659461975,42.178218841552734,,7.026374816894531,0.46
330,MetaDrive-test-noise2-reduction-td3,65,255.42126049578775,331137,1441,5091.5453469753265,46.01325988769531,-45.65117263793945,7.299448013305664,0.47
331,MetaDrive-test-noise2-reduction-td3,64,257.9986941960159,332097,1443,5109.9094779491425,43.24848556518555,-43.049964904785156,3.909447193145752,0.48
332,MetaDrive-test-noise2-reduction-td3,64,258.9189477915926,333098,1444,5131.324020862579,44.27210235595703,,12.137805938720703,0.47
333,MetaDrive-test-noise2-reduction-td3,64,259.83790042014044,334629,1446,5159.003535985947,39.54351043701172,-40.28528594970703,34.77631378173828,0.47
334,MetaDrive-test-noise2-reduction-td3,64,255.60759937839092,335230,1448,5169.769550085068,42.5874137878418,,6.329790115356445,0.45
335,MetaDrive-test-noise2-reduction-td3,64,255.31119711334756,336655,1451,5194.500682830811,42.1068000793457,-42.99050521850586,6.209138870239258,0.47
336,MetaDrive-test-noise2-reduction-td3,64,253.86441021002463,337656,1452,5215.683490991592,39.50373077392578,,5.104005336761475,0.46
337,MetaDrive-test-noise2-reduction-td3,64,251.35377405402937,338200,1454,5224.583500862122,41.666316986083984,,6.383559226989746,0.46
338,MetaDrive-test-noise2-reduction-td3,64,248.9366701486645,339201,1455,5244.005332946777,39.70360565185547,-40.752017974853516,87.96879577636719,0.45
339,MetaDrive-test-noise2-reduction-td3,64,246.2742304697248,340478,1458,5266.584772109985,42.21739196777344,,8.11539077758789,0.45
340,MetaDrive-test-noise2-reduction-td3,64,247.43271010151759,341061,1459,5278.007094860077,42.32289123535156,-43.56467819213867,6.360621452331543,0.45
341,MetaDrive-test-noise2-reduction-td3,64,245.26167144264383,342365,1462,5300.902287006378,38.716732025146484,-38.96269989013672,7.350314617156982,0.44
342,MetaDrive-test-noise2-reduction-td3,64,247.3675502192108,343265,1464,5316.83901309967,39.12919616699219,-39.160186767578125,8.406364440917969,0.44
343,MetaDrive-test-noise2-reduction-td3,64,249.37762905166676,344266,1465,5340.210711956024,45.7403564453125,,5.758359432220459,0.44
344,MetaDrive-test-noise2-reduction-td3,64,250.1192025519262,345082,1467,5354.326030015945,41.01567077636719,,7.9205756187438965,0.44
345,MetaDrive-test-noise2-reduction-td3,64,252.1460301079659,346088,1470,5372.358753919601,43.120811462402344,,87.02899169921875,0.45
346,MetaDrive-test-noise2-reduction-td3,64,254.5085041838569,347588,1473,5398.61506986618,40.223670959472656,,40.90568161010742,0.46
347,MetaDrive-test-noise2-reduction-td3,64,254.61270171197737,348597,1475,5416.694401025772,43.34180450439453,-44.24838638305664,8.503518104553223,0.46
348,MetaDrive-test-noise2-reduction-td3,64,256.95593022076855,349596,1477,5434.79504609108,47.44111251831055,,8.042400360107422,0.46
349,MetaDrive-test-noise2-reduction-td3,64,255.6474780367181,350029,1479,5442.230940103531,44.368988037109375,-43.70304870605469,7.275035858154297,0.46
350,MetaDrive-test-noise2-reduction-td3,64,254.39189476566438,351023,1481,5461.9398419857025,44.8441276550293,-45.11386489868164,11.806862831115723,0.45
351,MetaDrive-test-noise2-reduction-td3,64,258.3328986587648,352108,1483,5481.1269199848175,43.93091583251953,,6.650063514709473,0.47
352,MetaDrive-test-noise2-reduction-td3,64,254.9801246541963,353072,1487,5497.85024189949,46.18731689453125,,7.511051654815674,0.47
353,MetaDrive-test-noise2-reduction-td3,64,254.856205788718,354010,1488,5515.88002705574,43.52131271362305,,6.548116683959961,0.47
354,MetaDrive-test-noise2-reduction-td3,64,252.48847471111952,355882,1492,5549.9488298892975,45.80119323730469,,5.442343711853027,0.46
355,MetaDrive-test-noise2-reduction-td3,64,250.7289279804142,356561,1494,5562.507021903992,44.101295471191406,-43.393245697021484,10.874881744384766,0.45
356,MetaDrive-test-noise2-reduction-td3,64,249.71454663487492,357218,1495,5573.868133068085,40.5679817199707,,6.652654647827148,0.46
357,MetaDrive-test-noise2-reduction-td3,64,249.47627424663344,358104,1497,5588.698334932327,43.8438835144043,,8.818718910217285,0.48
358,MetaDrive-test-noise2-reduction-td3,64,245.5888228939387,359094,1501,5606.935367107391,42.38301467895508,,9.085894584655762,0.46
359,MetaDrive-test-noise2-reduction-td3,63,245.32649965323685,360242,1504,5629.127995014191,46.38799285888672,,4.400458812713623,0.45
360,MetaDrive-test-noise2-reduction-td3,63,245.8624690086139,361181,1506,5648.256761074066,44.44560241699219,-45.056270599365234,5.710809707641602,0.45
361,MetaDrive-test-noise2-reduction-td3,63,242.28423525652735,362692,1510,5674.999517917633,40.28958511352539,,7.579327583312988,0.45
362,MetaDrive-test-noise2-reduction-td3,63,240.52501449329523,363460,1512,5688.987046957016,43.41716766357422,,15.313684463500977,0.45
363,MetaDrive-test-noise2-reduction-td3,63,240.1899905538645,364036,1513,5699.212135791779,41.02012634277344,,6.239632606506348,0.45
364,MetaDrive-test-noise2-reduction-td3,63,239.87458355268794,365275,1515,5722.683434963226,45.1525764465332,-45.340919494628906,4.848649501800537,0.45
365,MetaDrive-test-noise2-reduction-td3,63,238.6110560811834,366069,1517,5736.979261159897,44.683074951171875,-45.47981643676758,5.900509357452393,0.44
366,MetaDrive-test-noise2-reduction-td3,63,236.9855579578243,367294,1519,5764.0024580955505,46.01642608642578,,5.7055768966674805,0.43
367,MetaDrive-test-noise2-reduction-td3,63,236.2886699263095,368320,1522,5781.880787849426,40.996192932128906,,10.718595504760742,0.42
368,MetaDrive-test-noise2-reduction-td3,63,236.6286205074019,369588,1525,5806.783191919327,43.56658172607422,,6.104017734527588,0.43
369,MetaDrive-test-noise2-reduction-td3,63,237.6168768723101,370554,1526,5823.8867428302765,44.10455322265625,,24.24386978149414,0.43
370,MetaDrive-test-noise2-reduction-td3,63,235.65118364519384,371672,1530,5844.60342001915,42.96760559082031,,51.6566276550293,0.43
371,MetaDrive-test-noise2-reduction-td3,63,238.5440912831881,372434,1531,5859.289884090424,44.150123596191406,,9.867637634277344,0.44
372,MetaDrive-test-noise2-reduction-td3,63,236.60391920244945,373329,1532,5876.066809892654,45.77322769165039,-46.12127685546875,12.442232131958008,0.43
373,MetaDrive-test-noise2-reduction-td3,63,239.92790978769682,374923,1534,5905.848846912384,45.93953323364258,-47.01219177246094,8.094074249267578,0.45
374,MetaDrive-test-noise2-reduction-td3,63,240.57058125316132,375715,1535,5920.917929887772,42.026771545410156,-42.95952606201172,8.26633071899414,0.45
375,MetaDrive-test-noise2-reduction-td3,63,243.582258634766,376545,1536,5935.707541942596,43.76587677001953,-45.22003173828125,10.589920043945312,0.45
376,MetaDrive-test-noise2-reduction-td3,63,244.42970212766966,377546,1537,5959.600577831268,44.884521484375,,13.190534591674805,0.44
377,MetaDrive-test-noise2-reduction-td3,63,244.11150584377745,378038,1538,5969.012254953384,43.30883026123047,,6.039656639099121,0.43
378,MetaDrive-test-noise2-reduction-td3,63,236.44708461433854,379806,1543,6000.402901887894,41.65180587768555,,59.65776062011719,0.41
379,MetaDrive-test-noise2-reduction-td3,63,232.0029078554993,380659,1545,6016.409518003464,43.447471618652344,-43.55362319946289,14.76364517211914,0.41
380,MetaDrive-test-noise2-reduction-td3,63,232.77574226399716,381558,1546,6031.834310054779,47.01848220825195,,6.8942952156066895,0.41
381,MetaDrive-test-noise2-reduction-td3,63,234.52462762647517,382418,1548,6045.997596025467,48.20558547973633,,7.0173797607421875,0.42
382,MetaDrive-test-noise2-reduction-td3,63,233.75064147104666,383419,1549,6062.775379896164,45.328758239746094,-45.232608795166016,6.185355186462402,0.41
383,MetaDrive-test-noise2-reduction-td3,63,234.63454524901925,384516,1552,6082.667598962784,44.01768493652344,,98.89723205566406,0.42
384,MetaDrive-test-noise2-reduction-td3,63,237.92331453876466,385313,1553,6099.538310050964,45.98686599731445,-47.00161361694336,6.923088073730469,0.43
385,MetaDrive-test-noise2-reduction-td3,63,241.23106666575052,386425,1555,6120.483257055283,43.96083068847656,-43.92380142211914,12.956001281738281,0.45
386,MetaDrive-test-noise2-reduction-td3,63,244.40746734812208,387195,1556,6135.520268917084,45.61389923095703,-45.8076171875,19.746315002441406,0.46
387,MetaDrive-test-noise2-reduction-td3,63,241.4469666226726,388304,1559,6155.266629934311,40.81756591796875,,8.99524974822998,0.45
388,MetaDrive-test-noise2-reduction-td3,63,242.85016812737834,389212,1560,6172.132237911224,46.55316162109375,,10.546110153198242,0.45
389,MetaDrive-test-noise2-reduction-td3,63,241.9695578958129,390010,1562,6186.188187122345,47.205596923828125,,6.100729942321777,0.45
390,MetaDrive-test-noise2-reduction-td3,63,244.7189933064249,391343,1564,6210.883502006531,46.42428207397461,-45.8726806640625,10.49036979675293,0.46
391,MetaDrive-test-noise2-reduction-td3,62,245.22357952314186,392674,1566,6234.780436992645,44.30128479003906,,8.294662475585938,0.46
392,MetaDrive-test-noise2-reduction-td3,62,243.7174461433547,393687,1568,6253.645143985748,45.892494201660156,-46.04243469238281,9.06510066986084,0.44
393,MetaDrive-test-noise2-reduction-td3,62,245.14997356236344,394299,1569,6265.56223988533,44.60026550292969,-44.67751693725586,9.189453125,0.44
394,MetaDrive-test-noise2-reduction-td3,62,247.4042608479544,395687,1571,6289.47448682785,44.29529571533203,-45.534080505371094,9.332216262817383,0.46
395,MetaDrive-test-noise2-reduction-td3,62,247.67023902607565,396184,1572,6297.926768064499,51.15517807006836,,5.560976505279541,0.46
396,MetaDrive-test-noise2-reduction-td3,62,248.2862074660522,397265,1574,6316.970381975174,41.87642288208008,-42.31563949584961,24.735136032104492,0.47
397,MetaDrive-test-noise2-reduction-td3,62,246.6954163998779,398494,1576,6340.572337150574,47.319175720214844,,7.7989912033081055,0.46
398,MetaDrive-test-noise2-reduction-td3,62,244.6957360128705,399084,1578,6350.419116020203,44.852447509765625,,7.885371208190918,0.45
399,MetaDrive-test-noise2-reduction-td3,62,246.83885830787335,400305,1580,6371.1242690086365,47.29697799682617,-48.23675537109375,6.459546089172363,0.46
400,MetaDrive-test-noise2-reduction-td3,62,246.69334288486868,401411,1582,6392.328094959259,49.75434875488281,-49.87211608886719,9.18051528930664,0.45
401,MetaDrive-test-noise2-reduction-td3,62,247.21090964931537,402412,1583,6414.215135812759,46.565773010253906,,15.194682121276855,0.44
402,MetaDrive-test-noise2-reduction-td3,62,251.36326084202585,403220,1585,6426.884561061859,49.1340446472168,,10.719625473022461,0.45
403,MetaDrive-test-noise2-reduction-td3,62,247.3879714496161,404143,1588,6442.783911943436,49.553932189941406,-50.3878059387207,12.507314682006836,0.44
404,MetaDrive-test-noise2-reduction-td3,62,245.72477737242912,405273,1591,6466.458130836487,44.68809509277344,-44.840858459472656,7.311795711517334,0.43
405,MetaDrive-test-noise2-reduction-td3,62,250.60177112523937,406463,1593,6487.048189878464,44.63766860961914,-44.859004974365234,3.031489610671997,0.45
406,MetaDrive-test-noise2-reduction-td3,62,248.6261691250491,407485,1595,6505.157108783722,46.739341735839844,-46.82012176513672,11.491463661193848,0.44
407,MetaDrive-test-noise2-reduction-td3,62,247.2485692280156,408323,1597,6519.559314727783,48.65346145629883,-48.71080017089844,22.243831634521484,0.43
408,MetaDrive-test-noise2-reduction-td3,62,249.6738506281838,409324,1598,6541.193444013596,46.63603210449219,,5.804975509643555,0.43
409,MetaDrive-test-noise2-reduction-td3,62,253.82744304339045,410465,1600,6561.647487878799,46.446266174316406,-46.90892791748047,6.630428314208984,0.45
410,MetaDrive-test-noise2-reduction-td3,62,253.2564212092462,411466,1601,6580.276365995407,45.44134521484375,,4.939520835876465,0.45
411,MetaDrive-test-noise2-reduction-td3,62,252.61466973995124,412077,1602,6592.367966890335,45.477874755859375,-45.498756408691406,11.484376907348633,0.44
412,MetaDrive-test-noise2-reduction-td3,62,257.3290415703809,413349,1604,6616.570652961731,47.8359260559082,-48.57521438598633,11.09771728515625,0.46
413,MetaDrive-test-noise2-reduction-td3,62,258.19129899189323,414335,1606,6634.93186712265,50.194847106933594,-50.64693832397461,9.852526664733887,0.47
414,MetaDrive-test-noise2-reduction-td3,62,258.2944447292476,415241,1608,6653.046337842941,48.789466857910156,-50.51451873779297,16.651145935058594,0.47
415,MetaDrive-test-noise2-reduction-td3,62,261.73273447527885,416073,1609,6671.229330062866,53.24021911621094,-53.20447540283203,5.4911208152771,0.48
416,MetaDrive-test-noise2-reduction-td3,62,262.42939204956315,417009,1610,6689.121529102325,46.450096130371094,-46.802032470703125,8.492353439331055,0.48
417,MetaDrive-test-noise2-reduction-td3,62,265.5888227213544,418246,1612,6712.583153963089,47.6998291015625,,10.026050567626953,0.48
418,MetaDrive-test-noise2-reduction-td3,62,264.42790205349314,419088,1614,6730.457346916199,42.61649703979492,,130.86880493164062,0.46
419,MetaDrive-test-noise2-reduction-td3,62,261.84653878309456,420559,1617,6758.5305190086365,45.06595230102539,-46.00398635864258,13.884159088134766,0.46
420,MetaDrive-test-noise2-reduction-td3,62,264.29748146384816,421469,1618,6776.34183216095,48.93163299560547,-48.79961395263672,5.474367141723633,0.47
421,MetaDrive-test-noise2-reduction-td3,62,265.2929658729525,422373,1620,6792.724858999252,49.3459358215332,-49.35374450683594,12.183755874633789,0.49
422,MetaDrive-test-noise2-reduction-td3,62,266.7124428497393,423595,1622,6816.914301156998,41.26392364501953,-41.13526153564453,8.478805541992188,0.49
423,MetaDrive-test-noise2-reduction-td3,62,268.2992671864758,424596,1623,6839.786981105804,46.669288635253906,,28.832801818847656,0.49
424,MetaDrive-test-noise2-reduction-td3,62,270.68766903150964,425534,1624,6858.090120792389,45.64583206176758,,9.333945274353027,0.5
425,MetaDrive-test-noise2-reduction-td3,62,265.49862430471455,426409,1627,6873.812883853912,45.080989837646484,-44.99925231933594,10.263226509094238,0.49
426,MetaDrive-test-noise2-reduction-td3,62,271.29233254332877,427689,1629,6898.042976856232,52.27255630493164,-52.65782165527344,5.385089874267578,0.51
427,MetaDrive-test-noise2-reduction-td3,62,269.62500728170926,428095,1630,6904.310630083084,49.22928237915039,-49.66987228393555,5.67103910446167,0.51
428,MetaDrive-test-noise2-reduction-td3,61,267.6654375340044,429096,1631,6923.005266904831,45.249610900878906,,13.03339958190918,0.5
429,MetaDrive-test-noise2-reduction-td3,61,268.5432872295338,430872,1634,6958.511523008347,47.00563049316406,,11.634719848632812,0.5
430,MetaDrive-test-noise2-reduction-td3,61,268.22963184231156,431386,1635,6967.284285783768,47.44501495361328,,13.98855972290039,0.5
431,MetaDrive-test-noise2-reduction-td3,61,268.16398864095544,432205,1636,6984.625669002533,47.975006103515625,-48.870018005371094,6.356070518493652,0.51
432,MetaDrive-test-noise2-reduction-td3,61,268.79680089075106,433836,1638,7016.872723817825,43.96156311035156,,6.099079132080078,0.51
433,MetaDrive-test-noise2-reduction-td3,61,268.98030905553964,434171,1639,7022.753453016281,49.48023986816406,-49.456626892089844,8.43375015258789,0.51
434,MetaDrive-test-noise2-reduction-td3,61,270.7207627673374,435130,1642,7037.395576953888,44.41658020019531,,32.63855743408203,0.51
435,MetaDrive-test-noise2-reduction-td3,61,266.7107878148799,436225,1645,7054.330846786499,44.62803268432617,-45.181884765625,16.887073516845703,0.5
436,MetaDrive-test-noise2-reduction-td3,61,268.09340841476705,437411,1647,7073.041618824005,50.30759811401367,-50.44723892211914,5.833085536956787,0.51
437,MetaDrive-test-noise2-reduction-td3,61,264.7715751875459,438117,1650,7083.483925819397,45.36555480957031,-45.5096321105957,7.345689296722412,0.51
438,MetaDrive-test-noise2-reduction-td3,61,261.66144597958925,439390,1653,7103.930896997452,45.63968276977539,,12.73879623413086,0.5
439,MetaDrive-test-noise2-reduction-td3,61,262.04533512032714,440018,1654,7114.254794836044,48.58293151855469,,7.7621355056762695,0.5
440,MetaDrive-test-noise2-reduction-td3,61,261.4454103686171,441206,1656,7132.489537000656,47.69088363647461,,4.540725231170654,0.5
441,MetaDrive-test-noise2-reduction-td3,61,263.4120186986461,442344,1658,7150.288120985031,48.593910217285156,,12.673861503601074,0.51
442,MetaDrive-test-noise2-reduction-td3,61,264.1553262329409,443380,1660,7167.245107889175,47.33279037475586,,4.835308074951172,0.52
443,MetaDrive-test-noise2-reduction-td3,61,264.2061975020378,444205,1662,7180.317378997803,45.341251373291016,-45.85567092895508,9.439691543579102,0.52
444,MetaDrive-test-noise2-reduction-td3,61,260.4236910171961,445468,1665,7199.798472166061,48.674781799316406,,9.000675201416016,0.52
445,MetaDrive-test-noise2-reduction-td3,61,260.30473945268545,446707,1667,7221.6189959049225,46.822410583496094,-47.010318756103516,22.524478912353516,0.52
446,MetaDrive-test-noise2-reduction-td3,61,259.95164926791995,447545,1669,7236.633746147156,48.007606506347656,-47.946231842041016,11.342927932739258,0.53
447,MetaDrive-test-noise2-reduction-td3,61,259.88407135514984,448176,1670,7247.19886302948,47.878292083740234,,15.731468200683594,0.53
448,MetaDrive-test-noise2-reduction-td3,61,257.86106613788957,449228,1672,7263.899727106094,47.8395881652832,,6.860668182373047,0.52
449,MetaDrive-test-noise2-reduction-td3,61,257.7974498928996,450471,1674,7285.395995140076,44.24046325683594,-47.112640380859375,54.78886413574219,0.51
450,MetaDrive-test-noise2-reduction-td3,61,259.99053579721374,451472,1675,7301.09611582756,49.241607666015625,,5.5945820808410645,0.51
451,MetaDrive-test-noise2-reduction-td3,61,260.8010376469499,452100,1676,7310.9540579319,46.50043869018555,,9.906766891479492,0.52
452,MetaDrive-test-noise2-reduction-td3,61,264.8671022372498,453760,1679,7337.584781885147,50.48115539550781,,24.79574966430664,0.53
453,MetaDrive-test-noise2-reduction-td3,61,264.92649683015827,454280,1680,7345.6166570186615,48.1282958984375,,80.58362579345703,0.53
454,MetaDrive-test-noise2-reduction-td3,61,265.55268675681776,455766,1682,7376.851238965988,50.33434295654297,,6.127443790435791,0.53
455,MetaDrive-test-noise2-reduction-td3,61,266.0979913262847,456695,1683,7393.022264003754,43.69755172729492,-44.51546859741211,9.704797744750977,0.54
456,MetaDrive-test-noise2-reduction-td3,61,267.0636210104021,457451,1684,7405.744116783142,50.63928985595703,-50.24143981933594,6.408938407897949,0.54
457,MetaDrive-test-noise2-reduction-td3,61,267.64043195348745,458024,1685,7414.866228818893,45.9081916809082,,43.92264938354492,0.55
458,MetaDrive-test-noise2-reduction-td3,61,274.275955630601,459446,1687,7438.367162942886,41.96139144897461,,6.1923675537109375,0.57
459,MetaDrive-test-noise2-reduction-td3,61,275.52378405465856,460585,1689,7455.461668014526,48.89306640625,-48.953712463378906,9.731977462768555,0.58
460,MetaDrive-test-noise2-reduction-td3,61,277.8575258795326,461032,1690,7461.699586868286,46.455318450927734,,11.523061752319336,0.59
461,MetaDrive-test-noise2-reduction-td3,61,278.11291022270063,462148,1692,7480.626224994659,48.50814437866211,,5.914535045623779,0.59
462,MetaDrive-test-noise2-reduction-td3,61,275.10019534189286,463147,1694,7496.288280010223,46.22089385986328,-47.200618743896484,9.917427062988281,0.57
463,MetaDrive-test-noise2-reduction-td3,61,274.8483311779896,464350,1697,7514.344210147858,49.35398483276367,,13.248851776123047,0.58
464,MetaDrive-test-noise2-reduction-td3,61,275.4222217801189,465492,1699,7532.361028909683,45.59918975830078,,142.75665283203125,0.59
465,MetaDrive-test-noise2-reduction-td3,61,274.5075630644041,466493,1700,7551.61309504509,49.07786560058594,-48.952964782714844,7.46871280670166,0.58
466,MetaDrive-test-noise2-reduction-td3,61,270.8919689116424,467451,1703,7567.480913162231,49.033241271972656,-49.70816421508789,29.883289337158203,0.57
467,MetaDrive-test-noise2-reduction-td3,61,268.6531373095433,468452,1704,7587.07014799118,47.05057907104492,,7.815873622894287,0.56
468,MetaDrive-test-noise2-reduction-td3,61,270.48841792750676,469283,1705,7602.400387048721,44.74486541748047,-45.019649505615234,9.265617370605469,0.56
469,MetaDrive-test-noise2-reduction-td3,61,272.0093337157391,470078,1706,7616.447729110718,44.84283447265625,,13.999975204467773,0.57
470,MetaDrive-test-noise2-reduction-td3,61,273.3701187949288,471218,1708,7633.096493959427,46.64838790893555,,11.175556182861328,0.58
471,MetaDrive-test-noise2-reduction-td3,61,272.02203803978557,472219,1709,7649.7639129161835,41.4177360534668,-42.288169860839844,22.072853088378906,0.57
472,MetaDrive-test-noise2-reduction-td3,61,267.8638456652129,473515,1712,7671.655468940735,49.15239715576172,-49.53359603881836,5.139659881591797,0.57
473,MetaDrive-test-noise2-reduction-td3,61,269.14289061763844,474024,1713,7678.698040008545,45.342742919921875,,22.66204071044922,0.58
474,MetaDrive-test-noise2-reduction-td3,61,270.22366276833435,475007,1715,7695.976800918579,45.877586364746094,-45.77210998535156,108.21929931640625,0.59
475,MetaDrive-test-noise2-reduction-td3,61,269.17030810517946,476270,1718,7716.604513883591,49.547000885009766,,6.74004602432251,0.58
476,MetaDrive-test-noise2-reduction-td3,61,268.5518433012245,477080,1720,7729.726253986359,46.871952056884766,,16.876422882080078,0.57
477,MetaDrive-test-noise2-reduction-td3,61,268.09764006616683,478797,1723,7759.664623975754,48.072139739990234,-48.663002014160156,7.797478199005127,0.58
478,MetaDrive-test-noise2-reduction-td3,61,266.1992680822357,479195,1724,7766.103409051895,45.55157470703125,-46.797401428222656,8.747831344604492,0.57
479,MetaDrive-test-noise2-reduction-td3,61,266.3327200476085,480196,1725,7781.373090982437,50.070030212402344,,9.135492324829102,0.57
480,MetaDrive-test-noise2-reduction-td3,61,265.1495073696909,481067,1728,7795.848706960678,51.466453552246094,-52.48134231567383,9.277496337890625,0.55
481,MetaDrive-test-noise2-reduction-td3,61,264.5049467772115,482298,1730,7815.227333068848,50.73265838623047,,6.034924030303955,0.54
482,MetaDrive-test-noise2-reduction-td3,61,267.7104960169465,483839,1732,7844.404946088791,46.02399444580078,-45.27762222290039,6.326472282409668,0.55
483,MetaDrive-test-noise2-reduction-td3,61,268.58436275265836,484696,1733,7858.014279127121,46.087764739990234,,6.498888969421387,0.55
484,MetaDrive-test-noise2-reduction-td3,61,266.34909552956873,485487,1734,7874.165705919266,45.522865295410156,-46.225502014160156,8.029805183410645,0.54
485,MetaDrive-test-noise2-reduction-td3,61,265.6831596450643,486094,1735,7883.368193864822,48.56464385986328,,9.89924430847168,0.53
486,MetaDrive-test-noise2-reduction-td3,61,261.45622031689607,487452,1738,7907.552018880844,44.94700241088867,,10.80101203918457,0.52
487,MetaDrive-test-noise2-reduction-td3,61,262.68991719402396,488204,1739,7921.030006885529,42.22373962402344,,4.767339706420898,0.52
488,MetaDrive-test-noise2-reduction-td3,61,265.2158749737761,489045,1741,7933.700946807861,43.94516372680664,-44.09003448486328,8.723247528076172,0.53
489,MetaDrive-test-noise2-reduction-td3,61,267.72398460388837,490223,1743,7954.233568906784,47.07203674316406,-47.89588928222656,7.658499717712402,0.53
490,MetaDrive-test-noise2-reduction-td3,61,270.63239220351966,491224,1744,7974.561829090118,51.26561737060547,,11.258834838867188,0.53
491,MetaDrive-test-noise2-reduction-td3,61,267.8261870194244,492069,1746,7988.775220870972,46.6485595703125,-47.624610900878906,18.922481536865234,0.52
492,MetaDrive-test-noise2-reduction-td3,61,270.142151414512,493140,1748,8005.485843896866,46.760841369628906,,8.473731994628906,0.53
493,MetaDrive-test-noise2-reduction-td3,61,272.3351851288565,494141,1749,8024.715106010437,47.6662483215332,-47.35161590576172,9.278753280639648,0.53
494,MetaDrive-test-noise2-reduction-td3,61,269.8524566489947,495178,1752,8040.935545921326,46.38047409057617,,23.314434051513672,0.51
495,MetaDrive-test-noise2-reduction-td3,61,265.9079563092433,496013,1754,8054.779646873474,46.45458984375,-46.42563247680664,14.570785522460938,0.5
496,MetaDrive-test-noise2-reduction-td3,61,266.1903071126502,497408,1756,8080.822578907013,48.26634979248047,,6.6375861167907715,0.49
497,MetaDrive-test-noise2-reduction-td3,61,266.8471753249547,498072,1757,8091.372636079788,47.55059051513672,,11.208968162536621,0.49
498,MetaDrive-test-noise2-reduction-td3,61,262.295321545783,499206,1760,8110.805152893066,46.86444091796875,,16.46908950805664,0.48
