TanmayH/CS269-RL-project-code/MetaDrive-test-conv-colab-actor-dropout/td3/progress.csv
,log_dir,frame_per_second,episode_reward,total_steps,total_episodes,total_time,target_q,actor_loss,critic_loss,success_rate
0,MetaDrive-test-conv-colab-actor-dropout,475,11.895209898610926,2001,2,4.206984043121338,,,,0.0
1,MetaDrive-test-conv-colab-actor-dropout,425,9.345423176851181,3658,4,8.595059633255005,,,,0.0
2,MetaDrive-test-conv-colab-actor-dropout,433,9.575812127438148,4659,5,10.75545334815979,,,,0.0
3,MetaDrive-test-conv-colab-actor-dropout,342,10.146129861710515,5660,6,16.50967288017273,,,,0.0
4,MetaDrive-test-conv-colab-actor-dropout,317,10.163936230271888,6661,7,20.972216844558716,,,,0.0
5,MetaDrive-test-conv-colab-actor-dropout,320,9.188810295735927,7086,8,22.115270614624023,,,,0.0
6,MetaDrive-test-conv-colab-actor-dropout,314,9.226621866044075,8087,9,25.729034423828125,,,,0.0
7,MetaDrive-test-conv-colab-actor-dropout,310,9.40705922467855,9088,10,29.29517412185669,,,,0.0
8,MetaDrive-test-conv-colab-actor-dropout,240,9.587217793164864,10078,11,41.95742416381836,-0.05644102022051811,,0.0018423623405396938,0.0
9,MetaDrive-test-conv-colab-actor-dropout,173,-0.17380932048830716,11974,50,68.8569929599762,-0.03084825724363327,,0.005688445642590523,0.0
10,MetaDrive-test-conv-colab-actor-dropout,169,-0.2834027868253498,12344,51,72.8689022064209,-0.0265702772885561,,0.008435355499386787,0.0
11,MetaDrive-test-conv-colab-actor-dropout,156,-0.3610520283953549,13829,53,88.454909324646,-0.018702741712331772,-0.0005977993132546544,0.009704126045107841,0.0
12,MetaDrive-test-conv-colab-actor-dropout,146,-0.3166283434185043,14895,55,101.73032355308533,-0.0076843746937811375,0.002160659059882164,0.004767661448568106,0.0
13,MetaDrive-test-conv-colab-actor-dropout,142,-0.23844137049866446,15896,56,111.73107194900513,-0.0005928454920649529,,0.009439769200980663,0.0
14,MetaDrive-test-conv-colab-actor-dropout,138,-0.1418871997100347,16897,57,121.82882618904114,0.02945808880031109,-0.021885905414819717,0.004579322878271341,0.0
15,MetaDrive-test-conv-colab-actor-dropout,136,0.09764793823753981,17898,58,131.46624302864075,0.034079790115356445,,0.023807216435670853,0.0
16,MetaDrive-test-conv-colab-actor-dropout,135,0.09802135518339182,18034,59,133.18529343605042,0.05017130449414253,,0.004834447987377644,0.0
17,MetaDrive-test-conv-colab-actor-dropout,131,0.16192964423031697,19051,64,145.12084698677063,0.0034813005477190018,-0.017284613102674484,0.5682733058929443,0.0
18,MetaDrive-test-conv-colab-actor-dropout,128,0.2877703594224116,20128,66,157.17365145683289,0.11102975904941559,,0.004237867891788483,0.0
19,MetaDrive-test-conv-colab-actor-dropout,124,0.8270873628346886,21010,75,168.8287272453308,0.13008646667003632,,0.017831183969974518,0.0
20,MetaDrive-test-conv-colab-actor-dropout,120,1.789909559049869,22118,92,183.1164562702179,0.2230931967496872,,0.0035268233623355627,0.0
21,MetaDrive-test-conv-colab-actor-dropout,117,2.5275328370553347,23003,104,195.76210618019104,0.3096725642681122,-0.3245697617530823,0.028926346451044083,0.0
22,MetaDrive-test-conv-colab-actor-dropout,114,4.899548547270348,24022,122,210.54867124557495,0.39586472511291504,,0.8035961389541626,0.0
23,MetaDrive-test-conv-colab-actor-dropout,110,7.165914535482317,25020,147,226.5781888961792,0.7195367813110352,,0.12798495590686798,0.0
24,MetaDrive-test-conv-colab-actor-dropout,107,8.10388239935666,26013,174,242.8234989643097,0.8388239145278931,-0.9064821004867554,0.07757588475942612,0.0
25,MetaDrive-test-conv-colab-actor-dropout,104,8.228695962285336,27018,197,258.31452202796936,0.950272262096405,,1.2332208156585693,0.0
26,MetaDrive-test-conv-colab-actor-dropout,102,7.6740864956524595,28079,216,273.1283040046692,1.297445297241211,-1.3285260200500488,0.029061684384942055,0.0
27,MetaDrive-test-conv-colab-actor-dropout,101,8.379521437115933,29036,234,286.51771426200867,1.5164799690246582,,1.5472955703735352,0.0
28,MetaDrive-test-conv-colab-actor-dropout,99,10.481208204854687,30088,247,301.4570198059082,1.6550178527832031,,2.6385385990142822,0.0
29,MetaDrive-test-conv-colab-actor-dropout,98,15.370629620953162,31174,255,317.18069076538086,2.1477065086364746,,1.891780138015747,0.0
30,MetaDrive-test-conv-colab-actor-dropout,97,20.288764702321995,32390,262,332.43077874183655,2.692397117614746,,0.08899842947721481,0.0
31,MetaDrive-test-conv-colab-actor-dropout,96,23.7738235662314,33142,265,342.3621428012848,2.956117630004883,,1.6208816766738892,0.0
32,MetaDrive-test-conv-colab-actor-dropout,95,28.77089371475471,34044,270,354.7955996990204,3.31943678855896,,0.04415780305862427,0.0
33,MetaDrive-test-conv-colab-actor-dropout,95,34.575795068582536,35001,279,367.5333936214447,3.8061492443084717,-4.0751633644104,0.12458158284425735,0.0
34,MetaDrive-test-conv-colab-actor-dropout,94,40.2789960933665,36019,287,379.912575006485,3.8993868827819824,-4.212973594665527,4.521934509277344,0.01
35,MetaDrive-test-conv-colab-actor-dropout,94,46.55690449946942,37101,294,393.4951286315918,4.980685234069824,-5.112390518188477,0.1630067527294159,0.02
36,MetaDrive-test-conv-colab-actor-dropout,93,51.65197313624782,38041,301,406.0578155517578,5.807703018188477,-5.949850559234619,2.780545711517334,0.02
37,MetaDrive-test-conv-colab-actor-dropout,92,57.51000295206548,39080,308,420.899311542511,6.091434478759766,,8.803153991699219,0.02
38,MetaDrive-test-conv-colab-actor-dropout,92,62.39737076429608,40022,319,432.85237979888916,7.109357833862305,,0.31978708505630493,0.02
39,MetaDrive-test-conv-colab-actor-dropout,91,68.92526469386314,41127,328,447.26497316360474,8.11646842956543,-8.023775100708008,0.43974778056144714,0.03
40,MetaDrive-test-conv-colab-actor-dropout,91,76.31571669309085,42128,335,460.67755937576294,8.823684692382812,,10.199684143066406,0.04
41,MetaDrive-test-conv-colab-actor-dropout,91,82.39030748421031,43090,343,472.8498384952545,9.240266799926758,,0.8152146935462952,0.05
42,MetaDrive-test-conv-colab-actor-dropout,90,87.09505962539494,44379,354,492.34725522994995,9.798789978027344,-10.52202033996582,18.28905487060547,0.05
43,MetaDrive-test-conv-colab-actor-dropout,89,86.69706327546828,45043,360,502.1466052532196,10.700904846191406,-11.255929946899414,0.6576154828071594,0.05
44,MetaDrive-test-conv-colab-actor-dropout,89,82.8252264356277,46024,368,516.2455666065216,12.58018684387207,,0.4837729036808014,0.05
45,MetaDrive-test-conv-colab-actor-dropout,88,83.26876196842612,47037,377,529.5206434726715,12.270145416259766,-12.748615264892578,1.5761198997497559,0.05
46,MetaDrive-test-conv-colab-actor-dropout,88,84.6696066502019,48041,384,543.8440494537354,13.18716049194336,-13.88558578491211,6.928564071655273,0.04
47,MetaDrive-test-conv-colab-actor-dropout,87,82.4486094044721,49091,395,558.1333546638489,15.800172805786133,-16.20234489440918,1.3940153121948242,0.03
48,MetaDrive-test-conv-colab-actor-dropout,87,79.61091139493982,50018,405,570.6865880489349,15.132007598876953,,2.530069351196289,0.03
49,MetaDrive-test-conv-colab-actor-dropout,87,81.03969315316782,51005,414,584.3726179599762,16.728290557861328,-17.26506233215332,1.0555158853530884,0.03
50,MetaDrive-test-conv-colab-actor-dropout,86,81.66384344968627,52002,424,598.2760949134827,17.514095306396484,,4.4634904861450195,0.02
51,MetaDrive-test-conv-colab-actor-dropout,86,79.8929926476752,53053,434,611.5307612419128,17.493572235107422,-17.892780303955078,1.3499925136566162,0.01
52,MetaDrive-test-conv-colab-actor-dropout,86,77.18736462167753,54043,444,624.7716970443726,19.612594604492188,-20.038999557495117,1.6143126487731934,0.0
53,MetaDrive-test-conv-colab-actor-dropout,86,76.15234785158388,55017,454,637.8628304004669,19.309200286865234,-20.23487091064453,2.625981092453003,0.0
54,MetaDrive-test-conv-colab-actor-dropout,86,76.46927327646443,56078,464,651.4331796169281,21.30259895324707,,1.1475193500518799,0.0
55,MetaDrive-test-conv-colab-actor-dropout,85,74.8481281384523,57078,475,664.9558675289154,20.511062622070312,,22.323251724243164,0.0
56,MetaDrive-test-conv-colab-actor-dropout,85,71.08534176219344,58028,486,678.1086049079895,21.925561904907227,,2.2018003463745117,0.0
57,MetaDrive-test-conv-colab-actor-dropout,85,69.78961025360024,59004,498,690.9931254386902,23.302101135253906,,2.366267681121826,0.0
58,MetaDrive-test-conv-colab-actor-dropout,85,65.06645710045774,60026,512,705.0020053386688,24.82437515258789,,2.5714378356933594,0.0
59,MetaDrive-test-conv-colab-actor-dropout,85,63.1596392735583,61031,523,717.9678676128387,24.66173553466797,-24.805267333984375,3.578096628189087,0.0
60,MetaDrive-test-conv-colab-actor-dropout,84,60.25509833094471,62061,535,732.2466306686401,24.829750061035156,-25.642358779907227,25.652278900146484,0.0
61,MetaDrive-test-conv-colab-actor-dropout,84,58.970741493214554,63048,546,744.8931803703308,26.213584899902344,,3.792163848876953,0.0
62,MetaDrive-test-conv-colab-actor-dropout,84,59.638055958165985,64039,554,758.5891890525818,27.096372604370117,-26.607830047607422,4.803278923034668,0.0
63,MetaDrive-test-conv-colab-actor-dropout,84,58.30250678037033,65056,564,772.4391620159149,27.350841522216797,,12.779720306396484,0.0
64,MetaDrive-test-conv-colab-actor-dropout,84,54.70544110536699,66039,577,785.6462585926056,29.018901824951172,-29.304630279541016,1.9688242673873901,0.0
65,MetaDrive-test-conv-colab-actor-dropout,83,56.14125107654942,67062,588,798.9696764945984,27.706287384033203,,2.518836498260498,0.0
66,MetaDrive-test-conv-colab-actor-dropout,83,55.65569199254148,68019,599,811.1075813770294,30.409832000732422,-30.663179397583008,3.8830347061157227,0.0
67,MetaDrive-test-conv-colab-actor-dropout,83,58.96655720758858,69003,608,823.2636744976044,27.416473388671875,-29.3405818939209,32.181480407714844,0.0
68,MetaDrive-test-conv-colab-actor-dropout,83,60.489632387882274,70072,618,837.243100643158,27.851856231689453,,44.83173370361328,0.0
69,MetaDrive-test-conv-colab-actor-dropout,83,61.97925781227524,71056,627,850.3751091957092,29.60956573486328,,43.431915283203125,0.0
70,MetaDrive-test-conv-colab-actor-dropout,83,61.754317997271244,72218,630,869.3856911659241,25.398208618164062,,35.150390625,0.0
71,MetaDrive-test-conv-colab-actor-dropout,82,62.50401530908201,73389,633,884.4558079242706,27.456157684326172,-27.321605682373047,4.541342735290527,0.0
72,MetaDrive-test-conv-colab-actor-dropout,82,63.25528005770599,74546,635,899.8152775764465,32.6015510559082,,3.1258091926574707,0.0
73,MetaDrive-test-conv-colab-actor-dropout,82,65.75248179545235,75760,637,914.9271817207336,28.175317764282227,,44.37727355957031,0.0
74,MetaDrive-test-conv-colab-actor-dropout,82,66.9185959249383,76761,638,925.8605334758759,27.575023651123047,-27.94031524658203,4.479809284210205,0.0
75,MetaDrive-test-conv-colab-actor-dropout,82,68.29636875464756,77762,639,937.547655582428,32.04859924316406,,33.32485580444336,0.0
76,MetaDrive-test-conv-colab-actor-dropout,82,69.16441020903682,78047,641,941.3277792930603,29.5631160736084,-29.104576110839844,6.645598411560059,0.0
77,MetaDrive-test-conv-colab-actor-dropout,82,72.43037570190155,79121,643,959.9784297943115,30.87554359436035,-31.979021072387695,8.367111206054688,0.0
78,MetaDrive-test-conv-colab-actor-dropout,82,71.90933231843972,80122,644,970.1154761314392,32.719032287597656,,4.419912338256836,0.0
79,MetaDrive-test-conv-colab-actor-dropout,82,73.5679247508394,81577,649,989.761476278305,33.32623291015625,-34.276607513427734,2.212432384490967,0.0
80,MetaDrive-test-conv-colab-actor-dropout,82,74.98067477348962,82106,651,997.2099161148071,30.273380279541016,,44.55458450317383,0.0
81,MetaDrive-test-conv-colab-actor-dropout,82,77.83402829959796,83101,655,1009.5311834812164,31.442222595214844,-31.643287658691406,3.200482130050659,0.0
82,MetaDrive-test-conv-colab-actor-dropout,82,78.85127419018166,84102,656,1023.3230218887329,30.806283950805664,,5.565676689147949,0.0
83,MetaDrive-test-conv-colab-actor-dropout,82,80.36843659038227,85444,664,1041.470942735672,33.49735641479492,,3.1656861305236816,0.01
84,MetaDrive-test-conv-colab-actor-dropout,81,83.53168389355221,86063,668,1049.9657022953033,33.16477966308594,-32.731346130371094,5.401092529296875,0.01
85,MetaDrive-test-conv-colab-actor-dropout,81,87.32998359234416,87059,673,1063.630304813385,33.83963394165039,-33.91279983520508,7.47627067565918,0.01
86,MetaDrive-test-conv-colab-actor-dropout,81,91.82743617354849,88017,676,1080.658742427826,33.91783142089844,-35.429779052734375,81.48420715332031,0.01
87,MetaDrive-test-conv-colab-actor-dropout,81,100.10501680324477,89390,680,1099.6758682727814,32.96501922607422,,3.028883934020996,0.03
88,MetaDrive-test-conv-colab-actor-dropout,81,103.23815423783435,90173,683,1109.2877514362335,34.035072326660156,-34.91280746459961,3.2682838439941406,0.03
89,MetaDrive-test-conv-colab-actor-dropout,81,105.02199326483634,91047,689,1121.7439172267914,34.35760498046875,-34.45471954345703,20.813701629638672,0.03
90,MetaDrive-test-conv-colab-actor-dropout,81,108.0521083680132,92012,695,1133.1398286819458,33.811012268066406,,3.6880013942718506,0.03
91,MetaDrive-test-conv-colab-actor-dropout,81,110.91103948773413,93059,702,1145.8853554725647,33.028968811035156,-32.60619354248047,16.616823196411133,0.03
92,MetaDrive-test-conv-colab-actor-dropout,81,114.2662887784453,94068,709,1158.2766828536987,33.44573211669922,,20.5657958984375,0.03
93,MetaDrive-test-conv-colab-actor-dropout,81,117.39265334492862,95183,714,1172.3130130767822,32.72370147705078,-32.816650390625,5.245429992675781,0.04
94,MetaDrive-test-conv-colab-actor-dropout,81,118.96374249906354,96059,720,1183.1135478019714,35.965003967285156,-36.05156707763672,61.35625457763672,0.04
95,MetaDrive-test-conv-colab-actor-dropout,81,119.61285185790612,97026,728,1196.4566533565521,34.72679138183594,,21.446807861328125,0.04
96,MetaDrive-test-conv-colab-actor-dropout,81,121.67433313099103,98074,735,1209.8283052444458,37.94207000732422,,33.328094482421875,0.04
97,MetaDrive-test-conv-colab-actor-dropout,81,117.1001275491995,99597,741,1227.6131088733673,35.90324401855469,-35.9271354675293,3.9107420444488525,0.04
98,MetaDrive-test-conv-colab-actor-dropout,81,116.0894318871335,100140,743,1233.9513266086578,37.583065032958984,,5.465524673461914,0.04
99,MetaDrive-test-conv-colab-actor-dropout,81,118.98180703908076,101165,748,1248.6318242549896,35.450660705566406,-36.993919372558594,19.073936462402344,0.04
100,MetaDrive-test-conv-colab-actor-dropout,80,118.32047670571508,102229,753,1262.898369550705,36.378143310546875,-36.72314453125,15.555773735046387,0.05
101,MetaDrive-test-conv-colab-actor-dropout,80,118.55879587470214,103024,758,1273.5886855125427,34.93621063232422,,58.77948760986328,0.05
102,MetaDrive-test-conv-colab-actor-dropout,80,124.38202818452115,104075,761,1287.6018648147583,38.22492980957031,-37.76605224609375,5.370790958404541,0.06
103,MetaDrive-test-conv-colab-actor-dropout,80,124.0560556986445,105013,765,1301.0842115879059,35.28213882446289,-35.66011428833008,6.004786491394043,0.05
104,MetaDrive-test-conv-colab-actor-dropout,80,124.67901112150587,106060,771,1314.01997423172,35.62050247192383,,48.49898147583008,0.06
105,MetaDrive-test-conv-colab-actor-dropout,80,122.60772600210277,107093,777,1327.8781700134277,40.26774215698242,-41.16522216796875,6.202106475830078,0.06
106,MetaDrive-test-conv-colab-actor-dropout,80,117.64411572611044,108253,782,1343.7991168498993,36.1705322265625,-37.205848693847656,5.904253005981445,0.04
107,MetaDrive-test-conv-colab-actor-dropout,80,117.97557474299552,109027,784,1354.426719903946,36.470802307128906,-35.92906188964844,7.558384895324707,0.04
108,MetaDrive-test-conv-colab-actor-dropout,80,122.269633756679,110112,788,1368.788856267929,38.35099792480469,,2.3372511863708496,0.05
109,MetaDrive-test-conv-colab-actor-dropout,80,125.14019806741962,111099,791,1384.732414007187,38.116668701171875,-38.34779357910156,5.02255916595459,0.06
110,MetaDrive-test-conv-colab-actor-dropout,80,125.20680230242675,112122,796,1398.529455423355,40.138465881347656,,3.785640239715576,0.07
111,MetaDrive-test-conv-colab-actor-dropout,80,126.61868809531771,113298,802,1412.9343559741974,36.811126708984375,,5.837224960327148,0.08
112,MetaDrive-test-conv-colab-actor-dropout,80,124.9509324405419,114290,807,1428.2115621566772,35.99512481689453,,3.711864709854126,0.08
113,MetaDrive-test-conv-colab-actor-dropout,80,129.10663327082113,115303,810,1439.3026967048645,35.6414794921875,-36.6376953125,65.42890930175781,0.1
114,MetaDrive-test-conv-colab-actor-dropout,80,132.1473732101617,116335,812,1452.6926488876343,41.14788055419922,-41.3636474609375,19.742013931274414,0.1
115,MetaDrive-test-conv-colab-actor-dropout,80,134.24308982696536,117168,815,1462.096759557724,43.31103515625,,4.078424453735352,0.12
116,MetaDrive-test-conv-colab-actor-dropout,80,137.84086652259413,118440,819,1480.3862617015839,39.21446990966797,,28.998029708862305,0.12
117,MetaDrive-test-conv-colab-actor-dropout,80,141.3103533411121,119083,822,1487.9262490272522,41.36017990112305,-41.62416076660156,6.877819061279297,0.13
118,MetaDrive-test-conv-colab-actor-dropout,80,143.31682147815812,120038,826,1499.662560224533,40.22068786621094,,10.607577323913574,0.14
119,MetaDrive-test-conv-colab-actor-dropout,79,145.01520753780022,121327,831,1520.9314517974854,39.25763702392578,-40.049530029296875,29.697254180908203,0.14
120,MetaDrive-test-conv-colab-actor-dropout,79,151.12759802846784,122479,833,1537.895705461502,38.81175994873047,-39.67747116088867,4.4419169425964355,0.15
121,MetaDrive-test-conv-colab-actor-dropout,79,150.93566566967374,123044,836,1544.3868193626404,39.09367370605469,,4.076042175292969,0.16
122,MetaDrive-test-conv-colab-actor-dropout,79,152.974658795162,124574,841,1563.049197435379,42.130985260009766,,12.368206024169922,0.16
123,MetaDrive-test-conv-colab-actor-dropout,79,151.5331259406604,125077,844,1569.871126651764,39.878414154052734,-40.44438552856445,9.923013687133789,0.16
124,MetaDrive-test-conv-colab-actor-dropout,79,154.7591496953412,126217,847,1584.7476696968079,40.391021728515625,-40.780921936035156,6.935348033905029,0.17
125,MetaDrive-test-conv-colab-actor-dropout,79,156.54616552418526,127073,850,1596.3709020614624,40.736228942871094,-39.868995666503906,5.422726631164551,0.18
126,MetaDrive-test-conv-colab-actor-dropout,79,159.99758427846146,128512,854,1614.2255771160126,42.48527908325195,,2.627556562423706,0.19
127,MetaDrive-test-conv-colab-actor-dropout,79,161.00057981404092,129272,856,1628.157721042633,40.524906158447266,,12.019740104675293,0.19
128,MetaDrive-test-conv-colab-actor-dropout,79,165.95060515411254,130373,858,1643.2047049999237,40.642967224121094,-41.28969192504883,5.773381233215332,0.21
129,MetaDrive-test-conv-colab-actor-dropout,79,169.80608418003283,131357,859,1658.9571764469147,43.76573181152344,-44.00362014770508,6.167866230010986,0.22
130,MetaDrive-test-conv-colab-actor-dropout,79,168.5475061153159,132358,860,1671.991283416748,39.69865417480469,,7.924391269683838,0.22
131,MetaDrive-test-conv-colab-actor-dropout,79,168.35026883861843,133503,863,1688.6786592006683,43.508018493652344,-44.111793518066406,3.354266881942749,0.22
132,MetaDrive-test-conv-colab-actor-dropout,79,169.45896167901594,134209,865,1697.1776657104492,45.941123962402344,-45.20439147949219,3.078591823577881,0.22
133,MetaDrive-test-conv-colab-actor-dropout,78,171.4506643231347,135837,867,1720.0835514068604,44.78008270263672,-45.57335662841797,5.477279186248779,0.22
134,MetaDrive-test-conv-colab-actor-dropout,78,173.08370991423894,136294,868,1726.8050589561462,43.18809509277344,,10.303991317749023,0.23
135,MetaDrive-test-conv-colab-actor-dropout,78,175.56533610612433,137343,871,1739.7885372638702,44.42373275756836,-44.23003005981445,3.541990041732788,0.24
136,MetaDrive-test-conv-colab-actor-dropout,78,176.79877117247122,138344,872,1752.0770192146301,45.023841857910156,,6.93658447265625,0.24
137,MetaDrive-test-conv-colab-actor-dropout,78,178.20609952003085,139054,874,1761.045389175415,44.554771423339844,,9.014205932617188,0.25
138,MetaDrive-test-conv-colab-actor-dropout,78,184.7051862737677,140176,876,1776.2609992027283,42.294002532958984,,8.29175853729248,0.27
139,MetaDrive-test-conv-colab-actor-dropout,78,186.57450255035658,141565,880,1794.7470479011536,43.43579864501953,-44.27623748779297,8.214936256408691,0.28
140,MetaDrive-test-conv-colab-actor-dropout,78,184.82162426456597,142014,882,1802.0768916606903,42.711151123046875,,47.29288101196289,0.28
141,MetaDrive-test-conv-colab-actor-dropout,78,183.6095654071486,143015,883,1812.7025492191315,46.32136535644531,-46.49415588378906,3.9269351959228516,0.28
142,MetaDrive-test-conv-colab-actor-dropout,78,184.16881059530724,144016,884,1826.1827793121338,47.4404411315918,,7.605075359344482,0.28
143,MetaDrive-test-conv-colab-actor-dropout,78,183.59168496965643,145805,887,1851.8820810317993,41.96139907836914,-42.408321380615234,92.013671875,0.28
144,MetaDrive-test-conv-colab-actor-dropout,78,184.78405208847278,146179,888,1856.1200125217438,43.275604248046875,-43.83395767211914,3.680661201477051,0.29
145,MetaDrive-test-conv-colab-actor-dropout,78,184.38831846280362,147058,891,1866.478587627411,43.98479461669922,,3.8651914596557617,0.29
146,MetaDrive-test-conv-colab-actor-dropout,78,189.8846770120025,148464,895,1885.050584077835,46.543731689453125,,5.333004951477051,0.31
147,MetaDrive-test-conv-colab-actor-dropout,78,187.88014166317862,149072,896,1892.2836773395538,45.21886444091797,,4.036944389343262,0.3
148,MetaDrive-test-conv-colab-actor-dropout,78,192.56774745025018,150361,899,1910.5666167736053,45.28459167480469,-45.74547576904297,4.817357063293457,0.32
149,MetaDrive-test-conv-colab-actor-dropout,78,193.1385449969946,151362,900,1924.1069920063019,45.09018325805664,,4.419410705566406,0.32
150,MetaDrive-test-conv-colab-actor-dropout,78,192.32516663232443,152363,901,1936.3504605293274,41.67103576660156,-41.28636169433594,6.790052890777588,0.32
151,MetaDrive-test-conv-colab-actor-dropout,78,194.92762044585703,153212,903,1948.5650131702423,40.188560485839844,,65.82125854492188,0.32
152,MetaDrive-test-conv-colab-actor-dropout,78,198.2605319498021,154043,905,1957.8654417991638,45.730873107910156,-46.37499237060547,35.355804443359375,0.33
153,MetaDrive-test-conv-colab-actor-dropout,78,200.76278444390107,155531,908,1979.3909449577332,44.734619140625,-45.41154098510742,5.655670166015625,0.34
154,MetaDrive-test-conv-colab-actor-dropout,78,201.2669217389024,156093,909,1985.8808307647705,47.81861114501953,-46.9081916809082,20.772132873535156,0.34
155,MetaDrive-test-conv-colab-actor-dropout,78,200.63627715596925,157094,910,1999.2972888946533,48.047203063964844,,7.066464424133301,0.33
156,MetaDrive-test-conv-colab-actor-dropout,78,200.20735294382587,158186,913,2014.9043972492218,44.10441589355469,,6.065832138061523,0.34
157,MetaDrive-test-conv-colab-actor-dropout,78,200.27166658467806,159327,915,2031.5627467632294,46.81463623046875,-47.55377960205078,3.812786102294922,0.33
158,MetaDrive-test-conv-colab-actor-dropout,78,200.2869227787038,160047,918,2039.9733045101166,48.70149230957031,-49.187110900878906,4.1544904708862305,0.34
159,MetaDrive-test-conv-colab-actor-dropout,78,200.5101085698964,161830,922,2064.534404039383,46.39231872558594,,3.9016995429992676,0.34
160,MetaDrive-test-conv-colab-actor-dropout,78,200.49266593914135,162831,923,2076.1562221050262,45.788352966308594,-46.224037170410156,4.535819053649902,0.34
161,MetaDrive-test-conv-colab-actor-dropout,78,203.74990185860224,163310,924,2082.1370639801025,44.64918518066406,,4.357842922210693,0.35
162,MetaDrive-test-conv-colab-actor-dropout,78,203.66750765788393,164171,926,2094.025730371475,45.357078552246094,-45.76266098022461,25.286937713623047,0.35
163,MetaDrive-test-conv-colab-actor-dropout,78,207.06624914376061,165105,927,2110.6616685390472,46.571388244628906,-45.8360595703125,7.785433769226074,0.35
164,MetaDrive-test-conv-colab-actor-dropout,78,204.7496602863638,166163,932,2124.2716269493103,43.74333190917969,-45.192466735839844,4.622739791870117,0.35
165,MetaDrive-test-conv-colab-actor-dropout,77,203.4527661843995,167742,936,2153.9638092517853,49.690711975097656,,9.315898895263672,0.33
166,MetaDrive-test-conv-colab-actor-dropout,77,205.0751560217356,168507,937,2165.99156999588,47.39643478393555,-47.520591735839844,8.233194351196289,0.33
167,MetaDrive-test-conv-colab-actor-dropout,77,206.54515199249846,169046,939,2175.852012872696,44.13568115234375,,5.033967018127441,0.33
168,MetaDrive-test-conv-colab-actor-dropout,77,211.32422625668605,170594,941,2199.6265358924866,43.57464599609375,,10.722127914428711,0.35
169,MetaDrive-test-conv-colab-actor-dropout,77,212.93747065616637,171393,943,2208.3527688980103,44.59575653076172,-44.21826934814453,5.341095924377441,0.36
170,MetaDrive-test-conv-colab-actor-dropout,77,216.23458704971017,172394,944,2225.886662006378,44.7354621887207,,16.125015258789062,0.36
171,MetaDrive-test-conv-colab-actor-dropout,77,214.31132043395715,173577,947,2241.104415655136,43.5649299621582,-43.71500015258789,55.84174346923828,0.35
172,MetaDrive-test-conv-colab-actor-dropout,77,216.1171293585708,174062,949,2246.9083485603333,44.197845458984375,,3.4329280853271484,0.36
173,MetaDrive-test-conv-colab-actor-dropout,77,215.6659710652679,175063,950,2263.4152097702026,46.254188537597656,-46.58683395385742,97.98949432373047,0.35
174,MetaDrive-test-conv-colab-actor-dropout,77,213.86013447863738,176005,954,2276.220478773117,46.47425079345703,-46.12054443359375,3.6839842796325684,0.33
175,MetaDrive-test-conv-colab-actor-dropout,77,214.76940637376546,177316,957,2292.4070796966553,46.36353302001953,,4.867241382598877,0.34
176,MetaDrive-test-conv-colab-actor-dropout,77,212.96552627287315,178790,959,2312.196967124939,46.46612548828125,,5.94260311126709,0.33
177,MetaDrive-test-conv-colab-actor-dropout,77,214.47576224285163,179202,960,2317.627802848816,46.55876541137695,,6.394744873046875,0.34
178,MetaDrive-test-conv-colab-actor-dropout,77,216.21750607016412,180136,962,2334.990465402603,45.46797180175781,,11.268470764160156,0.34
179,MetaDrive-test-conv-colab-actor-dropout,77,216.32046685874838,181324,964,2349.2424495220184,47.10508728027344,,6.310717582702637,0.34
180,MetaDrive-test-conv-colab-actor-dropout,77,215.88095588385283,182071,967,2359.091539621353,46.203697204589844,-46.552650451660156,6.29376220703125,0.35
181,MetaDrive-test-conv-colab-actor-dropout,76,218.7822556135542,183423,969,2382.826859474182,43.59268569946289,-44.768341064453125,28.34026336669922,0.34
182,MetaDrive-test-conv-colab-actor-dropout,76,218.25492754760268,184028,970,2391.6011893749237,46.72578811645508,,4.535690784454346,0.33
183,MetaDrive-test-conv-colab-actor-dropout,76,221.8051696234072,185761,973,2416.5467908382416,45.575401306152344,-45.37363052368164,5.864678382873535,0.34
184,MetaDrive-test-conv-colab-actor-dropout,76,220.69607607406385,186279,974,2422.8242223262787,48.78851318359375,-49.0889892578125,4.099086761474609,0.33
185,MetaDrive-test-conv-colab-actor-dropout,76,215.72229458168258,187122,977,2435.0259606838226,45.73685836791992,,6.935725212097168,0.31
186,MetaDrive-test-conv-colab-actor-dropout,76,213.27541550047044,188301,980,2451.6352553367615,50.30930709838867,-51.37899398803711,7.988016128540039,0.3
187,MetaDrive-test-conv-colab-actor-dropout,76,218.28037699807786,189816,982,2473.2428665161133,45.84500503540039,,7.00151252746582,0.32
188,MetaDrive-test-conv-colab-actor-dropout,76,216.4919796638104,190012,984,2475.3562037944794,44.63701248168945,,10.564053535461426,0.32
189,MetaDrive-test-conv-colab-actor-dropout,76,218.16233142734927,191013,985,2491.2927238941193,46.71852493286133,-46.967247009277344,5.4470930099487305,0.32
190,MetaDrive-test-conv-colab-actor-dropout,76,217.022135537175,192017,987,2504.925390958786,46.49234390258789,-47.974544525146484,91.04197692871094,0.32
191,MetaDrive-test-conv-colab-actor-dropout,76,217.2255713835428,193365,991,2520.6940972805023,48.117706298828125,-48.49633026123047,6.054956436157227,0.32
192,MetaDrive-test-conv-colab-actor-dropout,76,220.37320089230613,194693,994,2537.9655265808105,48.26445770263672,-49.242958068847656,7.172904014587402,0.33
193,MetaDrive-test-conv-colab-actor-dropout,76,217.6007263101149,195053,995,2542.218806028366,44.9354248046875,-44.529579162597656,3.596436023712158,0.32
194,MetaDrive-test-conv-colab-actor-dropout,76,215.80636085523093,196223,999,2559.3069474697113,44.040252685546875,-43.81351852416992,12.254653930664062,0.31
195,MetaDrive-test-conv-colab-actor-dropout,76,218.36883214432294,197274,1001,2573.444726228714,48.071044921875,,106.31071472167969,0.32
196,MetaDrive-test-conv-colab-actor-dropout,76,213.52816662457448,198279,1005,2586.7450547218323,41.29758834838867,-42.03093719482422,31.879566192626953,0.31
197,MetaDrive-test-conv-colab-actor-dropout,76,212.65921199995068,199431,1008,2599.852616548538,50.99189758300781,-50.62728500366211,39.85837936401367,0.3
198,MetaDrive-test-conv-colab-actor-dropout,76,210.71702249955158,200239,1011,2610.627759695053,43.74236297607422,-43.17939758300781,8.04169750213623,0.29
199,MetaDrive-test-conv-colab-actor-dropout,76,214.2993032250522,201758,1014,2632.519407272339,47.0649299621582,,20.71611785888672,0.3
200,MetaDrive-test-conv-colab-actor-dropout,76,211.8333265753639,202160,1016,2638.803430080414,49.92644500732422,,16.81922149658203,0.29
201,MetaDrive-test-conv-colab-actor-dropout,76,215.56980953791518,203436,1018,2656.3836393356323,47.37602615356445,,5.035580635070801,0.29
202,MetaDrive-test-conv-colab-actor-dropout,76,214.56435714503633,204081,1020,2664.441336631775,48.100669860839844,-49.41572570800781,9.282087326049805,0.29
203,MetaDrive-test-conv-colab-actor-dropout,76,215.4855055661722,205477,1024,2683.6619777679443,47.65993118286133,-48.870330810546875,7.807808876037598,0.3
204,MetaDrive-test-conv-colab-actor-dropout,76,219.3415241754466,206063,1025,2690.923107624054,47.59527587890625,-47.608123779296875,5.572890281677246,0.31
205,MetaDrive-test-conv-colab-actor-dropout,76,216.69136998952112,207273,1029,2707.021735191345,46.297245025634766,-47.15501403808594,5.137356281280518,0.31
206,MetaDrive-test-conv-colab-actor-dropout,76,218.5261247786643,208568,1032,2724.2211544513702,45.20603942871094,,13.77644157409668,0.31
207,MetaDrive-test-conv-colab-actor-dropout,76,220.2244903323055,209314,1033,2732.6089046001434,48.19133758544922,,10.623922348022461,0.32
208,MetaDrive-test-conv-colab-actor-dropout,76,220.45521722529986,210315,1034,2744.4431030750275,48.022789001464844,-48.56824493408203,9.323065757751465,0.32
209,MetaDrive-test-conv-colab-actor-dropout,76,222.0719962916831,211264,1036,2755.495401620865,48.957801818847656,,10.071794509887695,0.33
210,MetaDrive-test-conv-colab-actor-dropout,76,220.99891149077092,212727,1038,2775.6182844638824,46.981201171875,-46.14673614501953,8.897801399230957,0.33
211,MetaDrive-test-conv-colab-actor-dropout,76,222.71270056232086,213148,1039,2780.817488193512,46.45240020751953,,8.533077239990234,0.33
212,MetaDrive-test-conv-colab-actor-dropout,76,222.00823927168165,214149,1040,2798.504020690918,49.89244842529297,-50.34052658081055,3.6968326568603516,0.32
213,MetaDrive-test-conv-colab-actor-dropout,76,221.15009905338567,215103,1042,2810.121745109558,46.37700271606445,-46.4393424987793,3.329474449157715,0.32
214,MetaDrive-test-conv-colab-actor-dropout,76,219.89178917500428,216382,1045,2831.780532360077,49.515953063964844,,4.29217529296875,0.32
215,MetaDrive-test-conv-colab-actor-dropout,76,219.8717555283218,217382,1048,2844.8113780021667,45.175148010253906,,34.555015563964844,0.33
216,MetaDrive-test-conv-colab-actor-dropout,76,223.19193591199942,218383,1049,2863.696273088455,48.874473571777344,-49.322879791259766,5.9835205078125,0.33
217,MetaDrive-test-conv-colab-actor-dropout,76,221.94921390925313,219297,1051,2874.985157728195,43.357574462890625,-43.36207580566406,6.5168352127075195,0.33
218,MetaDrive-test-conv-colab-actor-dropout,76,224.30877202629657,220231,1053,2887.0071244239807,45.1086540222168,-45.44467544555664,5.202327251434326,0.34
219,MetaDrive-test-conv-colab-actor-dropout,76,219.98789457342468,221217,1057,2898.9948918819427,44.26914978027344,-45.44390869140625,3.622999668121338,0.32
220,MetaDrive-test-conv-colab-actor-dropout,76,217.60162153506812,222076,1059,2909.3704981803894,46.696617126464844,,11.279863357543945,0.32
221,MetaDrive-test-conv-colab-actor-dropout,76,215.59508328209955,223326,1062,2932.7510583400726,43.88624572753906,,41.422515869140625,0.31
222,MetaDrive-test-conv-colab-actor-dropout,76,215.988044979282,224268,1064,2943.5336923599243,45.55427551269531,,4.788874626159668,0.32
223,MetaDrive-test-conv-colab-actor-dropout,76,215.46632082965928,225013,1066,2952.65726518631,50.683319091796875,-49.73735809326172,5.6750078201293945,0.31
224,MetaDrive-test-conv-colab-actor-dropout,76,217.3626060014119,226190,1068,2968.4609332084656,48.65612030029297,,14.085787773132324,0.32
225,MetaDrive-test-conv-colab-actor-dropout,76,213.93786878850494,227897,1070,2991.208463907242,50.30541229248047,-50.69001007080078,7.417623996734619,0.32
226,MetaDrive-test-conv-colab-actor-dropout,76,211.71042865773194,228004,1071,2992.4653980731964,45.9991455078125,,3.752561330795288,0.31
227,MetaDrive-test-conv-colab-actor-dropout,76,206.8196154700729,229300,1076,3009.5561106204987,47.940093994140625,,7.160069465637207,0.3
228,MetaDrive-test-conv-colab-actor-dropout,76,211.20355121985693,230391,1078,3023.2820320129395,50.804840087890625,-51.035179138183594,4.2680487632751465,0.32
229,MetaDrive-test-conv-colab-actor-dropout,76,213.22488040357558,231437,1080,3034.094088077545,46.635345458984375,-47.686546325683594,7.438658237457275,0.34
230,MetaDrive-test-conv-colab-actor-dropout,76,210.39535699630406,232011,1082,3040.6144349575043,50.85493469238281,-51.29730987548828,7.662405967712402,0.33
231,MetaDrive-test-conv-colab-actor-dropout,76,214.38283402977362,233057,1084,3055.6158306598663,49.05270767211914,-49.230777740478516,7.964049339294434,0.34
232,MetaDrive-test-conv-colab-actor-dropout,76,217.6140619201036,234238,1086,3072.6523921489716,50.42922592163086,,31.717655181884766,0.35
233,MetaDrive-test-conv-colab-actor-dropout,76,221.519515036525,235592,1088,3090.1335163116455,50.22325897216797,,5.250794410705566,0.36
234,MetaDrive-test-conv-colab-actor-dropout,76,220.66133134966796,236056,1090,3096.4808621406555,46.58038330078125,,59.587162017822266,0.35
235,MetaDrive-test-conv-colab-actor-dropout,76,221.05060052994213,237160,1092,3108.362660884857,47.315773010253906,,19.63451385498047,0.35
236,MetaDrive-test-conv-colab-actor-dropout,76,221.2087729746299,238111,1095,3121.9678258895874,46.623565673828125,-45.94477844238281,12.21131706237793,0.35
237,MetaDrive-test-conv-colab-actor-dropout,76,225.86765435722114,239025,1096,3139.3858914375305,50.2269401550293,-50.489585876464844,4.502835273742676,0.36
238,MetaDrive-test-conv-colab-actor-dropout,76,225.86912097388566,240088,1099,3151.3112511634827,46.77165985107422,,60.310489654541016,0.36
239,MetaDrive-test-conv-colab-actor-dropout,76,226.99918911415784,241554,1101,3176.4840955734253,49.309234619140625,,6.004932880401611,0.36
240,MetaDrive-test-conv-colab-actor-dropout,76,229.7208576547415,242127,1103,3183.8477075099945,47.44289016723633,-46.62120819091797,22.525314331054688,0.36
241,MetaDrive-test-conv-colab-actor-dropout,75,232.78788378503668,243438,1105,3203.3521094322205,48.68312072753906,,6.249770164489746,0.36
242,MetaDrive-test-conv-colab-actor-dropout,75,229.29994131843992,244861,1108,3222.585860490799,50.79656982421875,-50.788570404052734,8.25423812866211,0.35
243,MetaDrive-test-conv-colab-actor-dropout,76,231.08557007036555,245311,1109,3227.2368381023407,46.49528503417969,-47.26637268066406,5.426400184631348,0.36
244,MetaDrive-test-conv-colab-actor-dropout,75,233.7274364652255,246312,1110,3244.583966732025,46.14380645751953,,5.553441047668457,0.36
245,MetaDrive-test-conv-colab-actor-dropout,75,233.9007054052095,247087,1112,3252.6536722183228,51.45402526855469,-51.12675476074219,8.141809463500977,0.36
246,MetaDrive-test-conv-colab-actor-dropout,76,230.90764444636167,248296,1116,3266.8724977970123,48.34667205810547,,17.056171417236328,0.37
247,MetaDrive-test-conv-colab-actor-dropout,75,231.45147541236986,249297,1117,3285.3547897338867,50.388671875,-49.1787223815918,12.070801734924316,0.37
248,MetaDrive-test-conv-colab-actor-dropout,75,227.55384889448268,250064,1120,3294.5712320804596,50.2479248046875,,8.258456230163574,0.36
249,MetaDrive-test-conv-colab-actor-dropout,75,232.09885714622368,251727,1123,3320.6685914993286,49.90399932861328,-51.21689987182617,24.44964599609375,0.36
250,MetaDrive-test-conv-colab-actor-dropout,75,228.08287465658105,252435,1125,3329.546853542328,48.83945083618164,-49.020591735839844,22.949960708618164,0.35
251,MetaDrive-test-conv-colab-actor-dropout,75,227.32888683119688,253085,1127,3338.4385871887207,52.78063201904297,-53.362281799316406,7.203639030456543,0.35
252,MetaDrive-test-conv-colab-actor-dropout,75,233.24268493027623,254497,1129,3358.008212327957,46.38029098510742,-46.61488723754883,9.24991512298584,0.37
253,MetaDrive-test-conv-colab-actor-dropout,75,236.45334616119237,255313,1131,3367.8698585033417,49.534767150878906,-49.90339660644531,4.878684997558594,0.39
254,MetaDrive-test-conv-colab-actor-dropout,75,232.30923651412758,256024,1134,3376.9984850883484,48.41466522216797,,4.039485931396484,0.38
255,MetaDrive-test-conv-colab-actor-dropout,75,233.02240817010713,257679,1136,3405.191684961319,42.6556396484375,-42.499420166015625,4.890656471252441,0.38
256,MetaDrive-test-conv-colab-actor-dropout,75,234.65552923306782,258542,1137,3421.036922454834,47.74601364135742,,8.993037223815918,0.38
257,MetaDrive-test-conv-colab-actor-dropout,75,236.6080500716365,259373,1138,3431.509254693985,50.08642578125,-51.716304779052734,9.083192825317383,0.39
258,MetaDrive-test-conv-colab-actor-dropout,75,238.74665332943383,260332,1140,3444.0320489406586,51.67296600341797,,10.923309326171875,0.41
259,MetaDrive-test-conv-colab-actor-dropout,75,237.29999207348595,261333,1141,3457.225521802902,48.50386047363281,-47.62950897216797,12.298498153686523,0.4
260,MetaDrive-test-conv-colab-actor-dropout,75,235.2649276570711,262544,1143,3474.907972574234,51.201324462890625,,7.029000282287598,0.39
261,MetaDrive-test-conv-colab-actor-dropout,75,235.19877359730847,263202,1145,3482.6246423721313,48.50224685668945,,93.59724426269531,0.4
262,MetaDrive-test-conv-colab-actor-dropout,75,236.69146869784853,264135,1146,3498.727100610733,50.702999114990234,-51.84043884277344,6.43931770324707,0.4
263,MetaDrive-test-conv-colab-actor-dropout,75,235.2274737718909,265792,1149,3517.1106514930725,47.498138427734375,,8.002483367919922,0.4
264,MetaDrive-test-conv-colab-actor-dropout,75,234.4420700185309,266001,1150,3519.638932943344,51.27214813232422,-51.134315490722656,11.455310821533203,0.4
265,MetaDrive-test-conv-colab-actor-dropout,75,232.99912297577245,267430,1154,3538.6549973487854,52.7418098449707,,10.027188301086426,0.41
266,MetaDrive-test-conv-colab-actor-dropout,75,232.3497054189797,268008,1157,3547.284049987793,52.62664031982422,,5.226545333862305,0.41
267,MetaDrive-test-conv-colab-actor-dropout,75,236.24926083980293,269386,1159,3569.65532207489,47.40728759765625,,44.49686813354492,0.41
268,MetaDrive-test-conv-colab-actor-dropout,75,239.77434341783754,270119,1161,3579.094578027725,49.752845764160156,-49.61811828613281,6.230072021484375,0.41
269,MetaDrive-test-conv-colab-actor-dropout,75,239.9210117057793,271050,1162,3592.0141775608063,48.93471145629883,,9.680988311767578,0.42
270,MetaDrive-test-conv-colab-actor-dropout,75,237.59969189779315,272401,1166,3609.081447839737,51.6434211730957,-51.352195739746094,4.3827409744262695,0.42
271,MetaDrive-test-conv-colab-actor-dropout,75,239.44331257340085,273215,1167,3621.4496660232544,53.375587463378906,-54.203765869140625,9.67955207824707,0.42
272,MetaDrive-test-conv-colab-actor-dropout,75,238.32570977385728,274224,1172,3633.425355911255,48.381500244140625,,4.2622575759887695,0.43
273,MetaDrive-test-conv-colab-actor-dropout,75,240.25342133086792,275225,1173,3647.866470336914,46.081085205078125,-46.347084045410156,7.070626735687256,0.43
274,MetaDrive-test-conv-colab-actor-dropout,75,241.42513855933726,276514,1177,3664.574359893799,52.1512336730957,,6.888944625854492,0.44
275,MetaDrive-test-conv-colab-actor-dropout,75,239.16362616825376,277072,1179,3670.653041124344,53.7040901184082,,4.703540802001953,0.43
276,MetaDrive-test-conv-colab-actor-dropout,75,235.7713046930802,278873,1183,3701.718535423279,52.90137481689453,-53.47462463378906,8.665282249450684,0.41
277,MetaDrive-test-conv-colab-actor-dropout,75,237.08212480572266,279349,1184,3707.0090897083282,49.945404052734375,-50.7717170715332,6.504312992095947,0.42
278,MetaDrive-test-conv-colab-actor-dropout,75,237.60032016086333,280635,1186,3725.8739845752716,51.658042907714844,-52.42402267456055,4.118659973144531,0.42
279,MetaDrive-test-conv-colab-actor-dropout,75,236.4448821300917,281146,1187,3732.5859854221344,54.50754928588867,,4.989370346069336,0.42
280,MetaDrive-test-conv-colab-actor-dropout,75,235.17106971925583,282292,1190,3750.3441112041473,49.361392974853516,,12.941762924194336,0.42
281,MetaDrive-test-conv-colab-actor-dropout,75,233.0788176509269,283027,1192,3760.578294992447,53.632659912109375,-53.95491409301758,9.188608169555664,0.41
282,MetaDrive-test-conv-colab-actor-dropout,75,231.21503098207424,284215,1195,3776.2912092208862,49.35408401489258,-48.7488899230957,11.459909439086914,0.4
283,MetaDrive-test-conv-colab-actor-dropout,75,226.52154296657784,285880,1198,3798.2868332862854,47.152435302734375,,11.546628952026367,0.38
284,MetaDrive-test-conv-colab-actor-dropout,75,226.87222403760538,286349,1199,3804.0448932647705,47.53086853027344,-48.461570739746094,14.633524894714355,0.39
285,MetaDrive-test-conv-colab-actor-dropout,75,227.84719337733384,287101,1200,3813.066795349121,50.342220306396484,-50.243263244628906,5.340627193450928,0.39
286,MetaDrive-test-conv-colab-actor-dropout,75,226.6984341476522,288254,1203,3827.5182461738586,50.56671142578125,,6.953113079071045,0.41
287,MetaDrive-test-conv-colab-actor-dropout,75,224.62880741936934,289130,1205,3838.071079492569,49.333396911621094,,5.828963279724121,0.41
288,MetaDrive-test-conv-colab-actor-dropout,75,226.08746131443712,290216,1208,3852.6036117076874,51.21569061279297,,6.553607940673828,0.41
289,MetaDrive-test-conv-colab-actor-dropout,75,226.56866221157495,291457,1210,3867.5584650039673,55.91191482543945,-56.924835205078125,6.648772239685059,0.41
290,MetaDrive-test-conv-colab-actor-dropout,75,226.79353134871272,292020,1211,3874.276232481003,51.060211181640625,,10.915946960449219,0.41
291,MetaDrive-test-conv-colab-actor-dropout,75,231.86924023887383,293376,1213,3893.775928258896,47.827659606933594,,18.180774688720703,0.43
292,MetaDrive-test-conv-colab-actor-dropout,75,229.82862231901953,294377,1214,3905.5426602363586,51.312721252441406,-51.88874053955078,8.635396957397461,0.42
293,MetaDrive-test-conv-colab-actor-dropout,75,227.2974118781344,295532,1217,3920.588366508484,53.67322540283203,,4.608865261077881,0.41
294,MetaDrive-test-conv-colab-actor-dropout,75,228.74068575685885,296152,1218,3928.572427034378,50.162593841552734,,5.305322647094727,0.41
295,MetaDrive-test-conv-colab-actor-dropout,75,231.6182528440156,297201,1220,3941.979439020157,52.165218353271484,-53.20220184326172,28.120418548583984,0.42
296,MetaDrive-test-conv-colab-actor-dropout,75,233.40660447522583,298081,1222,3954.6668384075165,51.464324951171875,-51.92506790161133,7.862951278686523,0.43
297,MetaDrive-test-conv-colab-actor-dropout,75,230.14381422089554,299248,1226,3970.376746416092,51.81221389770508,,7.508746147155762,0.42
298,MetaDrive-test-conv-colab-actor-dropout,75,229.1335645660977,300028,1228,3978.8847155570984,52.73904037475586,,7.459536552429199,0.41
299,MetaDrive-test-conv-colab-actor-dropout,75,228.5376163072751,301479,1231,3996.649856567383,52.542476654052734,-52.42367935180664,7.870053291320801,0.41
300,MetaDrive-test-conv-colab-actor-dropout,75,228.54396807884598,302493,1234,4009.067873239517,51.510337829589844,-53.81177520751953,281.75341796875,0.42
301,MetaDrive-test-conv-colab-actor-dropout,75,227.30030570852298,303239,1236,4017.647565126419,49.50009536743164,-49.53379440307617,7.202106475830078,0.42
302,MetaDrive-test-conv-colab-actor-dropout,75,227.4122395662897,304624,1238,4034.718636035919,49.18415069580078,,4.0262298583984375,0.43
303,MetaDrive-test-conv-colab-actor-dropout,75,226.5530116676845,305128,1239,4042.174384355545,49.024696350097656,,9.425213813781738,0.42
304,MetaDrive-test-conv-colab-actor-dropout,75,226.4629616521675,306023,1241,4052.611067533493,50.15606689453125,-50.79270935058594,67.63002014160156,0.42
305,MetaDrive-test-conv-colab-actor-dropout,75,228.34519869125424,307024,1242,4062.8810753822327,51.12546157836914,,8.716697692871094,0.42
306,MetaDrive-test-conv-colab-actor-dropout,75,231.95182125090764,308222,1244,4077.7778697013855,50.14875411987305,,56.15005874633789,0.43
307,MetaDrive-test-conv-colab-actor-dropout,75,230.17287718874323,309489,1246,4094.4781918525696,51.28480529785156,-51.8924674987793,7.289971351623535,0.42
308,MetaDrive-test-conv-colab-actor-dropout,75,228.70200165558407,310247,1247,4104.108819484711,48.613304138183594,-49.371891021728516,14.494248390197754,0.41
309,MetaDrive-test-conv-colab-actor-dropout,75,232.6086546023651,311102,1248,4117.041448354721,49.193172454833984,,7.5586700439453125,0.42
310,MetaDrive-test-conv-colab-actor-dropout,75,232.9426204595364,312369,1250,4132.936028957367,51.80192565917969,-52.065406799316406,6.646526336669922,0.42
311,MetaDrive-test-conv-colab-actor-dropout,75,235.75480895554335,313370,1251,4151.112926483154,48.06197738647461,,10.446380615234375,0.42
312,MetaDrive-test-conv-colab-actor-dropout,75,237.11714567860238,314427,1253,4163.909416913986,49.0413703918457,-50.11897277832031,5.906790733337402,0.43
313,MetaDrive-test-conv-colab-actor-dropout,75,237.08643530048022,315652,1255,4178.0531713962555,48.66350555419922,,14.925497055053711,0.42
314,MetaDrive-test-conv-colab-actor-dropout,75,240.19376045197404,316358,1256,4188.251645326614,50.71965408325195,,11.99290943145752,0.43
315,MetaDrive-test-conv-colab-actor-dropout,75,242.5292761753183,317359,1257,4199.8773493766785,49.675498962402344,-50.58079528808594,9.146795272827148,0.43
316,MetaDrive-test-conv-colab-actor-dropout,75,241.24777774925082,318360,1258,4214.12889623642,49.516319274902344,,10.307193756103516,0.43
317,MetaDrive-test-conv-colab-actor-dropout,75,238.2746265151601,319306,1259,4222.634707927704,47.82978820800781,,9.37221908569336,0.42
318,MetaDrive-test-conv-colab-actor-dropout,75,237.68174647170642,320307,1260,4232.3553738594055,50.43031692504883,-50.73735809326172,8.741567611694336,0.42
319,MetaDrive-test-conv-colab-actor-dropout,75,239.43399667338758,321308,1261,4243.384402990341,50.80918884277344,,6.471646785736084,0.42
320,MetaDrive-test-conv-colab-actor-dropout,75,237.66033627698343,322309,1262,4252.672662496567,46.90730285644531,-47.61914825439453,6.080085754394531,0.41
321,MetaDrive-test-conv-colab-actor-dropout,75,239.6941406242816,323310,1263,4262.030122041702,46.98588562011719,,16.638181686401367,0.41
322,MetaDrive-test-conv-colab-actor-dropout,75,242.39755902871337,324311,1264,4274.537094593048,52.55736541748047,-52.62413787841797,15.937786102294922,0.41
323,MetaDrive-test-conv-colab-actor-dropout,75,242.73892666030108,325312,1265,4296.0812356472015,53.13743591308594,,7.157093524932861,0.4
324,MetaDrive-test-conv-colab-actor-dropout,75,242.68826074054093,326313,1266,4317.673756122589,52.698612213134766,-53.13200378417969,6.170790672302246,0.39
325,MetaDrive-test-conv-colab-actor-dropout,75,240.48146246674557,327025,1267,4324.637722015381,50.07522964477539,-50.43528366088867,6.990583419799805,0.39
326,MetaDrive-test-conv-colab-actor-dropout,75,243.82784867616817,328749,1270,4346.355063199997,51.22400665283203,-52.445526123046875,124.24340057373047,0.38
327,MetaDrive-test-conv-colab-actor-dropout,75,244.9061760315917,329368,1271,4355.287413358688,51.46672821044922,,7.2028656005859375,0.38
328,MetaDrive-test-conv-colab-actor-dropout,75,244.89495984296883,330111,1274,4363.634502410889,49.83773422241211,-50.725547790527344,10.691825866699219,0.39
329,MetaDrive-test-conv-colab-actor-dropout,75,242.81115921361487,331999,1278,4384.198529481888,44.16570281982422,-44.38865661621094,49.0428466796875,0.37
330,MetaDrive-test-conv-colab-actor-dropout,75,244.48507789171086,332490,1279,4389.497898578644,50.057708740234375,,5.94691276550293,0.37
331,MetaDrive-test-conv-colab-actor-dropout,75,247.0210718720474,333491,1280,4400.089963436127,52.201416015625,-53.057559967041016,5.3235883712768555,0.37
332,MetaDrive-test-conv-colab-actor-dropout,75,248.68380876819657,334325,1282,4409.855284452438,51.90177536010742,-52.120086669921875,7.038163185119629,0.37
333,MetaDrive-test-conv-colab-actor-dropout,75,248.24770916410174,335029,1283,4418.845594167709,49.319976806640625,-49.60688781738281,12.384175300598145,0.38
334,MetaDrive-test-conv-colab-actor-dropout,75,248.75153443154565,336020,1284,4429.872263908386,46.63146209716797,,10.25912857055664,0.37
335,MetaDrive-test-conv-colab-actor-dropout,75,246.73599808262233,337590,1287,4450.099112272263,51.77680206298828,,6.709901332855225,0.36
336,MetaDrive-test-conv-colab-actor-dropout,75,250.26963773226555,338591,1288,4463.557781457901,48.455848693847656,-48.85395812988281,7.987496852874756,0.36
337,MetaDrive-test-conv-colab-actor-dropout,75,250.68616401033142,339592,1289,4474.350780487061,54.20090103149414,,122.29879760742188,0.36
338,MetaDrive-test-conv-colab-actor-dropout,75,252.96140096960292,340430,1290,4486.4526720047,48.52181625366211,,5.6658244132995605,0.36
339,MetaDrive-test-conv-colab-actor-dropout,75,253.93212864430848,341431,1291,4502.934636831284,53.27375793457031,-54.54173278808594,37.482749938964844,0.35
340,MetaDrive-test-conv-colab-actor-dropout,75,255.8892088754119,342432,1292,4516.986538171768,50.47846221923828,,16.831924438476562,0.35
341,MetaDrive-test-conv-colab-actor-dropout,75,258.51731814683285,343612,1294,4534.905407190323,51.758880615234375,,5.254941463470459,0.36
342,MetaDrive-test-conv-colab-actor-dropout,75,260.0804470670244,344334,1295,4545.024886369705,47.83387756347656,,37.63151931762695,0.37
343,MetaDrive-test-conv-colab-actor-dropout,75,262.9391762615444,345335,1296,4559.947465419769,52.003746032714844,-53.16151428222656,20.398399353027344,0.37
344,MetaDrive-test-conv-colab-actor-dropout,75,265.1077467970003,346834,1298,4580.276961326599,49.041290283203125,,6.408730506896973,0.37
345,MetaDrive-test-conv-colab-actor-dropout,75,264.6459784644709,347835,1299,4598.030382871628,45.938453674316406,-45.68754959106445,7.04227352142334,0.36
346,MetaDrive-test-conv-colab-actor-dropout,75,264.22819571332366,348967,1301,4612.672013759613,49.36629867553711,-50.38228988647461,6.229511737823486,0.35
347,MetaDrive-test-conv-colab-actor-dropout,75,264.7094398502645,349968,1302,4624.651423692703,44.97023010253906,,29.644123077392578,0.34
348,MetaDrive-test-conv-colab-actor-dropout,75,266.5041788110703,350743,1303,4637.583256959915,46.877044677734375,-48.365013122558594,7.070296287536621,0.34
349,MetaDrive-test-conv-colab-actor-dropout,75,266.30973677538947,351744,1304,4646.9839589595795,50.62014389038086,,6.369729042053223,0.33
350,MetaDrive-test-conv-colab-actor-dropout,75,268.07381590120565,352892,1306,4662.141099452972,45.637203216552734,,48.85295867919922,0.34
351,MetaDrive-test-conv-colab-actor-dropout,75,267.1588182998453,353204,1307,4665.690910816193,49.17443084716797,,8.772080421447754,0.34
352,MetaDrive-test-conv-colab-actor-dropout,75,268.9260347201253,354205,1308,4679.606736421585,50.14707946777344,-50.84413146972656,10.183568000793457,0.34
353,MetaDrive-test-conv-colab-actor-dropout,75,269.27206859228374,355206,1309,4690.690459489822,47.458980560302734,,56.295738220214844,0.34
354,MetaDrive-test-conv-colab-actor-dropout,75,263.738127238338,356542,1312,4707.833006620407,47.2376708984375,,4.683774471282959,0.31
355,MetaDrive-test-conv-colab-actor-dropout,75,263.8809351875615,357364,1313,4716.684448480606,49.527645111083984,,8.99825668334961,0.3
356,MetaDrive-test-conv-colab-actor-dropout,75,264.0248923169868,358167,1316,4727.088522911072,48.56492614746094,-48.03748321533203,12.020723342895508,0.3
357,MetaDrive-test-conv-colab-actor-dropout,75,264.3887996377742,359040,1318,4738.5568170547485,48.8032112121582,,6.965793609619141,0.31
358,MetaDrive-test-conv-colab-actor-dropout,75,265.69101465163135,360779,1320,4759.483129501343,50.892147064208984,-51.46611785888672,7.757858753204346,0.3
359,MetaDrive-test-conv-colab-actor-dropout,75,263.61337702065316,361340,1321,4766.892463207245,50.908294677734375,,11.771419525146484,0.3
360,MetaDrive-test-conv-colab-actor-dropout,75,266.74237958856133,362242,1323,4778.112899541855,46.401084899902344,,6.466303825378418,0.3
361,MetaDrive-test-conv-colab-actor-dropout,75,270.21930473526584,363230,1324,4792.226723432541,42.453392028808594,,13.635599136352539,0.31
362,MetaDrive-test-conv-colab-actor-dropout,75,271.6270678325577,364433,1326,4808.134787559509,49.151512145996094,-50.13383483886719,18.1004581451416,0.32
363,MetaDrive-test-conv-colab-actor-dropout,75,273.72425292238216,365434,1327,4825.499067306519,44.57002258300781,,12.759815216064453,0.32
364,MetaDrive-test-conv-colab-actor-dropout,75,274.8714123471869,366423,1328,4839.020564556122,48.92998504638672,-50.48992156982422,203.05252075195312,0.32
365,MetaDrive-test-conv-colab-actor-dropout,75,274.4039669500373,367686,1330,4855.432368993759,42.350929260253906,,9.342428207397461,0.32
366,MetaDrive-test-conv-colab-actor-dropout,75,274.2902974791788,368687,1331,4864.957297325134,48.680816650390625,-48.86622619628906,8.127279281616211,0.31
367,MetaDrive-test-conv-colab-actor-dropout,75,276.1967802666886,369416,1332,4876.92663025856,48.36061477661133,,4.050617218017578,0.31
368,MetaDrive-test-conv-colab-actor-dropout,75,278.3162637192942,370061,1333,4885.954572200775,47.208492279052734,-47.67986297607422,7.164402008056641,0.32
369,MetaDrive-test-conv-colab-actor-dropout,75,279.13521407738597,371142,1335,4898.894296884537,44.634090423583984,,6.449596405029297,0.32
370,MetaDrive-test-conv-colab-actor-dropout,75,277.46812286458885,372687,1337,4915.073840141296,41.88099670410156,-42.951499938964844,64.06459045410156,0.31
371,MetaDrive-test-conv-colab-actor-dropout,75,273.84904485728816,373470,1339,4923.6772537231445,45.62394714355469,,5.720188140869141,0.31
372,MetaDrive-test-conv-colab-actor-dropout,75,274.559235369658,374232,1340,4932.702607393265,49.327701568603516,,10.997943878173828,0.31
373,MetaDrive-test-conv-colab-actor-dropout,75,275.2683093815478,375353,1342,4945.428983449936,50.35539245605469,-51.5039176940918,8.889591217041016,0.33
374,MetaDrive-test-conv-colab-actor-dropout,75,273.0738985497021,376165,1344,4954.467515945435,49.24053955078125,-49.73671340942383,3.929866075515747,0.33
375,MetaDrive-test-conv-colab-actor-dropout,75,275.30681724261694,377166,1345,4970.237622976303,46.12400817871094,,9.055784225463867,0.33
376,MetaDrive-test-conv-colab-actor-dropout,75,274.51262479032334,378167,1346,4979.661513566971,47.43718719482422,-48.05030059814453,5.472690582275391,0.32
377,MetaDrive-test-conv-colab-actor-dropout,75,276.03112465295163,379160,1347,4989.287558078766,43.739253997802734,,14.83135986328125,0.33
378,MetaDrive-test-conv-colab-actor-dropout,76,275.8755825949331,380747,1349,5008.359083175659,48.43896484375,-49.13471984863281,10.27754020690918,0.34
379,MetaDrive-test-conv-colab-actor-dropout,76,276.6841411480069,381258,1350,5014.340237379074,48.191123962402344,,6.680569648742676,0.35
380,MetaDrive-test-conv-colab-actor-dropout,76,273.4299491641478,382101,1353,5024.682543754578,49.479557037353516,-48.9654541015625,11.486053466796875,0.33
381,MetaDrive-test-conv-colab-actor-dropout,76,274.8110182936596,383012,1354,5034.180741548538,44.8192138671875,,10.508831024169922,0.34
382,MetaDrive-test-conv-colab-actor-dropout,76,273.52683073855985,384346,1356,5051.373440027237,49.18321990966797,,5.913488864898682,0.34
383,MetaDrive-test-conv-colab-actor-dropout,76,273.0379888514479,385088,1357,5060.204361438751,48.05185317993164,,88.5579833984375,0.35
384,MetaDrive-test-conv-colab-actor-dropout,76,271.32933739015664,386027,1360,5072.365407943726,46.007442474365234,-46.12640380859375,6.096530437469482,0.36
385,MetaDrive-test-conv-colab-actor-dropout,76,274.33918779195267,387713,1362,5095.473245382309,51.30133056640625,-49.69402313232422,20.27898406982422,0.38
386,MetaDrive-test-conv-colab-actor-dropout,76,274.79505300736,388263,1363,5102.203425884247,45.171180725097656,-45.842803955078125,7.541158676147461,0.39
387,MetaDrive-test-conv-colab-actor-dropout,76,274.2519008271384,389392,1365,5115.514971256256,51.992374420166016,,26.936786651611328,0.41
388,MetaDrive-test-conv-colab-actor-dropout,76,272.4265669352837,390151,1367,5125.619832277298,44.994869232177734,-45.28541946411133,21.712804794311523,0.4
389,MetaDrive-test-conv-colab-actor-dropout,76,273.56106968108884,391115,1369,5136.837466239929,46.74891662597656,-47.169761657714844,3.851635694503784,0.41
390,MetaDrive-test-conv-colab-actor-dropout,76,274.31888826849513,392259,1371,5151.591768741608,49.17911148071289,-49.196533203125,8.01843547821045,0.42
391,MetaDrive-test-conv-colab-actor-dropout,76,273.845527972234,393360,1373,5166.925234079361,46.39783477783203,,51.98028564453125,0.41
392,MetaDrive-test-conv-colab-actor-dropout,76,275.0378293601164,394020,1374,5175.827157735825,45.32524108886719,,22.563125610351562,0.42
393,MetaDrive-test-conv-colab-actor-dropout,76,273.8898475504989,395479,1378,5193.446374416351,47.10138702392578,-46.44921112060547,17.936416625976562,0.42
394,MetaDrive-test-conv-colab-actor-dropout,76,272.1917082783572,396129,1380,5200.317490339279,45.308448791503906,-45.29754638671875,5.369925498962402,0.43
395,MetaDrive-test-conv-colab-actor-dropout,76,272.02841149442406,397022,1382,5214.5763392448425,47.227073669433594,,8.897244453430176,0.43
396,MetaDrive-test-conv-colab-actor-dropout,76,272.005117896744,398453,1384,5235.673351049423,48.069915771484375,-47.346988677978516,7.363205909729004,0.44
397,MetaDrive-test-conv-colab-actor-dropout,76,272.36064663584193,399454,1385,5250.661856651306,46.3245964050293,,7.127984523773193,0.44
398,MetaDrive-test-conv-colab-actor-dropout,76,274.60594491257615,400206,1386,5259.005613088608,45.61441421508789,,4.4741106033325195,0.45
399,MetaDrive-test-conv-colab-actor-dropout,76,272.92085584864367,401681,1388,5279.75132226944,47.60070037841797,-46.791175842285156,8.06062126159668,0.45
400,MetaDrive-test-conv-colab-actor-dropout,76,272.31621132546616,402367,1389,5287.993510007858,47.586769104003906,-47.42692565917969,12.65200424194336,0.46
401,MetaDrive-test-conv-colab-actor-dropout,76,267.66285704234036,403175,1391,5297.263939619064,45.896156311035156,-46.78021240234375,20.500450134277344,0.46
402,MetaDrive-test-conv-colab-actor-dropout,76,270.50190689880264,404332,1393,5311.354698896408,46.65348434448242,,5.842975616455078,0.48
403,MetaDrive-test-conv-colab-actor-dropout,76,269.4687279126296,405662,1395,5326.964555025101,47.300323486328125,,9.502845764160156,0.47
404,MetaDrive-test-conv-colab-actor-dropout,76,267.8459904847748,406204,1396,5333.223267793655,43.42720031738281,,34.39829635620117,0.48
405,MetaDrive-test-conv-colab-actor-dropout,76,268.4038191425407,407528,1399,5348.108810663223,51.53678894042969,,3.8839669227600098,0.5
406,MetaDrive-test-conv-colab-actor-dropout,76,270.6642416928218,408403,1400,5357.038094043732,44.471954345703125,-45.320281982421875,8.61668586730957,0.51
407,MetaDrive-test-conv-colab-actor-dropout,76,270.8628835755567,409037,1401,5365.4223346710205,43.82270050048828,-44.03464889526367,9.964134216308594,0.52
408,MetaDrive-test-conv-colab-actor-dropout,76,269.91613939666854,410038,1402,5378.831671953201,43.43446731567383,,130.49526977539062,0.52
409,MetaDrive-test-conv-colab-actor-dropout,76,268.4555286167028,411089,1404,5390.503077507019,47.83420944213867,-48.65111541748047,5.779333591461182,0.53
410,MetaDrive-test-conv-colab-actor-dropout,76,266.75717887987736,412191,1406,5409.457268953323,50.718162536621094,-51.120025634765625,4.632235527038574,0.52
411,MetaDrive-test-conv-colab-actor-dropout,76,266.12419913623035,413287,1408,5425.191629886627,49.68804168701172,-49.86102294921875,6.2183003425598145,0.53
412,MetaDrive-test-conv-colab-actor-dropout,76,268.2643227711668,414612,1410,5444.130763530731,49.594749450683594,,12.47812271118164,0.55
413,MetaDrive-test-conv-colab-actor-dropout,76,270.5933532622636,415284,1411,5451.687657356262,47.15388870239258,,13.150443077087402,0.56
414,MetaDrive-test-conv-colab-actor-dropout,76,270.1536913158382,416187,1412,5465.52592086792,45.634437561035156,-45.74287796020508,14.470849990844727,0.56
415,MetaDrive-test-conv-colab-actor-dropout,76,271.3312078121971,417188,1413,5481.612221479416,43.461551666259766,,3.2637453079223633,0.56
416,MetaDrive-test-conv-colab-actor-dropout,76,272.49515027187977,418755,1415,5500.363311052322,41.735389709472656,-42.573997497558594,88.38867950439453,0.57
417,MetaDrive-test-conv-colab-actor-dropout,76,274.5125541315684,419221,1416,5505.420345544815,43.344627380371094,-43.584537506103516,6.908468723297119,0.58
418,MetaDrive-test-conv-colab-actor-dropout,76,276.5102128592283,420434,1418,5521.9197590351105,39.854644775390625,,7.061554908752441,0.59
419,MetaDrive-test-conv-colab-actor-dropout,76,272.3531950121011,421096,1420,5529.678008794785,45.7293586730957,,5.057141304016113,0.58
420,MetaDrive-test-conv-colab-actor-dropout,76,271.10172471907305,422439,1423,5546.472558259964,46.665218353271484,-46.077789306640625,7.910378932952881,0.58
421,MetaDrive-test-conv-colab-actor-dropout,76,269.9470821611226,423440,1424,5559.2386729717255,42.865150451660156,,68.96701049804688,0.57
422,MetaDrive-test-conv-colab-actor-dropout,76,266.26738071428576,424409,1426,5574.169406175613,43.058074951171875,-43.5115966796875,10.07039737701416,0.55
423,MetaDrive-test-conv-colab-actor-dropout,76,262.67913242287415,425410,1427,5590.34123301506,47.625240325927734,,12.197015762329102,0.55
424,MetaDrive-test-conv-colab-actor-dropout,76,261.277576838196,426497,1429,5602.517471313477,45.431522369384766,-45.28173065185547,8.08592414855957,0.54
425,MetaDrive-test-conv-colab-actor-dropout,76,261.9421154483324,427177,1430,5611.263063192368,45.28289794921875,-45.5069580078125,24.647502899169922,0.54
426,MetaDrive-test-conv-colab-actor-dropout,76,254.31306680630027,428727,1434,5632.685053348541,47.99261474609375,-48.09832000732422,33.469058990478516,0.52
427,MetaDrive-test-conv-colab-actor-dropout,76,256.14055672470823,429427,1435,5641.049202203751,46.58086395263672,-47.430519104003906,9.711342811584473,0.52
428,MetaDrive-test-conv-colab-actor-dropout,76,252.26510793922614,430511,1437,5655.326182603836,43.51654052734375,-43.03789138793945,5.768187046051025,0.51
429,MetaDrive-test-conv-colab-actor-dropout,76,253.6952303645803,431449,1439,5665.534339189529,46.98767852783203,-46.65930938720703,8.872560501098633,0.52
430,MetaDrive-test-conv-colab-actor-dropout,76,253.83055269729954,432240,1440,5677.007570981979,45.63426971435547,,6.055360794067383,0.52
431,MetaDrive-test-conv-colab-actor-dropout,76,254.7047935520291,433638,1442,5693.668832063675,45.76660919189453,,14.108749389648438,0.52
432,MetaDrive-test-conv-colab-actor-dropout,76,254.23694036639074,434065,1443,5699.417215585709,47.30567169189453,-47.20546340942383,7.454867362976074,0.51
433,MetaDrive-test-conv-colab-actor-dropout,76,250.11554431437773,435806,1446,5720.072222232819,41.37296676635742,,9.999381065368652,0.52
434,MetaDrive-test-conv-colab-actor-dropout,76,251.18820180812395,436807,1447,5737.576726198196,46.55286407470703,-47.250640869140625,6.065807342529297,0.51
435,MetaDrive-test-conv-colab-actor-dropout,76,251.73097501609075,437808,1448,5759.600994586945,48.03437042236328,,15.94483470916748,0.5
436,MetaDrive-test-conv-colab-actor-dropout,76,250.02350139959032,438176,1449,5763.902588844299,43.748775482177734,,97.07127380371094,0.49
437,MetaDrive-test-conv-colab-actor-dropout,76,253.11952796438837,439929,1451,5785.020353317261,44.67705535888672,-43.96205520629883,15.691133499145508,0.5
438,MetaDrive-test-conv-colab-actor-dropout,76,253.5486646971376,440352,1452,5789.877535104752,42.44767761230469,,14.673727035522461,0.5
439,MetaDrive-test-conv-colab-actor-dropout,76,254.60065857081707,441620,1454,5806.407980918884,45.11011505126953,,6.7162394523620605,0.51
440,MetaDrive-test-conv-colab-actor-dropout,76,254.44995983015906,442357,1455,5814.426927804947,41.82013702392578,-41.970069885253906,5.994932174682617,0.51
441,MetaDrive-test-conv-colab-actor-dropout,76,252.72028514661375,443426,1457,5830.958376646042,42.64214324951172,,7.083313941955566,0.5
442,MetaDrive-test-conv-colab-actor-dropout,75,255.39270087537156,444427,1458,5848.657733678818,41.1378059387207,-41.797386169433594,9.54068374633789,0.5
443,MetaDrive-test-conv-colab-actor-dropout,75,255.2353358870183,445235,1460,5858.538637638092,42.58411407470703,-42.722206115722656,10.299890518188477,0.5
444,MetaDrive-test-conv-colab-actor-dropout,76,252.16090849021472,446372,1462,5872.132610082626,41.99188232421875,,5.239192485809326,0.5
445,MetaDrive-test-conv-colab-actor-dropout,76,252.490440642737,447128,1463,5882.4629056453705,44.322792053222656,,12.997961044311523,0.5
446,MetaDrive-test-conv-colab-actor-dropout,75,252.35409995194564,448129,1464,5896.99104142189,43.7502555847168,-44.54331588745117,5.200090408325195,0.49
447,MetaDrive-test-conv-colab-actor-dropout,76,252.48949454936687,449025,1465,5908.021213054657,46.037479400634766,-45.69679260253906,11.368831634521484,0.49
448,MetaDrive-test-conv-colab-actor-dropout,75,254.69436004846582,450026,1466,5924.870619535446,44.03533935546875,,34.860713958740234,0.49
449,MetaDrive-test-conv-colab-actor-dropout,75,254.5461312934672,451543,1469,5943.631983041763,41.25281524658203,-42.79627990722656,28.032453536987305,0.5
450,MetaDrive-test-conv-colab-actor-dropout,75,252.7538401366876,452072,1470,5950.11558842659,44.92771911621094,,4.396814823150635,0.49
451,MetaDrive-test-conv-colab-actor-dropout,75,253.34373857495902,453073,1471,5968.655563354492,41.53077697753906,-41.50706100463867,17.47872543334961,0.49
452,MetaDrive-test-conv-colab-actor-dropout,75,257.91377078168847,454472,1473,5988.752245903015,42.283111572265625,,7.594074726104736,0.51
453,MetaDrive-test-conv-colab-actor-dropout,75,259.54701672498106,455439,1474,6003.658433675766,39.801143646240234,-40.21738815307617,4.970837116241455,0.51
454,MetaDrive-test-conv-colab-actor-dropout,75,261.2789499207162,456129,1475,6012.345991373062,45.32204818725586,-45.757057189941406,6.427417278289795,0.52
455,MetaDrive-test-conv-colab-actor-dropout,75,264.5239827829887,457098,1476,6024.943969249725,37.661277770996094,,11.724443435668945,0.53
456,MetaDrive-test-conv-colab-actor-dropout,75,268.99249983531064,458816,1478,6052.564496278763,44.8306770324707,,12.965999603271484,0.54
457,MetaDrive-test-conv-colab-actor-dropout,75,272.47885726617665,459817,1479,6071.1199107170105,43.207332611083984,-43.25660705566406,5.6560492515563965,0.54
458,MetaDrive-test-conv-colab-actor-dropout,75,272.3556551134783,460372,1480,6076.694218635559,43.46042251586914,,7.687926292419434,0.53
459,MetaDrive-test-conv-colab-actor-dropout,75,275.9122019595393,461009,1481,6084.524240493774,42.323707580566406,-42.069175720214844,7.124349594116211,0.54
460,MetaDrive-test-conv-colab-actor-dropout,75,274.47210088545523,462513,1483,6102.261342287064,43.57224655151367,-43.059200286865234,4.817550182342529,0.53
461,MetaDrive-test-conv-colab-actor-dropout,75,273.16593717721656,463066,1484,6107.967618227005,42.13239288330078,,8.867902755737305,0.53
462,MetaDrive-test-conv-colab-actor-dropout,75,273.8701666997682,464582,1486,6128.643090724945,42.71015548706055,,3.9706454277038574,0.54
463,MetaDrive-test-conv-colab-actor-dropout,75,275.339489760005,465583,1487,6144.958280324936,42.854454040527344,-43.27124786376953,6.088710784912109,0.53
464,MetaDrive-test-conv-colab-actor-dropout,75,274.81310060219096,466576,1489,6157.369176864624,41.61463928222656,,6.69755744934082,0.53
465,MetaDrive-test-conv-colab-actor-dropout,75,276.6641792977705,467215,1490,6164.630811691284,44.965171813964844,-44.83928680419922,3.2412407398223877,0.54
466,MetaDrive-test-conv-colab-actor-dropout,75,275.91884780678635,468723,1492,6182.75427031517,40.414276123046875,-41.018218994140625,13.875770568847656,0.54
467,MetaDrive-test-conv-colab-actor-dropout,75,277.3441508664521,469724,1493,6197.844661951065,41.45806884765625,,9.050882339477539,0.53
468,MetaDrive-test-conv-colab-actor-dropout,75,275.6629934587684,470725,1494,6210.22780919075,40.123687744140625,-39.39292526245117,14.122962951660156,0.53
469,MetaDrive-test-conv-colab-actor-dropout,75,275.5943370130685,471553,1495,6219.967935800552,47.34359359741211,-48.14218521118164,8.534040451049805,0.53
470,MetaDrive-test-conv-colab-actor-dropout,75,274.64168640233794,472554,1496,6238.195957183838,39.87486267089844,,11.325193405151367,0.52
471,MetaDrive-test-conv-colab-actor-dropout,75,275.5445505798297,473205,1497,6246.398065090179,39.68348693847656,-39.45562744140625,5.900101184844971,0.52
472,MetaDrive-test-conv-colab-actor-dropout,75,278.18069425621695,474206,1498,6263.4846358299255,41.13495635986328,,5.0870041847229,0.52
473,MetaDrive-test-conv-colab-actor-dropout,75,278.81003372348516,475084,1499,6276.599526166916,39.40199661254883,,7.477434158325195,0.52
474,MetaDrive-test-conv-colab-actor-dropout,75,276.5260785437093,476254,1501,6293.403625965118,38.12494659423828,,5.5078887939453125,0.5
475,MetaDrive-test-conv-colab-actor-dropout,75,275.3160728201055,477255,1502,6306.286033153534,40.555076599121094,-40.78981018066406,8.117085456848145,0.5
476,MetaDrive-test-conv-colab-actor-dropout,75,273.79734369496464,478187,1504,6318.456450462341,43.23417663574219,-43.32792663574219,4.201775074005127,0.49
477,MetaDrive-test-conv-colab-actor-dropout,75,277.16457433187753,479639,1506,6335.9965126514435,38.90853500366211,-38.86590576171875,121.36701965332031,0.5
478,MetaDrive-test-conv-colab-actor-dropout,75,277.42975831970966,480640,1507,6354.2436690330505,40.622108459472656,,42.477325439453125,0.5
479,MetaDrive-test-conv-colab-actor-dropout,75,277.8238782968457,481641,1508,6367.50083065033,42.8199462890625,-43.126220703125,4.758616924285889,0.49
480,MetaDrive-test-conv-colab-actor-dropout,75,276.4791664157885,482030,1509,6372.528660058975,44.30374526977539,,9.353607177734375,0.48
481,MetaDrive-test-conv-colab-actor-dropout,75,274.0544346388287,483031,1510,6389.22228884697,42.70672607421875,-42.734580993652344,54.66442108154297,0.47
482,MetaDrive-test-conv-colab-actor-dropout,75,274.61723783392597,484032,1511,6402.1330399513245,37.83949661254883,,11.972841262817383,0.46
483,MetaDrive-test-conv-colab-actor-dropout,75,274.9779311576967,485580,1513,6423.925048112869,38.93817138671875,,15.999768257141113,0.48
484,MetaDrive-test-conv-colab-actor-dropout,75,271.280614475252,486280,1516,6432.9286506175995,38.61659622192383,,8.598868370056152,0.46
485,MetaDrive-test-conv-colab-actor-dropout,75,272.7659821707085,487238,1517,6444.658128499985,38.705665588378906,,29.739585876464844,0.46
486,MetaDrive-test-conv-colab-actor-dropout,75,273.3032347992792,488638,1519,6460.3228261470795,39.45764923095703,,13.669270515441895,0.47
487,MetaDrive-test-conv-colab-actor-dropout,75,275.63885827987565,489365,1520,6468.062033414841,37.959102630615234,-38.30741882324219,6.3797149658203125,0.48
488,MetaDrive-test-conv-colab-actor-dropout,75,278.8700711427453,490132,1521,6478.276609182358,41.29113006591797,,9.149739265441895,0.49
489,MetaDrive-test-conv-colab-actor-dropout,75,280.40071601877196,491053,1522,6489.3078010082245,43.02710723876953,-42.829750061035156,5.290306568145752,0.5
490,MetaDrive-test-conv-colab-actor-dropout,75,280.33174653275825,492583,1525,6506.590901136398,39.6121826171875,-39.80091094970703,2.2998719215393066,0.51
491,MetaDrive-test-conv-colab-actor-dropout,75,281.18755473397175,493164,1526,6513.00318813324,39.76948547363281,,44.55551528930664,0.52
492,MetaDrive-test-conv-colab-actor-dropout,75,284.59335438262,494157,1527,6528.761111974716,43.858863830566406,-44.55498504638672,8.95149040222168,0.53
493,MetaDrive-test-conv-colab-actor-dropout,75,285.56402715448576,495158,1528,6550.031443119049,37.502201080322266,,6.5936384201049805,0.53
494,MetaDrive-test-conv-colab-actor-dropout,75,284.9716853275266,496436,1530,6564.528044462204,37.050209045410156,,5.277308940887451,0.53
495,MetaDrive-test-conv-colab-actor-dropout,75,288.1394615902529,497355,1531,6577.277589082718,39.41276550292969,-40.25389099121094,8.682004928588867,0.54
496,MetaDrive-test-conv-colab-actor-dropout,75,291.0200582684831,498185,1532,6588.1768271923065,39.06132507324219,-39.542205810546875,5.602207183837891,0.55
497,MetaDrive-test-conv-colab-actor-dropout,75,293.90585114056046,499389,1534,6604.7645175457,42.346153259277344,-41.56877136230469,15.859017372131348,0.55
