TanmayH/CS269-RL-project-code/MetaDrive-Gen-LaneWidth-v0/td3/progress.csv
,log_dir,frame_per_second,episode_reward,total_steps,total_episodes,total_time,target_q,actor_loss,critic_loss,success_rate
0,MetaDrive-Gen-LaneWidth-v0,623,11.745824800033375,2001,2,3.211700916290283,,,,0.0
1,MetaDrive-Gen-LaneWidth-v0,650,11.464140851423224,3002,3,4.6173927783966064,,,,0.0
2,MetaDrive-Gen-LaneWidth-v0,632,10.859342186996749,4003,4,6.3335957527160645,,,,0.0
3,MetaDrive-Gen-LaneWidth-v0,650,11.210531198287612,5004,5,7.697969913482666,,,,0.0
4,MetaDrive-Gen-LaneWidth-v0,638,11.175380886319218,6005,6,9.40828275680542,,,,0.0
5,MetaDrive-Gen-LaneWidth-v0,639,11.409221995731414,7006,7,10.952605962753296,,,,0.0
6,MetaDrive-Gen-LaneWidth-v0,616,11.195508925238414,8007,8,12.985805749893188,,,,0.0
7,MetaDrive-Gen-LaneWidth-v0,603,11.131663936377688,9008,9,14.935799837112427,,,,0.0
8,MetaDrive-Gen-LaneWidth-v0,610,11.105017506862044,10009,10,16.396158933639526,0.009800711646676064,-0.017503103241324425,0.0027357619255781174,0.0
9,MetaDrive-Gen-LaneWidth-v0,231,2.340368530371479,11016,45,47.51175498962402,0.01832590438425541,,0.6119680404663086,0.0
10,MetaDrive-Gen-LaneWidth-v0,151,2.557427707909761,12128,60,79.86485886573792,0.11979242414236069,,0.039669688791036606,0.0
11,MetaDrive-Gen-LaneWidth-v0,122,3.972896186416594,13025,79,106.37836170196533,0.14610247313976288,-0.11076657474040985,0.24329929053783417,0.0
12,MetaDrive-Gen-LaneWidth-v0,102,6.698835399591107,14014,101,136.32555174827576,0.3264807462692261,,0.30209779739379883,0.0
13,MetaDrive-Gen-LaneWidth-v0,90,9.799823197139283,15069,123,165.6069839000702,0.6386458873748779,-0.8236511945724487,0.5656479001045227,0.0
14,MetaDrive-Gen-LaneWidth-v0,82,15.887185187662944,16033,138,193.45784497261047,0.9886929392814636,-1.0727646350860596,0.4060319662094116,0.0
15,MetaDrive-Gen-LaneWidth-v0,77,22.003818365469915,17064,154,220.84278178215027,1.46477472782135,,0.7404295206069946,0.0
16,MetaDrive-Gen-LaneWidth-v0,73,25.511297089761502,18006,169,246.5083408355713,2.19638729095459,,0.2810930013656616,0.0
17,MetaDrive-Gen-LaneWidth-v0,69,31.22170286812161,19019,183,273.3429877758026,3.167027711868286,-3.2905640602111816,0.3326758146286011,0.0
18,MetaDrive-Gen-LaneWidth-v0,66,35.443028130195124,20050,197,300.86670184135437,3.4697108268737793,,6.0241875648498535,0.0
19,MetaDrive-Gen-LaneWidth-v0,64,41.72711137548558,21040,208,327.1814308166504,4.865140438079834,,2.270556926727295,0.0
20,MetaDrive-Gen-LaneWidth-v0,62,47.94989417113184,22021,219,353.746554851532,5.188112258911133,-5.30120325088501,2.044924259185791,0.0
21,MetaDrive-Gen-LaneWidth-v0,60,55.04812234473586,23076,229,381.92847895622253,6.469430446624756,,3.302487373352051,0.0
22,MetaDrive-Gen-LaneWidth-v0,58,61.05932938776677,24091,239,408.51726269721985,7.301461696624756,-7.896306991577148,8.277040481567383,0.0
23,MetaDrive-Gen-LaneWidth-v0,57,63.90553828181756,25069,250,434.6609888076782,7.9623637199401855,-7.973784446716309,6.281815528869629,0.0
24,MetaDrive-Gen-LaneWidth-v0,56,69.43824453079415,26065,261,461.0230667591095,9.05167293548584,-9.111370086669922,9.296628952026367,0.0
25,MetaDrive-Gen-LaneWidth-v0,55,73.22771411834837,27084,272,487.88785099983215,9.815759658813477,,4.996350288391113,0.0
26,MetaDrive-Gen-LaneWidth-v0,54,77.05969699598475,28047,282,513.0926778316498,11.218297958374023,-11.266364097595215,5.3418779373168945,0.0
27,MetaDrive-Gen-LaneWidth-v0,53,78.9167589662602,29097,293,540.6497259140015,12.341975212097168,-12.392457008361816,8.297967910766602,0.0
28,MetaDrive-Gen-LaneWidth-v0,53,81.51767416586394,30050,303,566.2020869255066,13.342297554016113,,5.514134407043457,0.0
29,MetaDrive-Gen-LaneWidth-v0,52,84.14150495244698,31076,313,593.6360337734222,13.824625968933105,,4.880200386047363,0.0
30,MetaDrive-Gen-LaneWidth-v0,51,85.14026132306786,32048,322,619.1457827091217,15.272476196289062,,2.4792187213897705,0.0
31,MetaDrive-Gen-LaneWidth-v0,51,85.18900973410858,33039,332,645.4206006526947,16.81905746459961,-17.27143669128418,12.821100234985352,0.0
32,MetaDrive-Gen-LaneWidth-v0,50,84.96211596993861,34021,342,673.049165725708,17.277584075927734,-17.6875,19.233932495117188,0.0
33,MetaDrive-Gen-LaneWidth-v0,49,89.76233317565085,35039,348,700.9252138137817,18.293325424194336,-18.591949462890625,7.38101863861084,0.0
34,MetaDrive-Gen-LaneWidth-v0,49,96.72635935141025,36093,351,728.6436398029327,19.781185150146484,-20.96957778930664,5.048400402069092,0.01
35,MetaDrive-Gen-LaneWidth-v0,49,105.07657026581424,37495,356,764.9269058704376,19.886978149414062,-20.343965530395508,16.878007888793945,0.03
36,MetaDrive-Gen-LaneWidth-v0,48,111.77028096508178,38556,358,794.8651518821716,22.586763381958008,,3.903838634490967,0.05
37,MetaDrive-Gen-LaneWidth-v0,48,118.37891237323225,39512,360,822.7399518489838,22.270217895507812,,17.853660583496094,0.07
38,MetaDrive-Gen-LaneWidth-v0,47,119.67231583990606,40256,364,842.9235317707062,21.464141845703125,,5.368422508239746,0.08
39,MetaDrive-Gen-LaneWidth-v0,47,127.20606214882152,41327,367,871.4685218334198,23.174278259277344,-23.969406127929688,8.935553550720215,0.1
40,MetaDrive-Gen-LaneWidth-v0,47,133.16181457880666,42451,371,901.2507708072662,25.30086898803711,-26.069883346557617,18.580371856689453,0.11
41,MetaDrive-Gen-LaneWidth-v0,46,136.42842220935106,43052,373,917.0136318206787,25.642892837524414,,8.751158714294434,0.12
42,MetaDrive-Gen-LaneWidth-v0,46,143.76071172622042,44275,375,950.9581398963928,27.211227416992188,-27.839012145996094,11.078173637390137,0.14
43,MetaDrive-Gen-LaneWidth-v0,46,149.10987401026367,45130,378,975.0307629108429,27.195009231567383,,15.19375228881836,0.15
44,MetaDrive-Gen-LaneWidth-v0,46,154.73258945321578,46121,380,1002.0479779243469,27.049882888793945,-27.607929229736328,13.613117218017578,0.17
45,MetaDrive-Gen-LaneWidth-v0,45,163.0255149083613,47625,384,1044.9000639915466,27.167083740234375,-28.24163055419922,7.668237209320068,0.19
46,MetaDrive-Gen-LaneWidth-v0,45,165.4343468161522,48208,386,1060.2616698741913,29.12713623046875,,16.14206314086914,0.2
47,MetaDrive-Gen-LaneWidth-v0,45,170.43677213517623,49050,388,1082.7706246376038,30.24869728088379,,10.843147277832031,0.22
48,MetaDrive-Gen-LaneWidth-v0,45,174.65250719061635,50052,391,1109.7091510295868,30.966867446899414,,7.801049709320068,0.23
49,MetaDrive-Gen-LaneWidth-v0,44,180.32321288187526,51078,396,1137.2855999469757,30.730178833007812,,3.8761091232299805,0.25
50,MetaDrive-Gen-LaneWidth-v0,44,185.72692741673373,52180,399,1166.8876638412476,31.24341583251953,,9.039695739746094,0.26
51,MetaDrive-Gen-LaneWidth-v0,44,191.27769068138502,53235,402,1195.3217899799347,30.971384048461914,-31.795452117919922,17.37725067138672,0.28
52,MetaDrive-Gen-LaneWidth-v0,44,196.37201725839182,54015,404,1216.4163918495178,33.249080657958984,-33.848182678222656,13.47978687286377,0.3
53,MetaDrive-Gen-LaneWidth-v0,44,197.7651853341752,55025,410,1242.9387757778168,32.38711929321289,-33.235748291015625,5.315441131591797,0.31
54,MetaDrive-Gen-LaneWidth-v0,44,204.68009236510375,56153,414,1271.8695378303528,33.38231658935547,-34.03328323364258,4.934661388397217,0.34
55,MetaDrive-Gen-LaneWidth-v0,44,209.90868970788372,57215,418,1299.1507098674774,34.07642364501953,-34.67824935913086,4.809497833251953,0.36
56,MetaDrive-Gen-LaneWidth-v0,34,210.08697037477535,58080,423,1682.0678458213806,35.56664276123047,,3.2806363105773926,0.36
57,MetaDrive-Gen-LaneWidth-v0,34,213.5791595238768,59142,428,1709.9309220314026,36.0819091796875,,12.096025466918945,0.37
58,MetaDrive-Gen-LaneWidth-v0,31,217.94736561485456,60197,432,1892.8563468456268,36.60942459106445,-37.24188995361328,15.77754020690918,0.39
59,MetaDrive-Gen-LaneWidth-v0,31,222.64519956790338,61008,435,1914.9854388237,36.1783332824707,,24.490612030029297,0.41
60,MetaDrive-Gen-LaneWidth-v0,31,231.4914566369531,62262,438,1948.3394758701324,33.538570404052734,,19.918689727783203,0.43
61,MetaDrive-Gen-LaneWidth-v0,32,234.58657421356554,63075,441,1969.4324917793274,35.266788482666016,-35.648372650146484,18.28067398071289,0.44
62,MetaDrive-Gen-LaneWidth-v0,32,239.35003911481866,64063,444,1995.686271905899,36.86552810668945,-37.35370635986328,15.155046463012695,0.45
63,MetaDrive-Gen-LaneWidth-v0,32,242.72164028025068,65408,447,2031.0048809051514,37.995479583740234,,17.088523864746094,0.47
64,MetaDrive-Gen-LaneWidth-v0,32,243.04762427847524,66046,450,2047.400934934616,38.89665222167969,,33.68730926513672,0.48
65,MetaDrive-Gen-LaneWidth-v0,32,235.68591661330214,67327,456,2081.314940929413,37.657413482666016,-38.855525970458984,24.781192779541016,0.47
66,MetaDrive-Gen-LaneWidth-v0,32,234.03581633704331,68068,458,2100.4043488502502,38.26542663574219,,34.56938934326172,0.46
67,MetaDrive-Gen-LaneWidth-v0,32,236.20639190488524,69290,461,2131.6672337055206,39.514892578125,,5.22839879989624,0.47
68,MetaDrive-Gen-LaneWidth-v0,32,237.95607086007442,70478,465,2162.257095813751,38.56437683105469,,6.532094955444336,0.48
69,MetaDrive-Gen-LaneWidth-v0,32,239.24354825024548,71022,466,2176.3857836723328,39.35523986816406,,13.362249374389648,0.48
70,MetaDrive-Gen-LaneWidth-v0,32,240.6288748008459,72035,469,2202.5586309432983,39.5202751159668,-39.596073150634766,25.650972366333008,0.49
71,MetaDrive-Gen-LaneWidth-v0,32,237.4049606419231,73001,473,2227.263917684555,40.122962951660156,-40.979000091552734,17.10403823852539,0.49
72,MetaDrive-Gen-LaneWidth-v0,32,234.043769344748,74352,476,2261.5396678447723,41.14814376831055,,16.159988403320312,0.49
73,MetaDrive-Gen-LaneWidth-v0,32,237.80912423737576,75038,477,2280.007912874222,40.07136535644531,,31.90005111694336,0.5
74,MetaDrive-Gen-LaneWidth-v0,32,236.16095280232548,76178,480,2309.49351978302,39.3720588684082,,5.748628616333008,0.49
75,MetaDrive-Gen-LaneWidth-v0,33,237.662060352703,77060,483,2332.037919998169,41.28093719482422,,6.182353973388672,0.5
76,MetaDrive-Gen-LaneWidth-v0,33,234.6132953854159,78232,487,2362.776531934738,40.70571517944336,,23.679073333740234,0.49
77,MetaDrive-Gen-LaneWidth-v0,33,235.0529413865953,79400,490,2392.396384000778,42.02035903930664,,8.347099304199219,0.5
78,MetaDrive-Gen-LaneWidth-v0,33,239.18574239098584,80215,492,2413.329123735428,41.33512878417969,-41.72827911376953,17.147510528564453,0.52
79,MetaDrive-Gen-LaneWidth-v0,33,243.79963961503444,81210,494,2439.1949558258057,43.30129623413086,,4.872587203979492,0.53
80,MetaDrive-Gen-LaneWidth-v0,33,245.7582519538069,82343,497,2468.3925247192383,42.35542678833008,-42.55178451538086,8.692036628723145,0.55
81,MetaDrive-Gen-LaneWidth-v0,33,245.29561672148827,83021,499,2486.5243258476257,42.02482223510742,-42.45201873779297,6.854947566986084,0.55
82,MetaDrive-Gen-LaneWidth-v0,33,248.31175709554188,84082,501,2514.409067630768,39.047142028808594,,7.290668964385986,0.56
83,MetaDrive-Gen-LaneWidth-v0,33,247.3585848330746,85143,504,2541.885141849518,42.009456634521484,-42.55103302001953,5.536674976348877,0.55
84,MetaDrive-Gen-LaneWidth-v0,33,249.81324254835752,86033,507,2564.7804276943207,43.91160202026367,-44.64820098876953,7.184469223022461,0.56
85,MetaDrive-Gen-LaneWidth-v0,33,257.0882686507007,87059,510,2591.3571887016296,43.054561614990234,-42.99044418334961,21.07424545288086,0.59
86,MetaDrive-Gen-LaneWidth-v0,33,261.1118493329825,88468,513,2628.4867787361145,42.18381881713867,,19.529949188232422,0.6
87,MetaDrive-Gen-LaneWidth-v0,33,262.3169488209876,89484,515,2655.362676858902,42.25493621826172,,28.679895401000977,0.6
88,MetaDrive-Gen-LaneWidth-v0,33,265.2785182413679,90249,517,2674.510239839554,43.66419982910156,-43.855812072753906,12.938690185546875,0.61
89,MetaDrive-Gen-LaneWidth-v0,33,268.2411400797118,91096,519,2696.0126206874847,43.523231506347656,,13.601702690124512,0.62
90,MetaDrive-Gen-LaneWidth-v0,33,271.48164239778026,92030,522,2719.7247018814087,43.241676330566406,,5.731588363647461,0.64
91,MetaDrive-Gen-LaneWidth-v0,33,278.20822983731176,93526,525,2758.424947977066,44.471107482910156,,27.085411071777344,0.67
92,MetaDrive-Gen-LaneWidth-v0,33,281.1501699685082,94274,527,2777.574980735779,44.69693374633789,,4.196061134338379,0.68
93,MetaDrive-Gen-LaneWidth-v0,33,283.832817199294,95074,530,2797.86111164093,45.30731201171875,,6.792570114135742,0.7
94,MetaDrive-Gen-LaneWidth-v0,34,283.7794653090183,96129,533,2826.4628608226776,42.59836196899414,-42.88349533081055,16.400527954101562,0.69
95,MetaDrive-Gen-LaneWidth-v0,34,286.04286230649956,97036,535,2850.276815891266,42.42644500732422,,10.040201187133789,0.69
96,MetaDrive-Gen-LaneWidth-v0,34,286.3188799927912,98275,538,2882.3640587329865,43.46633529663086,-43.86412048339844,17.272674560546875,0.7
97,MetaDrive-Gen-LaneWidth-v0,34,288.86610040639937,99406,541,2911.1449007987976,45.959693908691406,,12.721879005432129,0.72
98,MetaDrive-Gen-LaneWidth-v0,34,291.1745149079671,100273,543,2933.321857690811,45.483177185058594,-45.588619232177734,27.734676361083984,0.74
99,MetaDrive-Gen-LaneWidth-v0,34,293.26630744349296,101170,545,2956.561586856842,44.085845947265625,,5.238579750061035,0.74
100,MetaDrive-Gen-LaneWidth-v0,34,292.9478808349143,102313,547,2986.1423649787903,43.71500015258789,-43.8570671081543,8.46957778930664,0.74
101,MetaDrive-Gen-LaneWidth-v0,34,296.70029301662487,103355,549,3013.250949859619,44.31599044799805,-45.42946243286133,8.481254577636719,0.75
102,MetaDrive-Gen-LaneWidth-v0,34,299.9361140365669,104569,552,3045.440158843994,42.87395477294922,-43.89889144897461,18.744403839111328,0.74
103,MetaDrive-Gen-LaneWidth-v0,34,305.140428014249,105530,554,3071.161174058914,45.15191650390625,,21.80373764038086,0.75
104,MetaDrive-Gen-LaneWidth-v0,34,308.50814980043396,106313,556,3091.7653477191925,43.305606842041016,-43.68776321411133,16.404037475585938,0.76
105,MetaDrive-Gen-LaneWidth-v0,34,310.2041357009049,107190,557,3116.0273237228394,43.45808029174805,,42.11543273925781,0.76
106,MetaDrive-Gen-LaneWidth-v0,34,314.30210901982406,108269,559,3144.471583843231,44.68074035644531,-45.113861083984375,6.436837673187256,0.77
107,MetaDrive-Gen-LaneWidth-v0,34,311.4024296058301,109191,562,3169.1309168338776,45.610042572021484,-46.96731948852539,6.420773029327393,0.75
108,MetaDrive-Gen-LaneWidth-v0,34,316.41171729261265,110143,564,3193.9490509033203,43.233612060546875,-43.85723876953125,11.742876052856445,0.76
109,MetaDrive-Gen-LaneWidth-v0,34,315.5957750775443,111240,566,3222.8511488437653,43.78901672363281,,26.27351951599121,0.76
110,MetaDrive-Gen-LaneWidth-v0,34,318.9356625767508,112134,568,3246.1751039028168,44.27862548828125,,7.241915225982666,0.77
111,MetaDrive-Gen-LaneWidth-v0,34,318.6827566835916,113089,570,3270.69854593277,43.255409240722656,-43.654781341552734,9.653707504272461,0.77
112,MetaDrive-Gen-LaneWidth-v0,34,318.212572342906,114328,575,3302.5984358787537,43.866764068603516,,11.060203552246094,0.77
113,MetaDrive-Gen-LaneWidth-v0,34,318.06343192061473,115330,577,3328.967057943344,44.113529205322266,,5.714519023895264,0.77
114,MetaDrive-Gen-LaneWidth-v0,34,318.21493755497204,116014,579,3346.729120016098,45.2049674987793,,8.279745101928711,0.77
115,MetaDrive-Gen-LaneWidth-v0,34,323.2434834332828,117231,582,3378.33483171463,43.326751708984375,-44.20862579345703,8.490761756896973,0.79
116,MetaDrive-Gen-LaneWidth-v0,34,323.7131962075138,118120,584,3402.353836774826,46.325218200683594,,8.807741165161133,0.79
117,MetaDrive-Gen-LaneWidth-v0,34,326.11001314701303,119042,587,3428.0114376544952,45.22911071777344,,14.821616172790527,0.79
118,MetaDrive-Gen-LaneWidth-v0,34,324.4594282662375,120404,591,3463.834748983383,45.550052642822266,,8.16020393371582,0.78
119,MetaDrive-Gen-LaneWidth-v0,34,327.46733216571135,121275,592,3488.602682828903,46.37327575683594,-46.85919189453125,8.208572387695312,0.78
120,MetaDrive-Gen-LaneWidth-v0,34,325.0167635727764,122354,595,3518.1445639133453,44.91694259643555,,7.035184860229492,0.77
121,MetaDrive-Gen-LaneWidth-v0,34,324.9849528537705,123156,597,3539.471561908722,45.032623291015625,,26.703113555908203,0.77
122,MetaDrive-Gen-LaneWidth-v0,34,328.30269308840843,124101,599,3564.2629137039185,46.9409294128418,-47.243797302246094,8.554840087890625,0.78
123,MetaDrive-Gen-LaneWidth-v0,34,328.0712522973848,125132,601,3591.5539968013763,46.78181838989258,,17.43438148498535,0.78
124,MetaDrive-Gen-LaneWidth-v0,34,329.6789785362938,126300,604,3622.1880128383636,45.8629035949707,,7.324656009674072,0.79
125,MetaDrive-Gen-LaneWidth-v0,34,329.5748176353526,127124,607,3643.6688508987427,45.4307861328125,,23.033565521240234,0.79
126,MetaDrive-Gen-LaneWidth-v0,34,331.1954699973345,128041,609,3668.1887028217316,46.66582489013672,-47.124366760253906,13.023127555847168,0.79
127,MetaDrive-Gen-LaneWidth-v0,34,332.72856257262737,129280,612,3701.6965827941895,48.05880355834961,,17.786319732666016,0.78
128,MetaDrive-Gen-LaneWidth-v0,34,330.31692372395025,130343,615,3729.5305738449097,46.69707489013672,-47.35337829589844,6.576101779937744,0.79
129,MetaDrive-Gen-LaneWidth-v0,34,334.8028252854767,131723,617,3768.449516773224,45.93485641479492,-46.81755065917969,13.94328498840332,0.79
130,MetaDrive-Gen-LaneWidth-v0,34,332.2832548001811,132342,619,3784.813102722168,44.60267639160156,,28.179426193237305,0.78
131,MetaDrive-Gen-LaneWidth-v0,34,332.76691787319896,133063,621,3803.719442844391,46.155906677246094,-46.580867767333984,12.803576469421387,0.78
132,MetaDrive-Gen-LaneWidth-v0,34,336.3879026628315,134015,623,3829.220981836319,45.282283782958984,-45.58405685424805,22.66333770751953,0.79
133,MetaDrive-Gen-LaneWidth-v0,35,333.0507597374689,135451,627,3868.1430118083954,47.12328338623047,-47.35761642456055,31.651901245117188,0.78
134,MetaDrive-Gen-LaneWidth-v0,35,334.17974093966666,136339,629,3892.2120089530945,48.152435302734375,-48.90910339355469,6.362858772277832,0.78
135,MetaDrive-Gen-LaneWidth-v0,35,332.8228119722796,137124,633,3912.7709686756134,48.47153854370117,,22.100723266601562,0.79
136,MetaDrive-Gen-LaneWidth-v0,35,331.824593643516,138040,635,3937.3153417110443,46.79862594604492,,15.828787803649902,0.79
137,MetaDrive-Gen-LaneWidth-v0,35,334.10011928336354,139076,637,3965.6340186595917,47.18768310546875,,10.083169937133789,0.79
138,MetaDrive-Gen-LaneWidth-v0,35,334.5853824545507,140155,639,3995.0860188007355,46.67940902709961,-46.942298889160156,32.47007751464844,0.79
139,MetaDrive-Gen-LaneWidth-v0,35,335.39592179604057,141004,641,4018.655860900879,46.05469512939453,,7.955624580383301,0.79
140,MetaDrive-Gen-LaneWidth-v0,35,336.84547968544706,142243,644,4052.7768115997314,48.25326919555664,-48.22372055053711,7.420917510986328,0.8
141,MetaDrive-Gen-LaneWidth-v0,35,335.6587263157999,143079,646,4076.0059089660645,48.40873336791992,-49.037498474121094,6.889097213745117,0.8
142,MetaDrive-Gen-LaneWidth-v0,35,330.8077038930078,144214,650,4107.341221809387,49.45276641845703,,8.929710388183594,0.79
143,MetaDrive-Gen-LaneWidth-v0,35,331.075905446335,145083,652,4130.124778032303,47.586143493652344,-47.2016716003418,8.509483337402344,0.81
144,MetaDrive-Gen-LaneWidth-v0,35,330.56406700922,146070,654,4156.84050488472,48.331363677978516,,6.18988561630249,0.82
145,MetaDrive-Gen-LaneWidth-v0,35,327.227452648803,147451,657,4193.0719928741455,49.600399017333984,-49.69886779785156,6.612414360046387,0.82
146,MetaDrive-Gen-LaneWidth-v0,35,323.25540308353357,148149,659,4211.4152817726135,47.68809509277344,-48.329593658447266,7.424926280975342,0.82
147,MetaDrive-Gen-LaneWidth-v0,35,323.4941054874261,149092,662,4236.4399218559265,48.654327392578125,,7.788010597229004,0.83
148,MetaDrive-Gen-LaneWidth-v0,35,320.6362747516267,150091,665,4263.946380853653,48.69082260131836,-48.680809020996094,26.999488830566406,0.83
149,MetaDrive-Gen-LaneWidth-v0,35,318.827939242792,151197,668,4293.547016859055,47.23967742919922,-47.43523406982422,11.646746635437012,0.82
150,MetaDrive-Gen-LaneWidth-v0,35,318.5542122392312,152055,670,4316.732282876968,49.37525939941406,-49.07036590576172,9.186614036560059,0.81
151,MetaDrive-Gen-LaneWidth-v0,35,321.7087234112549,153141,672,4347.776862859726,48.318302154541016,-48.60161209106445,23.368431091308594,0.81
152,MetaDrive-Gen-LaneWidth-v0,35,325.0118482329038,154082,674,4373.51208281517,48.38966369628906,,26.148330688476562,0.82
153,MetaDrive-Gen-LaneWidth-v0,35,325.47960673999665,155101,676,4399.997072935104,50.1838493347168,-50.63138961791992,7.892312049865723,0.82
154,MetaDrive-Gen-LaneWidth-v0,35,326.5955574994425,156094,678,4426.3177897930145,49.01972961425781,,9.937783241271973,0.83
155,MetaDrive-Gen-LaneWidth-v0,35,327.06457279976325,157443,681,4462.041720867157,50.129554748535156,-51.117034912109375,8.382384300231934,0.83
156,MetaDrive-Gen-LaneWidth-v0,35,325.33509700466914,158291,683,4485.04115486145,49.814842224121094,-51.09544372558594,6.520257949829102,0.83
157,MetaDrive-Gen-LaneWidth-v0,35,327.6636111042334,159178,685,4509.5453288555145,51.286842346191406,,28.028900146484375,0.84
158,MetaDrive-Gen-LaneWidth-v0,35,325.9759702932494,160356,688,4541.528380870819,48.86160659790039,,15.077478408813477,0.84
159,MetaDrive-Gen-LaneWidth-v0,35,329.6641242801417,161041,689,4560.390296697617,49.46258544921875,-49.2413330078125,9.288911819458008,0.85
160,MetaDrive-Gen-LaneWidth-v0,35,328.214372828808,162325,692,4595.835858821869,51.385711669921875,-51.95984649658203,7.542126178741455,0.84
161,MetaDrive-Gen-LaneWidth-v0,35,330.99583179808354,163209,694,4619.7839596271515,49.27770233154297,-49.645606994628906,9.053812026977539,0.85
162,MetaDrive-Gen-LaneWidth-v0,35,330.6381090536963,164193,696,4646.338725805283,51.34520721435547,-52.262229919433594,29.30826187133789,0.85
163,MetaDrive-Gen-LaneWidth-v0,35,331.1002006182529,165210,698,4673.870391845703,49.936485290527344,,10.191965103149414,0.85
164,MetaDrive-Gen-LaneWidth-v0,35,331.9360897845703,166233,700,4701.557742834091,51.07707595825195,-50.8096923828125,15.245527267456055,0.85
165,MetaDrive-Gen-LaneWidth-v0,35,333.2234658947605,167263,702,4729.662534952164,51.309722900390625,-52.27568817138672,15.203657150268555,0.84
166,MetaDrive-Gen-LaneWidth-v0,35,332.407436568824,168031,704,4750.2931118011475,51.723060607910156,-51.689430236816406,9.407092094421387,0.84
167,MetaDrive-Gen-LaneWidth-v0,35,335.12021110400906,169275,707,4783.469678878784,51.457820892333984,-51.981414794921875,7.9290618896484375,0.85
168,MetaDrive-Gen-LaneWidth-v0,35,332.60357846697485,170030,709,4804.502521753311,51.540531158447266,,15.661666870117188,0.85
169,MetaDrive-Gen-LaneWidth-v0,35,336.7183112357585,171287,711,4840.307961702347,50.40463638305664,-51.1435546875,10.489219665527344,0.86
170,MetaDrive-Gen-LaneWidth-v0,35,335.53238760056485,172318,713,4868.550266742706,49.85011291503906,,39.780948638916016,0.85
171,MetaDrive-Gen-LaneWidth-v0,35,333.055348594073,173368,716,4896.339344739914,49.986305236816406,,11.378232955932617,0.84
172,MetaDrive-Gen-LaneWidth-v0,35,333.1882853383696,174376,718,4923.250112056732,50.41368865966797,,16.237518310546875,0.85
173,MetaDrive-Gen-LaneWidth-v0,35,335.18865151263344,175470,720,4953.243060827255,50.994773864746094,,10.859095573425293,0.84
174,MetaDrive-Gen-LaneWidth-v0,35,337.3843427254332,176529,722,4982.008482694626,51.753936767578125,-52.55320739746094,9.550851821899414,0.83
175,MetaDrive-Gen-LaneWidth-v0,35,338.24199569033544,177182,723,5000.1289348602295,50.51824951171875,,12.498228073120117,0.83
176,MetaDrive-Gen-LaneWidth-v0,35,341.5909443802842,178061,725,5023.7441618442535,52.28203582763672,-53.21339797973633,6.292242050170898,0.82
177,MetaDrive-Gen-LaneWidth-v0,35,339.27772842288044,179201,728,5053.95264673233,49.895530700683594,-50.34944534301758,14.354780197143555,0.82
178,MetaDrive-Gen-LaneWidth-v0,35,339.5360217156677,180015,730,5075.7953197956085,51.90755844116211,-51.73997497558594,42.242652893066406,0.81
179,MetaDrive-Gen-LaneWidth-v0,35,345.6394636371995,181366,733,5112.483266830444,51.67232131958008,,13.19052505493164,0.83
180,MetaDrive-Gen-LaneWidth-v0,35,345.45913900744097,182255,735,5136.6042449474335,51.796844482421875,-53.18972396850586,17.608293533325195,0.83
181,MetaDrive-Gen-LaneWidth-v0,35,345.22558068757894,183285,737,5165.672502756119,50.462303161621094,-50.369354248046875,11.353496551513672,0.82
182,MetaDrive-Gen-LaneWidth-v0,35,335.3586869999166,184012,741,5185.472022771835,50.136260986328125,,13.122102737426758,0.79
183,MetaDrive-Gen-LaneWidth-v0,35,333.9107135475684,185182,744,5217.277426958084,50.8482666015625,,8.223201751708984,0.79
184,MetaDrive-Gen-LaneWidth-v0,35,333.4499882078989,186020,746,5239.438840866089,53.844207763671875,,9.762372970581055,0.79
185,MetaDrive-Gen-LaneWidth-v0,35,336.27875750934703,187501,750,5279.506568908691,52.12314224243164,-52.97394561767578,11.23785400390625,0.8
186,MetaDrive-Gen-LaneWidth-v0,35,336.09162290880965,188187,752,5298.178241729736,52.892242431640625,-53.299835205078125,6.84366512298584,0.8
187,MetaDrive-Gen-LaneWidth-v0,35,335.1078742584379,189012,754,5321.473587989807,50.738407135009766,,14.991597175598145,0.79
188,MetaDrive-Gen-LaneWidth-v0,35,336.2559790452191,190026,756,5349.204020023346,49.76142501831055,,13.221990585327148,0.79
189,MetaDrive-Gen-LaneWidth-v0,35,338.12612724965436,191103,758,5379.366813898087,51.192115783691406,-51.93982696533203,14.592270851135254,0.78
190,MetaDrive-Gen-LaneWidth-v0,35,341.7669589019379,192076,760,5405.806897878647,50.443477630615234,,7.879446029663086,0.79
191,MetaDrive-Gen-LaneWidth-v0,35,342.50563743686854,193204,762,5436.372578859329,51.51909255981445,,7.775190353393555,0.79
192,MetaDrive-Gen-LaneWidth-v0,35,346.9807769400792,194242,764,5465.261482954025,52.77648162841797,,14.088644027709961,0.8
193,MetaDrive-Gen-LaneWidth-v0,35,345.45510734848517,195128,766,5489.276527881622,51.095706939697266,,22.640995025634766,0.8
194,MetaDrive-Gen-LaneWidth-v0,35,346.2333707705444,196628,769,5530.466823816299,52.663551330566406,,6.228719711303711,0.81
195,MetaDrive-Gen-LaneWidth-v0,35,346.8785663025857,197101,770,5543.595717906952,50.01641845703125,-50.18941879272461,14.837371826171875,0.82
196,MetaDrive-Gen-LaneWidth-v0,35,349.3959021519817,198314,772,5577.576196908951,52.50261306762695,,11.826756477355957,0.83
197,MetaDrive-Gen-LaneWidth-v0,35,349.572675491824,199362,774,5606.314064741135,49.538124084472656,,14.535543441772461,0.83
198,MetaDrive-Gen-LaneWidth-v0,35,350.5401743558448,200521,776,5637.917291641235,51.37537384033203,-52.77116012573242,11.91313362121582,0.83
199,MetaDrive-Gen-LaneWidth-v0,35,351.2243458097796,201101,777,5653.971529960632,51.11000442504883,-51.45346450805664,9.081249237060547,0.83
200,MetaDrive-Gen-LaneWidth-v0,35,351.4617399151947,202277,780,5685.243360996246,53.01587677001953,-53.40755081176758,8.566024780273438,0.83
201,MetaDrive-Gen-LaneWidth-v0,35,349.4381455645629,203068,782,5706.601698637009,50.13226318359375,,32.49616241455078,0.83
202,MetaDrive-Gen-LaneWidth-v0,35,348.57161069335757,204409,785,5743.5522108078,53.17097091674805,-53.663997650146484,10.197969436645508,0.83
203,MetaDrive-Gen-LaneWidth-v0,35,351.5102793181713,205172,786,5765.946648836136,53.763423919677734,,20.579790115356445,0.84
204,MetaDrive-Gen-LaneWidth-v0,35,353.4630233278114,206197,788,5794.5847046375275,52.1541633605957,-53.009639739990234,9.718198776245117,0.84
205,MetaDrive-Gen-LaneWidth-v0,35,355.70002660181405,207502,790,5831.154166698456,52.4420051574707,,8.129339218139648,0.85
206,MetaDrive-Gen-LaneWidth-v0,35,349.58519192927554,208379,793,5854.73019862175,52.311527252197266,-51.915199279785156,7.447850227355957,0.84
207,MetaDrive-Gen-LaneWidth-v0,35,348.42875289425086,209082,795,5873.661604881287,50.85331344604492,,11.18643569946289,0.84
208,MetaDrive-Gen-LaneWidth-v0,35,348.5876252370625,210187,797,5904.443736791611,52.813148498535156,-53.726470947265625,9.950111389160156,0.84
209,MetaDrive-Gen-LaneWidth-v0,35,345.2812164493947,211079,799,5928.644592761993,51.763771057128906,-52.422061920166016,7.659881114959717,0.84
210,MetaDrive-Gen-LaneWidth-v0,35,344.1633679930563,212369,802,5963.981147766113,50.715087890625,-51.349815368652344,11.50216293334961,0.85
211,MetaDrive-Gen-LaneWidth-v0,35,345.3366517403321,213371,804,5991.239646911621,50.48536682128906,-50.880123138427734,11.615373611450195,0.85
212,MetaDrive-Gen-LaneWidth-v0,35,347.4988584446877,214536,806,6024.501799821854,52.082576751708984,,8.137856483459473,0.85
213,MetaDrive-Gen-LaneWidth-v0,35,348.0270246447885,215006,807,6037.339273929596,50.83776092529297,,10.406028747558594,0.85
214,MetaDrive-Gen-LaneWidth-v0,35,347.63409654445263,216485,810,6078.819253921509,50.641693115234375,-50.62315368652344,8.401161193847656,0.84
215,MetaDrive-Gen-LaneWidth-v0,35,341.88697983964653,217176,813,6098.372047901154,51.118408203125,,9.663915634155273,0.83
216,MetaDrive-Gen-LaneWidth-v0,35,345.67074633516165,218071,815,6123.3977818489075,53.760189056396484,-54.78812026977539,6.127777099609375,0.84
217,MetaDrive-Gen-LaneWidth-v0,35,347.24264763293996,219256,817,6157.594584703445,51.147613525390625,,8.258085250854492,0.84
218,MetaDrive-Gen-LaneWidth-v0,35,344.80479440877224,220187,819,6183.528852939606,51.45594024658203,-52.86354446411133,8.55359935760498,0.83
219,MetaDrive-Gen-LaneWidth-v0,35,343.9231542952497,221025,821,6206.354046821594,50.86779022216797,-51.78269958496094,9.30610466003418,0.85
220,MetaDrive-Gen-LaneWidth-v0,35,335.82168577620826,222192,825,6237.792511940002,52.306846618652344,,6.171577453613281,0.86
221,MetaDrive-Gen-LaneWidth-v0,35,335.59098766361194,223173,827,6264.662908792496,52.5839958190918,-52.32791519165039,10.97553825378418,0.86
222,MetaDrive-Gen-LaneWidth-v0,35,337.17551106096334,224139,829,6290.677244901657,54.42892837524414,-55.13888168334961,16.322538375854492,0.87
223,MetaDrive-Gen-LaneWidth-v0,35,338.44868806727277,225047,831,6316.243849992752,52.37451171875,-52.56161880493164,7.519615173339844,0.87
224,MetaDrive-Gen-LaneWidth-v0,35,334.6970128729015,226146,834,6347.087619781494,50.20064163208008,,9.227599143981934,0.86
225,MetaDrive-Gen-LaneWidth-v0,35,336.63815714023985,227359,836,6381.377113819122,52.253196716308594,-51.85397720336914,8.234567642211914,0.87
226,MetaDrive-Gen-LaneWidth-v0,35,336.63241831700185,228117,838,6403.514113664627,51.4356803894043,-51.753021240234375,8.184394836425781,0.87
227,MetaDrive-Gen-LaneWidth-v0,35,338.1469832376525,229009,841,6428.744881868362,52.22959518432617,-52.22959899902344,7.080427646636963,0.88
228,MetaDrive-Gen-LaneWidth-v0,35,340.0276595589354,230369,844,6466.660532951355,51.51670455932617,-51.9842643737793,8.270674705505371,0.88
229,MetaDrive-Gen-LaneWidth-v0,35,339.73306581195493,231382,847,6495.209217786789,50.371726989746094,,10.932981491088867,0.88
230,MetaDrive-Gen-LaneWidth-v0,35,343.68221516049044,232388,849,6524.615674734116,50.45381164550781,,10.66746711730957,0.88
231,MetaDrive-Gen-LaneWidth-v0,35,341.80612143801494,233213,852,6546.33407998085,51.73430252075195,-51.82860565185547,6.448662281036377,0.88
232,MetaDrive-Gen-LaneWidth-v0,35,343.30410839880307,234188,854,6572.7939467430115,49.782135009765625,,7.972740650177002,0.89
233,MetaDrive-Gen-LaneWidth-v0,35,342.6625802812474,235484,857,6608.565499782562,51.415103912353516,,15.534976959228516,0.9
234,MetaDrive-Gen-LaneWidth-v0,35,342.8715398597163,236624,859,6641.022354841232,51.276912689208984,,10.55483627319336,0.9
235,MetaDrive-Gen-LaneWidth-v0,35,344.71819775091075,237330,860,6661.366829872131,51.76626968383789,,9.189977645874023,0.9
236,MetaDrive-Gen-LaneWidth-v0,35,343.174613898048,238163,862,6683.9449467659,51.63298416137695,-51.9368896484375,10.542903900146484,0.9
237,MetaDrive-Gen-LaneWidth-v0,35,343.4271872906165,239121,864,6710.827468633652,52.292999267578125,-52.45759963989258,10.5944185256958,0.9
238,MetaDrive-Gen-LaneWidth-v0,35,344.0416223246768,240404,867,6746.033213853836,51.94179916381836,,5.669919967651367,0.9
239,MetaDrive-Gen-LaneWidth-v0,35,345.5414437541498,241066,868,6765.269812822342,51.52246856689453,,35.032283782958984,0.9
240,MetaDrive-Gen-LaneWidth-v0,35,344.4213998636676,242475,871,6804.971909761429,50.33362579345703,-50.22626876831055,10.867395401000977,0.9
241,MetaDrive-Gen-LaneWidth-v0,35,342.65247744437073,243267,873,6826.814703702927,51.74807357788086,-51.953346252441406,13.114007949829102,0.9
242,MetaDrive-Gen-LaneWidth-v0,35,343.0823626577078,244287,875,6856.541926860809,51.74688720703125,-52.75804901123047,28.138887405395508,0.9
243,MetaDrive-Gen-LaneWidth-v0,35,340.5557446867856,245076,877,6878.522511720657,51.70288848876953,,10.775253295898438,0.9
244,MetaDrive-Gen-LaneWidth-v0,35,339.53586231838034,246208,880,6909.773775815964,48.130340576171875,,29.803319931030273,0.9
245,MetaDrive-Gen-LaneWidth-v0,35,336.9211618745568,247050,883,6932.439337015152,49.602500915527344,,38.21247100830078,0.89
246,MetaDrive-Gen-LaneWidth-v0,35,339.3143178945205,248128,885,6963.435602903366,48.88521194458008,,10.922163009643555,0.89
247,MetaDrive-Gen-LaneWidth-v0,35,334.1369945592826,249288,888,6996.271067857742,49.2280387878418,,7.247989654541016,0.88
248,MetaDrive-Gen-LaneWidth-v0,35,332.06943689746413,250132,890,7020.094377994537,51.301597595214844,,6.641551494598389,0.88
249,MetaDrive-Gen-LaneWidth-v0,35,337.0420765425465,251159,892,7049.607717752457,47.951683044433594,-49.1527099609375,39.65012741088867,0.89
250,MetaDrive-Gen-LaneWidth-v0,35,337.9402225118615,252196,894,7079.399075746536,52.98316192626953,,14.974410057067871,0.89
251,MetaDrive-Gen-LaneWidth-v0,35,336.7602644450908,253442,897,7114.370549917221,51.996551513671875,,10.614934921264648,0.89
252,MetaDrive-Gen-LaneWidth-v0,35,336.80644436854425,254144,899,7134.733575820923,49.68552780151367,,12.949345588684082,0.89
253,MetaDrive-Gen-LaneWidth-v0,35,338.11705635534395,255212,901,7166.502835988998,49.55908966064453,,8.270121574401855,0.88
254,MetaDrive-Gen-LaneWidth-v0,35,337.237539146981,256480,904,7203.243311882019,50.69341278076172,,9.068624496459961,0.87
255,MetaDrive-Gen-LaneWidth-v0,35,336.25836340620776,257468,906,7231.603355884552,51.43051528930664,,7.946390628814697,0.87
256,MetaDrive-Gen-LaneWidth-v0,35,335.47243075173094,258396,908,7259.139937639236,51.54484176635742,,13.48776626586914,0.87
257,MetaDrive-Gen-LaneWidth-v0,35,333.71979357253906,259079,910,7278.367979764938,50.14147186279297,-50.92253112792969,6.872035026550293,0.87
258,MetaDrive-Gen-LaneWidth-v0,35,337.8753274335218,260024,912,7306.257198810577,50.65902328491211,,31.769855499267578,0.88
259,MetaDrive-Gen-LaneWidth-v0,35,338.7716767837499,261287,915,7342.647687911987,51.957496643066406,-52.985618591308594,10.410630226135254,0.89
260,MetaDrive-Gen-LaneWidth-v0,35,337.0936184924328,262284,917,7371.07111287117,50.81803894042969,,9.164133071899414,0.89
261,MetaDrive-Gen-LaneWidth-v0,35,338.97777865671304,263281,919,7399.633560657501,48.28013610839844,-48.561397552490234,17.26285743713379,0.9
262,MetaDrive-Gen-LaneWidth-v0,35,341.7999451498394,264319,921,7430.147602796555,52.14997100830078,-52.507476806640625,9.035837173461914,0.9
263,MetaDrive-Gen-LaneWidth-v0,35,345.6321683337868,265178,923,7454.448917865753,49.00282287597656,,54.03373718261719,0.91
264,MetaDrive-Gen-LaneWidth-v0,35,348.30949612195144,266287,925,7486.733581781387,49.867401123046875,-50.12974548339844,10.206962585449219,0.91
265,MetaDrive-Gen-LaneWidth-v0,35,347.8619304437954,267039,927,7507.896293878555,50.337703704833984,-50.836875915527344,9.821089744567871,0.91
266,MetaDrive-Gen-LaneWidth-v0,35,347.4721278094557,268333,930,7545.049775838852,48.58198547363281,-48.768592834472656,15.599958419799805,0.91
267,MetaDrive-Gen-LaneWidth-v0,35,347.4723746233201,269250,932,7571.245921611786,49.823150634765625,,12.650476455688477,0.91
268,MetaDrive-Gen-LaneWidth-v0,35,345.72294156536606,270109,935,7595.264200925827,51.09233093261719,-50.9188232421875,8.438976287841797,0.91
269,MetaDrive-Gen-LaneWidth-v0,35,346.24550690774356,271231,937,7628.819496870041,49.247161865234375,-48.50384521484375,9.084949493408203,0.91
270,MetaDrive-Gen-LaneWidth-v0,35,348.4171669845372,272153,939,7656.961878061295,48.265953063964844,-48.873661041259766,15.517948150634766,0.91
271,MetaDrive-Gen-LaneWidth-v0,35,350.9608529844899,273337,942,7690.741631031036,50.11357116699219,-50.681766510009766,11.251620292663574,0.92
272,MetaDrive-Gen-LaneWidth-v0,35,346.46324641389685,274172,945,7715.628166913986,46.79681396484375,,53.0014533996582,0.91
273,MetaDrive-Gen-LaneWidth-v0,35,341.96098914120995,275078,948,7744.187526941299,49.87969207763672,,44.158180236816406,0.9
274,MetaDrive-Gen-LaneWidth-v0,35,344.8190923066511,276051,950,7776.639914035797,50.337772369384766,-50.905025482177734,9.081900596618652,0.91
275,MetaDrive-Gen-LaneWidth-v0,35,348.23035339464326,277233,952,7816.854661941528,48.156036376953125,-48.67216491699219,13.585186958312988,0.91
276,MetaDrive-Gen-LaneWidth-v0,35,347.18536369537617,278143,954,7847.90084195137,48.6548957824707,-49.0239143371582,12.015647888183594,0.91
277,MetaDrive-Gen-LaneWidth-v0,35,347.1550877660834,279024,956,7878.822388887405,50.82572937011719,,9.610176086425781,0.9
278,MetaDrive-Gen-LaneWidth-v0,35,347.6713592082498,280127,958,7917.959094047546,50.02777862548828,-50.202484130859375,8.490500450134277,0.9
279,MetaDrive-Gen-LaneWidth-v0,35,345.0624824583008,281412,961,7961.268984794617,47.40147018432617,,40.34235382080078,0.9
280,MetaDrive-Gen-LaneWidth-v0,35,343.6084847416637,282354,963,7994.648943901062,49.77467346191406,,8.425243377685547,0.9
281,MetaDrive-Gen-LaneWidth-v0,35,345.2869829739013,283335,965,8029.721455812454,50.216251373291016,-50.64787673950195,15.123453140258789,0.89
282,MetaDrive-Gen-LaneWidth-v0,35,347.1312169355391,284442,967,8070.687278747559,50.21826171875,,6.225376129150391,0.89
283,MetaDrive-Gen-LaneWidth-v0,35,346.78883678519355,285482,969,8107.921358823776,51.20722579956055,,8.721874237060547,0.89
284,MetaDrive-Gen-LaneWidth-v0,35,348.0123414265914,286157,970,8132.836847782135,49.64292526245117,-50.37184524536133,9.667991638183594,0.89
285,MetaDrive-Gen-LaneWidth-v0,35,348.7213059928809,287261,972,8171.399847984314,48.29558563232422,-48.23260498046875,11.948375701904297,0.89
286,MetaDrive-Gen-LaneWidth-v0,35,347.9774290829484,288263,974,8205.87396478653,50.397422790527344,-50.41606140136719,8.197888374328613,0.89
287,MetaDrive-Gen-LaneWidth-v0,35,347.0961934111215,289263,977,8240.755499601364,49.237060546875,-49.18722915649414,6.835139274597168,0.89
288,MetaDrive-Gen-LaneWidth-v0,35,350.72195191679884,290414,979,8281.4863448143,46.865684509277344,,8.195819854736328,0.89
289,MetaDrive-Gen-LaneWidth-v0,35,351.92509039214667,291061,981,8303.495268821716,49.27356719970703,-48.97303771972656,7.813903331756592,0.9
290,MetaDrive-Gen-LaneWidth-v0,35,352.3985817296944,292112,983,8340.262250900269,48.74610137939453,,8.29064655303955,0.9
291,MetaDrive-Gen-LaneWidth-v0,34,350.7324315020539,293122,985,8376.35860300064,50.67643356323242,,36.43766784667969,0.9
292,MetaDrive-Gen-LaneWidth-v0,34,351.14746967064724,294116,988,8410.068729877472,49.13578796386719,,8.55214786529541,0.91
293,MetaDrive-Gen-LaneWidth-v0,34,353.75902937861736,295368,990,8455.906590938568,49.867919921875,,10.015480995178223,0.91
294,MetaDrive-Gen-LaneWidth-v0,34,351.3869927277048,296105,992,8482.855804920197,50.331565856933594,-51.56563949584961,9.221684455871582,0.9
295,MetaDrive-Gen-LaneWidth-v0,34,351.0388856773059,297401,995,8527.752173662186,51.37577819824219,-51.35004806518555,7.681372165679932,0.9
296,MetaDrive-Gen-LaneWidth-v0,34,350.7442300207015,298217,997,8555.997951984406,50.27112579345703,-50.80379867553711,12.352983474731445,0.9
297,MetaDrive-Gen-LaneWidth-v0,34,353.2746942964859,299353,999,8596.173751831055,49.71176528930664,-50.531124114990234,13.679418563842773,0.9
298,MetaDrive-Gen-LaneWidth-v0,34,349.67840534427296,300313,1002,8629.453488826752,49.32065963745117,-49.41650390625,50.60565185546875,0.9
299,MetaDrive-Gen-LaneWidth-v0,34,350.50069653345156,301337,1004,8665.912925958633,47.460697174072266,-47.247283935546875,14.106945037841797,0.91
300,MetaDrive-Gen-LaneWidth-v0,34,349.0062047878063,302312,1006,8700.559897899628,49.904598236083984,,7.092704772949219,0.91
301,MetaDrive-Gen-LaneWidth-v0,34,349.10573047453966,303233,1008,8733.395543813705,47.212528228759766,-46.39670181274414,70.08318328857422,0.91
302,MetaDrive-Gen-LaneWidth-v0,34,349.03740192471275,304006,1010,8761.795039892197,48.879905700683594,,10.201560974121094,0.91
303,MetaDrive-Gen-LaneWidth-v0,34,350.75066558374704,305558,1013,8818.327092885971,47.99538040161133,,27.170734405517578,0.9
304,MetaDrive-Gen-LaneWidth-v0,34,352.05473752871245,306242,1014,8843.67639875412,51.00349044799805,,10.047598838806152,0.9
305,MetaDrive-Gen-LaneWidth-v0,34,353.4002205013487,307184,1016,8876.768190860748,48.690433502197266,,7.651568412780762,0.9
306,MetaDrive-Gen-LaneWidth-v0,34,351.0013635873969,308505,1019,8927.625805854797,47.87407302856445,-47.97385787963867,24.71407699584961,0.9
307,MetaDrive-Gen-LaneWidth-v0,34,349.78962900181716,309738,1021,8976.753718614578,49.52809143066406,,9.460792541503906,0.89
308,MetaDrive-Gen-LaneWidth-v0,34,349.7786810289314,310377,1022,9000.714525938034,47.33626937866211,-48.201988220214844,17.325008392333984,0.89
309,MetaDrive-Gen-LaneWidth-v0,34,348.94665868045814,311278,1024,9032.92469573021,49.87915802001953,,19.292434692382812,0.89
310,MetaDrive-Gen-LaneWidth-v0,34,351.73381997987775,312533,1026,9079.793935775757,49.047359466552734,-49.98424530029297,11.92947769165039,0.89
311,MetaDrive-Gen-LaneWidth-v0,34,351.5447446390635,313298,1028,9107.6427526474,47.83436965942383,,10.351966857910156,0.89
312,MetaDrive-Gen-LaneWidth-v0,34,350.2317055793339,314055,1030,9136.82632780075,48.76409149169922,-49.41444396972656,9.069734573364258,0.89
313,MetaDrive-Gen-LaneWidth-v0,34,350.5900812477274,315241,1032,9181.776490926743,49.90757369995117,-50.14942169189453,9.623315811157227,0.89
314,MetaDrive-Gen-LaneWidth-v0,34,353.35524228966415,316057,1034,9211.93201470375,50.99564743041992,-51.3724365234375,10.286436080932617,0.9
315,MetaDrive-Gen-LaneWidth-v0,34,352.5746259167377,317014,1036,9249.078353881836,47.60778045654297,,6.186125755310059,0.9
316,MetaDrive-Gen-LaneWidth-v0,34,352.36939142042354,318392,1039,9299.434325933456,48.09648895263672,,9.880058288574219,0.9
317,MetaDrive-Gen-LaneWidth-v0,34,354.0291043250623,319010,1040,9322.298546791077,47.6981315612793,,26.583953857421875,0.9
318,MetaDrive-Gen-LaneWidth-v0,34,357.2986537547089,320143,1043,9365.474725723267,46.162776947021484,-45.91450500488281,42.07915496826172,0.9
319,MetaDrive-Gen-LaneWidth-v0,34,355.79790533564204,321128,1046,9407.579677820206,47.37777328491211,,10.545160293579102,0.89
320,MetaDrive-Gen-LaneWidth-v0,34,350.68925054054307,322697,1051,9467.159025907516,48.575496673583984,-48.38697814941406,7.212521553039551,0.87
321,MetaDrive-Gen-LaneWidth-v0,34,348.06506191482157,323367,1053,9492.66408085823,46.133880615234375,-46.94285583496094,6.66652774810791,0.86
322,MetaDrive-Gen-LaneWidth-v0,34,348.746858677233,324361,1055,9528.804804801941,46.664371490478516,-46.30338668823242,14.38547134399414,0.86
323,MetaDrive-Gen-LaneWidth-v0,34,348.78017127182045,325062,1057,9553.762301921844,47.26722717285156,,9.406468391418457,0.87
324,MetaDrive-Gen-LaneWidth-v0,34,344.079938703911,326023,1060,9588.45709490776,48.1826171875,-48.15793991088867,8.88170051574707,0.85
325,MetaDrive-Gen-LaneWidth-v0,33,340.9507170947041,327113,1063,9628.680569887161,47.21478271484375,-47.81153106689453,10.794342041015625,0.83
326,MetaDrive-Gen-LaneWidth-v0,33,341.73156468837175,328243,1065,9670.794002771378,47.34042739868164,-47.648948669433594,6.485662937164307,0.84
327,MetaDrive-Gen-LaneWidth-v0,33,339.5769922893082,329105,1067,9702.449492931366,46.391990661621094,-46.70872497558594,21.509429931640625,0.83
328,MetaDrive-Gen-LaneWidth-v0,33,339.0186969633823,330019,1069,9736.2714676857,48.73923873901367,-48.94586944580078,10.622917175292969,0.83
329,MetaDrive-Gen-LaneWidth-v0,33,341.5035490486599,331380,1071,9788.909123659134,47.75094985961914,,7.21143102645874,0.83
330,MetaDrive-Gen-LaneWidth-v0,33,339.53595937458005,332134,1073,9817.95211482048,46.607444763183594,,7.982625961303711,0.83
331,MetaDrive-Gen-LaneWidth-v0,33,339.58720890534227,333097,1075,9852.658743858337,48.79958724975586,-49.27199172973633,15.4810209274292,0.83
332,MetaDrive-Gen-LaneWidth-v0,33,340.4767432004724,334035,1077,9887.768117904663,46.71739959716797,-47.663490295410156,47.81053161621094,0.83
333,MetaDrive-Gen-LaneWidth-v0,33,338.5160282100922,335229,1080,9930.335014820099,47.66813659667969,-47.51362228393555,12.83278751373291,0.83
334,MetaDrive-Gen-LaneWidth-v0,33,339.3004262277518,336523,1082,9978.969853878021,45.07236862182617,-45.38312911987305,5.245253086090088,0.83
335,MetaDrive-Gen-LaneWidth-v0,33,340.9954833827532,337177,1084,10002.959130764008,49.014163970947266,-49.06297302246094,7.365347862243652,0.83
336,MetaDrive-Gen-LaneWidth-v0,31,340.8001670286604,338232,1086,10632.895897865295,45.33903503417969,,8.786269187927246,0.82
337,MetaDrive-Gen-LaneWidth-v0,31,334.4934427852591,339450,1090,10802.385340929031,45.74203109741211,,8.320796012878418,0.8
338,MetaDrive-Gen-LaneWidth-v0,31,334.4371092041159,340281,1092,10829.618582725525,48.97144317626953,-49.38515853881836,16.176513671875,0.8
339,MetaDrive-Gen-LaneWidth-v0,31,334.95683727665016,341169,1094,10858.12200498581,46.9869270324707,-48.143638610839844,9.213935852050781,0.79
340,MetaDrive-Gen-LaneWidth-v0,31,337.8270795090329,342671,1096,10907.939715862274,47.45466613769531,-47.917236328125,29.579862594604492,0.78
341,MetaDrive-Gen-LaneWidth-v0,31,338.8515140239083,343091,1097,10921.30588388443,47.31789016723633,-47.12236022949219,8.583715438842773,0.78
342,MetaDrive-Gen-LaneWidth-v0,31,337.89898917407874,344105,1099,10954.795507907867,47.45410919189453,-48.683265686035156,10.621223449707031,0.78
343,MetaDrive-Gen-LaneWidth-v0,31,337.7804874404468,345015,1102,10985.316885948181,47.01899719238281,-47.341278076171875,7.140064239501953,0.78
344,MetaDrive-Gen-LaneWidth-v0,31,337.47473213086664,346356,1105,11030.069688796997,47.06098937988281,,13.881843566894531,0.77
345,MetaDrive-Gen-LaneWidth-v0,31,339.41155589388944,347221,1106,11061.231571912766,47.79144287109375,-48.33220672607422,8.562519073486328,0.77
346,MetaDrive-Gen-LaneWidth-v0,31,339.635289966993,348319,1109,11097.694437742233,46.699073791503906,-46.933292388916016,6.618084907531738,0.78
347,MetaDrive-Gen-LaneWidth-v0,30,337.07779313926073,349027,1111,11282.710485935211,46.91386413574219,-46.56809997558594,15.80955982208252,0.77
348,MetaDrive-Gen-LaneWidth-v0,30,330.95472203851153,350014,1114,11315.745206832886,48.608154296875,,10.558170318603516,0.76
349,MetaDrive-Gen-LaneWidth-v0,30,327.889432534564,351477,1118,11361.226039648056,48.16228103637695,-49.16824722290039,11.631658554077148,0.74
350,MetaDrive-Gen-LaneWidth-v0,30,328.12060580310725,352373,1120,11389.44343662262,45.41916275024414,-44.40313720703125,9.435369491577148,0.74
351,MetaDrive-Gen-LaneWidth-v0,30,325.99210052832296,353149,1122,11414.287422895432,47.82714080810547,-48.865135192871094,9.874076843261719,0.75
352,MetaDrive-Gen-LaneWidth-v0,30,326.50956521989013,354115,1124,11447.222078800201,47.45635986328125,-47.70705032348633,11.27663803100586,0.74
353,MetaDrive-Gen-LaneWidth-v0,30,323.99483541551706,355375,1127,11488.403498888016,46.534423828125,-46.621334075927734,6.715008735656738,0.72
354,MetaDrive-Gen-LaneWidth-v0,30,326.20773536398883,356332,1129,11520.754067897797,48.542293548583984,,8.435315132141113,0.72
355,MetaDrive-Gen-LaneWidth-v0,30,325.48557408437756,357075,1131,11545.739979743958,49.23460388183594,-49.80974578857422,6.238719940185547,0.72
356,MetaDrive-Gen-LaneWidth-v0,30,326.24977481036404,358198,1133,11584.864698886871,46.815345764160156,,28.323692321777344,0.72
357,MetaDrive-Gen-LaneWidth-v0,30,328.7295164232857,359264,1135,11621.948497772217,46.08278274536133,,9.711359977722168,0.72
358,MetaDrive-Gen-LaneWidth-v0,30,330.05808060765884,360085,1137,11649.663117647171,47.35707473754883,-47.9162712097168,17.95989227294922,0.73
359,MetaDrive-Gen-LaneWidth-v0,30,327.9520530029905,361310,1140,11690.43596792221,45.78988265991211,,9.274947166442871,0.73
360,MetaDrive-Gen-LaneWidth-v0,30,328.50269245439813,362109,1142,11718.819940805435,48.29711151123047,-48.5361442565918,9.745270729064941,0.73
361,MetaDrive-Gen-LaneWidth-v0,30,328.38534248179263,363131,1145,11753.4377348423,46.4489631652832,-46.235191345214844,14.317195892333984,0.73
362,MetaDrive-Gen-LaneWidth-v0,30,331.92705291456764,364030,1147,11784.149333953857,49.238609313964844,,7.043824195861816,0.74
363,MetaDrive-Gen-LaneWidth-v0,30,335.6346164412945,365036,1149,11818.932911872864,48.42734146118164,,9.527812004089355,0.75
364,MetaDrive-Gen-LaneWidth-v0,30,335.26366712223273,366112,1152,11857.39567065239,48.30540466308594,,6.934296607971191,0.75
365,MetaDrive-Gen-LaneWidth-v0,30,332.755655886687,367172,1155,11894.04024887085,47.3398323059082,,6.821181297302246,0.73
366,MetaDrive-Gen-LaneWidth-v0,30,336.35886299651975,368252,1157,11932.989672899246,45.79330825805664,,9.05801773071289,0.72
367,MetaDrive-Gen-LaneWidth-v0,30,338.72590556882017,369346,1160,11970.502611875534,44.4444580078125,,6.726986885070801,0.72
368,MetaDrive-Gen-LaneWidth-v0,30,340.5614202975132,370209,1162,12000.381623744965,45.070003509521484,-46.139163970947266,7.073163986206055,0.72
369,MetaDrive-Gen-LaneWidth-v0,30,339.03198062798305,371561,1165,12046.89009475708,46.311492919921875,-46.247459411621094,12.442000389099121,0.72
370,MetaDrive-Gen-LaneWidth-v0,30,338.16463251498027,372001,1166,12061.857304811478,44.60686111450195,-44.77687072753906,8.377593994140625,0.72
371,MetaDrive-Gen-LaneWidth-v0,30,340.33522522577505,373034,1168,12097.581114768982,45.93643569946289,,7.782546043395996,0.73
372,MetaDrive-Gen-LaneWidth-v0,30,339.56931979709753,374065,1170,12133.913394927979,44.72528839111328,-45.827579498291016,15.305058479309082,0.73
373,MetaDrive-Gen-LaneWidth-v0,30,334.75747618040805,375014,1173,12166.318735837936,46.551300048828125,,8.159202575683594,0.72
374,MetaDrive-Gen-LaneWidth-v0,30,335.99287309904423,376171,1175,12207.71002483368,47.848777770996094,-48.80855941772461,11.225408554077148,0.72
375,MetaDrive-Gen-LaneWidth-v0,30,331.22175685722084,377251,1179,12245.011775016785,48.63070297241211,-48.373783111572266,12.012157440185547,0.69
376,MetaDrive-Gen-LaneWidth-v0,30,332.78831472292933,378283,1181,12282.060801744461,46.62058639526367,-47.341339111328125,8.597240447998047,0.68
377,MetaDrive-Gen-LaneWidth-v0,30,331.89531191530693,379427,1183,12323.323855876923,46.50088119506836,-47.01137924194336,12.144392967224121,0.67
378,MetaDrive-Gen-LaneWidth-v0,30,332.92994906454834,380485,1185,12360.674898862839,46.36178207397461,-46.07916259765625,10.942628860473633,0.67
379,MetaDrive-Gen-LaneWidth-v0,30,329.6014805131805,381136,1188,12382.999817848206,44.78947448730469,,8.64877700805664,0.66
380,MetaDrive-Gen-LaneWidth-v0,30,331.791448037876,382039,1190,12414.188644886017,47.02934646606445,-47.15162658691406,10.299972534179688,0.67
381,MetaDrive-Gen-LaneWidth-v0,30,334.3846955564944,383427,1193,12463.129761695862,47.820457458496094,-48.573585510253906,7.397989273071289,0.68
382,MetaDrive-Gen-LaneWidth-v0,30,334.1348910045375,384015,1194,12484.773884773254,46.794002532958984,-46.83769226074219,10.06982707977295,0.69
383,MetaDrive-Gen-LaneWidth-v0,30,333.8123172025251,385316,1196,12532.719567775726,46.090633392333984,,11.276243209838867,0.7
384,MetaDrive-Gen-LaneWidth-v0,30,334.40917174605755,386258,1198,12567.164608716965,47.769134521484375,,7.472136974334717,0.69
385,MetaDrive-Gen-LaneWidth-v0,30,329.2440013376328,387119,1202,12596.620619058609,47.76788330078125,-48.13525390625,4.7691755294799805,0.67
386,MetaDrive-Gen-LaneWidth-v0,30,327.74113624765795,388188,1205,12635.352885961533,44.85843276977539,,38.244712829589844,0.67
387,MetaDrive-Gen-LaneWidth-v0,30,328.1454651381308,389627,1208,12686.217260837555,46.679351806640625,-46.35295867919922,6.36456823348999,0.67
388,MetaDrive-Gen-LaneWidth-v0,30,328.654420457461,390167,1209,12705.257807731628,48.04141616821289,-47.606536865234375,6.016312122344971,0.67
389,MetaDrive-Gen-LaneWidth-v0,30,332.01400344362264,391031,1211,12736.29540681839,48.07436752319336,-47.56354522705078,14.833684921264648,0.68
390,MetaDrive-Gen-LaneWidth-v0,30,333.5471571156602,392165,1213,12777.928302764893,47.518917083740234,-48.14613342285156,6.767024040222168,0.69
391,MetaDrive-Gen-LaneWidth-v0,30,337.3567778632907,393386,1216,12822.585434913635,47.21281814575195,,21.517742156982422,0.69
392,MetaDrive-Gen-LaneWidth-v0,30,336.7652889390244,394135,1218,12848.700740814209,48.928932189941406,-50.13051223754883,6.276888370513916,0.7
393,MetaDrive-Gen-LaneWidth-v0,30,335.39470341371384,395256,1221,12887.467562913895,46.89513397216797,,17.455322265625,0.7
394,MetaDrive-Gen-LaneWidth-v0,30,335.2499459049157,396239,1223,12922.456296920776,45.88806915283203,-46.42620849609375,5.358071804046631,0.71
395,MetaDrive-Gen-LaneWidth-v0,30,336.3060684340595,397251,1225,12958.277291059494,49.0046501159668,-49.8491325378418,9.19748306274414,0.71
396,MetaDrive-Gen-LaneWidth-v0,30,338.5367500074178,398330,1227,12997.48849272728,46.797691345214844,,7.30080509185791,0.73
397,MetaDrive-Gen-LaneWidth-v0,30,339.1448781651912,399052,1228,13023.394451856613,47.07466125488281,,16.46868896484375,0.73
398,MetaDrive-Gen-LaneWidth-v0,30,336.1938914332222,400126,1231,13065.114306688309,46.217742919921875,,10.03546142578125,0.72
399,MetaDrive-Gen-LaneWidth-v0,30,336.3806447551513,401272,1233,13112.659702777863,45.775352478027344,,7.857924461364746,0.72
400,MetaDrive-Gen-LaneWidth-v0,30,331.43619397662377,402152,1236,13147.122057914734,47.38135528564453,,9.754669189453125,0.71
401,MetaDrive-Gen-LaneWidth-v0,30,327.63407351080133,403197,1239,13189.003547906876,47.12953186035156,-47.364410400390625,8.696137428283691,0.7
402,MetaDrive-Gen-LaneWidth-v0,30,330.62178099545645,404341,1241,13233.735291957855,45.68621826171875,-46.45399475097656,8.745211601257324,0.7
403,MetaDrive-Gen-LaneWidth-v0,30,332.43538139494194,405172,1243,13264.636310815811,45.66039276123047,,6.623090744018555,0.71
404,MetaDrive-Gen-LaneWidth-v0,30,333.49442428437317,406383,1245,13311.106967687607,47.31652069091797,-47.895263671875,7.274784088134766,0.71
405,MetaDrive-Gen-LaneWidth-v0,30,330.05828963626385,407441,1248,13350.861418008804,48.16086959838867,-48.455806732177734,7.781628608703613,0.7
406,MetaDrive-Gen-LaneWidth-v0,30,330.7620601054924,408403,1250,13385.488088846207,45.507476806640625,-45.30302047729492,14.520526885986328,0.69
407,MetaDrive-Gen-LaneWidth-v0,30,334.0091284598781,409477,1252,13424.749842882156,45.76401138305664,-45.88223648071289,8.2122163772583,0.71
408,MetaDrive-Gen-LaneWidth-v0,30,334.26846308572516,410239,1254,13451.56935286522,45.929813385009766,-45.87364196777344,8.829427719116211,0.71
409,MetaDrive-Gen-LaneWidth-v0,30,334.31439677554243,411162,1256,13484.16978096962,44.864131927490234,,8.615565299987793,0.72
410,MetaDrive-Gen-LaneWidth-v0,30,332.64195169762667,412038,1258,13516.546550035477,47.720970153808594,,10.972999572753906,0.73
411,MetaDrive-Gen-LaneWidth-v0,30,332.44204788619317,413160,1261,13557.966870069504,47.27791976928711,,6.573337554931641,0.75
412,MetaDrive-Gen-LaneWidth-v0,30,333.4311694748646,414045,1263,13591.435542821884,47.37639617919922,-47.62973403930664,13.07284164428711,0.75
413,MetaDrive-Gen-LaneWidth-v0,30,331.59049140335156,415115,1266,13629.37383890152,45.137569427490234,-44.909873962402344,7.989734649658203,0.75
414,MetaDrive-Gen-LaneWidth-v0,30,330.7551637441743,416372,1269,13675.422117710114,45.75803756713867,,5.727899074554443,0.74
415,MetaDrive-Gen-LaneWidth-v0,30,332.7048052117879,417518,1271,13718.477532863617,45.29115295410156,,15.346673965454102,0.73
416,MetaDrive-Gen-LaneWidth-v0,30,334.35356250475,418116,1272,13740.38860487938,49.9655876159668,,12.224296569824219,0.72
417,MetaDrive-Gen-LaneWidth-v0,30,332.20169770431244,419228,1275,13778.7828707695,45.748291015625,,16.1231689453125,0.72
418,MetaDrive-Gen-LaneWidth-v0,30,336.27088423077095,420251,1277,13815.570972919464,46.71115493774414,-47.23237228393555,6.622807502746582,0.74
419,MetaDrive-Gen-LaneWidth-v0,30,335.42082039584307,421161,1280,13847.903293848038,45.7700080871582,-46.21165466308594,8.751007080078125,0.75
420,MetaDrive-Gen-LaneWidth-v0,30,334.70195506520065,422097,1282,13882.30333685875,48.300594329833984,-48.43278884887695,5.633828639984131,0.76
421,MetaDrive-Gen-LaneWidth-v0,30,331.8988637784485,423164,1285,13922.58942079544,42.768760681152344,,25.61821746826172,0.76
422,MetaDrive-Gen-LaneWidth-v0,30,337.8759417518862,424053,1287,13956.079553842545,45.848670959472656,-45.97637939453125,9.668370246887207,0.78
423,MetaDrive-Gen-LaneWidth-v0,30,336.65637151697797,425058,1290,13993.977600812912,46.587738037109375,,15.002653121948242,0.77
424,MetaDrive-Gen-LaneWidth-v0,30,336.25201467111424,426288,1293,14040.845321893692,46.256587982177734,,10.318379402160645,0.77
425,MetaDrive-Gen-LaneWidth-v0,30,329.08858637159005,427165,1296,14074.46769785881,47.511661529541016,-48.431556701660156,10.741522789001465,0.76
426,MetaDrive-Gen-LaneWidth-v0,30,330.65031237611225,428259,1298,14118.22654390335,46.71658706665039,-47.39427185058594,5.94483757019043,0.76
427,MetaDrive-Gen-LaneWidth-v0,30,336.07050580615834,429159,1300,14156.405829906464,45.58206558227539,-45.6829719543457,6.412219047546387,0.78
428,MetaDrive-Gen-LaneWidth-v0,30,337.92893719507464,430382,1303,14205.807667970657,47.54100799560547,,6.708639144897461,0.8
429,MetaDrive-Gen-LaneWidth-v0,30,337.82135057667585,431228,1305,14239.303227901459,45.76436996459961,,21.982208251953125,0.79
430,MetaDrive-Gen-LaneWidth-v0,30,338.6255461897592,432155,1307,14274.148560762405,46.768310546875,-47.107418060302734,6.541149139404297,0.79
431,MetaDrive-Gen-LaneWidth-v0,30,337.3156223054053,433171,1309,14312.22960782051,43.51494598388672,-43.75188446044922,10.087465286254883,0.78
432,MetaDrive-Gen-LaneWidth-v0,30,333.4708350888058,434077,1312,14344.406650781631,48.57060241699219,-49.06436538696289,7.398237228393555,0.77
433,MetaDrive-Gen-LaneWidth-v0,30,331.01343872852226,435187,1314,14383.188908815384,45.066810607910156,-45.72492980957031,7.084120750427246,0.76
434,MetaDrive-Gen-LaneWidth-v0,30,332.83833467184303,436099,1316,14414.97034072876,47.40699005126953,-47.52339172363281,4.0523786544799805,0.78
435,MetaDrive-Gen-LaneWidth-v0,30,331.58655694673644,437145,1319,14452.492171764374,46.16594696044922,-46.712100982666016,7.060572147369385,0.76
436,MetaDrive-Gen-LaneWidth-v0,30,329.2305174299046,438037,1322,14484.423863649368,46.211265563964844,-46.729331970214844,6.539267539978027,0.75
437,MetaDrive-Gen-LaneWidth-v0,30,327.6270834292565,439539,1325,14538.575272798538,44.64271926879883,-44.96482849121094,5.965824127197266,0.74
438,MetaDrive-Gen-LaneWidth-v0,30,326.3345866042166,440412,1327,14569.837620019913,44.809486389160156,,29.976411819458008,0.73
439,MetaDrive-Gen-LaneWidth-v0,30,325.75204710235585,441063,1329,14592.908401966095,45.96253204345703,-45.800106048583984,8.372448921203613,0.73
440,MetaDrive-Gen-LaneWidth-v0,29,326.49396601874463,442135,1331,15155.243583917618,44.74225616455078,-45.0206413269043,9.257560729980469,0.73
441,MetaDrive-Gen-LaneWidth-v0,28,325.3949985843657,443490,1334,15320.567232608795,46.973480224609375,,8.649375915527344,0.72
442,MetaDrive-Gen-LaneWidth-v0,28,330.8097729363867,444504,1336,15353.771396875381,46.79109573364258,,7.959476947784424,0.72
443,MetaDrive-Gen-LaneWidth-v0,28,332.34016264558574,445332,1338,15527.086157798767,46.49361801147461,,5.501317501068115,0.72
444,MetaDrive-Gen-LaneWidth-v0,28,331.56485895010496,446306,1340,15558.808002710342,46.175846099853516,,8.368820190429688,0.73
445,MetaDrive-Gen-LaneWidth-v0,28,328.12837160609774,447312,1343,15591.074042797089,45.30534362792969,,7.290929794311523,0.71
446,MetaDrive-Gen-LaneWidth-v0,28,326.2494346606165,448179,1345,15619.218267917633,45.771766662597656,-46.25495529174805,5.546637535095215,0.71
447,MetaDrive-Gen-LaneWidth-v0,25,328.64331642817035,449454,1348,17289.273043870926,45.4901123046875,,10.832487106323242,0.72
448,MetaDrive-Gen-LaneWidth-v0,26,326.8989839875805,450188,1350,17313.00633764267,45.664669036865234,,8.896137237548828,0.73
449,MetaDrive-Gen-LaneWidth-v0,26,323.42209030000186,451231,1353,17347.133537054062,46.34562683105469,-46.46455383300781,7.836377143859863,0.72
450,MetaDrive-Gen-LaneWidth-v0,26,322.64912655453156,452128,1355,17377.17488384247,44.94441223144531,,10.93796157836914,0.72
451,MetaDrive-Gen-LaneWidth-v0,26,324.83969673878755,453489,1358,17420.451659679413,44.958282470703125,-45.05341339111328,8.981771469116211,0.72
452,MetaDrive-Gen-LaneWidth-v0,26,324.5068109224826,454363,1360,17448.1658308506,46.351287841796875,-46.98295974731445,13.121694564819336,0.71
453,MetaDrive-Gen-LaneWidth-v0,26,323.4166396428842,455169,1362,17473.381668806076,46.812564849853516,-46.81606674194336,9.816781044006348,0.71
454,MetaDrive-Gen-LaneWidth-v0,26,324.62809017273105,456081,1364,17503.415246725082,45.10627746582031,-44.844356536865234,7.331393241882324,0.71
455,MetaDrive-Gen-LaneWidth-v0,26,324.2648722260144,457045,1367,17535.707088947296,44.422569274902344,-44.718345642089844,10.063131332397461,0.71
456,MetaDrive-Gen-LaneWidth-v0,26,323.8057756222636,458379,1370,17579.86712384224,44.71675491333008,-44.979312896728516,9.470526695251465,0.71
457,MetaDrive-Gen-LaneWidth-v0,26,322.28916784946495,459378,1372,17613.92143678665,46.09354019165039,,5.195192337036133,0.73
458,MetaDrive-Gen-LaneWidth-v0,26,323.5563934791678,460399,1374,17650.37803697586,45.644840240478516,-46.734222412109375,9.04034423828125,0.72
459,MetaDrive-Gen-LaneWidth-v0,26,322.96280647464073,461110,1376,17673.802501916885,44.971309661865234,,6.544967174530029,0.71
460,MetaDrive-Gen-LaneWidth-v0,26,323.9752408840274,462025,1378,17706.61513400078,46.804962158203125,-47.365570068359375,10.097609519958496,0.71
461,MetaDrive-Gen-LaneWidth-v0,26,327.80791667221433,463180,1380,17748.570316791534,44.97223663330078,,8.60671329498291,0.71
462,MetaDrive-Gen-LaneWidth-v0,26,328.00478696536675,464142,1382,17783.372374773026,45.55692672729492,,10.830449104309082,0.7
463,MetaDrive-Gen-LaneWidth-v0,26,329.5007090998884,465391,1384,17828.48694086075,47.1677131652832,-47.07701110839844,5.978127479553223,0.69
464,MetaDrive-Gen-LaneWidth-v0,26,329.565636915927,466195,1386,17857.809761047363,45.838863372802734,-45.537296295166016,7.567405700683594,0.69
465,MetaDrive-Gen-LaneWidth-v0,26,331.93096842689147,467240,1388,17896.002252817154,45.43070602416992,,9.62289047241211,0.69
466,MetaDrive-Gen-LaneWidth-v0,26,332.09866587934243,468085,1391,17925.527159690857,45.70740509033203,-46.375648498535156,24.577999114990234,0.69
467,MetaDrive-Gen-LaneWidth-v0,26,332.39868208958256,469818,1394,17991.560072898865,45.04387664794922,,6.073741912841797,0.68
468,MetaDrive-Gen-LaneWidth-v0,26,335.34224217951174,470249,1395,18007.99366402626,46.369468688964844,-45.984657287597656,9.61819076538086,0.69
469,MetaDrive-Gen-LaneWidth-v0,26,334.63696095357767,471194,1397,18043.18359398842,47.834716796875,,5.938416957855225,0.7
470,MetaDrive-Gen-LaneWidth-v0,26,331.45266577018026,472097,1400,18076.003582000732,46.26634979248047,-46.60728454589844,7.657448768615723,0.69
471,MetaDrive-Gen-LaneWidth-v0,26,331.0442948072921,473194,1403,18114.059631824493,45.44912338256836,,6.857346534729004,0.68
472,MetaDrive-Gen-LaneWidth-v0,26,331.2587618844731,474391,1406,18156.228088855743,43.76895523071289,-43.429359436035156,29.461360931396484,0.69
473,MetaDrive-Gen-LaneWidth-v0,26,330.5830325404637,475241,1408,18185.498015880585,45.806705474853516,-46.00148391723633,8.166982650756836,0.7
474,MetaDrive-Gen-LaneWidth-v0,26,329.1724518052392,476065,1410,18213.978749990463,45.28630447387695,-45.74648666381836,6.985789775848389,0.7
475,MetaDrive-Gen-LaneWidth-v0,26,334.43418067173764,477554,1413,18267.15008687973,46.03889083862305,,5.009671211242676,0.71
476,MetaDrive-Gen-LaneWidth-v0,26,331.7611317410706,478141,1415,18287.85311794281,45.714332580566406,-45.6175422668457,5.864326477050781,0.71
477,MetaDrive-Gen-LaneWidth-v0,26,330.26483802158504,479124,1418,18321.917559862137,44.55702209472656,,9.73447036743164,0.72
478,MetaDrive-Gen-LaneWidth-v0,26,334.0955921651373,480210,1420,18361.113291740417,43.13397216796875,,6.120937824249268,0.73
479,MetaDrive-Gen-LaneWidth-v0,26,334.3425902169593,481036,1423,18389.66765189171,45.357200622558594,,8.172578811645508,0.73
480,MetaDrive-Gen-LaneWidth-v0,26,334.2976486045843,482164,1425,18431.98689365387,46.15121841430664,,6.135990619659424,0.72
481,MetaDrive-Gen-LaneWidth-v0,26,330.313375078875,483159,1428,18466.227698802948,46.958168029785156,-47.90458297729492,7.390933036804199,0.72
482,MetaDrive-Gen-LaneWidth-v0,26,332.65158110228543,484018,1430,18496.185299873352,46.65412521362305,,5.717992782592773,0.73
483,MetaDrive-Gen-LaneWidth-v0,26,330.9304685287251,485046,1432,18531.706362724304,45.8343505859375,,8.583379745483398,0.73
484,MetaDrive-Gen-LaneWidth-v0,26,330.8665903370367,486309,1435,18576.824947834015,45.773643493652344,-45.87812423706055,11.37483024597168,0.74
485,MetaDrive-Gen-LaneWidth-v0,26,330.33322257318935,487185,1437,18607.52130484581,45.160892486572266,-45.00373458862305,9.11738395690918,0.75
486,MetaDrive-Gen-LaneWidth-v0,26,331.86751449081254,488150,1439,18641.665413856506,44.6840934753418,,41.19596862792969,0.76
487,MetaDrive-Gen-LaneWidth-v0,26,330.9097537862295,489064,1441,18673.98767066002,43.74224090576172,,8.373600006103516,0.77
488,MetaDrive-Gen-LaneWidth-v0,26,335.59657574090494,490183,1443,18714.973942041397,47.413936614990234,-47.822105407714844,4.830775260925293,0.78
489,MetaDrive-Gen-LaneWidth-v0,26,337.2057513034555,491167,1445,18749.938508749008,46.498435974121094,-46.56777572631836,15.77067756652832,0.78
490,MetaDrive-Gen-LaneWidth-v0,26,339.2527764094006,492433,1447,18796.19270181656,45.967628479003906,-45.91477966308594,30.540359497070312,0.78
491,MetaDrive-Gen-LaneWidth-v0,26,340.81314305634146,493136,1448,18822.045555830002,46.06031036376953,,12.227500915527344,0.77
492,MetaDrive-Gen-LaneWidth-v0,26,341.2798428935249,494469,1452,18870.283305883408,47.44049835205078,-48.04143142700195,5.997714996337891,0.76
493,MetaDrive-Gen-LaneWidth-v0,26,342.38049700659207,495042,1453,18891.41948699951,46.56822967529297,,11.904516220092773,0.76
494,MetaDrive-Gen-LaneWidth-v0,26,343.5837356475984,496531,1456,18944.603172779083,46.72429656982422,-47.43075180053711,5.428461074829102,0.77
495,MetaDrive-Gen-LaneWidth-v0,26,345.31851951712457,497224,1457,18969.802419900894,47.26639938354492,,6.769384384155273,0.77
496,MetaDrive-Gen-LaneWidth-v0,26,346.2250984420942,498544,1459,19018.02126288414,47.70917510986328,,5.966885566711426,0.77
497,MetaDrive-Gen-LaneWidth-v0,26,346.3008267048387,499001,1460,19034.804344654083,46.164546966552734,-46.50590515136719,10.74077033996582,0.76
498,MetaDrive-Gen-LaneWidth-v0,26,348.01322193822284,500407,1462,19086.174878835678,44.86492156982422,-44.88142395019531,6.9899773597717285,0.75
499,MetaDrive-Gen-LaneWidth-v0,26,346.9186663879206,501140,1464,19113.35208082199,43.722984313964844,,4.954015731811523,0.74
500,MetaDrive-Gen-LaneWidth-v0,26,347.95887003707963,502359,1467,19156.20429086685,45.61881637573242,-46.40052032470703,8.312506675720215,0.75
501,MetaDrive-Gen-LaneWidth-v0,26,347.4420625178411,503160,1469,19183.91018986702,44.955421447753906,,6.704432964324951,0.76
502,MetaDrive-Gen-LaneWidth-v0,26,346.118503472956,504405,1472,19228.446693897247,45.9774284362793,-46.91105651855469,8.437896728515625,0.76
503,MetaDrive-Gen-LaneWidth-v0,26,347.2305700147032,505118,1473,19254.19748687744,47.14290237426758,,8.172775268554688,0.77
504,MetaDrive-Gen-LaneWidth-v0,26,346.19414870661217,506333,1476,19297.25732779503,47.78190231323242,-47.23211669921875,6.736550331115723,0.77
505,MetaDrive-Gen-LaneWidth-v0,26,338.4609649624406,507682,1480,19346.643427848816,46.72637176513672,,5.529840469360352,0.76
506,MetaDrive-Gen-LaneWidth-v0,26,336.6487186780295,508036,1481,19359.44569659233,47.536956787109375,,4.584275245666504,0.75
507,MetaDrive-Gen-LaneWidth-v0,26,330.81521292804746,509157,1485,19398.89431977272,47.805747985839844,-48.35232162475586,7.049910545349121,0.75
508,MetaDrive-Gen-LaneWidth-v0,26,330.1036238031167,510605,1488,19453.015030622482,45.87657165527344,-46.58247375488281,5.1975016593933105,0.74
509,MetaDrive-Gen-LaneWidth-v0,26,334.4923350544424,511251,1489,19477.417014837265,47.95531463623047,-48.74491500854492,5.203994274139404,0.75
510,MetaDrive-Gen-LaneWidth-v0,26,334.41825731429924,512441,1492,19521.57771396637,44.869110107421875,-44.99343490600586,12.468620300292969,0.75
511,MetaDrive-Gen-LaneWidth-v0,26,331.8058331900663,513670,1495,19568.73275589943,45.429466247558594,,6.261241912841797,0.74
512,MetaDrive-Gen-LaneWidth-v0,26,333.1846097297797,514226,1496,19590.678785800934,46.84208679199219,,9.497163772583008,0.73
513,MetaDrive-Gen-LaneWidth-v0,26,329.42608695467885,515091,1499,19622.280272722244,48.16242599487305,-48.38473129272461,6.123722076416016,0.72
514,MetaDrive-Gen-LaneWidth-v0,26,332.7439038745077,516132,1501,19662.29426574707,47.230918884277344,,18.37059783935547,0.73
515,MetaDrive-Gen-LaneWidth-v0,26,336.1396527756469,517536,1504,19715.632345676422,45.41969680786133,,35.70182800292969,0.74
516,MetaDrive-Gen-LaneWidth-v0,26,335.598493818901,518663,1506,19758.677411794662,46.89284896850586,-47.818450927734375,7.95140266418457,0.74
517,MetaDrive-Gen-LaneWidth-v0,26,335.1506431978416,519135,1507,19776.897964715958,46.81502151489258,-46.816951751708984,6.502313613891602,0.74
518,MetaDrive-Gen-LaneWidth-v0,26,337.78297641522727,520352,1509,19824.40367078781,44.1995849609375,,5.9159135818481445,0.74
519,MetaDrive-Gen-LaneWidth-v0,26,338.61521384461145,521207,1511,19856.836847782135,44.8195686340332,-44.986045837402344,10.931318283081055,0.74
520,MetaDrive-Gen-LaneWidth-v0,26,338.1897533646271,522302,1513,19899.455600738525,46.73789978027344,,5.967004776000977,0.74
521,MetaDrive-Gen-LaneWidth-v0,26,339.74999767049417,523169,1515,19933.215631723404,46.92839431762695,-46.805660247802734,4.409207344055176,0.74
522,MetaDrive-Gen-LaneWidth-v0,26,343.58228035396024,524243,1517,19973.541790008545,45.82819747924805,-46.43546676635742,6.730477333068848,0.74
523,MetaDrive-Gen-LaneWidth-v0,26,343.3375527269608,525250,1519,20011.10635972023,46.875633239746094,,9.606033325195312,0.74
524,MetaDrive-Gen-LaneWidth-v0,26,343.80420272155044,526134,1521,20045.299513816833,46.80677795410156,,10.802469253540039,0.73
525,MetaDrive-Gen-LaneWidth-v0,26,347.0559373575185,527178,1523,20085.286304950714,44.508846282958984,,5.254227638244629,0.74
526,MetaDrive-Gen-LaneWidth-v0,26,345.6107777726344,528102,1526,20120.15696001053,47.68926239013672,,20.276470184326172,0.76
527,MetaDrive-Gen-LaneWidth-v0,26,345.57304169462674,529402,1529,20171.380745887756,46.739410400390625,,5.842415809631348,0.75
528,MetaDrive-Gen-LaneWidth-v0,26,343.09063295947294,530492,1532,20214.212699890137,46.82731628417969,,7.472938537597656,0.74
529,MetaDrive-Gen-LaneWidth-v0,26,345.67916916430147,531531,1534,20256.753826856613,45.215171813964844,-45.31392288208008,9.438983917236328,0.74
530,MetaDrive-Gen-LaneWidth-v0,26,343.20940018811825,532748,1537,20307.149018764496,45.006290435791016,,37.21734619140625,0.72
531,MetaDrive-Gen-LaneWidth-v0,26,343.5774151631646,533264,1538,20327.51074576378,47.760189056396484,,5.174074649810791,0.72
532,MetaDrive-Gen-LaneWidth-v0,26,342.68769479492795,534044,1540,20358.989227056503,46.7589111328125,,5.246577739715576,0.72
533,MetaDrive-Gen-LaneWidth-v0,26,340.5156376003685,535341,1543,20410.828771829605,45.227352142333984,-45.16365432739258,7.605001449584961,0.71
534,MetaDrive-Gen-LaneWidth-v0,26,338.283180165223,536097,1545,20440.744983673096,49.54715347290039,-49.89910125732422,6.89957857131958,0.7
535,MetaDrive-Gen-LaneWidth-v0,26,334.01638231908345,537374,1548,20490.174061775208,46.42436981201172,,7.511806488037109,0.71
536,MetaDrive-Gen-LaneWidth-v0,26,338.4536421125565,538200,1550,20522.659267663956,45.218605041503906,,6.4120988845825195,0.73
537,MetaDrive-Gen-LaneWidth-v0,26,336.651287886417,539201,1551,20560.902450799942,44.81784439086914,-45.404205322265625,6.490669250488281,0.72
538,MetaDrive-Gen-LaneWidth-v0,26,333.6163265102745,540526,1554,20613.56360602379,45.165645599365234,,4.540065765380859,0.71
539,MetaDrive-Gen-LaneWidth-v0,26,334.36388060250067,541009,1555,20632.852913856506,46.44362258911133,-47.0897102355957,19.415576934814453,0.72
540,MetaDrive-Gen-LaneWidth-v0,26,333.0520479256613,542343,1558,20687.40132188797,42.73262023925781,-42.65727615356445,29.648052215576172,0.72
541,MetaDrive-Gen-LaneWidth-v0,26,332.8042837184871,543003,1559,20714.423462867737,45.97914505004883,-46.07496643066406,26.854228973388672,0.72
542,MetaDrive-Gen-LaneWidth-v0,26,332.94165558159614,544240,1561,20764.131865739822,46.458892822265625,,5.028485298156738,0.73
543,MetaDrive-Gen-LaneWidth-v0,26,337.5718159079368,545277,1563,20805.36005282402,44.887977600097656,-45.000038146972656,30.38965606689453,0.75
544,MetaDrive-Gen-LaneWidth-v0,26,336.43840870687933,546262,1565,20843.49722290039,46.874107360839844,,5.48621129989624,0.76
545,MetaDrive-Gen-LaneWidth-v0,26,335.8118089279594,547015,1567,20873.1070997715,46.286354064941406,-46.08381271362305,9.731218338012695,0.75
546,MetaDrive-Gen-LaneWidth-v0,26,336.31606310316243,548204,1570,20920.01272392273,44.965782165527344,,5.529894828796387,0.75
547,MetaDrive-Gen-LaneWidth-v0,26,338.02541249203404,549334,1572,20966.558197021484,46.4892463684082,,10.733510971069336,0.75
548,MetaDrive-Gen-LaneWidth-v0,26,336.6517088430558,550273,1574,21004.532794713974,46.508514404296875,-47.035911560058594,7.868991374969482,0.75
549,MetaDrive-Gen-LaneWidth-v0,26,339.92426158443027,551331,1576,21047.973232746124,47.9005241394043,-48.25712585449219,6.482312202453613,0.76
550,MetaDrive-Gen-LaneWidth-v0,26,343.3502661484581,552303,1579,21086.977990865707,47.126251220703125,-47.94059371948242,9.51688289642334,0.77
551,MetaDrive-Gen-LaneWidth-v0,26,341.1134485985723,553114,1581,21118.40043592453,46.50486755371094,,5.171833038330078,0.78
552,MetaDrive-Gen-LaneWidth-v0,26,346.4338177092822,554228,1583,21164.229014635086,46.69040298461914,,8.572811126708984,0.78
553,MetaDrive-Gen-LaneWidth-v0,26,347.7393743421513,555139,1585,21199.176035881042,46.496009826660156,-47.07489013671875,7.9397149085998535,0.79
554,MetaDrive-Gen-LaneWidth-v0,26,350.70421226515793,556298,1587,21247.08025288582,48.14140701293945,,5.693414688110352,0.8
555,MetaDrive-Gen-LaneWidth-v0,26,346.38332700139887,557223,1590,21283.80015182495,46.51142501831055,-46.76702117919922,21.21297836303711,0.8
556,MetaDrive-Gen-LaneWidth-v0,26,343.9704162891063,558236,1593,21324.55205988884,45.639312744140625,,4.972017288208008,0.79
557,MetaDrive-Gen-LaneWidth-v0,26,345.1969667321515,559224,1595,21363.560701847076,43.37528610229492,,21.96060562133789,0.8
558,MetaDrive-Gen-LaneWidth-v0,26,343.5763042886681,560401,1598,21408.934648752213,45.49717712402344,-45.77501678466797,7.257707118988037,0.81
559,MetaDrive-Gen-LaneWidth-v0,26,345.3844131303641,561250,1600,21442.020911693573,48.587371826171875,,10.368350982666016,0.82
560,MetaDrive-Gen-LaneWidth-v0,26,343.75221609436653,562566,1603,21494.655315876007,45.73579788208008,,7.4129743576049805,0.81
561,MetaDrive-Gen-LaneWidth-v0,26,343.33366465219547,563129,1604,21518.23140668869,45.637847900390625,-45.644588470458984,7.170172691345215,0.8
562,MetaDrive-Gen-LaneWidth-v0,26,337.19470345644453,564805,1608,21586.062306642532,46.886959075927734,-46.93534469604492,5.656868934631348,0.77
563,MetaDrive-Gen-LaneWidth-v0,26,335.4740687948389,565145,1609,21599.974188804626,44.14249801635742,-44.2805061340332,10.369640350341797,0.77
564,MetaDrive-Gen-LaneWidth-v0,26,335.60356027261076,566387,1612,21651.02220273018,46.28142547607422,-45.72770690917969,8.908374786376953,0.77
565,MetaDrive-Gen-LaneWidth-v0,26,335.56978233912605,567149,1614,21680.992983818054,46.80978775024414,-47.0150146484375,8.371299743652344,0.78
566,MetaDrive-Gen-LaneWidth-v0,26,335.64764184050773,568207,1616,21724.238826990128,47.91058349609375,-48.354736328125,4.984802722930908,0.78
567,MetaDrive-Gen-LaneWidth-v0,26,331.71834880128097,569105,1618,21758.90927171707,44.72441101074219,-44.067047119140625,7.589954376220703,0.78
568,MetaDrive-Gen-LaneWidth-v0,26,331.12610058887117,570450,1621,21812.40462064743,47.36763000488281,,5.839450836181641,0.78
569,MetaDrive-Gen-LaneWidth-v0,26,330.93643594072023,571321,1623,21847.448005914688,44.563072204589844,-44.00656509399414,5.9070329666137695,0.78
570,MetaDrive-Gen-LaneWidth-v0,26,331.46900123650653,572082,1626,21877.678057909012,45.824974060058594,,5.959242820739746,0.77
571,MetaDrive-Gen-LaneWidth-v0,26,334.65387794556557,573219,1628,21923.21067380905,46.69165802001953,-47.546634674072266,4.716134071350098,0.78
572,MetaDrive-Gen-LaneWidth-v0,26,332.8665893485969,574235,1630,21964.459339618683,47.8883171081543,-48.430721282958984,6.934865951538086,0.77
573,MetaDrive-Gen-LaneWidth-v0,26,336.6207740696746,575466,1632,22014.122535943985,47.1359977722168,,7.964141845703125,0.78
574,MetaDrive-Gen-LaneWidth-v0,26,332.78488416519076,576024,1634,22036.058068990707,44.94493103027344,,8.467460632324219,0.77
575,MetaDrive-Gen-LaneWidth-v0,26,333.1630569261069,577222,1637,22082.910589933395,46.05035400390625,,6.205327033996582,0.78
576,MetaDrive-Gen-LaneWidth-v0,26,332.3945503322183,578040,1639,22116.539766788483,46.43642807006836,,17.89227294921875,0.78
577,MetaDrive-Gen-LaneWidth-v0,26,333.1932657932764,579285,1642,22165.633979797363,47.75987243652344,-47.1455078125,5.872684001922607,0.79
578,MetaDrive-Gen-LaneWidth-v0,26,335.89478670655365,580461,1644,22213.025199890137,46.64419937133789,-46.882286071777344,5.45314884185791,0.8
579,MetaDrive-Gen-LaneWidth-v0,26,334.99267382557684,581494,1646,22253.94020986557,44.947383880615234,,6.867770195007324,0.8
580,MetaDrive-Gen-LaneWidth-v0,26,332.7921358647928,582399,1649,22289.42467880249,45.94469451904297,-46.20663070678711,4.893672943115234,0.79
581,MetaDrive-Gen-LaneWidth-v0,26,335.0318366948243,583294,1651,22324.551228761673,44.64469909667969,,13.013957977294922,0.8
582,MetaDrive-Gen-LaneWidth-v0,26,339.57515960138466,584121,1652,22360.380356788635,45.31123352050781,-45.92729949951172,5.890232563018799,0.81
583,MetaDrive-Gen-LaneWidth-v0,26,335.35724223561095,585438,1655,22414.750314950943,46.882957458496094,,8.025260925292969,0.79
584,MetaDrive-Gen-LaneWidth-v0,26,335.8833090020066,586322,1657,22450.292027950287,45.9522819519043,,8.938854217529297,0.8
585,MetaDrive-Gen-LaneWidth-v0,26,336.6505716618917,587059,1658,22480.973014831543,48.556427001953125,-48.469608306884766,9.080892562866211,0.8
586,MetaDrive-Gen-LaneWidth-v0,26,334.352222808737,588199,1661,22526.214486837387,43.88886260986328,-44.294944763183594,6.05724573135376,0.8
587,MetaDrive-Gen-LaneWidth-v0,26,332.7168837193713,589066,1663,22560.300882816315,46.447811126708984,,7.295868873596191,0.8
588,MetaDrive-Gen-LaneWidth-v0,26,334.2928882731072,590229,1665,22609.3379278183,44.411285400390625,-45.19419860839844,8.086578369140625,0.8
589,MetaDrive-Gen-LaneWidth-v0,26,333.3425248378761,591280,1668,22650.86731481552,45.909934997558594,,9.777826309204102,0.8
590,MetaDrive-Gen-LaneWidth-v0,26,333.4287843420578,592009,1670,22679.613085985184,46.064083099365234,-45.46999740600586,4.436451435089111,0.8
591,MetaDrive-Gen-LaneWidth-v0,26,330.3198993716334,593285,1673,22729.939242839813,43.926815032958984,-43.47949981689453,7.477313995361328,0.8
592,MetaDrive-Gen-LaneWidth-v0,26,326.31026247447267,594141,1676,22764.686123609543,47.970359802246094,-47.59955978393555,4.345513820648193,0.79
593,MetaDrive-Gen-LaneWidth-v0,26,329.62698009586535,595134,1678,22806.289303779602,48.727603912353516,,5.17479944229126,0.79
594,MetaDrive-Gen-LaneWidth-v0,26,331.8624179402306,596436,1680,22860.892320871353,45.37076950073242,,25.11312484741211,0.79
595,MetaDrive-Gen-LaneWidth-v0,26,332.48419280681475,597200,1682,22894.30327486992,46.35158157348633,,19.937118530273438,0.8
596,MetaDrive-Gen-LaneWidth-v0,26,332.8768309552515,598213,1684,22938.000851869583,46.76698684692383,-46.844425201416016,6.19447135925293,0.8
597,MetaDrive-Gen-LaneWidth-v0,26,331.32783258409495,599010,1686,22974.206300973892,43.99082946777344,,6.197507858276367,0.8
598,MetaDrive-Gen-LaneWidth-v0,26,333.02005600714017,600098,1688,23026.125139951706,45.482093811035156,,8.743688583374023,0.81
599,MetaDrive-Gen-LaneWidth-v0,26,331.9296441283399,601056,1691,23073.709619998932,46.94261932373047,,5.705053329467773,0.8
600,MetaDrive-Gen-LaneWidth-v0,26,332.79426794969004,602434,1694,23134.255180835724,45.4947624206543,,5.503986358642578,0.81
601,MetaDrive-Gen-LaneWidth-v0,26,331.5856779345826,603248,1696,23168.230751991272,45.65812683105469,,4.869433879852295,0.81
602,MetaDrive-Gen-LaneWidth-v0,26,334.2835917817125,604433,1698,23217.202133893967,44.835655212402344,-45.498897552490234,5.786985397338867,0.8
603,MetaDrive-Gen-LaneWidth-v0,26,333.8634563360133,605207,1700,23247.88199877739,46.4559440612793,-46.73008728027344,13.720343589782715,0.8
604,MetaDrive-Gen-LaneWidth-v0,26,332.83238104541226,606092,1703,23282.834668636322,45.71528244018555,,7.595728397369385,0.81
605,MetaDrive-Gen-LaneWidth-v0,26,332.47551589144183,607244,1706,23327.941901683807,45.58042526245117,,9.005027770996094,0.83
606,MetaDrive-Gen-LaneWidth-v0,26,338.20163148746497,608567,1708,23382.7130818367,45.733551025390625,-45.77935028076172,8.638678550720215,0.85
607,MetaDrive-Gen-LaneWidth-v0,26,342.5714538264586,609779,1710,23432.681462049484,46.86404037475586,-47.02712631225586,5.043909072875977,0.85
608,MetaDrive-Gen-LaneWidth-v0,26,343.2129501448568,610324,1711,23454.581675052643,47.511016845703125,,5.163791656494141,0.85
609,MetaDrive-Gen-LaneWidth-v0,26,342.9266769121326,611437,1713,23499.407070875168,47.00282287597656,-46.864166259765625,57.551658630371094,0.85
610,MetaDrive-Gen-LaneWidth-v0,26,342.7918443893793,612244,1715,23531.883252859116,48.92533493041992,,4.936366081237793,0.85
611,MetaDrive-Gen-LaneWidth-v0,26,340.411025268114,613330,1718,23576.045867681503,47.641151428222656,,18.905200958251953,0.84
612,MetaDrive-Gen-LaneWidth-v0,26,339.3012655014395,614372,1721,23618.5537610054,44.83584976196289,,6.133440971374512,0.84
613,MetaDrive-Gen-LaneWidth-v0,26,342.632183790499,615222,1722,23654.960837841034,45.59514617919922,,7.847641944885254,0.84
614,MetaDrive-Gen-LaneWidth-v0,26,342.0188775051923,616244,1725,23695.74253487587,46.27069091796875,,7.283110618591309,0.84
615,MetaDrive-Gen-LaneWidth-v0,26,341.0826289524134,617045,1727,23726.941253900528,46.10064697265625,-46.52457809448242,5.6991777420043945,0.85
616,MetaDrive-Gen-LaneWidth-v0,26,338.714149464357,618058,1729,23767.490981817245,45.26064682006836,,5.579953670501709,0.85
617,MetaDrive-Gen-LaneWidth-v0,26,338.07872800199567,619178,1732,23811.902408838272,46.81797409057617,,5.638339996337891,0.86
618,MetaDrive-Gen-LaneWidth-v0,26,340.8036238971625,620121,1734,23849.832000732422,45.471778869628906,-46.007972717285156,12.084884643554688,0.87
619,MetaDrive-Gen-LaneWidth-v0,25,342.1116918308907,621441,1737,23902.402856826782,46.2513427734375,-46.42818832397461,9.027156829833984,0.88
620,MetaDrive-Gen-LaneWidth-v0,25,342.636262206816,622236,1739,23934.50998568535,46.76274108886719,,4.303009510040283,0.88
621,MetaDrive-Gen-LaneWidth-v0,25,341.8729079516808,623384,1742,23979.941908836365,45.85331344604492,,4.769430160522461,0.87
622,MetaDrive-Gen-LaneWidth-v0,25,340.150211625462,624119,1744,24008.81011366844,46.1474723815918,-46.43434524536133,7.526721954345703,0.87
623,MetaDrive-Gen-LaneWidth-v0,25,340.4179599124134,625225,1746,24053.602876901627,47.494178771972656,-48.29893112182617,5.138689994812012,0.87
624,MetaDrive-Gen-LaneWidth-v0,25,343.19166783938067,626125,1748,24088.670085906982,45.93693161010742,-46.221588134765625,5.617397308349609,0.88
625,MetaDrive-Gen-LaneWidth-v0,25,342.1627607040518,627304,1751,24134.565362930298,46.02447509765625,,5.857242584228516,0.88
626,MetaDrive-Gen-LaneWidth-v0,25,338.64207003412025,628069,1753,24165.591637849808,46.997615814208984,-47.314308166503906,8.496573448181152,0.88
627,MetaDrive-Gen-LaneWidth-v0,25,335.8778959897676,629177,1757,24210.399726867676,45.04627990722656,-44.86897277832031,10.453139305114746,0.87
628,MetaDrive-Gen-LaneWidth-v0,25,334.0024849663621,630190,1759,24250.15391778946,45.83865737915039,,6.042001724243164,0.87
629,MetaDrive-Gen-LaneWidth-v0,25,335.1118848411688,631082,1761,24287.061002016068,45.533931732177734,,6.573407173156738,0.87
630,MetaDrive-Gen-LaneWidth-v0,25,336.02367892504185,632113,1763,24328.659967899323,46.14305877685547,-46.79275894165039,5.812581539154053,0.87
631,MetaDrive-Gen-LaneWidth-v0,25,335.81262627654775,633176,1766,24369.83837890625,44.94694900512695,,6.870072364807129,0.88
632,MetaDrive-Gen-LaneWidth-v0,25,336.68411210177067,634536,1769,24424.168374061584,48.23667526245117,,6.517483234405518,0.87
633,MetaDrive-Gen-LaneWidth-v0,25,336.20045609947266,635296,1771,24453.316740751266,46.28271484375,,4.966083526611328,0.87
634,MetaDrive-Gen-LaneWidth-v0,25,336.322525521237,636208,1773,24489.60645198822,47.70701217651367,,4.005934238433838,0.87
635,MetaDrive-Gen-LaneWidth-v0,25,340.5414626654441,637268,1775,24532.14858865738,45.66393280029297,,7.850656509399414,0.88
636,MetaDrive-Gen-LaneWidth-v0,25,341.50697051864364,638549,1778,24583.003165960312,45.34775924682617,-46.0568733215332,6.022194862365723,0.89
637,MetaDrive-Gen-LaneWidth-v0,25,340.70715458144963,639158,1779,24607.1640458107,46.99479675292969,,31.559310913085938,0.89
638,MetaDrive-Gen-LaneWidth-v0,25,334.4535446357655,640465,1783,24659.092008829117,45.36839294433594,-45.60252380371094,4.535346984863281,0.87
639,MetaDrive-Gen-LaneWidth-v0,25,333.95088012808986,641104,1785,24683.573608875275,46.88192367553711,,6.222877502441406,0.87
640,MetaDrive-Gen-LaneWidth-v0,25,335.4242438963985,642288,1787,24731.30946469307,45.08473205566406,,4.479550361633301,0.87
641,MetaDrive-Gen-LaneWidth-v0,25,335.12486584522907,643332,1789,24772.00300860405,44.94225311279297,,5.367783546447754,0.87
642,MetaDrive-Gen-LaneWidth-v0,25,338.5965931446309,644242,1791,24807.557366609573,46.28170394897461,,12.795345306396484,0.89
643,MetaDrive-Gen-LaneWidth-v0,25,338.5851478094807,645444,1794,24854.863561868668,45.827667236328125,,13.448801040649414,0.88
644,MetaDrive-Gen-LaneWidth-v0,25,337.9228752975731,646201,1796,24885.156958818436,46.378841400146484,-46.08446502685547,5.576333999633789,0.87
645,MetaDrive-Gen-LaneWidth-v0,25,335.67248839410166,647200,1799,24924.28853082657,46.74094772338867,,8.388031005859375,0.87
646,MetaDrive-Gen-LaneWidth-v0,25,338.1421973095752,648354,1801,24970.89469385147,45.191219329833984,,5.72360897064209,0.87
647,MetaDrive-Gen-LaneWidth-v0,25,340.89261219733055,649328,1803,25009.26141476631,43.24406433105469,,7.063024997711182,0.87
648,MetaDrive-Gen-LaneWidth-v0,25,342.4366323000187,650452,1805,25055.244026899338,45.06665802001953,,5.893038749694824,0.87
649,MetaDrive-Gen-LaneWidth-v0,25,340.9992854368566,651374,1807,25091.510021924973,47.801387786865234,,6.031595706939697,0.87
650,MetaDrive-Gen-LaneWidth-v0,25,334.48764330979446,652349,1810,25130.19461297989,45.73279571533203,-46.43156051635742,5.987439155578613,0.86
651,MetaDrive-Gen-LaneWidth-v0,25,327.7895831898401,653075,1813,25158.8744597435,47.29384994506836,-47.95626449584961,7.846766948699951,0.84
652,MetaDrive-Gen-LaneWidth-v0,25,332.3486176993767,654701,1816,25225.19435787201,46.861297607421875,-47.006282806396484,7.26683235168457,0.84
653,MetaDrive-Gen-LaneWidth-v0,25,334.857527665405,655226,1817,25245.911641836166,48.21098327636719,,8.28784465789795,0.85
654,MetaDrive-Gen-LaneWidth-v0,25,337.34725181948784,656025,1819,25277.708573818207,45.65239715576172,-45.843772888183594,11.488544464111328,0.86
655,MetaDrive-Gen-LaneWidth-v0,25,333.19765916842096,657280,1822,25326.61075568199,44.408729553222656,,10.693069458007812,0.86
656,MetaDrive-Gen-LaneWidth-v0,25,336.31004829127465,658165,1824,25361.683300733566,46.85520553588867,-46.80752182006836,7.156167030334473,0.87
657,MetaDrive-Gen-LaneWidth-v0,25,336.9516858920163,659123,1826,25400.032289028168,45.973880767822266,-46.32394790649414,7.870421409606934,0.87
658,MetaDrive-Gen-LaneWidth-v0,25,337.4941622273762,660124,1828,25440.918823957443,46.311370849609375,,8.562593460083008,0.87
659,MetaDrive-Gen-LaneWidth-v0,25,336.45405088620095,661281,1831,25486.078155755997,44.25363540649414,-44.38847351074219,7.772436618804932,0.87
660,MetaDrive-Gen-LaneWidth-v0,25,333.99817427821546,662295,1834,25525.891204833984,45.83940124511719,-45.775272369384766,5.916436672210693,0.86
661,MetaDrive-Gen-LaneWidth-v0,25,335.7262565488327,663450,1836,25572.066217899323,46.519039154052734,,6.645164489746094,0.86
662,MetaDrive-Gen-LaneWidth-v0,25,335.40272789360324,664289,1838,25605.69593977928,44.836883544921875,-45.13508605957031,16.88103485107422,0.86
663,MetaDrive-Gen-LaneWidth-v0,25,337.512910743092,665240,1840,25643.91186261177,47.09526824951172,,8.009099960327148,0.86
664,MetaDrive-Gen-LaneWidth-v0,25,337.6642369741183,666086,1842,25676.747267723083,45.16492462158203,,12.873147010803223,0.87
665,MetaDrive-Gen-LaneWidth-v0,25,340.2695830243946,667041,1844,25714.51087999344,45.1045036315918,-44.72770690917969,29.4366455078125,0.87
666,MetaDrive-Gen-LaneWidth-v0,25,339.7773271662956,668172,1846,25759.30679488182,45.16034698486328,,22.928470611572266,0.87
667,MetaDrive-Gen-LaneWidth-v0,25,339.1615063823873,669298,1849,25802.78069972992,47.66053009033203,,6.9908223152160645,0.87
668,MetaDrive-Gen-LaneWidth-v0,25,339.2081683876983,670264,1851,25840.696279764175,47.44242858886719,,5.945345878601074,0.87
669,MetaDrive-Gen-LaneWidth-v0,25,339.34033277610723,671228,1853,25879.069109916687,46.92905807495117,,5.5240020751953125,0.87
670,MetaDrive-Gen-LaneWidth-v0,25,342.7255545858014,672196,1855,25917.633794784546,46.30216979980469,,10.078100204467773,0.88
671,MetaDrive-Gen-LaneWidth-v0,25,345.31404007559985,673104,1857,25953.95293903351,47.81547164916992,,10.224220275878906,0.89
672,MetaDrive-Gen-LaneWidth-v0,25,341.1964947111008,674335,1861,26001.50098991394,44.7719841003418,-44.78636169433594,11.142882347106934,0.87
673,MetaDrive-Gen-LaneWidth-v0,25,341.88806481989093,675463,1863,26045.99456691742,47.840782165527344,-48.210819244384766,5.017847061157227,0.87
674,MetaDrive-Gen-LaneWidth-v0,25,343.6141795134344,676113,1864,26073.90117573738,46.940330505371094,-47.96660232543945,7.041813850402832,0.87
675,MetaDrive-Gen-LaneWidth-v0,25,345.024308298232,677199,1866,26117.418311834335,46.89955139160156,-47.64830780029297,10.723094940185547,0.87
676,MetaDrive-Gen-LaneWidth-v0,25,347.0247652718065,678198,1868,26156.411740779877,46.65018081665039,,4.858710765838623,0.88
677,MetaDrive-Gen-LaneWidth-v0,25,348.1148137762456,679281,1870,26201.131062746048,48.4432487487793,-48.469390869140625,15.435883522033691,0.87
678,MetaDrive-Gen-LaneWidth-v0,25,350.4440725709431,680012,1871,26231.045315742493,46.886863708496094,,9.136178016662598,0.87
679,MetaDrive-Gen-LaneWidth-v0,25,348.8890140300347,681313,1874,26281.804494857788,47.19004440307617,-47.87877655029297,8.078526496887207,0.87
680,MetaDrive-Gen-LaneWidth-v0,25,348.1549546579331,682098,1876,26311.757915735245,46.020416259765625,,7.726372718811035,0.87
681,MetaDrive-Gen-LaneWidth-v0,25,346.5417096029168,683266,1879,26356.945427894592,46.0505256652832,,8.945601463317871,0.87
682,MetaDrive-Gen-LaneWidth-v0,25,350.4231736989782,684158,1881,26396.475692749023,47.82451248168945,,7.605709075927734,0.88
683,MetaDrive-Gen-LaneWidth-v0,25,351.0401603869699,685230,1883,26442.644733905792,46.627201080322266,,5.564938068389893,0.88
684,MetaDrive-Gen-LaneWidth-v0,25,352.0657855211792,686169,1885,26480.193130016327,46.10761260986328,-46.015628814697266,4.295350074768066,0.88
685,MetaDrive-Gen-LaneWidth-v0,25,353.4197196892518,687451,1887,26533.32730603218,47.41234588623047,-47.409584045410156,7.435392379760742,0.88
686,MetaDrive-Gen-LaneWidth-v0,25,349.3928020028811,688354,1890,26568.47563791275,47.43968963623047,,10.084936141967773,0.87
687,MetaDrive-Gen-LaneWidth-v0,25,349.3369475328534,689208,1892,26603.570950746536,46.86410903930664,,6.210464954376221,0.87
688,MetaDrive-Gen-LaneWidth-v0,25,347.8904694589564,690426,1895,26651.79043674469,48.68218231201172,,5.752261161804199,0.88
689,MetaDrive-Gen-LaneWidth-v0,25,347.824976545646,691223,1898,26684.551080942154,45.294918060302734,-45.25084686279297,7.598068714141846,0.88
690,MetaDrive-Gen-LaneWidth-v0,25,347.3466682214757,692159,1900,26724.617157936096,49.95712661743164,-49.87372589111328,7.078547954559326,0.88
691,MetaDrive-Gen-LaneWidth-v0,25,345.5872826631452,693081,1902,26765.05015873909,48.4034309387207,-48.20750427246094,7.9792985916137695,0.88
692,MetaDrive-Gen-LaneWidth-v0,25,342.3628181719581,694107,1905,26808.530122995377,49.1579475402832,-48.97636795043945,4.01076078414917,0.87
693,MetaDrive-Gen-LaneWidth-v0,25,341.3757558055968,695192,1908,26856.237847805023,44.89105987548828,,12.691238403320312,0.87
694,MetaDrive-Gen-LaneWidth-v0,25,344.00501305018923,696008,1910,26890.802217960358,48.19611358642578,,5.552407264709473,0.88
695,MetaDrive-Gen-LaneWidth-v0,25,347.74044036537765,697152,1913,26939.756393909454,46.596229553222656,,5.468397617340088,0.89
696,MetaDrive-Gen-LaneWidth-v0,25,347.50594832373906,698061,1915,26980.50945687294,46.415164947509766,-46.405860900878906,5.212615966796875,0.89
697,MetaDrive-Gen-LaneWidth-v0,25,340.990647845804,699692,1919,27056.99977183342,45.68087387084961,,4.344504356384277,0.88
698,MetaDrive-Gen-LaneWidth-v0,25,340.57643482999777,700046,1920,27072.208278656006,44.797935485839844,,14.163392066955566,0.88
699,MetaDrive-Gen-LaneWidth-v0,25,342.0013571282632,701310,1922,27128.364306926727,48.525325775146484,,4.017843723297119,0.88
700,MetaDrive-Gen-LaneWidth-v0,25,342.39442137472855,702262,1924,27171.026503801346,46.529563903808594,,10.696782112121582,0.88
701,MetaDrive-Gen-LaneWidth-v0,25,340.7568915142033,703069,1926,27208.19017982483,47.11927032470703,-47.29292297363281,7.162683486938477,0.87
702,MetaDrive-Gen-LaneWidth-v0,25,341.8944727978737,704268,1928,27264.235422849655,47.29879379272461,,6.742584705352783,0.87
703,MetaDrive-Gen-LaneWidth-v0,25,341.4949264504446,705084,1930,27304.207583904266,44.838043212890625,,6.342944622039795,0.86
704,MetaDrive-Gen-LaneWidth-v0,25,346.44393217773563,706045,1932,27349.109273910522,48.41606903076172,-48.786251068115234,4.641449928283691,0.87
705,MetaDrive-Gen-LaneWidth-v0,25,347.2757261703824,707539,1935,27413.577888965607,48.15946960449219,-48.416038513183594,9.592801094055176,0.87
706,MetaDrive-Gen-LaneWidth-v0,25,347.76127251295225,708070,1936,27435.85366177559,47.56377029418945,,4.609973907470703,0.87
707,MetaDrive-Gen-LaneWidth-v0,25,346.8785327438472,709261,1939,27485.058819770813,47.034915924072266,-46.96892547607422,5.6272478103637695,0.87
708,MetaDrive-Gen-LaneWidth-v0,25,347.63985230404023,710168,1941,27522.274166822433,47.50189208984375,,9.679094314575195,0.86
709,MetaDrive-Gen-LaneWidth-v0,25,346.0802359363947,711081,1943,27558.51709961891,46.276206970214844,-46.305015563964844,7.043051242828369,0.86
710,MetaDrive-Gen-LaneWidth-v0,25,347.77967766956414,712274,1945,27610.488154888153,46.763160705566406,,15.83735466003418,0.86
711,MetaDrive-Gen-LaneWidth-v0,25,347.1222332281021,713068,1947,27646.216067790985,46.4365234375,,6.855381965637207,0.85
712,MetaDrive-Gen-LaneWidth-v0,25,349.761870226225,714384,1949,27709.380980968475,48.13318634033203,,20.75161361694336,0.85
713,MetaDrive-Gen-LaneWidth-v0,25,351.292824535932,715404,1951,27753.14759874344,46.630287170410156,,5.536502838134766,0.85
714,MetaDrive-Gen-LaneWidth-v0,25,352.1805961555248,716352,1953,27789.840028762817,48.90034484863281,,7.734325408935547,0.86
715,MetaDrive-Gen-LaneWidth-v0,25,354.50697096595576,717649,1955,27841.6211309433,48.26308822631836,-47.58920669555664,4.0473313331604,0.86
716,MetaDrive-Gen-LaneWidth-v0,25,354.5357317336064,718472,1957,27873.51832175255,48.971588134765625,,6.852107048034668,0.86
717,MetaDrive-Gen-LaneWidth-v0,25,358.3063006471174,719057,1958,27895.792761802673,46.740150451660156,-47.505306243896484,4.686078071594238,0.87
718,MetaDrive-Gen-LaneWidth-v0,25,359.9511917578181,720067,1960,27934.105118989944,47.056640625,-46.71680450439453,5.245285511016846,0.88
719,MetaDrive-Gen-LaneWidth-v0,25,360.5039565880751,721173,1962,27975.771842718124,46.139434814453125,-45.259281158447266,55.35698318481445,0.88
720,MetaDrive-Gen-LaneWidth-v0,25,357.22283919311104,722525,1965,28025.972557783127,47.0139274597168,-47.191070556640625,6.9528656005859375,0.88
721,MetaDrive-Gen-LaneWidth-v0,25,359.55580679302227,723205,1966,28052.527883052826,46.935916900634766,-46.456146240234375,10.795138359069824,0.88
722,MetaDrive-Gen-LaneWidth-v0,25,358.17233093192476,724017,1968,28082.537267923355,47.753841400146484,-48.16136169433594,8.287688255310059,0.88
723,MetaDrive-Gen-LaneWidth-v0,25,356.9338013754855,725157,1970,28124.70508480072,47.87472915649414,-47.456443786621094,13.859230995178223,0.89
724,MetaDrive-Gen-LaneWidth-v0,25,355.1349696000021,726008,1972,28156.15152478218,48.21425247192383,,4.551595211029053,0.89
725,MetaDrive-Gen-LaneWidth-v0,25,355.8900361248182,727170,1974,28202.139009714127,48.32657241821289,,6.85089111328125,0.89
726,MetaDrive-Gen-LaneWidth-v0,25,357.8764625442859,728531,1977,28253.242818832397,48.24308395385742,-48.33165740966797,5.028562068939209,0.89
727,MetaDrive-Gen-LaneWidth-v0,25,358.0329653950493,729265,1979,28279.745459794998,47.87908172607422,-48.785152435302734,8.599278450012207,0.89
728,MetaDrive-Gen-LaneWidth-v0,25,358.4944986043811,730508,1982,28326.08913373947,46.63008117675781,,6.315814971923828,0.89
729,MetaDrive-Gen-LaneWidth-v0,25,358.606572782111,731577,1984,28365.879148721695,47.04391860961914,-47.41352844238281,4.823119163513184,0.89
730,MetaDrive-Gen-LaneWidth-v0,25,357.9793462853028,732496,1986,28401.110420942307,48.75782775878906,,6.700587749481201,0.89
731,MetaDrive-Gen-LaneWidth-v0,25,359.92691797645426,733448,1988,28436.825450897217,48.67509841918945,,6.823784351348877,0.9
732,MetaDrive-Gen-LaneWidth-v0,25,361.11353035455295,734231,1990,28466.483318805695,48.1247444152832,-47.88670349121094,5.809597015380859,0.9
733,MetaDrive-Gen-LaneWidth-v0,25,361.8966498696058,735256,1992,28504.075256824493,48.58406066894531,,6.986315727233887,0.9
734,MetaDrive-Gen-LaneWidth-v0,25,363.28045957408403,736166,1994,28538.82764697075,49.45309829711914,,9.649524688720703,0.9
735,MetaDrive-Gen-LaneWidth-v0,25,365.0747984096386,737164,1996,28579.08527779579,47.84412384033203,,5.743157386779785,0.9
736,MetaDrive-Gen-LaneWidth-v0,25,367.0671600802938,738487,1999,28630.571616888046,47.88066101074219,-48.4610481262207,4.627674579620361,0.91
737,MetaDrive-Gen-LaneWidth-v0,25,368.70143615013035,739514,2001,28670.206550836563,48.67436218261719,,11.63420581817627,0.91
738,MetaDrive-Gen-LaneWidth-v0,25,368.51051046256623,740045,2002,28691.744542837143,48.0038948059082,-48.222084045410156,47.342159271240234,0.91
739,MetaDrive-Gen-LaneWidth-v0,25,370.0624042597954,741229,2005,28736.536363601685,47.724403381347656,-47.82524108886719,8.646223068237305,0.92
740,MetaDrive-Gen-LaneWidth-v0,25,372.2028180505437,742429,2007,28782.065732717514,48.01408004760742,-48.019710540771484,8.303529739379883,0.92
741,MetaDrive-Gen-LaneWidth-v0,25,371.7817160979371,743157,2009,28808.018295764923,47.97585678100586,-48.40723419189453,6.792697906494141,0.92
742,MetaDrive-Gen-LaneWidth-v0,25,371.1779692883081,744322,2012,28850.34120297432,48.75007629394531,,5.268200874328613,0.92
743,MetaDrive-Gen-LaneWidth-v0,25,371.6943400402278,745474,2015,28898.930766820908,48.168758392333984,,8.105791091918945,0.92
744,MetaDrive-Gen-LaneWidth-v0,25,375.38977950889506,746218,2016,28931.851282835007,48.29286193847656,,15.741141319274902,0.93
745,MetaDrive-Gen-LaneWidth-v0,25,378.1675186541987,747359,2018,28981.091544866562,49.14163589477539,-49.66072082519531,6.02208137512207,0.93
746,MetaDrive-Gen-LaneWidth-v0,25,375.8366687721733,748221,2020,29016.129999876022,48.262115478515625,-48.02857971191406,10.954899787902832,0.93
747,MetaDrive-Gen-LaneWidth-v0,25,377.12728778847287,749372,2022,29064.26812171936,48.852169036865234,,6.931273460388184,0.93
748,MetaDrive-Gen-LaneWidth-v0,25,377.7239797865696,750292,2024,29101.439250946045,49.17569351196289,,5.937372207641602,0.93
