TanmayH/CS269-RL-project-code/MetaDrive-td3combine-expt_with_safe—reuse-rb/MetaDrive-Gen-Next-v2/td3/progress.csv
,log_dir,frame_per_second,episode_reward,total_steps,total_episodes,total_time,actor_loss,critic_loss,target_q,success_rate
0,MetaDrive-td3combine-expt_with_safe—reuse-rb,285,159.88362087839027,1302,2,4.5555100440979,,23.589378356933594,39.97511291503906,0.0
1,MetaDrive-td3combine-expt_with_safe—reuse-rb,144,114.10390369639784,2051,6,14.145493984222412,-43.49896240234375,31.6467227935791,42.62067794799805,0.0
2,MetaDrive-td3combine-expt_with_safe—reuse-rb,119,101.8911689129933,3132,8,26.112403869628906,,5.572835445404053,32.248191833496094,0.0
3,MetaDrive-td3combine-expt_with_safe—reuse-rb,104,85.6175152628289,4998,15,47.896175146102905,,16.758472442626953,39.15667724609375,0.0
4,MetaDrive-td3combine-expt_with_safe—reuse-rb,101,83.02333931638734,5999,16,59.38031196594238,-35.67247009277344,5.914245128631592,35.25330352783203,0.0
5,MetaDrive-td3combine-expt_with_safe—reuse-rb,99,78.31260938231458,6361,17,63.69107508659363,-36.7696533203125,9.496045112609863,36.656620025634766,0.0
6,MetaDrive-td3combine-expt_with_safe—reuse-rb,98,79.53319745285705,7362,18,74.52334904670715,,3.754549980163574,35.42572784423828,0.0
7,MetaDrive-td3combine-expt_with_safe—reuse-rb,97,94.865191702883,8150,21,83.60570812225342,,4.3475494384765625,36.1208381652832,0.0
8,MetaDrive-td3combine-expt_with_safe—reuse-rb,96,95.3205689492673,9390,24,97.59939503669739,,10.696793556213379,31.79712677001953,0.0
9,MetaDrive-td3combine-expt_with_safe—reuse-rb,95,101.88409585829115,10627,26,111.25286293029785,-32.16468048095703,26.17711639404297,32.89982986450195,0.0
10,MetaDrive-td3combine-expt_with_safe—reuse-rb,94,97.73704880706767,11807,29,125.51270008087158,-38.36130142211914,4.865840911865234,37.5893669128418,0.0
11,MetaDrive-td3combine-expt_with_safe—reuse-rb,93,99.06891586541975,12808,30,136.6073830127716,,51.727142333984375,36.23588943481445,0.0
12,MetaDrive-td3combine-expt_with_safe—reuse-rb,93,100.15877294554893,13108,31,139.94981026649475,,7.500452995300293,33.477813720703125,0.0
13,MetaDrive-td3combine-expt_with_safe—reuse-rb,93,104.58092497124923,14109,32,150.67961597442627,-36.73597717285156,14.319234848022461,36.57726287841797,0.0
14,MetaDrive-td3combine-expt_with_safe—reuse-rb,93,105.29762744764096,15110,33,161.98555421829224,,15.564937591552734,32.02091979980469,0.0
15,MetaDrive-td3combine-expt_with_safe—reuse-rb,92,106.80433641508569,16111,34,173.25973916053772,-37.25176239013672,10.04350757598877,37.61134338378906,0.0
16,MetaDrive-td3combine-expt_with_safe—reuse-rb,92,109.66321373037961,17457,37,188.37831020355225,-31.868270874023438,5.926078796386719,31.59897804260254,0.0
17,MetaDrive-td3combine-expt_with_safe—reuse-rb,92,114.06676171431418,18360,40,198.42237520217896,,7.4089741706848145,31.95848274230957,0.025
18,MetaDrive-td3combine-expt_with_safe—reuse-rb,92,113.88607195262352,19361,41,209.54180097579956,-34.43370819091797,9.438349723815918,34.68346405029297,0.024390243902439025
19,MetaDrive-td3combine-expt_with_safe—reuse-rb,92,112.62908001243578,20625,43,224.103346824646,-30.742551803588867,7.0174689292907715,30.786283493041992,0.023255813953488372
20,MetaDrive-td3combine-expt_with_safe—reuse-rb,91,112.32505255551877,21626,44,235.18229818344116,,5.89666748046875,36.606353759765625,0.022727272727272728
21,MetaDrive-td3combine-expt_with_safe—reuse-rb,91,117.3355760362408,22010,45,239.61582112312317,,8.036203384399414,32.27619934082031,0.044444444444444446
22,MetaDrive-td3combine-expt_with_safe—reuse-rb,91,116.51969588630122,23084,47,251.71756219863892,,13.542573928833008,29.607345581054688,0.0425531914893617
23,MetaDrive-td3combine-expt_with_safe—reuse-rb,91,115.80298044304266,24085,48,263.56308698654175,-31.624984741210938,15.232674598693848,33.044708251953125,0.041666666666666664
24,MetaDrive-td3combine-expt_with_safe—reuse-rb,91,116.61397794350674,25188,50,276.34318804740906,,6.800185203552246,33.51885986328125,0.04
25,MetaDrive-td3combine-expt_with_safe—reuse-rb,91,116.31523000310838,26189,51,287.3002760410309,-27.653709411621094,4.518577575683594,27.531015396118164,0.0392156862745098
26,MetaDrive-td3combine-expt_with_safe—reuse-rb,90,116.33843943876325,27190,52,299.17386388778687,,7.650412082672119,34.26914596557617,0.038461538461538464
27,MetaDrive-td3combine-expt_with_safe—reuse-rb,90,115.24980970246199,28191,53,310.0818212032318,-29.781108856201172,21.423357009887695,29.933204650878906,0.03773584905660377
28,MetaDrive-td3combine-expt_with_safe—reuse-rb,90,113.74864167437438,29192,54,321.3371481895447,,9.185039520263672,32.61690139770508,0.037037037037037035
29,MetaDrive-td3combine-expt_with_safe—reuse-rb,90,116.32371423271445,30193,55,332.4126582145691,-24.421966552734375,1.1859760284423828,24.239700317382812,0.03636363636363636
30,MetaDrive-td3combine-expt_with_safe—reuse-rb,90,116.46184128637545,31194,56,343.6205370426178,,5.897022247314453,31.814350128173828,0.03571428571428571
31,MetaDrive-td3combine-expt_with_safe—reuse-rb,90,118.59913249033279,32195,57,355.31539392471313,-27.88880157470703,11.276237487792969,27.08730697631836,0.03508771929824561
32,MetaDrive-td3combine-expt_with_safe—reuse-rb,90,117.63086713712381,33196,58,366.9652998447418,,6.11956787109375,26.21293830871582,0.034482758620689655
33,MetaDrive-td3combine-expt_with_safe—reuse-rb,90,117.67497413702569,34197,59,378.69009709358215,-27.848167419433594,5.214171409606934,28.25287628173828,0.03389830508474576
34,MetaDrive-td3combine-expt_with_safe—reuse-rb,90,120.96591220710194,35198,60,390.2777199745178,,8.800480842590332,26.587902069091797,0.03333333333333333
35,MetaDrive-td3combine-expt_with_safe—reuse-rb,90,120.41227907208823,36199,61,401.5783460140228,-23.410255432128906,5.456379413604736,24.120426177978516,0.03278688524590164
36,MetaDrive-td3combine-expt_with_safe—reuse-rb,90,121.91145686267043,37991,63,422.04262495040894,-28.07399559020996,6.290789604187012,27.22435760498047,0.031746031746031744
37,MetaDrive-td3combine-expt_with_safe—reuse-rb,89,121.97817573706652,38316,64,426.3765082359314,,4.169280052185059,20.861892700195312,0.03125
38,MetaDrive-td3combine-expt_with_safe—reuse-rb,89,125.44139798432286,39071,66,435.77025508880615,-20.00414276123047,13.864368438720703,19.943950653076172,0.030303030303030304
39,MetaDrive-td3combine-expt_with_safe—reuse-rb,89,124.24642061251039,40072,67,447.25521302223206,,5.06354284286499,23.055057525634766,0.029850746268656716
40,MetaDrive-td3combine-expt_with_safe—reuse-rb,89,128.24302267575166,41677,69,466.39501690864563,-23.124004364013672,19.125873565673828,22.07428550720215,0.043478260869565216
41,MetaDrive-td3combine-expt_with_safe—reuse-rb,89,127.81466168302343,42877,71,480.578577041626,-19.55694580078125,9.440448760986328,19.11579704284668,0.04225352112676056
42,MetaDrive-td3combine-expt_with_safe—reuse-rb,88,125.89521035328114,43965,73,494.0614471435547,-24.525798797607422,8.34929084777832,24.67610740661621,0.0410958904109589
43,MetaDrive-td3combine-expt_with_safe—reuse-rb,88,124.86352084890513,44884,74,506.00681495666504,,8.0941801071167,23.093900680541992,0.04054054054054054
44,MetaDrive-td3combine-expt_with_safe—reuse-rb,88,125.52371594373376,45885,75,517.7612841129303,-25.660186767578125,2.841517925262451,25.384740829467773,0.04
45,MetaDrive-td3combine-expt_with_safe—reuse-rb,88,125.72760330536482,46886,76,529.7401552200317,,18.082008361816406,27.123584747314453,0.039473684210526314
46,MetaDrive-td3combine-expt_with_safe—reuse-rb,88,124.77458955294506,47887,77,541.2529389858246,-27.734722137451172,5.879188537597656,27.457988739013672,0.03896103896103896
47,MetaDrive-td3combine-expt_with_safe—reuse-rb,88,125.80918163441842,48888,78,552.619068145752,,11.468740463256836,19.710376739501953,0.038461538461538464
48,MetaDrive-td3combine-expt_with_safe—reuse-rb,88,125.83367902483698,49889,79,564.0511281490326,-21.140098571777344,21.230775833129883,21.2753963470459,0.0379746835443038
49,MetaDrive-td3combine-expt_with_safe—reuse-rb,88,124.91158058620067,50007,80,565.580304145813,-22.812763214111328,8.90245246887207,21.989971160888672,0.0375
50,MetaDrive-td3combine-expt_with_safe—reuse-rb,88,129.25095313305945,51588,82,583.993250131607,,2.6284947395324707,22.00908851623535,0.04878048780487805
51,MetaDrive-td3combine-expt_with_safe—reuse-rb,88,132.16632260839077,52122,83,590.2878918647766,,5.955825328826904,23.104326248168945,0.060240963855421686
52,MetaDrive-td3combine-expt_with_safe—reuse-rb,88,128.93653215885863,53977,86,612.1510729789734,-12.829486846923828,12.886613845825195,13.813910484313965,0.05813953488372093
53,MetaDrive-td3combine-expt_with_safe—reuse-rb,88,130.45223703963015,54978,87,623.7173979282379,,5.808436393737793,20.583894729614258,0.05747126436781609
54,MetaDrive-td3combine-expt_with_safe—reuse-rb,88,129.69289594217386,55139,88,626.0336549282074,-19.78609848022461,9.250709533691406,19.204246520996094,0.056818181818181816
55,MetaDrive-td3combine-expt_with_safe—reuse-rb,87,131.21869971107265,56140,89,638.2651240825653,,3.526801586151123,24.275705337524414,0.056179775280898875
56,MetaDrive-td3combine-expt_with_safe—reuse-rb,87,132.6881907032726,57141,90,650.1417891979218,-25.26803207397461,5.246607780456543,24.57130241394043,0.05555555555555555
57,MetaDrive-td3combine-expt_with_safe—reuse-rb,87,133.98837672594658,58360,92,664.8149099349976,,4.765322208404541,21.95547103881836,0.06521739130434782
58,MetaDrive-td3combine-expt_with_safe—reuse-rb,87,135.04486322449876,59361,93,677.0715730190277,-21.626039505004883,8.761295318603516,22.647878646850586,0.06451612903225806
59,MetaDrive-td3combine-expt_with_safe—reuse-rb,87,136.52351095327523,60312,95,688.7279040813446,,4.925078392028809,22.02840805053711,0.07368421052631578
60,MetaDrive-td3combine-expt_with_safe—reuse-rb,87,135.70081315697945,61350,97,700.9973390102386,,10.938879013061523,21.32798194885254,0.07216494845360824
61,MetaDrive-td3combine-expt_with_safe—reuse-rb,87,136.6524093447908,62473,99,714.2130281925201,-14.968215942382812,4.251378059387207,15.179184913635254,0.0707070707070707
62,MetaDrive-td3combine-expt_with_safe—reuse-rb,87,136.09387056051,63380,100,725.1475901603699,,27.673477172851562,20.62234115600586,0.07
63,MetaDrive-td3combine-expt_with_safe—reuse-rb,87,136.50894232455366,64381,101,737.300772190094,-21.22709083557129,5.5794267654418945,20.225065231323242,0.07
64,MetaDrive-td3combine-expt_with_safe—reuse-rb,87,134.18719542351724,65461,103,750.9537179470062,-22.045251846313477,4.469795227050781,21.671337127685547,0.07
65,MetaDrive-td3combine-expt_with_safe—reuse-rb,87,134.9371983836954,66216,104,759.8965239524841,,17.119983673095703,20.344654083251953,0.07
66,MetaDrive-td3combine-expt_with_safe—reuse-rb,87,135.4240637944505,67217,105,771.1898190975189,-10.43731689453125,3.8408501148223877,10.312334060668945,0.07
67,MetaDrive-td3combine-expt_with_safe—reuse-rb,87,135.63100641988868,68218,106,783.5199520587921,,5.367705345153809,20.38796043395996,0.07
68,MetaDrive-td3combine-expt_with_safe—reuse-rb,87,137.8288212982989,69219,107,795.3181791305542,-19.9735107421875,15.04431438446045,20.976329803466797,0.07
69,MetaDrive-td3combine-expt_with_safe—reuse-rb,86,140.95901990807747,70173,109,807.2061722278595,-22.624799728393555,5.512993812561035,23.11651611328125,0.08
70,MetaDrive-td3combine-expt_with_safe—reuse-rb,86,142.54677590524113,71262,111,820.8049409389496,,4.3493242263793945,16.58065414428711,0.08
71,MetaDrive-td3combine-expt_with_safe—reuse-rb,86,143.99222204168854,72141,112,831.4534251689911,-16.580181121826172,5.149473190307617,16.425004959106445,0.08
72,MetaDrive-td3combine-expt_with_safe—reuse-rb,86,145.7593502483264,73196,114,844.298002243042,,4.407515525817871,17.540517807006836,0.08
73,MetaDrive-td3combine-expt_with_safe—reuse-rb,86,146.2610999280006,74197,115,856.464241027832,-22.638225555419922,6.071783542633057,21.697561264038086,0.08
74,MetaDrive-td3combine-expt_with_safe—reuse-rb,86,150.033270603803,75190,118,869.7710111141205,,13.605960845947266,21.10628890991211,0.08
75,MetaDrive-td3combine-expt_with_safe—reuse-rb,86,148.62287248204925,76107,119,880.9781470298767,-21.004194259643555,8.751795768737793,19.919275283813477,0.08
76,MetaDrive-td3combine-expt_with_safe—reuse-rb,86,146.62545492169895,77129,121,893.6877250671387,-20.354236602783203,12.445287704467773,20.654268264770508,0.08
77,MetaDrive-td3combine-expt_with_safe—reuse-rb,86,146.64272156529123,78247,123,906.5778539180756,-15.539512634277344,5.101011276245117,15.836346626281738,0.08
78,MetaDrive-td3combine-expt_with_safe—reuse-rb,86,146.3555574620044,79248,124,919.203381061554,,5.90287971496582,16.611648559570312,0.08
79,MetaDrive-td3combine-expt_with_safe—reuse-rb,86,148.04135611333442,80590,126,935.68901014328,,4.195000648498535,15.790346145629883,0.09
80,MetaDrive-td3combine-expt_with_safe—reuse-rb,86,150.67974980561863,81872,128,951.5588982105255,,10.656265258789062,21.707569122314453,0.09
81,MetaDrive-td3combine-expt_with_safe—reuse-rb,85,149.84900345889193,82857,130,964.4329352378845,-23.671175003051758,9.120747566223145,23.936389923095703,0.09
82,MetaDrive-td3combine-expt_with_safe—reuse-rb,85,153.90877918846684,83858,131,977.3876800537109,,19.99142074584961,18.59241485595703,0.09
83,MetaDrive-td3combine-expt_with_safe—reuse-rb,85,153.63533524580012,84859,132,990.5640890598297,-20.844276428222656,13.173149108886719,19.612409591674805,0.09
84,MetaDrive-td3combine-expt_with_safe—reuse-rb,85,153.7063800363465,85074,133,993.5966110229492,,11.088508605957031,17.05711555480957,0.09
85,MetaDrive-td3combine-expt_with_safe—reuse-rb,85,152.56114313940162,86075,134,1006.3453419208527,-15.706809997558594,2.5849478244781494,15.397405624389648,0.09
86,MetaDrive-td3combine-expt_with_safe—reuse-rb,85,155.03932706093212,87504,136,1024.9079921245575,,19.12148666381836,23.583810806274414,0.09
87,MetaDrive-td3combine-expt_with_safe—reuse-rb,85,153.84267080960876,88505,137,1038.1361141204834,-19.25551414489746,29.023075103759766,20.974239349365234,0.09
88,MetaDrive-td3combine-expt_with_safe—reuse-rb,85,153.88805721771357,89587,139,1051.9094550609589,-20.953369140625,16.351428985595703,19.659940719604492,0.09
89,MetaDrive-td3combine-expt_with_safe—reuse-rb,85,152.94058836275835,90588,140,1064.1115210056305,,12.145612716674805,16.934568405151367,0.08
90,MetaDrive-td3combine-expt_with_safe—reuse-rb,85,155.21633745115207,91027,141,1069.5366051197052,-21.02260971069336,147.20462036132812,20.00649070739746,0.08
91,MetaDrive-td3combine-expt_with_safe—reuse-rb,84,156.00976029382676,92211,148,1085.9631111621857,-18.10700225830078,26.47076988220215,18.88037872314453,0.07
92,MetaDrive-td3combine-expt_with_safe—reuse-rb,84,158.92445984979372,93774,151,1106.98366522789,,5.760282516479492,19.686458587646484,0.08
93,MetaDrive-td3combine-expt_with_safe—reuse-rb,84,158.6710490443556,94775,152,1119.4839839935303,-21.610748291015625,3.4727864265441895,21.842266082763672,0.08
94,MetaDrive-td3combine-expt_with_safe—reuse-rb,84,159.04124676384424,95022,154,1122.8207159042358,,4.095780372619629,26.902423858642578,0.08
95,MetaDrive-td3combine-expt_with_safe—reuse-rb,84,157.18524656381166,96177,156,1137.2882120609283,-22.483495712280273,8.51203727722168,21.827627182006836,0.08
96,MetaDrive-td3combine-expt_with_safe—reuse-rb,84,150.0743224812873,97212,163,1151.9692981243134,,9.709647178649902,29.86554527282715,0.08
97,MetaDrive-td3combine-expt_with_safe—reuse-rb,84,147.154264054444,98119,166,1163.8886539936066,-18.701919555664062,3.7602298259735107,18.61513328552246,0.08
98,MetaDrive-td3combine-expt_with_safe—reuse-rb,84,144.12052935601625,99049,168,1176.16268992424,-20.050716400146484,11.37466812133789,19.373502731323242,0.07
99,MetaDrive-td3combine-expt_with_safe—reuse-rb,84,146.08550443091582,100904,170,1199.4626500606537,,10.056398391723633,25.54857063293457,0.07
100,MetaDrive-td3combine-expt_with_safe—reuse-rb,84,146.5859611738393,101905,171,1212.2735650539398,-23.286357879638672,9.295724868774414,22.438058853149414,0.07
101,MetaDrive-td3combine-expt_with_safe—reuse-rb,84,146.76669322256782,102121,172,1215.2351579666138,-20.626182556152344,20.140666961669922,20.661439895629883,0.07
102,MetaDrive-td3combine-expt_with_safe—reuse-rb,83,146.44679675387195,103027,176,1227.694384098053,-22.00539779663086,16.636220932006836,22.690834045410156,0.07
103,MetaDrive-td3combine-expt_with_safe—reuse-rb,83,147.83383678026908,104085,179,1242.25048494339,-22.92534637451172,9.761554718017578,22.148849487304688,0.07
104,MetaDrive-td3combine-expt_with_safe—reuse-rb,83,147.9260230680585,105006,181,1254.4841270446777,,11.750753402709961,21.74891471862793,0.06
105,MetaDrive-td3combine-expt_with_safe—reuse-rb,83,144.26967807702593,106701,183,1277.2979650497437,-24.716693878173828,26.463584899902344,24.424951553344727,0.05
106,MetaDrive-td3combine-expt_with_safe—reuse-rb,83,145.58344748907064,107296,186,1285.6090791225433,,4.5412797927856445,17.162336349487305,0.05
107,MetaDrive-td3combine-expt_with_safe—reuse-rb,83,139.71500048690157,108923,192,1307.6643540859222,-19.68642234802246,9.21347427368164,19.97323989868164,0.04
108,MetaDrive-td3combine-expt_with_safe—reuse-rb,83,138.50232746851248,109117,193,1310.179948091507,-24.01521110534668,17.29670524597168,23.396217346191406,0.04
109,MetaDrive-td3combine-expt_with_safe—reuse-rb,83,138.097617337769,110477,196,1328.4266171455383,-21.97665023803711,2.704893112182617,21.96524429321289,0.03
110,MetaDrive-td3combine-expt_with_safe—reuse-rb,83,140.3337782209328,111087,198,1336.81117105484,-27.13656997680664,8.434029579162598,27.418212890625,0.03
111,MetaDrive-td3combine-expt_with_safe—reuse-rb,82,136.4691436041028,112278,204,1353.0501899719238,,6.286209583282471,24.119667053222656,0.03
112,MetaDrive-td3combine-expt_with_safe—reuse-rb,82,139.10672843186944,113152,208,1365.819214105606,,14.422682762145996,11.151301383972168,0.03
113,MetaDrive-td3combine-expt_with_safe—reuse-rb,82,139.9074116481736,114880,211,1389.7191500663757,,22.910005569458008,20.26516342163086,0.02
114,MetaDrive-td3combine-expt_with_safe—reuse-rb,82,139.94903336534148,115056,212,1391.759621143341,,23.138660430908203,26.492137908935547,0.02
115,MetaDrive-td3combine-expt_with_safe—reuse-rb,82,135.58069391270314,116104,217,1404.3325650691986,,10.972869873046875,24.82343864440918,0.02
116,MetaDrive-td3combine-expt_with_safe—reuse-rb,82,137.17427256579498,117127,221,1417.0566589832306,-16.662425994873047,14.752971649169922,16.772512435913086,0.03
117,MetaDrive-td3combine-expt_with_safe—reuse-rb,82,136.13478526048095,118060,226,1428.3951210975647,,4.460439205169678,17.77427101135254,0.02
118,MetaDrive-td3combine-expt_with_safe—reuse-rb,82,133.20236835387942,119619,230,1447.3401939868927,-27.982168197631836,4.9564313888549805,27.365182876586914,0.02
119,MetaDrive-td3combine-expt_with_safe—reuse-rb,82,129.41860701071937,120226,232,1454.6318340301514,,9.510624885559082,25.283483505249023,0.02
120,MetaDrive-td3combine-expt_with_safe—reuse-rb,82,129.26089905413522,121140,238,1466.184888124466,,20.05774688720703,15.151485443115234,0.02
121,MetaDrive-td3combine-expt_with_safe—reuse-rb,82,124.92184836552133,122044,243,1477.232263803482,,12.473219871520996,25.71727752685547,0.02
122,MetaDrive-td3combine-expt_with_safe—reuse-rb,82,120.86938178027722,123083,250,1489.0613040924072,-20.21965217590332,9.785795211791992,19.502315521240234,0.01
123,MetaDrive-td3combine-expt_with_safe—reuse-rb,82,122.5992587051704,124069,256,1501.0259630680084,-32.672969818115234,13.127138137817383,31.747390747070312,0.01
124,MetaDrive-td3combine-expt_with_safe—reuse-rb,82,123.47576278914677,125195,258,1513.652113199234,-23.844017028808594,8.3374662399292,24.111764907836914,0.01
125,MetaDrive-td3combine-expt_with_safe—reuse-rb,82,124.77868180318924,126044,265,1523.6804809570312,,10.56248664855957,14.883069038391113,0.01
126,MetaDrive-td3combine-expt_with_safe—reuse-rb,82,123.96977509638644,127172,270,1536.938658952713,,6.496111869812012,29.129627227783203,0.01
127,MetaDrive-td3combine-expt_with_safe—reuse-rb,82,123.36281901570685,128017,275,1547.0811052322388,-26.87082862854004,18.85344886779785,26.62824249267578,0.01
128,MetaDrive-td3combine-expt_with_safe—reuse-rb,82,126.37216998265583,129167,280,1560.3721141815186,-23.344528198242188,7.93550968170166,23.228065490722656,0.02
129,MetaDrive-td3combine-expt_with_safe—reuse-rb,82,124.08393967407696,130078,288,1571.055603981018,,9.40972900390625,32.75117874145508,0.02
130,MetaDrive-td3combine-expt_with_safe—reuse-rb,82,122.65062923825434,131142,295,1583.499722957611,,31.427047729492188,29.526248931884766,0.02
131,MetaDrive-td3combine-expt_with_safe—reuse-rb,82,123.76059553433898,132047,301,1594.7847390174866,-26.363636016845703,190.21163940429688,25.34869384765625,0.02
132,MetaDrive-td3combine-expt_with_safe—reuse-rb,82,123.97659360301589,133265,307,1609.6952822208405,-27.370378494262695,35.50246810913086,27.75760269165039,0.03
133,MetaDrive-td3combine-expt_with_safe—reuse-rb,82,118.15922050046488,134128,313,1619.9116768836975,,9.98771858215332,22.771364212036133,0.03
134,MetaDrive-td3combine-expt_with_safe—reuse-rb,82,120.63924798984115,135481,319,1635.5066349506378,-24.52506446838379,13.503565788269043,24.54660987854004,0.03
135,MetaDrive-td3combine-expt_with_safe—reuse-rb,82,121.44724167154044,136004,321,1641.8801410198212,,15.737815856933594,23.902917861938477,0.02
136,MetaDrive-td3combine-expt_with_safe—reuse-rb,82,122.61370482412414,137131,327,1654.577404975891,-24.82148551940918,7.469326496124268,24.633808135986328,0.03
137,MetaDrive-td3combine-expt_with_safe—reuse-rb,82,122.72714968851265,138007,334,1665.307324886322,-24.31419563293457,85.34211730957031,23.70023536682129,0.03
138,MetaDrive-td3combine-expt_with_safe—reuse-rb,82,120.11534716284997,139260,343,1679.6423530578613,,45.26708984375,24.336122512817383,0.03
139,MetaDrive-td3combine-expt_with_safe—reuse-rb,82,123.9976440699607,140071,344,1688.5360119342804,-26.593677520751953,11.503966331481934,25.46521759033203,0.04
140,MetaDrive-td3combine-expt_with_safe—reuse-rb,82,125.4449345043344,141060,350,1700.5247159004211,,16.46268081665039,30.20270347595215,0.05
141,MetaDrive-td3combine-expt_with_safe—reuse-rb,82,128.30662087417812,142160,356,1713.357500076294,,5.565021991729736,24.846826553344727,0.05
142,MetaDrive-td3combine-expt_with_safe—reuse-rb,82,128.12105972972913,143223,361,1725.6258330345154,-36.69748306274414,18.14508056640625,36.77662658691406,0.05
143,MetaDrive-td3combine-expt_with_safe—reuse-rb,82,131.65316935968997,144172,366,1737.0235528945923,,36.529762268066406,28.339950561523438,0.05
144,MetaDrive-td3combine-expt_with_safe—reuse-rb,83,132.05851983349459,145103,371,1747.9660501480103,-32.667938232421875,9.817831039428711,32.58955383300781,0.05
145,MetaDrive-td3combine-expt_with_safe—reuse-rb,83,131.0159016097032,146033,376,1759.2225399017334,-31.557588577270508,81.68877410888672,30.988651275634766,0.05
146,MetaDrive-td3combine-expt_with_safe—reuse-rb,83,130.96894688949465,147191,383,1772.8860001564026,-24.06404685974121,4.9795074462890625,24.07140350341797,0.04
147,MetaDrive-td3combine-expt_with_safe—reuse-rb,83,133.11387559379142,148249,389,1785.6479768753052,-26.522708892822266,49.400421142578125,26.24266242980957,0.04
148,MetaDrive-td3combine-expt_with_safe—reuse-rb,83,136.59772956185822,149044,392,1795.304029226303,,194.22535705566406,24.889171600341797,0.04
149,MetaDrive-td3combine-expt_with_safe—reuse-rb,83,134.8691312707094,150058,398,1807.6915061473846,,18.52996063232422,35.070556640625,0.04
150,MetaDrive-td3combine-expt_with_safe—reuse-rb,83,136.1199702948926,151801,403,1828.3401010036469,-29.377084732055664,89.13217163085938,27.43668556213379,0.03
151,MetaDrive-td3combine-expt_with_safe—reuse-rb,83,136.2026578085144,152054,405,1831.4163279533386,,19.603853225708008,27.343759536743164,0.03
152,MetaDrive-td3combine-expt_with_safe—reuse-rb,83,139.84627857148334,153352,411,1846.7914748191833,,14.04207992553711,38.661033630371094,0.03
153,MetaDrive-td3combine-expt_with_safe—reuse-rb,83,140.11767495780478,154148,416,1856.3444290161133,,20.849693298339844,38.604881286621094,0.03
154,MetaDrive-td3combine-expt_with_safe—reuse-rb,83,143.6184522895188,155066,419,1867.5189020633698,,23.140899658203125,31.13503646850586,0.03
155,MetaDrive-td3combine-expt_with_safe—reuse-rb,83,141.0527583292213,156007,423,1879.4480299949646,-38.98827362060547,34.31400680541992,39.224708557128906,0.03
156,MetaDrive-td3combine-expt_with_safe—reuse-rb,83,143.86179522111843,157624,426,1897.9168920516968,,42.221195220947266,26.638404846191406,0.03
157,MetaDrive-td3combine-expt_with_safe—reuse-rb,83,144.26730241851945,158225,427,1904.7912812232971,-34.70751190185547,21.790361404418945,34.910404205322266,0.03
158,MetaDrive-td3combine-expt_with_safe—reuse-rb,83,147.00727778544984,159710,431,1922.3260531425476,,35.46111297607422,36.03701400756836,0.03
159,MetaDrive-td3combine-expt_with_safe—reuse-rb,83,145.2730327716356,160008,433,1926.0337579250336,,7.02458381652832,37.1734619140625,0.03
160,MetaDrive-td3combine-expt_with_safe—reuse-rb,83,150.70398128415403,161136,438,1939.1568660736084,,7.136526107788086,30.187509536743164,0.04
161,MetaDrive-td3combine-expt_with_safe—reuse-rb,83,149.40555445251255,162163,444,1951.2008090019226,-34.32880783081055,52.7455940246582,32.82275390625,0.05
162,MetaDrive-td3combine-expt_with_safe—reuse-rb,83,145.33021206721182,163052,451,1961.9606311321259,,14.324546813964844,32.76214599609375,0.04
163,MetaDrive-td3combine-expt_with_safe—reuse-rb,83,145.51140793955102,164157,457,1974.6878321170807,-35.63752746582031,8.390806198120117,35.32713317871094,0.05
164,MetaDrive-td3combine-expt_with_safe—reuse-rb,83,147.37621167056116,165174,462,1987.1239640712738,,19.875505447387695,38.274574279785156,0.06
165,MetaDrive-td3combine-expt_with_safe—reuse-rb,83,145.80743970822718,166030,467,1997.305382013321,,8.579185485839844,40.30189895629883,0.06
166,MetaDrive-td3combine-expt_with_safe—reuse-rb,83,151.5843190441115,167457,474,2014.7760591506958,-44.054443359375,28.707443237304688,43.81752014160156,0.07
167,MetaDrive-td3combine-expt_with_safe—reuse-rb,83,148.260741686688,168156,478,2023.0400199890137,,35.9747428894043,38.54092788696289,0.07
168,MetaDrive-td3combine-expt_with_safe—reuse-rb,83,149.17479105308865,169105,483,2034.4159860610962,-39.99128723144531,45.65026092529297,39.51670837402344,0.07
169,MetaDrive-td3combine-expt_with_safe—reuse-rb,83,147.27301198990835,170102,487,2046.1778161525726,,18.610790252685547,32.06743621826172,0.07
170,MetaDrive-td3combine-expt_with_safe—reuse-rb,83,146.7275466734082,171171,493,2058.919615983963,-37.45136260986328,55.51893997192383,37.568626403808594,0.07
171,MetaDrive-td3combine-expt_with_safe—reuse-rb,83,152.6018726985601,172218,495,2071.659040927887,,5.1007256507873535,34.39445877075195,0.08
172,MetaDrive-td3combine-expt_with_safe—reuse-rb,83,152.93494011247486,173400,500,2087.079111099243,,13.074604034423828,29.50492286682129,0.08
173,MetaDrive-td3combine-expt_with_safe—reuse-rb,83,152.00898945821734,174270,502,2097.729637145996,,56.74522399902344,30.67067527770996,0.08
174,MetaDrive-td3combine-expt_with_safe—reuse-rb,83,154.90077250513326,175103,506,2107.728332042694,-28.298173904418945,16.59227180480957,27.613876342773438,0.09
175,MetaDrive-td3combine-expt_with_safe—reuse-rb,83,154.9218599228435,176147,511,2120.2443261146545,-40.9869499206543,39.73972702026367,40.03215789794922,0.09
176,MetaDrive-td3combine-expt_with_safe—reuse-rb,83,157.57684390126565,177475,513,2135.4691121578217,-31.80418586730957,37.47842025756836,30.72719955444336,0.09
177,MetaDrive-td3combine-expt_with_safe—reuse-rb,83,154.47202658938755,178856,517,2152.2541239261627,,7.971799850463867,35.302635192871094,0.09
178,MetaDrive-td3combine-expt_with_safe—reuse-rb,83,151.80668310884678,179157,519,2156.230460166931,-31.453248977661133,23.32988739013672,31.500097274780273,0.09
179,MetaDrive-td3combine-expt_with_safe—reuse-rb,83,155.44529070540256,180106,523,2167.5758740901947,,19.069313049316406,36.68255615234375,0.09
180,MetaDrive-td3combine-expt_with_safe—reuse-rb,83,151.44992700114335,181036,528,2178.620849132538,,19.761455535888672,38.17344284057617,0.08
181,MetaDrive-td3combine-expt_with_safe—reuse-rb,83,153.19974335726866,182315,534,2194.3447790145874,-39.3703498840332,20.257516860961914,39.53181076049805,0.09
182,MetaDrive-td3combine-expt_with_safe—reuse-rb,83,153.74723541938621,183017,537,2202.95956492424,-34.87794494628906,11.272041320800781,34.70867919921875,0.1
183,MetaDrive-td3combine-expt_with_safe—reuse-rb,83,149.20877127381294,184690,541,2223.736829996109,,20.923660278320312,38.334754943847656,0.08
184,MetaDrive-td3combine-expt_with_safe—reuse-rb,83,148.28040328321794,185096,544,2228.751997947693,,5.933559417724609,35.700252532958984,0.07
185,MetaDrive-td3combine-expt_with_safe—reuse-rb,83,153.25736123974704,186068,547,2240.0669910907745,,21.59250831604004,45.553401947021484,0.09
186,MetaDrive-td3combine-expt_with_safe—reuse-rb,83,156.2129211053297,187031,549,2252.8388521671295,-31.977039337158203,30.88904571533203,33.176692962646484,0.09
187,MetaDrive-td3combine-expt_with_safe—reuse-rb,83,159.26271149350688,188502,552,2270.5925941467285,,10.373485565185547,31.43751335144043,0.1
188,MetaDrive-td3combine-expt_with_safe—reuse-rb,82,157.50541099353958,189051,556,2278.077833890915,-40.991355895996094,18.389331817626953,40.49302291870117,0.1
189,MetaDrive-td3combine-expt_with_safe—reuse-rb,82,157.97736925197557,190375,562,2294.2748651504517,-28.790245056152344,99.72050476074219,27.76495361328125,0.1
190,MetaDrive-td3combine-expt_with_safe—reuse-rb,82,159.77565257834493,191266,564,2306.025805950165,,26.337360382080078,36.441253662109375,0.1
191,MetaDrive-td3combine-expt_with_safe—reuse-rb,82,162.31549983344652,192081,567,2315.8162450790405,-43.26820373535156,129.533447265625,41.95127487182617,0.1
192,MetaDrive-td3combine-expt_with_safe—reuse-rb,82,164.21288014091465,193264,573,2330.911365032196,,15.104423522949219,26.82283592224121,0.09
193,MetaDrive-td3combine-expt_with_safe—reuse-rb,82,162.9681428198394,194026,577,2340.264970064163,,24.119388580322266,37.03034973144531,0.09
194,MetaDrive-td3combine-expt_with_safe—reuse-rb,82,160.58214149818565,195034,582,2353.11589717865,,20.355819702148438,33.599815368652344,0.09
195,MetaDrive-td3combine-expt_with_safe—reuse-rb,82,163.597132858191,196161,588,2367.110188961029,-37.26351547241211,29.17303466796875,35.79269027709961,0.1
196,MetaDrive-td3combine-expt_with_safe—reuse-rb,82,159.96597322194486,197061,594,2378.5380070209503,-29.676708221435547,22.464054107666016,29.749263763427734,0.1
197,MetaDrive-td3combine-expt_with_safe—reuse-rb,82,155.1289122487351,198691,600,2398.795722961426,-35.219947814941406,35.8944206237793,35.50278091430664,0.09
198,MetaDrive-td3combine-expt_with_safe—reuse-rb,82,154.81169885646355,199185,603,2405.3673799037933,-30.000259399414062,14.426467895507812,29.781681060791016,0.09
199,MetaDrive-td3combine-expt_with_safe—reuse-rb,82,153.59316945504267,200157,607,2417.6296529769897,-35.132320404052734,15.72932243347168,36.016597747802734,0.09
200,MetaDrive-td3combine-expt_with_safe—reuse-rb,82,153.60147432761664,201286,612,2431.535709142685,,29.72201156616211,47.58982849121094,0.11
201,MetaDrive-td3combine-expt_with_safe—reuse-rb,82,157.28089169908353,202052,615,2440.903505086899,,4.450870513916016,39.63404083251953,0.11
202,MetaDrive-td3combine-expt_with_safe—reuse-rb,82,153.05353076009914,203186,622,2455.3101530075073,,11.439482688903809,33.04555892944336,0.11
203,MetaDrive-td3combine-expt_with_safe—reuse-rb,82,152.38295374718479,204489,624,2471.1756579875946,-43.982749938964844,22.67418670654297,42.86621856689453,0.11
204,MetaDrive-td3combine-expt_with_safe—reuse-rb,82,155.12041865119068,205034,626,2478.282856941223,,11.509801864624023,26.215923309326172,0.11
205,MetaDrive-td3combine-expt_with_safe—reuse-rb,82,158.389895589278,206030,630,2491.9556851387024,,8.28752613067627,36.6914176940918,0.11
206,MetaDrive-td3combine-expt_with_safe—reuse-rb,82,157.35567970970888,207352,635,2508.668818950653,,25.930435180664062,39.95148849487305,0.12
207,MetaDrive-td3combine-expt_with_safe—reuse-rb,82,158.21450270382005,208078,638,2517.9202671051025,,46.9730224609375,39.51317596435547,0.11
208,MetaDrive-td3combine-expt_with_safe—reuse-rb,82,161.83079474128243,209861,643,2540.388480901718,-45.874263763427734,17.204463958740234,46.537078857421875,0.11
209,MetaDrive-td3combine-expt_with_safe—reuse-rb,82,162.69988800284705,210186,644,2544.646511077881,,23.635601043701172,42.56340026855469,0.11
210,MetaDrive-td3combine-expt_with_safe—reuse-rb,82,162.96163747188538,211003,647,2555.141741037369,-38.594844818115234,10.590097427368164,38.660423278808594,0.1
211,MetaDrive-td3combine-expt_with_safe—reuse-rb,82,160.08203514720327,212993,652,2579.67751288414,-48.8726806640625,14.428142547607422,47.68273162841797,0.11
212,MetaDrive-td3combine-expt_with_safe—reuse-rb,82,160.9672684358036,213135,653,2581.423421859741,-31.446643829345703,30.37313461303711,29.790828704833984,0.11
213,MetaDrive-td3combine-expt_with_safe—reuse-rb,82,166.69831555033994,214302,658,2596.852164030075,,23.227088928222656,30.963171005249023,0.12
214,MetaDrive-td3combine-expt_with_safe—reuse-rb,82,167.98767582611237,215303,659,2609.7029192447662,-43.18101501464844,52.07640838623047,41.714813232421875,0.12
215,MetaDrive-td3combine-expt_with_safe—reuse-rb,82,161.20854887789238,216214,664,2621.585340976715,,38.46275329589844,49.764862060546875,0.1
216,MetaDrive-td3combine-expt_with_safe—reuse-rb,82,162.08019426744207,217228,668,2634.511869907379,,18.54754638671875,47.37451934814453,0.1
217,MetaDrive-td3combine-expt_with_safe—reuse-rb,82,158.23477227261256,218010,673,2644.8026990890503,,17.009109497070312,33.59392166137695,0.1
218,MetaDrive-td3combine-expt_with_safe—reuse-rb,82,156.30770124148376,219638,678,2665.555051088333,,23.118091583251953,45.060096740722656,0.1
219,MetaDrive-td3combine-expt_with_safe—reuse-rb,82,154.497188676739,220082,681,2671.7911961078644,,21.37609100341797,45.31212615966797,0.1
220,MetaDrive-td3combine-expt_with_safe—reuse-rb,82,157.07285451540412,221081,686,2684.845365047455,-49.278839111328125,17.71601104736328,48.24995422363281,0.1
221,MetaDrive-td3combine-expt_with_safe—reuse-rb,82,158.64770770467106,222064,691,2698.315929174423,,9.31281852722168,48.1032829284668,0.09
222,MetaDrive-td3combine-expt_with_safe—reuse-rb,82,161.78995348793504,223092,694,2712.364760160446,,9.613673210144043,41.83171463012695,0.1
223,MetaDrive-td3combine-expt_with_safe—reuse-rb,82,164.1662884841572,224009,698,2724.4111490249634,-40.454383850097656,21.630565643310547,39.688720703125,0.11
224,MetaDrive-td3combine-expt_with_safe—reuse-rb,82,169.84319411918773,225141,701,2740.0433740615845,-37.96223068237305,17.544879913330078,37.85481643676758,0.11
225,MetaDrive-td3combine-expt_with_safe—reuse-rb,82,169.69696321825657,226932,705,2763.7060990333557,,20.829673767089844,34.07908248901367,0.1
226,MetaDrive-td3combine-expt_with_safe—reuse-rb,82,170.0664073693872,227384,706,2769.8674700260162,,61.793548583984375,42.63212585449219,0.11
227,MetaDrive-td3combine-expt_with_safe—reuse-rb,82,169.06328575205086,228023,710,2778.777719974518,-48.93948745727539,192.70989990234375,46.972503662109375,0.1
228,MetaDrive-td3combine-expt_with_safe—reuse-rb,81,169.0114647457231,229037,714,2793.1727769374847,-37.413543701171875,22.92072868347168,38.194305419921875,0.09
229,MetaDrive-td3combine-expt_with_safe—reuse-rb,81,169.21734254232717,230070,719,2807.6994960308075,,22.96363067626953,40.240814208984375,0.09
230,MetaDrive-td3combine-expt_with_safe—reuse-rb,81,167.77220630652212,231035,724,2821.152652978897,-47.94282150268555,95.20306396484375,49.200103759765625,0.09
231,MetaDrive-td3combine-expt_with_safe—reuse-rb,81,168.3522956176549,232036,725,2835.750571012497,,31.796817779541016,52.58162307739258,0.09
232,MetaDrive-td3combine-expt_with_safe—reuse-rb,81,168.5076464479794,233019,729,2848.8674800395966,-43.3434944152832,16.0546817779541,41.92829513549805,0.1
233,MetaDrive-td3combine-expt_with_safe—reuse-rb,81,169.06653447245895,234100,733,2863.114087820053,,26.64348030090332,46.665077209472656,0.1
234,MetaDrive-td3combine-expt_with_safe—reuse-rb,81,168.5820835388456,235101,734,2876.339111804962,-39.19403076171875,10.49565601348877,39.830345153808594,0.1
235,MetaDrive-td3combine-expt_with_safe—reuse-rb,81,166.479192982153,236102,735,2889.4409289360046,,29.456298828125,40.27914810180664,0.09
236,MetaDrive-td3combine-expt_with_safe—reuse-rb,81,161.55385020941475,237015,741,2902.1261570453644,-42.44493865966797,20.04855728149414,43.52155303955078,0.09
237,MetaDrive-td3combine-expt_with_safe—reuse-rb,81,161.1894653051173,238016,742,2915.2913949489594,,32.8642578125,44.08811569213867,0.09
238,MetaDrive-td3combine-expt_with_safe—reuse-rb,81,161.11652516246548,239220,746,2932.0397980213165,,16.577682495117188,41.66145706176758,0.08
239,MetaDrive-td3combine-expt_with_safe—reuse-rb,81,161.44933019929434,240275,749,2946.2905859947205,-45.104793548583984,29.722721099853516,44.1306266784668,0.08
240,MetaDrive-td3combine-expt_with_safe—reuse-rb,81,162.4106235275295,241866,753,2968.167232990265,,22.998729705810547,35.34639358520508,0.07
241,MetaDrive-td3combine-expt_with_safe—reuse-rb,81,163.32817640513937,242867,754,2980.905930995941,-50.29835510253906,14.603440284729004,51.14250946044922,0.07
242,MetaDrive-td3combine-expt_with_safe—reuse-rb,81,165.06588365423886,243235,755,2985.9510641098022,-46.378875732421875,22.418609619140625,44.70915985107422,0.08
243,MetaDrive-td3combine-expt_with_safe—reuse-rb,81,166.22628368232577,244700,757,3005.2047820091248,,19.402753829956055,47.799442291259766,0.07
244,MetaDrive-td3combine-expt_with_safe—reuse-rb,81,162.7276955946602,245049,759,3010.0146191120148,-48.814308166503906,47.767425537109375,49.042449951171875,0.07
245,MetaDrive-td3combine-expt_with_safe—reuse-rb,81,163.19997513251457,246303,761,3027.771108150482,-47.676658630371094,34.19779586791992,48.22854232788086,0.07
246,MetaDrive-td3combine-expt_with_safe—reuse-rb,81,163.74565993415493,247304,762,3042.0026500225067,,28.638370513916016,43.71904373168945,0.07
247,MetaDrive-td3combine-expt_with_safe—reuse-rb,81,159.49091931726932,248012,766,3052.0402071475983,,22.197975158691406,43.682655334472656,0.07
248,MetaDrive-td3combine-expt_with_safe—reuse-rb,81,159.6400774417542,249013,767,3066.0873560905457,-50.125831604003906,14.511383056640625,48.9973030090332,0.07
249,MetaDrive-td3combine-expt_with_safe—reuse-rb,81,159.97024208101405,250575,770,3087.0288591384888,-48.24037170410156,18.691959381103516,47.961978912353516,0.07
250,MetaDrive-td3combine-expt_with_safe—reuse-rb,81,158.98396434831204,251675,773,3102.2642810344696,-37.1602897644043,36.224239349365234,36.662841796875,0.07
251,MetaDrive-td3combine-expt_with_safe—reuse-rb,81,157.97808526193498,252031,775,3107.257490873337,-46.910762786865234,32.98786544799805,46.58336639404297,0.07
252,MetaDrive-td3combine-expt_with_safe—reuse-rb,81,163.20176479792386,253411,780,3125.986319065094,-48.01705551147461,16.630754470825195,47.36058044433594,0.08
253,MetaDrive-td3combine-expt_with_safe—reuse-rb,81,164.80826208572796,254038,782,3134.7952089309692,,25.49843978881836,36.32411193847656,0.08
254,MetaDrive-td3combine-expt_with_safe—reuse-rb,80,169.533824001467,255697,784,3157.0976860523224,-43.885093688964844,25.998611450195312,44.05885314941406,0.09
255,MetaDrive-td3combine-expt_with_safe—reuse-rb,80,172.30058340524639,256461,786,3167.556091070175,-39.862953186035156,30.288957595825195,38.46730041503906,0.1
256,MetaDrive-td3combine-expt_with_safe—reuse-rb,80,171.09944906601802,257462,787,3180.8833169937134,,25.061946868896484,42.778900146484375,0.1
257,MetaDrive-td3combine-expt_with_safe—reuse-rb,80,171.19674208082,258311,791,3192.7786848545074,-41.9174690246582,99.20732116699219,39.79062271118164,0.1
258,MetaDrive-td3combine-expt_with_safe—reuse-rb,80,168.74794555815993,259593,793,3210.5270581245422,-46.45269775390625,17.070653915405273,46.21355438232422,0.09
259,MetaDrive-td3combine-expt_with_safe—reuse-rb,80,164.42117564097046,260943,796,3229.7372829914093,-40.52756118774414,9.798632621765137,39.244720458984375,0.09
260,MetaDrive-td3combine-expt_with_safe—reuse-rb,80,164.79827130451173,261148,797,3232.7495238780975,,29.059539794921875,41.08877944946289,0.09
261,MetaDrive-td3combine-expt_with_safe—reuse-rb,80,168.62752995902395,262028,799,3245.4070329666138,,26.64285659790039,39.176944732666016,0.09
262,MetaDrive-td3combine-expt_with_safe—reuse-rb,80,164.88365257113162,263142,801,3261.2249829769135,,28.45055389404297,41.92477035522461,0.09
263,MetaDrive-td3combine-expt_with_safe—reuse-rb,80,166.12372519750147,264087,802,3274.3724920749664,-33.449180603027344,17.872751235961914,32.774513244628906,0.1
264,MetaDrive-td3combine-expt_with_safe—reuse-rb,80,165.78761646281973,265401,804,3294.1241059303284,-42.798152923583984,29.046865463256836,41.42969512939453,0.1
265,MetaDrive-td3combine-expt_with_safe—reuse-rb,80,163.56232774055957,266851,806,3314.0765039920807,-39.05129623413086,25.14874267578125,38.77976989746094,0.09
266,MetaDrive-td3combine-expt_with_safe—reuse-rb,80,165.11315662252787,267974,808,3329.3983290195465,,79.42462158203125,37.088497161865234,0.09
267,MetaDrive-td3combine-expt_with_safe—reuse-rb,80,165.47786776780634,268127,809,3331.520195007324,-54.50874328613281,11.076025009155273,54.86707305908203,0.09
268,MetaDrive-td3combine-expt_with_safe—reuse-rb,80,169.0891444566385,269261,811,3347.156195163727,-52.928646087646484,9.922395706176758,53.37045669555664,0.1
269,MetaDrive-td3combine-expt_with_safe—reuse-rb,80,171.50489133792914,270225,814,3360.6496160030365,-42.96373748779297,56.93720245361328,41.725013732910156,0.11
270,MetaDrive-td3combine-expt_with_safe—reuse-rb,80,174.0970724421287,271644,817,3379.9296481609344,,21.69385528564453,43.02885818481445,0.11
271,MetaDrive-td3combine-expt_with_safe—reuse-rb,80,174.84576562577465,272645,818,3394.011713027954,-39.1166877746582,25.34781837463379,38.5028190612793,0.11
272,MetaDrive-td3combine-expt_with_safe—reuse-rb,80,174.0070531240216,273646,819,3407.605476140976,,19.14044189453125,36.22695541381836,0.11
273,MetaDrive-td3combine-expt_with_safe—reuse-rb,80,175.18277985805105,274072,821,3413.9599611759186,,27.966392517089844,44.4378776550293,0.11
274,MetaDrive-td3combine-expt_with_safe—reuse-rb,80,175.12978953216688,275821,824,3439.6981942653656,-43.65703582763672,33.888885498046875,42.42185974121094,0.11
275,MetaDrive-td3combine-expt_with_safe—reuse-rb,80,175.84959269439008,276422,825,3448.6276290416718,,35.31475830078125,47.369781494140625,0.11
276,MetaDrive-td3combine-expt_with_safe—reuse-rb,80,179.76112804065417,277074,827,3458.2280011177063,,12.4970703125,39.670875549316406,0.12
277,MetaDrive-td3combine-expt_with_safe—reuse-rb,80,178.93011350795064,278075,828,3472.163791179657,-47.52676010131836,25.933048248291016,48.70734405517578,0.11
278,MetaDrive-td3combine-expt_with_safe—reuse-rb,80,174.8150717972215,279424,831,3491.6796491146088,,20.87689208984375,44.26874542236328,0.11
279,MetaDrive-td3combine-expt_with_safe—reuse-rb,80,175.95742827553724,280050,833,3500.506322860718,,20.155548095703125,35.2294807434082,0.11
280,MetaDrive-td3combine-expt_with_safe—reuse-rb,79,181.06076339951588,281571,838,3522.5148870944977,-46.680023193359375,18.97266960144043,47.211822509765625,0.11
281,MetaDrive-td3combine-expt_with_safe—reuse-rb,79,183.75479494776468,282331,840,3533.9784030914307,-39.262535095214844,105.9710693359375,37.44117736816406,0.12
282,MetaDrive-td3combine-expt_with_safe—reuse-rb,79,187.39958319759117,283077,842,3544.4409861564636,-29.27495574951172,35.699798583984375,29.696550369262695,0.12
283,MetaDrive-td3combine-expt_with_safe—reuse-rb,79,185.52553423306668,284173,846,3560.2780661582947,-45.385841369628906,76.45191192626953,45.227752685546875,0.13
284,MetaDrive-td3combine-expt_with_safe—reuse-rb,79,185.70386411263243,285174,847,3574.174020051956,,26.832067489624023,36.92940139770508,0.13
285,MetaDrive-td3combine-expt_with_safe—reuse-rb,79,183.78870197035005,286013,850,3586.8777210712433,-35.05308532714844,23.31534194946289,34.36314392089844,0.12
286,MetaDrive-td3combine-expt_with_safe—reuse-rb,79,183.29694059715086,287486,853,3607.490182161331,,115.65377044677734,46.762516021728516,0.12
287,MetaDrive-td3combine-expt_with_safe—reuse-rb,79,182.67107232785384,288251,855,3618.8124480247498,-43.447601318359375,66.22746276855469,44.1788330078125,0.12
288,MetaDrive-td3combine-expt_with_safe—reuse-rb,79,184.58754498123017,289349,859,3634.4541339874268,-43.989017486572266,33.96737289428711,43.873050689697266,0.14
289,MetaDrive-td3combine-expt_with_safe—reuse-rb,79,183.8250546915963,290145,863,3645.7338931560516,-61.06349563598633,29.733787536621094,61.04641342163086,0.14
290,MetaDrive-td3combine-expt_with_safe—reuse-rb,79,187.72374984141936,291234,866,3661.8354511260986,,16.591201782226562,37.04981231689453,0.14
291,MetaDrive-td3combine-expt_with_safe—reuse-rb,79,188.67965706230044,292881,869,3685.8882291316986,-40.217681884765625,71.19184875488281,39.85959243774414,0.15
292,MetaDrive-td3combine-expt_with_safe—reuse-rb,79,191.75906403339275,293882,870,3699.545429944992,,117.98818969726562,47.799720764160156,0.15
293,MetaDrive-td3combine-expt_with_safe—reuse-rb,79,192.92677193293315,294051,871,3702.199047088623,-46.16684341430664,15.804708480834961,45.64712142944336,0.15
294,MetaDrive-td3combine-expt_with_safe—reuse-rb,79,195.00201199440843,295914,875,3729.6534860134125,,37.35192108154297,54.598838806152344,0.15
295,MetaDrive-td3combine-expt_with_safe—reuse-rb,79,195.1500539399492,296297,876,3735.2844099998474,-42.313514709472656,29.142818450927734,42.71015167236328,0.15
296,MetaDrive-td3combine-expt_with_safe—reuse-rb,79,198.4483359306986,297008,878,3745.637631893158,,17.894615173339844,38.609378814697266,0.16
297,MetaDrive-td3combine-expt_with_safe—reuse-rb,79,203.07056374601706,298254,880,3764.1295189857483,,19.041988372802734,43.090087890625,0.17
298,MetaDrive-td3combine-expt_with_safe—reuse-rb,79,206.577316137233,299334,882,3779.3533701896667,,32.40030288696289,41.00959014892578,0.19
299,MetaDrive-td3combine-expt_with_safe—reuse-rb,79,206.04838607825633,300378,884,3794.9108250141144,,63.645755767822266,37.887489318847656,0.19
300,MetaDrive-td3combine-expt_with_safe—reuse-rb,79,206.9982942154698,301550,887,3811.5115060806274,,50.432106018066406,44.943965911865234,0.19
301,MetaDrive-td3combine-expt_with_safe—reuse-rb,79,209.76802883103647,302182,889,3820.800267934799,,16.032272338867188,52.159244537353516,0.2
302,MetaDrive-td3combine-expt_with_safe—reuse-rb,79,211.9405463395429,303047,891,3833.6421942710876,-39.49123001098633,20.54296875,38.99373245239258,0.2
303,MetaDrive-td3combine-expt_with_safe—reuse-rb,78,219.49247301794,304499,894,3855.3179681301117,-44.497982025146484,22.717002868652344,42.9923095703125,0.21
304,MetaDrive-td3combine-expt_with_safe—reuse-rb,78,219.58157575922544,305130,896,3864.246762037277,,24.393278121948242,45.017242431640625,0.2
305,MetaDrive-td3combine-expt_with_safe—reuse-rb,78,218.5953891305818,306064,900,3877.9115719795227,,47.473594665527344,53.41032791137695,0.2
306,MetaDrive-td3combine-expt_with_safe—reuse-rb,78,220.0692142049825,307575,902,3899.8020730018616,-43.51215362548828,47.56346893310547,42.597164154052734,0.2
307,MetaDrive-td3combine-expt_with_safe—reuse-rb,78,219.78868959655,308211,905,3908.820394039154,-46.55853271484375,16.76799201965332,47.22380447387695,0.2
308,MetaDrive-td3combine-expt_with_safe—reuse-rb,78,221.40556689411952,309138,908,3922.193638086319,,25.093204498291016,46.248111724853516,0.21
309,MetaDrive-td3combine-expt_with_safe—reuse-rb,78,220.98455199255216,310210,911,3937.7956120967865,,28.77517318725586,56.42985916137695,0.21
310,MetaDrive-td3combine-expt_with_safe—reuse-rb,78,219.2859132300507,311217,915,3952.720128059387,-46.28257369995117,46.59280776977539,46.58525085449219,0.2
311,MetaDrive-td3combine-expt_with_safe—reuse-rb,78,217.08406347609684,312469,918,3969.998748064041,-40.67113494873047,11.14094066619873,41.01180648803711,0.2
312,MetaDrive-td3combine-expt_with_safe—reuse-rb,78,220.29570321405728,313470,919,3984.1970930099487,,20.75469970703125,45.63022232055664,0.2
313,MetaDrive-td3combine-expt_with_safe—reuse-rb,78,223.8687041844386,314057,920,3993.0054490566254,-40.3082275390625,9.861644744873047,40.801090240478516,0.2
314,MetaDrive-td3combine-expt_with_safe—reuse-rb,78,219.17107776567454,315134,926,4009.7108380794525,,18.2136287689209,58.37487030029297,0.21
315,MetaDrive-td3combine-expt_with_safe—reuse-rb,78,218.91641466992357,316120,929,4023.6146931648254,,135.3379364013672,45.603511810302734,0.21
316,MetaDrive-td3combine-expt_with_safe—reuse-rb,78,219.99307501181957,317264,934,4040.6695878505707,,39.92633056640625,48.843841552734375,0.2
317,MetaDrive-td3combine-expt_with_safe—reuse-rb,78,218.2866712939539,318444,938,4058.2287118434906,,58.03863525390625,38.16795349121094,0.2
318,MetaDrive-td3combine-expt_with_safe—reuse-rb,78,217.60738532126527,319221,940,4069.4755430221558,-51.31875991821289,30.94247817993164,51.08766174316406,0.2
319,MetaDrive-td3combine-expt_with_safe—reuse-rb,78,217.66641242017778,320160,942,4083.50283908844,,29.949203491210938,44.13376998901367,0.21
320,MetaDrive-td3combine-expt_with_safe—reuse-rb,78,220.5766317035296,321179,944,4099.036464214325,-54.002777099609375,33.73693084716797,53.89283752441406,0.21
321,MetaDrive-td3combine-expt_with_safe—reuse-rb,78,220.0280189365593,322372,948,4116.026978969574,,110.71720886230469,41.695377349853516,0.22
322,MetaDrive-td3combine-expt_with_safe—reuse-rb,78,219.71393703715873,323808,951,4136.453903198242,,25.454505920410156,46.187435150146484,0.22
323,MetaDrive-td3combine-expt_with_safe—reuse-rb,78,219.026652244641,324011,952,4139.532730102539,-45.453102111816406,10.555891036987305,45.4683723449707,0.22
324,MetaDrive-td3combine-expt_with_safe—reuse-rb,78,219.96769794171342,325012,953,4152.9612872600555,,17.713176727294922,46.94099807739258,0.22
325,MetaDrive-td3combine-expt_with_safe—reuse-rb,78,220.61842277981265,326907,956,4180.206878900528,-47.442115783691406,69.62286376953125,47.46107864379883,0.21
326,MetaDrive-td3combine-expt_with_safe—reuse-rb,78,224.50537271914834,327630,957,4190.408983945847,,49.46506118774414,54.02093505859375,0.22
327,MetaDrive-td3combine-expt_with_safe—reuse-rb,78,226.88580458215648,328631,958,4203.917786121368,-47.27759552001953,22.71644401550293,46.64265060424805,0.22
328,MetaDrive-td3combine-expt_with_safe—reuse-rb,78,228.11328826814562,329227,959,4212.879907131195,-45.46783447265625,48.379425048828125,46.495689392089844,0.22
329,MetaDrive-td3combine-expt_with_safe—reuse-rb,78,227.34931612254414,330082,961,4224.571293830872,,7.828738212585449,48.69495391845703,0.22
330,MetaDrive-td3combine-expt_with_safe—reuse-rb,78,228.67821120530797,331083,962,4238.944368124008,-51.724056243896484,22.549842834472656,51.890045166015625,0.22
331,MetaDrive-td3combine-expt_with_safe—reuse-rb,78,229.09006557221852,332084,963,4253.356003046036,,26.17766761779785,40.67583465576172,0.22
332,MetaDrive-td3combine-expt_with_safe—reuse-rb,78,227.58092745522848,333992,966,4280.792103052139,,14.725371360778809,50.21234130859375,0.22
333,MetaDrive-td3combine-expt_with_safe—reuse-rb,78,231.03949705571574,334593,967,4289.614207029343,-49.89887237548828,44.753509521484375,48.80106735229492,0.23
334,MetaDrive-td3combine-expt_with_safe—reuse-rb,77,229.05204913908176,335168,969,4298.152741193771,,19.15850067138672,43.475990295410156,0.22
335,MetaDrive-td3combine-expt_with_safe—reuse-rb,77,226.14030808262953,336372,971,4314.638772010803,,49.73292541503906,50.896507263183594,0.22
336,MetaDrive-td3combine-expt_with_safe—reuse-rb,77,228.0965467501041,337054,973,4323.937716007233,,30.975522994995117,50.91571044921875,0.23
337,MetaDrive-td3combine-expt_with_safe—reuse-rb,77,229.93965813029817,338306,976,4341.9022970199585,,19.753162384033203,51.44295120239258,0.24
338,MetaDrive-td3combine-expt_with_safe—reuse-rb,77,229.43955497096272,339738,978,4362.051666975021,,63.95029067993164,50.25101089477539,0.24
339,MetaDrive-td3combine-expt_with_safe—reuse-rb,77,228.22792708385077,340187,979,4368.818576097488,-46.54938888549805,49.82221984863281,47.858760833740234,0.23
340,MetaDrive-td3combine-expt_with_safe—reuse-rb,77,225.23163343514926,341188,980,4382.998706817627,,30.62830924987793,44.70994567871094,0.22
341,MetaDrive-td3combine-expt_with_safe—reuse-rb,77,216.1019214006363,342847,983,4406.3249888420105,-41.04860305786133,44.69316101074219,42.15546417236328,0.19
342,MetaDrive-td3combine-expt_with_safe—reuse-rb,77,217.7115284148497,343410,984,4414.178368091583,,15.425366401672363,53.220054626464844,0.2
343,MetaDrive-td3combine-expt_with_safe—reuse-rb,77,212.95465436746497,344358,988,4427.694550991058,,25.83776092529297,36.27469253540039,0.19
344,MetaDrive-td3combine-expt_with_safe—reuse-rb,77,209.32341292991518,345690,990,4446.611754894257,,51.53057098388672,48.82509231567383,0.19
345,MetaDrive-td3combine-expt_with_safe—reuse-rb,77,208.52723438414637,346691,991,4461.123311042786,-43.162559509277344,48.76103210449219,42.41295623779297,0.19
346,MetaDrive-td3combine-expt_with_safe—reuse-rb,77,208.1674767422341,347152,992,4468.779549837112,,48.120208740234375,41.583011627197266,0.18
347,MetaDrive-td3combine-expt_with_safe—reuse-rb,77,203.4623155211494,348073,996,4483.0901601314545,-44.6494026184082,27.855857849121094,42.14889907836914,0.19
348,MetaDrive-td3combine-expt_with_safe—reuse-rb,77,208.19184431450222,349235,999,4499.680958032608,-51.504241943359375,29.877685546875,50.802650451660156,0.2
349,MetaDrive-td3combine-expt_with_safe—reuse-rb,77,203.72092765052054,350043,1001,4511.085262060165,-45.39499282836914,29.744667053222656,45.28248596191406,0.2
350,MetaDrive-td3combine-expt_with_safe—reuse-rb,77,203.76222342392876,351075,1005,4526.839769124985,-50.92100524902344,35.56767272949219,50.57355880737305,0.2
351,MetaDrive-td3combine-expt_with_safe—reuse-rb,77,206.57308997170242,352575,1007,4548.19836306572,-45.43916320800781,36.04668426513672,44.00803756713867,0.21
352,MetaDrive-td3combine-expt_with_safe—reuse-rb,77,197.2453531095304,353337,1011,4559.868968963623,-55.38064193725586,28.009273529052734,55.01238250732422,0.19
353,MetaDrive-td3combine-expt_with_safe—reuse-rb,77,198.85100301210107,354889,1013,4582.183660984039,-53.078956604003906,85.580322265625,52.003517150878906,0.2
354,MetaDrive-td3combine-expt_with_safe—reuse-rb,77,199.98133295010754,355361,1014,4588.743185043335,-39.115211486816406,84.14971923828125,38.12349319458008,0.21
355,MetaDrive-td3combine-expt_with_safe—reuse-rb,77,199.3191056029853,356362,1015,4603.701520204544,,26.14166259765625,43.84342956542969,0.21
356,MetaDrive-td3combine-expt_with_safe—reuse-rb,77,202.2618665200356,357297,1017,4616.976629972458,-45.69842529296875,25.1318359375,44.97191619873047,0.21
357,MetaDrive-td3combine-expt_with_safe—reuse-rb,77,200.429392828236,358117,1018,4628.502695083618,-48.44529342651367,48.23097610473633,49.18118667602539,0.21
358,MetaDrive-td3combine-expt_with_safe—reuse-rb,77,199.21788674762436,359426,1021,4642.340687990189,,109.36026000976562,39.871665954589844,0.22
359,MetaDrive-td3combine-expt_with_safe—reuse-rb,77,202.54510984750956,360001,1023,4648.306217908859,-35.80821990966797,12.479216575622559,36.0444221496582,0.22
360,MetaDrive-td3combine-expt_with_safe—reuse-rb,77,199.2985089382446,361777,1027,4666.472407102585,-43.49655532836914,22.22594451904297,43.1063232421875,0.21
361,MetaDrive-td3combine-expt_with_safe—reuse-rb,77,200.8439411960658,362153,1028,4670.3089990615845,-45.92305374145508,25.442806243896484,44.79609680175781,0.22
362,MetaDrive-td3combine-expt_with_safe—reuse-rb,77,205.02481508973727,363524,1030,4685.205176115036,,22.466033935546875,55.13741683959961,0.22
363,MetaDrive-td3combine-expt_with_safe—reuse-rb,77,205.679347899827,364133,1032,4691.719609975815,-43.802310943603516,20.840648651123047,44.07012176513672,0.23
364,MetaDrive-td3combine-expt_with_safe—reuse-rb,77,205.05216730976844,365441,1034,4705.045655965805,-44.8581657409668,28.082271575927734,43.23191452026367,0.23
365,MetaDrive-td3combine-expt_with_safe—reuse-rb,77,206.43274144310678,366297,1036,4714.167587995529,-39.973655700683594,33.721214294433594,39.06689453125,0.23
366,MetaDrive-td3combine-expt_with_safe—reuse-rb,77,201.76439295971994,367704,1039,4728.722237825394,,39.67048645019531,37.75889205932617,0.23
367,MetaDrive-td3combine-expt_with_safe—reuse-rb,77,204.04517048671684,368058,1040,4732.624216079712,,130.154541015625,45.25364685058594,0.23
368,MetaDrive-td3combine-expt_with_safe—reuse-rb,77,205.85496421205409,369715,1042,4750.19198513031,-47.962459564208984,49.8682861328125,49.93431854248047,0.23
369,MetaDrive-td3combine-expt_with_safe—reuse-rb,77,209.24785764799634,370521,1043,4759.173109054565,-48.5001106262207,82.34669494628906,49.2343635559082,0.24
370,MetaDrive-td3combine-expt_with_safe—reuse-rb,77,209.94580201098134,371522,1044,4769.390120983124,,99.8656997680664,48.71292495727539,0.24
371,MetaDrive-td3combine-expt_with_safe—reuse-rb,77,210.26447788479152,372218,1046,4776.876116037369,,14.059797286987305,50.11409378051758,0.24
372,MetaDrive-td3combine-expt_with_safe—reuse-rb,77,212.18672138133087,373440,1048,4789.449849128723,,33.350257873535156,58.28429412841797,0.23
373,MetaDrive-td3combine-expt_with_safe—reuse-rb,78,213.71245432806793,374441,1049,4800.011991024017,-37.7835807800293,11.169197082519531,36.9768180847168,0.23
374,MetaDrive-td3combine-expt_with_safe—reuse-rb,78,216.60976451901567,375144,1051,4807.589741945267,,14.785398483276367,42.769100189208984,0.23
375,MetaDrive-td3combine-expt_with_safe—reuse-rb,78,211.34702832377982,376174,1055,4818.565564870834,,159.0413818359375,41.57544708251953,0.23
376,MetaDrive-td3combine-expt_with_safe—reuse-rb,78,213.04241114042526,377007,1057,4827.749845027924,-53.752445220947266,77.34075927734375,54.09703826904297,0.23
377,MetaDrive-td3combine-expt_with_safe—reuse-rb,78,206.56928011060137,378051,1060,4838.46805024147,-48.636348724365234,53.90485382080078,48.444915771484375,0.22
378,MetaDrive-td3combine-expt_with_safe—reuse-rb,78,209.36021204357618,379104,1062,4849.490593910217,,27.444538116455078,41.22886657714844,0.23
379,MetaDrive-td3combine-expt_with_safe—reuse-rb,78,208.18431472875568,380259,1066,4862.040138959885,-44.83649826049805,36.503517150878906,43.014427185058594,0.23
380,MetaDrive-td3combine-expt_with_safe—reuse-rb,78,204.53296476930444,381260,1067,4872.463450193405,,55.952693939208984,50.541236877441406,0.22
381,MetaDrive-td3combine-expt_with_safe—reuse-rb,78,208.44856735444606,382134,1069,4882.174799203873,,33.648460388183594,50.148834228515625,0.23
382,MetaDrive-td3combine-expt_with_safe—reuse-rb,78,208.49322943888075,383135,1070,4892.434914112091,-44.890220642089844,11.723976135253906,44.39942169189453,0.23
383,MetaDrive-td3combine-expt_with_safe—reuse-rb,78,209.2006154647407,384149,1073,4903.547966957092,-44.55548858642578,13.458244323730469,44.67683029174805,0.23
384,MetaDrive-td3combine-expt_with_safe—reuse-rb,78,205.34934468817457,385607,1076,4919.085841178894,-50.966697692871094,64.98725128173828,49.95876693725586,0.22
385,MetaDrive-td3combine-expt_with_safe—reuse-rb,78,203.30335115029717,386608,1077,4929.862103939056,,15.997501373291016,41.039676666259766,0.21
386,MetaDrive-td3combine-expt_with_safe—reuse-rb,78,201.27863003671246,387351,1080,4937.964426040649,-38.88844680786133,35.586334228515625,40.11374282836914,0.22
387,MetaDrive-td3combine-expt_with_safe—reuse-rb,78,201.8209090645428,388525,1084,4950.624127864838,-59.2971305847168,62.06208419799805,59.19549560546875,0.22
388,MetaDrive-td3combine-expt_with_safe—reuse-rb,78,202.24445977958285,389526,1085,4960.889150857925,,19.964221954345703,37.3488655090332,0.22
389,MetaDrive-td3combine-expt_with_safe—reuse-rb,78,199.7130782009842,390011,1088,4966.195146083832,-53.09038162231445,151.48707580566406,51.8023567199707,0.21
390,MetaDrive-td3combine-expt_with_safe—reuse-rb,78,200.9539451070527,391402,1090,4980.96617603302,,28.663381576538086,43.115318298339844,0.22
391,MetaDrive-td3combine-expt_with_safe—reuse-rb,78,200.86616933534995,392120,1093,4989.128069162369,,19.635913848876953,48.82592010498047,0.22
392,MetaDrive-td3combine-expt_with_safe—reuse-rb,78,203.45035751014115,393360,1095,5001.9325931072235,,33.601531982421875,38.68998718261719,0.22
393,MetaDrive-td3combine-expt_with_safe—reuse-rb,78,198.30899362574007,394771,1098,5017.950265169144,-47.31275939941406,24.90329933166504,47.27076721191406,0.2
394,MetaDrive-td3combine-expt_with_safe—reuse-rb,78,197.61426360242157,395772,1099,5028.238983869553,,47.53291702270508,48.391700744628906,0.2
395,MetaDrive-td3combine-expt_with_safe—reuse-rb,78,199.47442519592602,396121,1100,5032.20455288887,-43.72673416137695,63.423423767089844,43.487449645996094,0.2
396,MetaDrive-td3combine-expt_with_safe—reuse-rb,78,196.20617954613053,397952,1104,5052.6141839027405,,22.15032386779785,51.43696594238281,0.19
397,MetaDrive-td3combine-expt_with_safe—reuse-rb,78,198.4029786257263,398953,1105,5064.087102890015,-46.189842224121094,15.921249389648438,45.437782287597656,0.19
398,MetaDrive-td3combine-expt_with_safe—reuse-rb,78,195.71312185103386,399090,1106,5065.5938720703125,,27.413021087646484,41.57033920288086,0.18
