TanmayH/CS269-RL-project-code/MetaDrive-test-traffic/td3/progress.csv
,log_dir,frame_per_second,episode_reward,total_steps,total_episodes,total_time,actor_loss,critic_loss,target_q,success_rate
0,MetaDrive-test-traffic,590,6.118029662790153,1039,2,1.7587170600891113,-0.016049180179834366,0.0006618510815314949,0.009750616736710072,0.0
1,MetaDrive-test-traffic,149,-1.1101244856559136,2122,31,14.183690071105957,,0.7910279035568237,-0.03038543090224266,0.0
2,MetaDrive-test-traffic,139,-1.652366256178094,3324,36,23.898643970489502,,0.7955828905105591,-0.07151726633310318,0.0
3,MetaDrive-test-traffic,126,-1.1944374293848328,4032,62,31.767899990081787,,0.8518452644348145,-0.025191975757479668,0.0
4,MetaDrive-test-traffic,119,-0.81495212617462,5012,92,41.89942193031311,,0.7641077637672424,-0.05138370394706726,0.0
5,MetaDrive-test-traffic,114,0.80917501308654,6039,120,52.61248207092285,-0.1610764116048813,1.1752874851226807,-0.009888812899589539,0.0
6,MetaDrive-test-traffic,112,4.065378044340119,7030,140,62.44417905807495,,1.6202889680862427,0.1973034143447876,0.0
7,MetaDrive-test-traffic,110,6.928772471559895,8040,161,72.49779510498047,,1.4948066473007202,0.5832170844078064,0.0
8,MetaDrive-test-traffic,110,9.93815037280334,9004,177,81.49439811706543,,1.4172536134719849,0.9110437631607056,0.0
9,MetaDrive-test-traffic,109,13.217661130971027,10003,194,91.0150420665741,-1.3895916938781738,0.20613297820091248,1.451188325881958,0.0
10,MetaDrive-test-traffic,109,14.880952858279343,11003,213,100.6273410320282,-1.966271996498108,1.47251558303833,1.8743561506271362,0.0
11,MetaDrive-test-traffic,108,15.665797894416052,12041,233,110.82767796516418,-1.9901447296142578,2.3452727794647217,2.02492618560791,0.0
12,MetaDrive-test-traffic,108,16.452879571370367,13031,250,120.29409694671631,-2.8788836002349854,2.1121511459350586,2.7551422119140625,0.0
13,MetaDrive-test-traffic,108,18.75579935331151,14017,265,129.67725801467896,-3.200002670288086,0.38746076822280884,3.227363109588623,0.0
14,MetaDrive-test-traffic,108,23.0248434007432,15064,276,139.30240511894226,,0.45166194438934326,4.047165870666504,0.0
15,MetaDrive-test-traffic,108,28.31468621678068,16117,286,149.0404040813446,-4.318499565124512,1.2788379192352295,4.270422458648682,0.0
16,MetaDrive-test-traffic,108,33.53081826615276,17071,295,157.95126914978027,-5.086938858032227,4.057851791381836,4.888082027435303,0.0
17,MetaDrive-test-traffic,108,41.51356055786142,18084,301,167.21364521980286,,3.464353561401367,6.182201862335205,0.0
18,MetaDrive-test-traffic,108,48.20933920709112,19026,308,175.70386004447937,,1.574594497680664,6.927572727203369,0.0
19,MetaDrive-test-traffic,108,54.05198092735174,20031,317,184.99221301078796,-7.366744518280029,0.9405953288078308,7.32043981552124,0.0
20,MetaDrive-test-traffic,108,60.94529387233716,21087,326,194.4696180820465,-9.111936569213867,0.5074175000190735,9.103753089904785,0.0
21,MetaDrive-test-traffic,108,67.22993041880245,22173,335,204.44998002052307,-9.219841003417969,14.684325218200684,8.97094440460205,0.0
22,MetaDrive-test-traffic,108,73.57979171497658,23041,341,212.4019899368286,-10.55501937866211,13.951751708984375,9.994515419006348,0.0
23,MetaDrive-test-traffic,108,79.21635234465218,24002,348,221.1015031337738,,12.328268051147461,11.098764419555664,0.0
24,MetaDrive-test-traffic,108,89.59583607889692,25152,355,231.69650101661682,,1.1327996253967285,12.120382308959961,0.0
25,MetaDrive-test-traffic,108,97.7171582703192,26152,361,241.0285189151764,,2.4599900245666504,13.193528175354004,0.0
26,MetaDrive-test-traffic,108,101.71986105741149,27067,368,249.45955109596252,-14.891217231750488,1.221315622329712,14.881101608276367,0.0
27,MetaDrive-test-traffic,108,104.92537061817615,28025,375,258.12187218666077,-14.085732460021973,6.042715549468994,13.87582015991211,0.0
28,MetaDrive-test-traffic,108,109.18258136331056,29035,382,267.0697932243347,-16.95932960510254,1.9194751977920532,16.03199005126953,0.0
29,MetaDrive-test-traffic,108,113.20590383041085,30073,389,276.6725971698761,-18.790422439575195,3.2458112239837646,17.90587043762207,0.0
30,MetaDrive-test-traffic,108,115.13124586692,31149,397,286.5775511264801,-18.564559936523438,12.271791458129883,17.793685913085938,0.0
31,MetaDrive-test-traffic,108,117.12941090841684,32106,403,295.53433203697205,,9.605277061462402,19.212814331054688,0.0
32,MetaDrive-test-traffic,108,117.73184197871277,33077,410,304.71380615234375,-20.688446044921875,3.183143138885498,19.877357482910156,0.0
33,MetaDrive-test-traffic,108,124.0824442023808,34210,416,316.056401014328,,2.106100559234619,22.85865020751953,0.0
34,MetaDrive-test-traffic,107,128.56934018918764,35019,419,324.5277099609375,-24.483718872070312,4.421045303344727,23.864898681640625,0.01
35,MetaDrive-test-traffic,107,134.74158771687115,36247,424,337.94489192962646,-25.061922073364258,2.712449312210083,24.58616065979004,0.02
36,MetaDrive-test-traffic,106,139.73356292658144,37468,427,351.3444743156433,,3.3395473957061768,25.466506958007812,0.03
37,MetaDrive-test-traffic,106,142.25272159325922,38061,430,357.30906200408936,-24.169185638427734,13.283863067626953,24.41776466369629,0.03
38,MetaDrive-test-traffic,106,147.63638112703498,39152,433,367.85809993743896,,25.155113220214844,25.932954788208008,0.05
39,MetaDrive-test-traffic,106,152.2346425269609,40022,435,376.3665292263031,,7.065714359283447,26.397321701049805,0.07
40,MetaDrive-test-traffic,106,158.79443619934221,41093,437,387.02455711364746,-29.10295867919922,4.116796493530273,28.27995491027832,0.09
41,MetaDrive-test-traffic,105,163.55005903405416,42171,440,398.159903049469,-30.437105178833008,4.011591911315918,29.511445999145508,0.11
42,MetaDrive-test-traffic,105,168.3732742550926,43362,444,410.59232115745544,,12.829723358154297,29.333126068115234,0.12
43,MetaDrive-test-traffic,105,171.66947478846862,44031,446,417.5220170021057,-32.54710388183594,4.292755603790283,32.4310188293457,0.14
44,MetaDrive-test-traffic,105,177.7069061855856,45129,449,428.57804799079895,-31.35622787475586,17.159835815429688,30.29561996459961,0.16
45,MetaDrive-test-traffic,105,182.41823869745951,46073,451,437.23330211639404,-32.86458206176758,5.256169319152832,32.424896240234375,0.18
46,MetaDrive-test-traffic,105,185.70197774503646,47416,455,450.0675311088562,,9.700899124145508,32.28402328491211,0.19
47,MetaDrive-test-traffic,105,188.25215420182823,48341,458,458.6520071029663,-36.326866149902344,53.86908721923828,35.59356689453125,0.2
48,MetaDrive-test-traffic,105,192.42208822404717,49281,460,467.75227212905884,-34.829856872558594,15.63691520690918,34.80538558959961,0.2
49,MetaDrive-test-traffic,105,196.75647507803285,50229,463,476.11767196655273,-38.2231330871582,49.75196838378906,36.498348236083984,0.22
50,MetaDrive-test-traffic,105,200.27356852532137,51079,466,484.9392640590668,-34.318031311035156,12.812784194946289,33.44207000732422,0.23
51,MetaDrive-test-traffic,105,205.50314500401507,52199,469,496.36236810684204,-40.46839141845703,17.461448669433594,38.767906188964844,0.25
52,MetaDrive-test-traffic,104,212.1785444083098,53320,471,508.00702023506165,,12.03039264678955,37.26829147338867,0.27
53,MetaDrive-test-traffic,104,218.5590066279392,54391,474,519.2200860977173,-37.57098388671875,38.48633575439453,36.09355163574219,0.29
54,MetaDrive-test-traffic,104,222.37906630211808,55187,476,528.128849029541,-43.06935501098633,6.626502990722656,41.49604415893555,0.3
55,MetaDrive-test-traffic,104,226.58101408663936,56043,477,537.8948540687561,-39.236167907714844,25.43119239807129,38.712039947509766,0.31
56,MetaDrive-test-traffic,104,230.41684759862056,57167,481,549.4118700027466,-39.640933990478516,16.130905151367188,38.6605224609375,0.32
57,MetaDrive-test-traffic,103,237.82028185385806,58272,483,561.0334000587463,,13.853392601013184,40.579952239990234,0.33
58,MetaDrive-test-traffic,103,244.29935081875064,59630,485,574.4753379821777,,8.259389877319336,41.4530029296875,0.35
59,MetaDrive-test-traffic,103,245.21543327289098,60073,486,578.6973321437836,-43.26552963256836,29.992809295654297,42.114192962646484,0.36
60,MetaDrive-test-traffic,103,249.45133320048924,61108,490,588.8986780643463,,14.506162643432617,41.772884368896484,0.36
61,MetaDrive-test-traffic,103,253.37315213751143,62253,494,599.984824180603,-40.665382385253906,8.829252243041992,40.93024444580078,0.36
62,MetaDrive-test-traffic,103,258.65954941897746,63493,496,612.099133014679,-43.644500732421875,13.428888320922852,43.2152099609375,0.38
63,MetaDrive-test-traffic,103,263.58341115260936,64731,498,625.5621151924133,-42.52585220336914,29.313472747802734,41.39454650878906,0.39
64,MetaDrive-test-traffic,103,265.3870111587234,65210,499,630.6343822479248,,10.752406120300293,47.37865447998047,0.4
65,MetaDrive-test-traffic,103,269.8555510102582,66374,501,643.6412670612335,,6.950815200805664,43.53710174560547,0.42
66,MetaDrive-test-traffic,102,273.94186434768,67514,504,655.6830270290375,,10.284578323364258,42.85743713378906,0.44
67,MetaDrive-test-traffic,102,276.63738006582673,68031,505,661.153242111206,-44.22512435913086,6.753818035125732,44.2719612121582,0.45
68,MetaDrive-test-traffic,102,281.2550339012536,69256,508,673.2662861347198,,5.344021797180176,45.8453254699707,0.46
69,MetaDrive-test-traffic,102,287.7721799237259,70346,510,683.2486889362335,,54.34327697753906,45.075355529785156,0.48
70,MetaDrive-test-traffic,103,291.57490665977986,71356,512,692.5878190994263,,7.557421684265137,46.34530258178711,0.49
71,MetaDrive-test-traffic,103,292.020984183615,72019,514,698.5125451087952,-50.444793701171875,7.192102432250977,50.66053009033203,0.5
72,MetaDrive-test-traffic,103,292.5663604176268,73386,517,712.2636511325836,,7.783620834350586,47.583927154541016,0.51
73,MetaDrive-test-traffic,103,293.44238869361226,74123,519,719.0510840415955,-45.86868667602539,43.1059684753418,46.070892333984375,0.51
74,MetaDrive-test-traffic,103,297.55153777285614,75558,522,732.4424829483032,,5.223729133605957,51.1929817199707,0.53
75,MetaDrive-test-traffic,103,301.30874608577733,76714,524,743.8790941238403,,6.518645286560059,49.56330108642578,0.53
76,MetaDrive-test-traffic,103,304.0857641082786,77329,525,750.0994892120361,-49.8256721496582,9.972433090209961,49.53892517089844,0.54
77,MetaDrive-test-traffic,102,303.5369679695785,78291,528,762.1034681797028,-51.12761688232422,10.612664222717285,51.5848388671875,0.54
78,MetaDrive-test-traffic,102,308.43348726191135,79525,530,776.3700921535492,-50.89638137817383,17.1075496673584,51.28009796142578,0.56
79,MetaDrive-test-traffic,102,309.2684777887895,80269,532,783.8551280498505,-51.76396179199219,16.432048797607422,50.926883697509766,0.57
80,MetaDrive-test-traffic,102,308.6797630254037,81319,534,795.1686131954193,-51.35586166381836,5.445948600769043,50.43394470214844,0.56
81,MetaDrive-test-traffic,102,307.1297538087605,82165,536,803.1660931110382,-51.186214447021484,25.390735626220703,51.06602096557617,0.56
82,MetaDrive-test-traffic,102,302.23493830985853,83422,540,816.7689380645752,,10.077600479125977,52.21465301513672,0.54
83,MetaDrive-test-traffic,102,302.8928495291453,84069,542,823.8257801532745,-54.671180725097656,11.992454528808594,54.04338836669922,0.55
84,MetaDrive-test-traffic,101,302.69898786798416,85191,545,836.402134180069,-50.363037109375,19.314739227294922,50.96160125732422,0.55
85,MetaDrive-test-traffic,101,302.9922235944263,86107,547,845.9609701633453,-54.149837493896484,54.75784683227539,53.06983184814453,0.55
86,MetaDrive-test-traffic,101,305.7955679102353,87258,549,858.2525591850281,,53.97150421142578,49.74679183959961,0.56
87,MetaDrive-test-traffic,101,304.9985132470721,88264,551,868.358766078949,,6.600039958953857,53.26265335083008,0.56
88,MetaDrive-test-traffic,101,306.97122298366435,89208,553,877.9297940731049,,5.8212571144104,52.330562591552734,0.57
89,MetaDrive-test-traffic,101,306.7701455687202,90031,555,886.0215120315552,-53.37798309326172,4.874512672424316,52.95334243774414,0.57
90,MetaDrive-test-traffic,101,308.56477221338463,91003,557,895.6910181045532,-54.40129089355469,47.581748962402344,53.25064468383789,0.58
91,MetaDrive-test-traffic,101,308.81096944899326,92278,560,908.0895459651947,,8.504140853881836,51.78507995605469,0.6
92,MetaDrive-test-traffic,101,310.6365369939234,93307,562,918.5439219474792,-52.14558410644531,11.703204154968262,51.297264099121094,0.59
93,MetaDrive-test-traffic,101,314.376035297533,94378,564,929.1361970901489,,70.14051818847656,54.00080108642578,0.6
94,MetaDrive-test-traffic,101,316.4148499913434,95377,566,939.3105669021606,-56.72556686401367,5.874886989593506,55.87174606323242,0.61
95,MetaDrive-test-traffic,101,315.0201100905851,96042,568,946.4818780422211,,7.81701135635376,53.18891525268555,0.61
96,MetaDrive-test-traffic,101,315.02195260594766,97012,570,956.1625740528107,,4.013070106506348,54.62154769897461,0.61
97,MetaDrive-test-traffic,101,312.4000568437968,98270,573,969.9358122348785,,87.36105346679688,50.934906005859375,0.6
98,MetaDrive-test-traffic,101,309.0017377154683,99483,576,983.0319812297821,-53.90522766113281,11.104755401611328,54.252235412597656,0.59
99,MetaDrive-test-traffic,101,305.90772845764377,100012,577,988.930426120758,,6.77495002746582,54.590057373046875,0.58
100,MetaDrive-test-traffic,101,310.81711655750127,101346,579,1002.3863360881805,,95.80941772460938,54.640533447265625,0.59
101,MetaDrive-test-traffic,101,305.53209162411497,102315,582,1011.8244171142578,-54.604583740234375,8.625069618225098,54.972625732421875,0.58
102,MetaDrive-test-traffic,101,302.1504884669036,103005,584,1018.1466181278229,-56.855628967285156,18.24311065673828,54.817138671875,0.57
103,MetaDrive-test-traffic,101,298.36992169017225,104140,587,1028.2455098628998,,6.480352878570557,56.96296691894531,0.57
104,MetaDrive-test-traffic,101,298.64363992760366,105259,590,1038.6311950683594,-57.4344367980957,6.062934875488281,57.18560028076172,0.58
105,MetaDrive-test-traffic,101,300.105796926485,106536,593,1049.8156759738922,,11.602723121643066,55.14763641357422,0.6
106,MetaDrive-test-traffic,101,300.54171530847935,107033,594,1053.9532449245453,-53.08212661743164,10.643510818481445,53.08998489379883,0.61
107,MetaDrive-test-traffic,101,301.16247289557924,108230,596,1064.585457086563,,7.328214645385742,57.75709915161133,0.61
108,MetaDrive-test-traffic,101,295.79879750095506,109310,599,1074.912188053131,,34.52018737792969,54.255767822265625,0.6
109,MetaDrive-test-traffic,101,294.2237620702022,110171,601,1082.9323289394379,-56.66883850097656,7.638540744781494,56.56432342529297,0.59
110,MetaDrive-test-traffic,101,297.2439211936609,111291,603,1092.9422330856323,-56.16145324707031,46.91521453857422,55.44355773925781,0.6
111,MetaDrive-test-traffic,101,295.9064649064398,112180,605,1101.3680970668793,,15.97728443145752,55.36809539794922,0.6
112,MetaDrive-test-traffic,101,298.9417106747689,113412,607,1113.219603061676,,9.821520805358887,55.50666809082031,0.61
113,MetaDrive-test-traffic,101,293.1928728601817,114345,610,1121.60373711586,-53.81889343261719,12.226884841918945,53.997108459472656,0.6
114,MetaDrive-test-traffic,101,292.8273630376462,115244,612,1129.9041290283203,,14.111406326293945,60.25049591064453,0.6
115,MetaDrive-test-traffic,102,294.85300550034646,116183,614,1138.0874109268188,-59.4097785949707,7.688870906829834,58.87800979614258,0.61
116,MetaDrive-test-traffic,102,295.2486738776927,117376,617,1148.6419711112976,,5.239779472351074,60.06458282470703,0.62
117,MetaDrive-test-traffic,102,296.96220256725866,118414,619,1157.6485600471497,,9.31980037689209,56.82645034790039,0.63
118,MetaDrive-test-traffic,102,297.43142137194803,119315,621,1165.9398829936981,-59.46274948120117,8.393770217895508,58.59634780883789,0.63
119,MetaDrive-test-traffic,102,296.67811699991495,120104,623,1173.104080915451,,10.127559661865234,59.39970397949219,0.64
120,MetaDrive-test-traffic,102,293.8669706619836,121684,626,1188.0877492427826,,9.253274917602539,57.19268035888672,0.64
121,MetaDrive-test-traffic,102,293.40944716739045,122219,627,1193.3517389297485,-56.715065002441406,7.290024757385254,56.649070739746094,0.63
122,MetaDrive-test-traffic,102,291.33710101264205,123593,630,1205.949648141861,-58.98490905761719,13.41386890411377,58.414642333984375,0.63
123,MetaDrive-test-traffic,102,291.08838671157577,124063,631,1210.1897280216217,-59.753883361816406,12.817426681518555,59.201011657714844,0.63
124,MetaDrive-test-traffic,102,291.3460723339716,125330,634,1222.2310259342194,,19.544757843017578,54.753395080566406,0.63
125,MetaDrive-test-traffic,102,290.6006918873494,126148,636,1230.8553531169891,,8.439628601074219,56.503807067871094,0.62
126,MetaDrive-test-traffic,102,293.0592243686664,127101,638,1240.280249118805,-57.2515754699707,16.890901565551758,57.412933349609375,0.63
127,MetaDrive-test-traffic,102,296.3350156239765,128312,640,1252.6525719165802,,8.12744426727295,58.983585357666016,0.64
128,MetaDrive-test-traffic,102,299.33173370765843,129480,642,1264.5498089790344,,10.048555374145508,59.9403076171875,0.65
129,MetaDrive-test-traffic,102,302.33167133569725,130130,643,1270.4343490600586,,8.745229721069336,61.99421310424805,0.66
130,MetaDrive-test-traffic,102,300.5110510799888,131077,645,1279.0854580402374,-63.131004333496094,4.387016296386719,63.15753936767578,0.65
131,MetaDrive-test-traffic,102,298.2574155247093,132438,648,1291.2227821350098,,4.505348205566406,62.75337600708008,0.64
132,MetaDrive-test-traffic,102,297.45491472093397,133108,649,1297.0129799842834,,18.67597198486328,56.66716003417969,0.64
133,MetaDrive-test-traffic,102,290.46081063280525,134058,653,1305.7275700569153,,6.042447090148926,59.62904739379883,0.62
134,MetaDrive-test-traffic,102,287.0197176323563,135116,656,1315.8420560359955,,27.267534255981445,56.02606201171875,0.61
135,MetaDrive-test-traffic,102,285.8285006721815,136006,658,1324.8220191001892,,50.69927215576172,55.45674133300781,0.6
136,MetaDrive-test-traffic,102,287.22463888752077,137499,661,1339.1720561981201,-59.40947341918945,86.22090148925781,58.738548278808594,0.62
137,MetaDrive-test-traffic,102,284.7176538804256,138179,663,1345.825427055359,-61.225502014160156,7.242197036743164,61.53302764892578,0.62
138,MetaDrive-test-traffic,102,281.0453234374302,139526,666,1359.2173941135406,,12.772866249084473,59.013031005859375,0.61
139,MetaDrive-test-traffic,102,281.6975615934321,140400,668,1367.906429052353,,77.58805847167969,57.563072204589844,0.61
140,MetaDrive-test-traffic,102,280.6818134501634,141235,670,1375.6085460186005,-58.82439422607422,21.495817184448242,58.10343551635742,0.61
141,MetaDrive-test-traffic,102,280.46908060862006,142379,673,1386.8773262500763,-60.59815979003906,18.52999496459961,60.68867111206055,0.62
142,MetaDrive-test-traffic,102,283.4946211251133,143499,675,1398.5460801124573,-57.31648254394531,7.910752296447754,57.03729248046875,0.63
143,MetaDrive-test-traffic,102,283.61732142829095,144223,677,1406.763962984085,-62.393585205078125,15.615629196166992,61.044586181640625,0.64
144,MetaDrive-test-traffic,102,280.95471527887554,145219,679,1417.1177670955658,-56.77570343017578,22.440353393554688,56.787559509277344,0.64
145,MetaDrive-test-traffic,102,285.1295595294334,146501,682,1430.9822070598602,-61.212623596191406,17.143421173095703,60.46195602416992,0.66
146,MetaDrive-test-traffic,102,286.3218128175489,147329,684,1438.5220959186554,-60.26410675048828,34.771419525146484,59.67914962768555,0.67
147,MetaDrive-test-traffic,102,288.7405941516499,148691,687,1451.095314025879,-59.07648468017578,11.236169815063477,58.09246063232422,0.67
148,MetaDrive-test-traffic,102,288.87300555936775,149173,688,1455.4111821651459,-58.454132080078125,5.452558517456055,57.94831085205078,0.68
149,MetaDrive-test-traffic,102,291.94434611641753,150287,690,1465.911199092865,-61.075897216796875,7.746214389801025,61.84115982055664,0.68
150,MetaDrive-test-traffic,102,294.17243638575377,151200,692,1474.2025191783905,,98.65585327148438,58.79034423828125,0.69
151,MetaDrive-test-traffic,102,295.1354908429049,152352,694,1484.600729227066,,8.270328521728516,61.6292724609375,0.69
152,MetaDrive-test-traffic,102,294.8374161439051,153453,696,1494.4123940467834,-56.40220260620117,19.49041748046875,56.301700592041016,0.69
153,MetaDrive-test-traffic,102,297.8584432098933,154555,698,1504.1697010993958,-59.91358184814453,6.6099114418029785,60.45880889892578,0.7
154,MetaDrive-test-traffic,102,298.25915763123925,155138,699,1510.0325272083282,,8.063830375671387,60.211692810058594,0.7
155,MetaDrive-test-traffic,102,297.70817767147054,156496,702,1522.9140539169312,,3.857553005218506,61.146793365478516,0.7
156,MetaDrive-test-traffic,102,296.3040095950323,157331,704,1530.4390981197357,-61.83636474609375,11.59881591796875,61.882118225097656,0.69
157,MetaDrive-test-traffic,102,293.0424618868952,158462,707,1540.6207621097565,,8.335333824157715,58.79179000854492,0.68
158,MetaDrive-test-traffic,102,294.1952315343398,159151,708,1547.501755952835,-61.09653091430664,11.39233684539795,60.000083923339844,0.68
159,MetaDrive-test-traffic,102,295.7008372941567,160306,711,1557.8161511421204,,5.63744592666626,58.206119537353516,0.69
160,MetaDrive-test-traffic,102,297.9806668075278,161386,713,1567.7055261135101,,9.458449363708496,61.817745208740234,0.7
161,MetaDrive-test-traffic,102,301.02201773565037,162416,715,1577.0612959861755,,8.97793197631836,56.465118408203125,0.71
162,MetaDrive-test-traffic,103,302.4884375832666,163382,717,1585.8787519931793,,6.475647449493408,59.823638916015625,0.71
163,MetaDrive-test-traffic,103,301.07160014088834,164236,719,1593.673779964447,,6.16578483581543,57.383522033691406,0.7
164,MetaDrive-test-traffic,103,297.9482148204037,165064,722,1601.8455109596252,,11.582864761352539,52.20258331298828,0.69
165,MetaDrive-test-traffic,103,295.12292525423794,166324,726,1612.9545149803162,,25.678325653076172,58.20411682128906,0.69
166,MetaDrive-test-traffic,103,294.7450903369689,167491,729,1623.697212934494,-59.54825973510742,9.697429656982422,59.30436706542969,0.69
167,MetaDrive-test-traffic,103,293.76741840362683,168229,731,1630.821573972702,-64.00982666015625,19.718345642089844,63.1702880859375,0.68
168,MetaDrive-test-traffic,103,293.80845488528087,169051,733,1638.847316980362,-55.78108596801758,29.380245208740234,55.21502685546875,0.68
169,MetaDrive-test-traffic,103,297.07796059254844,170023,735,1648.215653181076,-58.28434753417969,39.60650634765625,57.514095306396484,0.69
170,MetaDrive-test-traffic,103,298.32273475488194,171018,737,1657.1318001747131,,8.22632884979248,56.263912200927734,0.7
171,MetaDrive-test-traffic,103,297.14719755736553,172010,739,1666.1231350898743,,4.436051845550537,60.668094635009766,0.7
172,MetaDrive-test-traffic,103,294.5207070912009,173188,742,1677.4586050510406,,9.776558876037598,59.30141067504883,0.69
173,MetaDrive-test-traffic,103,296.3476300852244,174404,744,1689.0226860046387,,13.713682174682617,59.88425064086914,0.69
174,MetaDrive-test-traffic,103,297.3650570923269,175351,746,1697.6845541000366,-62.29017639160156,9.074941635131836,62.109893798828125,0.7
175,MetaDrive-test-traffic,103,299.0999770922434,176267,748,1706.2969369888306,-60.60276794433594,5.6246843338012695,60.72386169433594,0.7
176,MetaDrive-test-traffic,103,298.67632394961265,177020,750,1713.3462941646576,,10.733959197998047,54.76553726196289,0.7
177,MetaDrive-test-traffic,103,301.81477874524944,178037,752,1722.401771068573,-57.237030029296875,55.68330764770508,56.54240036010742,0.71
178,MetaDrive-test-traffic,103,306.01495357166453,179284,755,1734.6448950767517,,24.61939811706543,59.62544250488281,0.72
179,MetaDrive-test-traffic,103,306.96690282606556,180448,758,1745.2213671207428,,6.087194442749023,62.53536605834961,0.73
180,MetaDrive-test-traffic,103,300.3016070022058,181047,761,1750.756283044815,-55.317893981933594,12.768760681152344,53.674964904785156,0.71
181,MetaDrive-test-traffic,103,304.32610357994145,182326,764,1762.4329612255096,,11.805503845214844,62.14415740966797,0.72
182,MetaDrive-test-traffic,103,304.004948506453,183303,766,1771.2991781234741,-61.14940643310547,4.259782791137695,60.681819915771484,0.72
183,MetaDrive-test-traffic,103,303.51779020680124,184318,769,1780.4966821670532,,3.828843116760254,59.93391418457031,0.72
184,MetaDrive-test-traffic,103,303.8277727541274,185263,772,1790.1688990592957,-62.12625503540039,9.683526992797852,61.77193069458008,0.72
185,MetaDrive-test-traffic,103,307.0012930677977,186473,774,1801.7325739860535,-58.54768371582031,11.820592880249023,58.16501235961914,0.72
186,MetaDrive-test-traffic,103,306.91278441625417,187257,776,1808.9742341041565,-57.12091064453125,80.11328125,56.56182098388672,0.73
187,MetaDrive-test-traffic,103,308.4603710821168,188267,778,1818.2285242080688,-56.619083404541016,31.329450607299805,55.481475830078125,0.73
188,MetaDrive-test-traffic,103,308.7978330952282,189229,780,1827.0041861534119,-56.42961120605469,34.723960876464844,56.87176513671875,0.73
189,MetaDrive-test-traffic,103,310.19725949007056,190240,782,1836.260325908661,,17.783212661743164,58.92523193359375,0.74
190,MetaDrive-test-traffic,103,310.275690965843,191464,785,1848.394133090973,,13.582763671875,56.474002838134766,0.73
191,MetaDrive-test-traffic,103,309.9559521179849,192368,787,1856.6759412288666,,12.710302352905273,56.998069763183594,0.73
192,MetaDrive-test-traffic,103,308.715773475048,193432,789,1866.3154320716858,,5.339775085449219,60.20659637451172,0.73
193,MetaDrive-test-traffic,103,310.5299042353928,194399,791,1875.1226620674133,-59.17189407348633,6.97199010848999,58.6350212097168,0.74
194,MetaDrive-test-traffic,103,309.49738093399776,195154,793,1882.2593841552734,,11.529045104980469,56.468658447265625,0.73
195,MetaDrive-test-traffic,103,309.80578936583004,196109,795,1891.1486310958862,-59.581634521484375,103.40696716308594,59.04470443725586,0.73
196,MetaDrive-test-traffic,103,309.310070350747,197339,797,1903.7237079143524,-56.972652435302734,15.855033874511719,55.981971740722656,0.73
197,MetaDrive-test-traffic,103,307.3037303543662,198244,800,1911.5951700210571,,22.43450164794922,58.428226470947266,0.73
198,MetaDrive-test-traffic,103,307.01879047543304,199074,802,1919.1593379974365,,10.846017837524414,58.62109375,0.73
199,MetaDrive-test-traffic,103,308.3205039356304,200367,805,1931.3495540618896,-57.165767669677734,12.521263122558594,56.93619918823242,0.73
200,MetaDrive-test-traffic,103,304.46403073107865,201052,808,1937.9291279315948,,10.569167137145996,52.57917785644531,0.72
201,MetaDrive-test-traffic,103,303.1402432330275,202148,811,1948.0184490680695,,13.855389595031738,57.7841682434082,0.72
202,MetaDrive-test-traffic,103,300.16479025830364,203294,814,1958.9000380039215,,10.363334655761719,58.06546401977539,0.71
203,MetaDrive-test-traffic,103,297.3022352100595,204093,816,1966.086511850357,-61.18093490600586,12.360183715820312,61.38346481323242,0.7
204,MetaDrive-test-traffic,103,297.82557955207557,205137,818,1976.187907218933,-54.31419372558594,6.91988468170166,54.247371673583984,0.71
205,MetaDrive-test-traffic,103,298.2668867249384,206264,820,1986.315907239914,,4.86262321472168,60.204078674316406,0.71
206,MetaDrive-test-traffic,103,303.2859249907421,207304,822,1995.7781541347504,,10.683012008666992,61.23927307128906,0.73
207,MetaDrive-test-traffic,103,306.8388298394858,208299,824,2004.719878911972,-61.314239501953125,8.158434867858887,61.33772659301758,0.74
208,MetaDrive-test-traffic,103,306.07050520740154,209468,827,2015.2334401607513,,17.097583770751953,58.76199722290039,0.73
209,MetaDrive-test-traffic,103,311.35465324957227,210290,828,2022.724506855011,,16.73070526123047,59.75701904296875,0.74
210,MetaDrive-test-traffic,103,315.2550864375546,211383,830,2033.9821200370789,-57.8234748840332,15.133852005004883,58.177001953125,0.76
211,MetaDrive-test-traffic,103,313.7346568990428,212387,832,2043.0308520793915,-54.03348159790039,9.534833908081055,54.07471466064453,0.76
212,MetaDrive-test-traffic,103,317.25279707551306,213004,833,2048.9039800167084,,8.6298246383667,59.86924362182617,0.77
213,MetaDrive-test-traffic,104,315.1416954659582,214440,836,2061.9048070907593,,13.130634307861328,58.39118957519531,0.77
214,MetaDrive-test-traffic,104,316.1475196747735,215361,838,2070.345679283142,-55.8542366027832,15.971823692321777,56.101688385009766,0.77
215,MetaDrive-test-traffic,104,314.40248141420284,216222,840,2078.486294031143,,7.328239440917969,57.63985061645508,0.76
216,MetaDrive-test-traffic,104,316.0775258953977,217076,842,2086.982055902481,,16.844148635864258,56.133888244628906,0.77
217,MetaDrive-test-traffic,104,314.7878540202673,218074,844,2096.687023162842,,7.285354137420654,57.41509246826172,0.77
218,MetaDrive-test-traffic,104,312.5649267622867,219158,847,2106.9766030311584,,8.524450302124023,54.22821044921875,0.75
219,MetaDrive-test-traffic,104,314.56835116084744,220047,849,2115.6979100704193,-60.55500411987305,40.51685333251953,61.42263412475586,0.76
220,MetaDrive-test-traffic,104,313.86626089667914,221240,852,2126.7713961601257,,9.95327377319336,58.21404266357422,0.75
221,MetaDrive-test-traffic,104,317.08418336762287,222476,854,2138.7336819171906,,6.965198516845703,60.436256408691406,0.76
222,MetaDrive-test-traffic,104,319.35212349233495,223650,856,2150.3225660324097,,8.543817520141602,57.08106994628906,0.77
223,MetaDrive-test-traffic,103,319.23745626306095,224213,857,2155.994383096695,-56.22550582885742,13.75300407409668,55.20387268066406,0.77
224,MetaDrive-test-traffic,104,319.58391976516725,225548,861,2168.513530254364,,12.664241790771484,58.39065170288086,0.76
225,MetaDrive-test-traffic,104,320.16069691393153,226051,862,2172.9995260238647,-54.765933990478516,43.29951858520508,53.588111877441406,0.76
226,MetaDrive-test-traffic,104,321.4496765796295,227073,864,2182.8366270065308,-57.06536102294922,13.658656120300293,56.58243179321289,0.77
227,MetaDrive-test-traffic,104,320.2616344209827,228150,867,2192.625339984894,,17.85219383239746,58.213401794433594,0.77
228,MetaDrive-test-traffic,104,319.77642979839203,229409,870,2204.8685319423676,-57.047027587890625,9.795928001403809,56.30614471435547,0.76
229,MetaDrive-test-traffic,104,323.33148779815417,230507,872,2214.9450602531433,-56.29600524902344,16.779708862304688,56.10805892944336,0.77
230,MetaDrive-test-traffic,104,319.990821732111,231358,874,2222.5745391845703,,10.06924057006836,58.42213821411133,0.77
231,MetaDrive-test-traffic,104,322.85659965967255,232419,876,2233.057329893112,-59.60267639160156,9.974138259887695,59.807769775390625,0.77
232,MetaDrive-test-traffic,104,321.4045838358491,233318,878,2241.1393711566925,,134.30906677246094,54.04334259033203,0.77
233,MetaDrive-test-traffic,104,321.2271119875913,234267,880,2249.729509115219,-52.62859344482422,26.188291549682617,53.288326263427734,0.77
234,MetaDrive-test-traffic,104,320.7983091239901,235371,882,2260.493150949478,-58.618927001953125,6.003468036651611,58.71234893798828,0.77
235,MetaDrive-test-traffic,104,322.8129052793071,236231,884,2268.4882571697235,-56.2836799621582,13.630897521972656,56.35175704956055,0.78
236,MetaDrive-test-traffic,104,318.6181798956614,237017,887,2276.550997018814,-53.722679138183594,8.313366889953613,54.04297637939453,0.77
237,MetaDrive-test-traffic,104,318.9098059803771,238005,889,2285.7079849243164,-49.90614700317383,13.491679191589355,50.63692855834961,0.77
238,MetaDrive-test-traffic,104,318.0250997771778,239146,892,2296.2460749149323,,18.76565170288086,56.042747497558594,0.76
239,MetaDrive-test-traffic,104,318.2806657643743,240281,894,2307.336548089981,-58.360477447509766,6.09937858581543,57.57112503051758,0.76
240,MetaDrive-test-traffic,104,318.36998073612057,241209,896,2316.030309200287,-58.35260009765625,14.203775405883789,58.72153091430664,0.76
241,MetaDrive-test-traffic,104,319.97898603743596,242036,898,2323.4761271476746,,6.47299861907959,57.672607421875,0.77
242,MetaDrive-test-traffic,104,322.98729763482527,243080,900,2334.1310942173004,,6.625347137451172,56.86505889892578,0.77
243,MetaDrive-test-traffic,104,323.5676101985139,244467,903,2346.38818693161,-54.535919189453125,9.019783973693848,55.51594161987305,0.77
244,MetaDrive-test-traffic,104,324.0275063890975,245343,905,2354.2649190425873,-54.998294830322266,7.380682945251465,54.495079040527344,0.78
245,MetaDrive-test-traffic,104,331.71246240898995,246415,907,2364.6555709838867,-59.321083068847656,7.500219821929932,58.2889518737793,0.8
246,MetaDrive-test-traffic,104,333.94721533094264,247379,909,2373.7398788928986,-57.74968338012695,12.572139739990234,56.94017028808594,0.81
247,MetaDrive-test-traffic,104,335.7903024202495,248083,910,2380.4355142116547,-55.92479705810547,10.508430480957031,55.641292572021484,0.81
248,MetaDrive-test-traffic,104,340.2933104745169,249061,912,2390.365974187851,-58.22551345825195,12.658170700073242,57.537452697753906,0.82
249,MetaDrive-test-traffic,104,339.42640780135133,250390,915,2403.162863254547,,18.60955047607422,55.3570556640625,0.82
250,MetaDrive-test-traffic,104,340.4935729635912,251369,917,2412.998246908188,-59.55063247680664,8.270692825317383,58.70305252075195,0.81
251,MetaDrive-test-traffic,104,341.9584334264628,252393,919,2422.658658027649,-54.5167121887207,17.57574462890625,54.776676177978516,0.81
252,MetaDrive-test-traffic,104,343.1018699829058,253564,921,2434.4018292427063,,47.135414123535156,55.171966552734375,0.81
253,MetaDrive-test-traffic,104,343.00201233617804,254075,922,2439.3141231536865,-54.982017517089844,9.789434432983398,54.46037292480469,0.81
254,MetaDrive-test-traffic,104,344.6515378587719,255470,925,2453.021828174591,,7.375213146209717,57.46674728393555,0.82
255,MetaDrive-test-traffic,104,345.0026596030166,256405,927,2461.649145126343,-57.580718994140625,14.476591110229492,57.498138427734375,0.82
256,MetaDrive-test-traffic,104,344.1054953813572,257057,928,2468.0489761829376,-55.60505676269531,9.534603118896484,55.418418884277344,0.82
257,MetaDrive-test-traffic,104,342.8535863639287,258444,931,2480.710310935974,,8.750211715698242,57.06834030151367,0.82
258,MetaDrive-test-traffic,104,341.54701011814586,259429,933,2489.7321820259094,-56.79405212402344,14.601774215698242,55.703521728515625,0.82
259,MetaDrive-test-traffic,104,344.2572338682505,260200,934,2497.180687189102,,11.940312385559082,55.26689147949219,0.82
260,MetaDrive-test-traffic,104,344.57237810400017,261197,936,2506.9497261047363,-53.120872497558594,10.929134368896484,53.25242233276367,0.82
261,MetaDrive-test-traffic,104,343.2951326942369,262517,939,2519.7873990535736,-53.51808166503906,10.809844970703125,51.90280532836914,0.81
262,MetaDrive-test-traffic,104,344.583193983175,263426,941,2528.0741651058197,,20.265850067138672,56.12578582763672,0.82
263,MetaDrive-test-traffic,104,341.349412310559,264453,944,2537.5366661548615,-58.06908416748047,4.465651512145996,57.56755828857422,0.8
264,MetaDrive-test-traffic,104,343.25792865619877,265478,946,2547.3311009407043,,15.245443344116211,55.519840240478516,0.81
265,MetaDrive-test-traffic,104,343.28256784648164,266665,949,2558.7795898914337,-58.64106369018555,5.05312967300415,58.645118713378906,0.82
266,MetaDrive-test-traffic,104,342.8330356457807,267093,950,2563.084221124649,-56.46531677246094,8.155059814453125,56.791748046875,0.82
267,MetaDrive-test-traffic,104,344.7600130002338,268060,952,2572.122647047043,,5.081714153289795,56.00778579711914,0.83
268,MetaDrive-test-traffic,104,342.80520312046093,269134,955,2582.986414194107,,9.83987808227539,52.693843841552734,0.82
269,MetaDrive-test-traffic,104,339.67193149031374,270190,958,2592.762263059616,,28.309005737304688,51.38872528076172,0.81
270,MetaDrive-test-traffic,104,345.8402229631006,271179,960,2602.002981901169,-54.41654968261719,34.030181884765625,55.291316986083984,0.83
271,MetaDrive-test-traffic,104,346.8420054328027,272171,962,2611.210673093796,-55.74500274658203,48.00541687011719,55.34775161743164,0.84
272,MetaDrive-test-traffic,104,344.0805646150915,273208,965,2621.4076380729675,,9.52030086517334,49.33774185180664,0.83
273,MetaDrive-test-traffic,104,346.5344325691374,274215,967,2630.5334379673004,-56.49254608154297,10.170284271240234,55.798866271972656,0.84
274,MetaDrive-test-traffic,104,347.5766300998419,275070,969,2638.672681093216,,12.131266593933105,57.61771011352539,0.85
275,MetaDrive-test-traffic,104,347.59245070708215,276458,972,2651.8575501441956,,11.160512924194336,56.245662689208984,0.84
276,MetaDrive-test-traffic,104,348.9367968945105,277033,973,2657.0809490680695,-59.55913543701172,9.911274909973145,58.366943359375,0.84
277,MetaDrive-test-traffic,104,349.525942121542,278140,975,2667.7908720970154,,12.551794052124023,54.477630615234375,0.83
278,MetaDrive-test-traffic,104,349.5525591830374,279172,977,2677.299327135086,,19.527400970458984,55.66918182373047,0.83
279,MetaDrive-test-traffic,104,350.34268988759237,280450,980,2689.2429492473602,,15.240620613098145,54.656368255615234,0.83
280,MetaDrive-test-traffic,104,349.9521863305955,281394,982,2698.6010839939117,,6.435538291931152,54.69894027709961,0.83
281,MetaDrive-test-traffic,104,350.6885995278556,282324,984,2707.1602051258087,,5.972237586975098,54.22486877441406,0.82
282,MetaDrive-test-traffic,104,353.89389783378203,283059,986,2713.819827079773,-50.4632568359375,13.000389099121094,50.12645721435547,0.83
283,MetaDrive-test-traffic,104,355.14073587313885,284107,988,2723.909759044647,-56.70995330810547,7.236015319824219,56.482295989990234,0.84
284,MetaDrive-test-traffic,104,351.39807208326056,285168,992,2733.64209318161,,25.40312957763672,51.066837310791016,0.83
285,MetaDrive-test-traffic,104,351.38499650642945,286267,994,2743.693139076233,-51.649017333984375,32.622955322265625,52.92595291137695,0.83
286,MetaDrive-test-traffic,104,347.32776876145124,287181,997,2753.046555995941,-56.20508575439453,12.932092666625977,57.099403381347656,0.81
287,MetaDrive-test-traffic,104,345.24872879544967,288345,1000,2763.3708679676056,-56.54627227783203,7.9106621742248535,55.99040603637695,0.82
288,MetaDrive-test-traffic,104,346.545251239508,289374,1002,2772.945036172867,,5.947628974914551,59.150333404541016,0.82
289,MetaDrive-test-traffic,104,346.9796476298591,290259,1004,2781.2577559947968,-51.57566833496094,25.524063110351562,51.33305358886719,0.82
290,MetaDrive-test-traffic,104,346.79707952567895,291339,1006,2791.4567470550537,-55.40611267089844,36.25446701049805,55.673728942871094,0.82
291,MetaDrive-test-traffic,104,346.21340259669984,292277,1008,2799.9790630340576,-55.16937255859375,12.94878101348877,55.225807189941406,0.82
292,MetaDrive-test-traffic,104,344.06023785021205,293208,1010,2809.250585079193,,7.772637844085693,57.189369201660156,0.82
293,MetaDrive-test-traffic,104,340.25941173549546,294107,1013,2817.125114917755,-52.31093215942383,16.356494903564453,51.864437103271484,0.82
294,MetaDrive-test-traffic,104,340.7101918674168,295099,1015,2826.2318921089172,-53.17327880859375,9.056668281555176,52.26750183105469,0.82
295,MetaDrive-test-traffic,104,338.70711921861266,296271,1018,2837.0184741020203,-52.15484619140625,18.534292221069336,51.717140197753906,0.82
296,MetaDrive-test-traffic,104,332.8924564903524,297190,1021,2845.7377779483795,,45.37416076660156,48.0398063659668,0.8
297,MetaDrive-test-traffic,104,328.2181059006718,298533,1025,2858.535679101944,-58.9202766418457,8.37812614440918,59.55516052246094,0.78
298,MetaDrive-test-traffic,104,329.4731662007479,299556,1027,2869.1438579559326,,42.45055389404297,51.194915771484375,0.78
299,MetaDrive-test-traffic,104,328.1604496102794,300028,1028,2873.568540096283,,6.110273838043213,60.43524932861328,0.78
300,MetaDrive-test-traffic,104,328.28729899823634,301355,1031,2886.0629620552063,-57.2529411315918,8.689071655273438,56.30002212524414,0.78
301,MetaDrive-test-traffic,104,330.3871518464695,302523,1033,2897.2540760040283,-51.211727142333984,7.761744022369385,51.501991271972656,0.78
302,MetaDrive-test-traffic,104,327.1810569655592,303395,1035,2905.2150480747223,-54.70722961425781,9.64313793182373,54.18153381347656,0.78
303,MetaDrive-test-traffic,104,328.3521519256159,304451,1037,2915.2544190883636,-58.449607849121094,7.435059547424316,58.177574157714844,0.78
304,MetaDrive-test-traffic,104,328.1364598402531,305248,1039,2923.22517991066,,19.21507453918457,58.304443359375,0.79
305,MetaDrive-test-traffic,104,326.80678567034005,306140,1042,2931.818251132965,,10.425820350646973,57.307491302490234,0.78
306,MetaDrive-test-traffic,104,329.0191142650026,307238,1044,2943.2060601711273,,15.288192749023438,55.30906677246094,0.79
307,MetaDrive-test-traffic,104,328.19734345024085,308185,1046,2952.465917110443,-50.34291076660156,16.024913787841797,50.81037521362305,0.78
308,MetaDrive-test-traffic,104,332.4290050480236,309139,1048,2961.3790349960327,-57.27003479003906,16.304672241210938,55.451377868652344,0.79
309,MetaDrive-test-traffic,104,329.91360276587534,310036,1050,2969.450317144394,,90.52940368652344,58.02267837524414,0.79
310,MetaDrive-test-traffic,104,328.7568372725054,311403,1053,2982.000762939453,-54.88236999511719,14.020914077758789,55.789947509765625,0.78
311,MetaDrive-test-traffic,104,328.3811845765955,312358,1055,2990.3021252155304,,11.049919128417969,57.71563720703125,0.79
312,MetaDrive-test-traffic,104,332.1634126510477,313385,1057,2999.711842060089,-59.35395812988281,13.708658218383789,58.23927688598633,0.8
313,MetaDrive-test-traffic,104,332.3126872374344,314489,1059,3009.8249320983887,-57.22368621826172,14.581242561340332,56.864288330078125,0.8
314,MetaDrive-test-traffic,104,332.0332221771647,315308,1061,3017.2560560703278,,7.392272472381592,58.865318298339844,0.8
315,MetaDrive-test-traffic,104,330.4708383291765,316002,1063,3023.8076322078705,,10.55813980102539,53.37603759765625,0.78
316,MetaDrive-test-traffic,104,333.14071995753505,317018,1065,3033.425616979599,,11.664743423461914,55.16950225830078,0.79
317,MetaDrive-test-traffic,104,334.28453437851823,318036,1067,3043.1076810359955,,45.35492706298828,49.72235870361328,0.79
318,MetaDrive-test-traffic,104,329.21092023669166,319436,1071,3056.006573200226,,20.145488739013672,56.46898651123047,0.78
319,MetaDrive-test-traffic,104,328.5463727389028,320061,1072,3062.306083202362,-55.25962829589844,11.088253021240234,55.729331970214844,0.78
320,MetaDrive-test-traffic,104,329.0215422116225,321070,1074,3072.006782054901,,147.18885803222656,54.558692932128906,0.79
321,MetaDrive-test-traffic,104,330.64004187899985,322415,1076,3085.068442106247,-53.89889144897461,10.938425064086914,53.25725555419922,0.79
322,MetaDrive-test-traffic,104,327.9374252108839,323089,1078,3091.1609222888947,-56.80390548706055,9.151052474975586,56.713951110839844,0.78
323,MetaDrive-test-traffic,104,327.77312679807824,324006,1080,3099.652976989746,,4.384472846984863,57.554481506347656,0.78
324,MetaDrive-test-traffic,104,328.5596067538302,325170,1082,3110.4064490795135,,14.608083724975586,56.61229705810547,0.78
325,MetaDrive-test-traffic,104,329.32491149910936,326391,1084,3122.074193954468,-56.233856201171875,16.799907684326172,56.20576858520508,0.79
326,MetaDrive-test-traffic,104,329.47357873396976,327014,1085,3128.1086921691895,,5.522640228271484,54.01649856567383,0.79
327,MetaDrive-test-traffic,104,330.1291822162098,328079,1087,3137.61519408226,-53.84163284301758,24.384674072265625,53.140621185302734,0.8
328,MetaDrive-test-traffic,104,334.03532224669766,329323,1089,3149.290516138077,-53.03697204589844,5.495339393615723,53.47784423828125,0.81
329,MetaDrive-test-traffic,104,336.2956255186724,330326,1091,3158.5263571739197,,18.431713104248047,58.290924072265625,0.82
330,MetaDrive-test-traffic,104,337.4763060865825,331366,1093,3168.3256390094757,,12.471466064453125,56.40047836303711,0.83
331,MetaDrive-test-traffic,104,339.3235124061793,332241,1095,3177.5131330490112,-59.321388244628906,7.664431095123291,59.04999923706055,0.83
332,MetaDrive-test-traffic,104,340.4810425181104,333089,1097,3185.20161318779,-60.23032760620117,3.472708225250244,59.194129943847656,0.84
333,MetaDrive-test-traffic,104,340.6949360003803,334058,1099,3193.9123210906982,,9.699512481689453,63.022945404052734,0.84
334,MetaDrive-test-traffic,104,341.01517383028886,335473,1102,3207.216772079468,-54.19538116455078,12.34889030456543,52.61539077758789,0.83
335,MetaDrive-test-traffic,104,339.88934506522105,336315,1104,3214.6364092826843,-56.58591079711914,87.26568603515625,55.42191696166992,0.83
336,MetaDrive-test-traffic,104,337.9313079079427,337349,1106,3224.2312631607056,-54.45580291748047,11.592876434326172,54.119754791259766,0.83
337,MetaDrive-test-traffic,104,338.22064208904334,338439,1108,3234.2541241645813,-61.669219970703125,10.088932037353516,61.46707534790039,0.83
338,MetaDrive-test-traffic,104,338.9285666175904,339375,1110,3242.65256023407,-59.216949462890625,82.84647369384766,57.866180419921875,0.83
339,MetaDrive-test-traffic,104,342.5887027977375,340495,1112,3253.0617332458496,-55.594032287597656,12.851513862609863,56.06801986694336,0.84
340,MetaDrive-test-traffic,104,344.0317493615762,341032,1113,3258.259309053421,,12.780774116516113,54.61606216430664,0.84
341,MetaDrive-test-traffic,104,345.4885019252177,342122,1115,3268.6314520835876,,47.03935241699219,59.26018524169922,0.84
342,MetaDrive-test-traffic,104,347.35604793275456,343149,1117,3278.2950091362,-57.31419372558594,8.716289520263672,55.4659309387207,0.85
343,MetaDrive-test-traffic,104,350.43685249506046,344121,1119,3287.535749197006,-57.214630126953125,5.795069694519043,56.44377136230469,0.86
344,MetaDrive-test-traffic,104,352.64870574567476,345218,1121,3297.8130769729614,,6.929049968719482,54.37996292114258,0.87
345,MetaDrive-test-traffic,104,355.9663788152603,346250,1123,3307.3950412273407,,8.76883602142334,54.61384201049805,0.88
346,MetaDrive-test-traffic,104,356.8951785368015,347417,1125,3318.020322084427,-60.02685546875,15.11350154876709,58.899261474609375,0.89
347,MetaDrive-test-traffic,104,357.8610021682304,348076,1126,3324.4785449504852,,10.881629943847656,56.5518913269043,0.89
348,MetaDrive-test-traffic,104,356.59607936126923,349194,1128,3335.033919095993,,9.188302040100098,50.797916412353516,0.89
349,MetaDrive-test-traffic,104,357.25856641573756,350158,1130,3343.832687854767,,36.31108474731445,53.75395965576172,0.89
350,MetaDrive-test-traffic,104,358.00059498798174,351266,1132,3354.536605119705,,27.435365676879883,57.19005584716797,0.89
351,MetaDrive-test-traffic,104,356.45182946752,352367,1134,3364.7925572395325,-58.07284927368164,11.65870475769043,57.59202194213867,0.89
352,MetaDrive-test-traffic,104,357.59454944193106,353405,1136,3374.458461046219,-55.646751403808594,19.927902221679688,55.47875213623047,0.89
353,MetaDrive-test-traffic,104,357.68287970300275,354043,1137,3380.9565472602844,-50.62730407714844,12.65242862701416,50.668601989746094,0.88
354,MetaDrive-test-traffic,104,358.0597885293293,355017,1139,3389.7466130256653,-56.51156997680664,17.466278076171875,56.358978271484375,0.88
355,MetaDrive-test-traffic,104,359.96231454966073,356126,1142,3399.930328130722,,12.701855659484863,56.79476547241211,0.89
356,MetaDrive-test-traffic,104,360.2404914416861,357353,1144,3411.139543056488,-57.751155853271484,5.02515983581543,57.41471862792969,0.89
357,MetaDrive-test-traffic,104,361.9888973515128,358408,1146,3421.2283358573914,,29.982175827026367,52.43095397949219,0.9
358,MetaDrive-test-traffic,104,359.2628068491288,359256,1148,3429.103460073471,,11.905485153198242,58.54542541503906,0.89
359,MetaDrive-test-traffic,104,362.0022557712385,360376,1150,3440.2736670970917,,14.0076322555542,50.92438507080078,0.89
360,MetaDrive-test-traffic,104,364.12362321270075,361215,1151,3448.411059141159,-54.19190216064453,9.658084869384766,53.85959243774414,0.89
361,MetaDrive-test-traffic,104,365.2248642150887,362253,1153,3458.506445169449,-59.80801773071289,12.796133041381836,58.930294036865234,0.89
362,MetaDrive-test-traffic,104,365.83147469551784,363257,1155,3467.822253227234,-56.17278289794922,15.744796752929688,54.72428894042969,0.89
363,MetaDrive-test-traffic,104,365.6888622288084,364316,1157,3477.738651037216,,27.149822235107422,56.20509719848633,0.89
364,MetaDrive-test-traffic,104,363.51665860201416,365259,1159,3486.247481107712,-57.11346435546875,8.157308578491211,57.00846862792969,0.89
365,MetaDrive-test-traffic,104,362.3318929200684,366108,1161,3493.8015401363373,,8.199872970581055,55.18486785888672,0.88
366,MetaDrive-test-traffic,104,363.25727850479615,367056,1163,3502.503743171692,,18.273880004882812,53.53912353515625,0.9
367,MetaDrive-test-traffic,104,362.5542097225432,368041,1165,3511.4401609897614,-56.75423049926758,34.13966751098633,55.76847457885742,0.9
368,MetaDrive-test-traffic,104,364.75112412739827,369510,1168,3525.3986959457397,,7.9965620040893555,56.58313751220703,0.9
369,MetaDrive-test-traffic,104,365.7342782944249,370008,1169,3529.9677782058716,,8.219086647033691,58.97690200805664,0.9
370,MetaDrive-test-traffic,104,367.0943445224231,371047,1171,3539.3687760829926,-57.55693817138672,12.695781707763672,56.77849578857422,0.91
371,MetaDrive-test-traffic,104,366.0303838132531,372111,1173,3549.177426099777,-56.56622314453125,8.584434509277344,55.71193313598633,0.9
372,MetaDrive-test-traffic,104,364.76811802128134,373560,1176,3562.892564058304,,5.20814847946167,61.726959228515625,0.89
373,MetaDrive-test-traffic,104,366.7669017347266,374490,1178,3571.5961532592773,,16.491683959960938,55.10441970825195,0.89
374,MetaDrive-test-traffic,104,367.8916882308942,375065,1179,3576.814764022827,-51.478851318359375,15.7152099609375,52.138084411621094,0.88
375,MetaDrive-test-traffic,104,368.26583130424535,376304,1181,3588.6026339530945,,5.88590145111084,54.696590423583984,0.88
376,MetaDrive-test-traffic,104,362.46790371066083,377389,1184,3598.149440050125,-59.321346282958984,21.797164916992188,59.686214447021484,0.87
377,MetaDrive-test-traffic,104,362.0441758245577,378373,1186,3607.169605255127,-56.996646881103516,13.830055236816406,56.11113739013672,0.86
378,MetaDrive-test-traffic,104,363.33619577298106,379585,1188,3619.1004259586334,-52.49433517456055,12.128190994262695,51.885257720947266,0.86
379,MetaDrive-test-traffic,104,362.0422300002627,380422,1190,3626.747179031372,,12.118371963500977,57.78812026977539,0.85
380,MetaDrive-test-traffic,104,361.7457216909372,381364,1192,3635.3844571113586,,11.867254257202148,62.967464447021484,0.85
381,MetaDrive-test-traffic,104,362.3022596067147,382264,1194,3643.538722038269,,12.725772857666016,50.960906982421875,0.86
382,MetaDrive-test-traffic,104,361.62317460687075,383201,1196,3652.119649171829,-56.23195266723633,12.19952392578125,56.197628021240234,0.86
383,MetaDrive-test-traffic,104,362.3247190898485,384229,1198,3661.45516705513,-59.3322639465332,16.697933197021484,58.59221649169922,0.86
384,MetaDrive-test-traffic,104,362.3211267319376,385347,1200,3671.8364470005035,-58.85821533203125,5.008257865905762,59.18637466430664,0.86
385,MetaDrive-test-traffic,104,361.75586989488454,386242,1202,3679.769044160843,,15.171826362609863,60.38408660888672,0.86
386,MetaDrive-test-traffic,104,362.4654283636358,387163,1204,3688.152158975601,-57.03788757324219,22.03316307067871,56.29674530029297,0.85
387,MetaDrive-test-traffic,104,362.04712093554497,388125,1206,3696.8259580135345,-57.02760314941406,27.02797508239746,56.3138427734375,0.85
388,MetaDrive-test-traffic,104,357.5601965240274,389142,1209,3706.6230669021606,,9.899236679077148,56.67729949951172,0.83
389,MetaDrive-test-traffic,104,358.7863052263719,390155,1211,3716.261181116104,-56.51433181762695,3.900120735168457,56.98670959472656,0.82
390,MetaDrive-test-traffic,105,354.3885784586406,391441,1214,3727.5162539482117,-56.89726638793945,32.95130920410156,56.154884338378906,0.82
391,MetaDrive-test-traffic,105,354.7471238522062,392055,1215,3733.44167804718,-61.40394592285156,4.538794994354248,60.454837799072266,0.82
392,MetaDrive-test-traffic,105,352.1817832862858,393220,1218,3744.0390989780426,,7.701178550720215,56.384578704833984,0.82
393,MetaDrive-test-traffic,105,352.3852769176685,394097,1220,3752.155604124069,-56.01313781738281,9.658077239990234,55.497215270996094,0.82
394,MetaDrive-test-traffic,105,350.5282303066046,395434,1223,3765.1507380008698,,8.168224334716797,58.474849700927734,0.81
395,MetaDrive-test-traffic,105,351.13978564406864,396040,1224,3770.7221031188965,,17.084592819213867,52.983055114746094,0.81
396,MetaDrive-test-traffic,105,348.5998561950614,397597,1227,3785.6655130386353,-58.57337951660156,22.54498291015625,58.938236236572266,0.81
397,MetaDrive-test-traffic,105,348.4567827552679,398026,1228,3789.5355751514435,,8.823064804077148,54.32307052612305,0.81
398,MetaDrive-test-traffic,105,346.9527732453461,399509,1230,3802.6886401176453,-51.36732482910156,10.787490844726562,51.058746337890625,0.8
399,MetaDrive-test-traffic,105,347.73978203363373,400026,1231,3807.388959169388,,50.31431579589844,55.62287139892578,0.8
400,MetaDrive-test-traffic,105,345.0757843768455,401336,1234,3819.250249147415,,4.729162693023682,59.23065185546875,0.8
401,MetaDrive-test-traffic,105,343.1986513471064,402337,1235,3828.5264489650726,-55.339359283447266,10.877439498901367,54.264591217041016,0.79
402,MetaDrive-test-traffic,105,342.83889924131677,403295,1237,3837.09281206131,-60.048030853271484,7.709047317504883,59.19099044799805,0.8
403,MetaDrive-test-traffic,105,344.01790664400795,404289,1239,3846.7055320739746,-54.303321838378906,7.288349151611328,54.13268280029297,0.8
404,MetaDrive-test-traffic,105,342.19602041637614,405138,1242,3854.2137899398804,,11.501487731933594,54.3876953125,0.8
405,MetaDrive-test-traffic,105,342.29424609226146,406303,1244,3865.419816970825,-55.73189926147461,27.864755630493164,55.98729705810547,0.8
406,MetaDrive-test-traffic,105,341.50263490778775,407304,1246,3874.7914769649506,,5.880985260009766,53.117027282714844,0.8
407,MetaDrive-test-traffic,105,342.17453018952847,408191,1248,3882.828386068344,-57.64362716674805,14.842552185058594,57.267478942871094,0.81
408,MetaDrive-test-traffic,105,340.4809593358344,409135,1250,3891.5644471645355,-58.986106872558594,28.80853271484375,59.73023223876953,0.81
409,MetaDrive-test-traffic,105,337.79817311407237,410082,1252,3900.3261580467224,,13.250862121582031,58.99380874633789,0.82
410,MetaDrive-test-traffic,105,340.1391845477029,411256,1254,3911.3947370052338,,8.588180541992188,57.48072052001953,0.82
411,MetaDrive-test-traffic,105,339.8250418575736,412175,1256,3919.887907266617,-55.24544143676758,16.196895599365234,54.7377815246582,0.82
412,MetaDrive-test-traffic,105,340.4140143416402,413140,1258,3929.642660140991,,10.402498245239258,55.968196868896484,0.82
413,MetaDrive-test-traffic,105,338.5951152362023,414157,1261,3940.044268131256,-56.567779541015625,10.422714233398438,55.47746276855469,0.82
414,MetaDrive-test-traffic,105,341.34214560275353,415278,1263,3953.0650701522827,,42.150413513183594,58.14473342895508,0.82
415,MetaDrive-test-traffic,105,340.0940999975791,416096,1265,3960.493965148926,,9.659202575683594,58.97543716430664,0.82
416,MetaDrive-test-traffic,105,340.5980260719532,417085,1267,3970.3740060329437,-54.27133560180664,16.06134796142578,54.57851791381836,0.82
417,MetaDrive-test-traffic,105,342.23938981377086,418738,1270,3986.1031119823456,,13.814485549926758,55.64597702026367,0.81
418,MetaDrive-test-traffic,105,343.17525717862014,419321,1271,3991.7171800136566,-57.878517150878906,7.819352149963379,57.463462829589844,0.81
419,MetaDrive-test-traffic,105,345.06246618708775,420484,1273,4002.82865524292,,7.874148845672607,62.47065353393555,0.82
420,MetaDrive-test-traffic,105,344.6740724285018,421497,1275,4011.9660890102386,-56.99291229248047,9.58602237701416,56.47344970703125,0.82
421,MetaDrive-test-traffic,105,343.13793551740446,422277,1277,4019.0531771183014,-55.080718994140625,5.2410736083984375,55.00639343261719,0.83
422,MetaDrive-test-traffic,105,342.38967060364024,423333,1279,4028.6317460536957,-63.2764892578125,8.320592880249023,62.69340133666992,0.85
423,MetaDrive-test-traffic,105,340.59902651636446,424226,1281,4036.6480400562286,,5.788955211639404,58.59396743774414,0.85
424,MetaDrive-test-traffic,105,343.1716349955512,425096,1283,4044.603840112686,,8.947803497314453,57.00395202636719,0.86
425,MetaDrive-test-traffic,105,345.0752465161355,426203,1285,4056.671651124954,-58.80965805053711,7.572551250457764,59.48515319824219,0.87
426,MetaDrive-test-traffic,105,345.6487105429429,427113,1287,4065.0518510341644,-55.79724884033203,16.40203857421875,55.48659133911133,0.87
427,MetaDrive-test-traffic,105,344.63544650378464,428080,1289,4073.8905720710754,,52.24128723144531,58.51163101196289,0.87
428,MetaDrive-test-traffic,105,346.7918371505405,429151,1291,4083.9851562976837,-59.18144989013672,10.119097709655762,58.53893280029297,0.88
429,MetaDrive-test-traffic,105,346.4139593065461,430148,1293,4093.332822084427,,5.917515754699707,54.299896240234375,0.88
430,MetaDrive-test-traffic,105,347.4254131188208,431272,1295,4103.913248062134,,7.8412933349609375,57.17362594604492,0.88
431,MetaDrive-test-traffic,105,346.73354989534374,432257,1297,4112.7181079387665,-58.16413116455078,6.12375020980835,57.54878616333008,0.88
432,MetaDrive-test-traffic,105,343.69313639130587,433330,1300,4122.852015256882,,11.480208396911621,60.096683502197266,0.86
433,MetaDrive-test-traffic,105,341.73026800264034,434064,1302,4129.865073919296,,8.302435874938965,57.48836135864258,0.86
434,MetaDrive-test-traffic,105,339.8819313769056,435223,1305,4140.623464107513,-60.62590789794922,101.23399353027344,60.178977966308594,0.86
435,MetaDrive-test-traffic,105,344.0465591863769,436186,1307,4149.61293387413,,19.969280242919922,61.89251708984375,0.87
436,MetaDrive-test-traffic,105,344.20240143121754,437134,1309,4158.510616064072,,11.927225112915039,57.771339416503906,0.88
437,MetaDrive-test-traffic,105,346.41100222225833,438338,1311,4170.327578306198,,11.832676887512207,60.160667419433594,0.89
438,MetaDrive-test-traffic,105,347.5474723033722,439350,1313,4179.6166450977325,,23.735904693603516,52.635902404785156,0.89
439,MetaDrive-test-traffic,105,346.21536001202634,440197,1315,4187.244196176529,-56.644981384277344,6.964760780334473,56.56792068481445,0.89
440,MetaDrive-test-traffic,105,348.3564837068822,441610,1318,4200.957006216049,,18.69063949584961,56.74127197265625,0.88
441,MetaDrive-test-traffic,105,349.09987044651564,442146,1319,4206.445765972137,,18.379169464111328,58.0738639831543,0.88
442,MetaDrive-test-traffic,105,349.4469741665008,443008,1321,4214.445655107498,,6.308813095092773,58.761714935302734,0.89
443,MetaDrive-test-traffic,105,349.6100908220056,444539,1324,4228.717096090317,-59.652835845947266,5.860439300537109,59.41572570800781,0.89
444,MetaDrive-test-traffic,105,349.6120417814862,445033,1325,4233.53440117836,-61.71712112426758,10.23704719543457,60.709075927734375,0.89
445,MetaDrive-test-traffic,105,348.83823645594947,446225,1328,4245.160484075546,-57.639564514160156,17.684810638427734,57.437679290771484,0.88
446,MetaDrive-test-traffic,105,350.69878467090365,447282,1330,4256.028025150299,,29.32194709777832,60.32341003417969,0.89
447,MetaDrive-test-traffic,105,349.1111980227722,448058,1332,4262.943060159683,,18.16168975830078,56.669864654541016,0.89
448,MetaDrive-test-traffic,105,351.0260290108406,449489,1335,4276.266229152679,-55.39876174926758,12.008243560791016,54.41411209106445,0.9
449,MetaDrive-test-traffic,105,351.6729325705588,450067,1336,4281.724848031998,-56.9487419128418,10.654216766357422,56.24796676635742,0.9
450,MetaDrive-test-traffic,105,353.90046589998633,451314,1338,4293.910705089569,,10.9390230178833,55.464637756347656,0.9
451,MetaDrive-test-traffic,105,353.56487707386515,452262,1340,4302.665342092514,,12.148645401000977,58.94765090942383,0.89
452,MetaDrive-test-traffic,105,352.26559653301524,453218,1343,4311.585062980652,,18.040348052978516,57.822906494140625,0.89
453,MetaDrive-test-traffic,105,350.96997895479717,454264,1345,4321.118530035019,,10.06623363494873,53.724918365478516,0.89
454,MetaDrive-test-traffic,105,351.5901775825552,455286,1347,4330.586650133133,,5.704239368438721,61.639286041259766,0.89
455,MetaDrive-test-traffic,105,351.7020024664864,456301,1349,4340.07027721405,-57.243873596191406,15.821941375732422,56.787376403808594,0.89
456,MetaDrive-test-traffic,105,350.0240876201757,457071,1351,4347.118787050247,-60.654151916503906,8.048921585083008,60.24406814575195,0.88
457,MetaDrive-test-traffic,105,348.28051991068173,458086,1353,4356.355040073395,,10.543211936950684,53.98568344116211,0.88
458,MetaDrive-test-traffic,105,346.66674371458134,459018,1355,4365.05205988884,,10.229362487792969,63.57014846801758,0.88
459,MetaDrive-test-traffic,105,348.14297995353866,460137,1357,4375.756494283676,-63.33590316772461,7.52431058883667,63.4879264831543,0.88
460,MetaDrive-test-traffic,105,351.9461409325294,461116,1359,4385.5812611579895,,130.9300537109375,60.241641998291016,0.89
461,MetaDrive-test-traffic,105,352.0939788273728,462056,1361,4394.8222370147705,,25.37518310546875,58.35515594482422,0.89
462,MetaDrive-test-traffic,105,350.6254307831685,463070,1363,4404.384771108627,,18.055278778076172,58.04424285888672,0.88
463,MetaDrive-test-traffic,105,351.5701066016037,464658,1366,4419.8239941596985,,8.767757415771484,57.707542419433594,0.88
464,MetaDrive-test-traffic,105,351.17236262423125,465043,1367,4423.655402183533,-54.45783233642578,16.855281829833984,54.97824478149414,0.89
465,MetaDrive-test-traffic,105,351.99552135687867,466026,1369,4433.075045108795,,10.242713928222656,54.352638244628906,0.9
466,MetaDrive-test-traffic,105,346.5269238444453,467111,1372,4442.940483093262,-56.426273345947266,14.03494644165039,56.84938430786133,0.89
467,MetaDrive-test-traffic,105,346.31988397950437,468284,1374,4454.42054104805,,32.72917175292969,51.49325180053711,0.89
468,MetaDrive-test-traffic,105,345.60811075873016,469237,1376,4464.095505952835,-57.69239807128906,14.912932395935059,56.43515396118164,0.88
469,MetaDrive-test-traffic,105,348.3113623581276,470052,1377,4471.805619955063,,7.603823661804199,57.25800704956055,0.88
470,MetaDrive-test-traffic,105,348.52701769315155,471154,1379,4483.106958150864,,6.800556182861328,60.14602279663086,0.88
471,MetaDrive-test-traffic,105,350.74443065120687,472343,1381,4494.371435165405,-53.8212776184082,8.180272102355957,53.70191192626953,0.88
472,MetaDrive-test-traffic,105,351.7158551042728,473316,1383,4503.09809422493,,8.124662399291992,58.32660675048828,0.88
473,MetaDrive-test-traffic,105,350.56705373910705,474256,1385,4511.8027012348175,,10.847471237182617,55.900672912597656,0.88
474,MetaDrive-test-traffic,105,352.524743937569,475059,1386,4519.47993016243,-55.32621383666992,12.466056823730469,55.210418701171875,0.88
475,MetaDrive-test-traffic,105,353.3410258290015,476523,1389,4533.671856880188,-60.96918487548828,6.0932536125183105,60.840606689453125,0.87
476,MetaDrive-test-traffic,105,352.6666315564811,477199,1390,4540.7361669540405,-61.6934814453125,17.28917121887207,61.070518493652344,0.87
477,MetaDrive-test-traffic,105,352.1043199856986,478510,1393,4552.713482141495,,8.406027793884277,56.292354583740234,0.87
478,MetaDrive-test-traffic,105,352.06998721777217,479089,1394,4557.857547998428,-59.353668212890625,22.141551971435547,58.39039611816406,0.87
479,MetaDrive-test-traffic,105,352.56620600268025,480184,1396,4568.004761219025,,15.79558277130127,59.37339782714844,0.86
480,MetaDrive-test-traffic,105,356.6760941387277,481448,1398,4579.86637711525,,9.562950134277344,58.78951644897461,0.87
481,MetaDrive-test-traffic,105,359.2394045514283,482022,1399,4585.736261129379,,7.138060092926025,59.517539978027344,0.88
482,MetaDrive-test-traffic,105,359.4375409863788,483151,1402,4596.115056991577,-56.31957244873047,7.0085530281066895,56.59806442260742,0.88
483,MetaDrive-test-traffic,105,366.1941064873131,484614,1404,4610.338876962662,,4.175353050231934,64.81796264648438,0.89
484,MetaDrive-test-traffic,105,365.6088927823031,485031,1405,4614.818657159805,-61.26633834838867,6.1222686767578125,60.683189392089844,0.89
485,MetaDrive-test-traffic,105,365.27968312310884,486516,1408,4629.496947050095,,6.603972434997559,56.141571044921875,0.88
486,MetaDrive-test-traffic,105,366.4428777702924,487014,1409,4634.0759789943695,,4.010403633117676,66.32290649414062,0.88
487,MetaDrive-test-traffic,105,362.49611314628913,488211,1412,4645.39292216301,-58.27334213256836,17.140750885009766,57.019039154052734,0.87
488,MetaDrive-test-traffic,105,362.3854656025987,489174,1414,4654.170085906982,,33.13578796386719,59.223114013671875,0.87
489,MetaDrive-test-traffic,105,362.82145541980833,490356,1417,4665.617455244064,,8.408053398132324,55.5292854309082,0.86
490,MetaDrive-test-traffic,105,358.97610800544163,491202,1419,4674.634773015976,,4.556491374969482,58.45662307739258,0.85
491,MetaDrive-test-traffic,105,359.3491312533406,492172,1421,4684.297634124756,,18.275108337402344,57.81632995605469,0.85
492,MetaDrive-test-traffic,105,360.3797835917888,493345,1423,4696.038031101227,-57.837913513183594,13.525135040283203,57.197662353515625,0.85
493,MetaDrive-test-traffic,105,357.6510928744714,494200,1425,4704.194225072861,,20.89474105834961,59.57109069824219,0.84
494,MetaDrive-test-traffic,105,358.7682717694082,495270,1427,4713.938895225525,,5.428116321563721,60.07843780517578,0.85
495,MetaDrive-test-traffic,105,360.7576394388027,496358,1429,4724.424732923508,,7.736022472381592,58.97528076171875,0.85
496,MetaDrive-test-traffic,105,361.7647703780713,497398,1431,4734.794277906418,,16.545488357543945,63.13449478149414,0.85
497,MetaDrive-test-traffic,105,362.26402994867465,498451,1433,4744.52640414238,-61.12802505493164,8.117355346679688,60.64680480957031,0.85
498,MetaDrive-test-traffic,105,363.0211130729706,499425,1435,4753.510253190994,-61.519710540771484,6.91905403137207,62.14772033691406,0.85
