TanmayH/CS269-RL-project-code/MetaDrive-test-og-td3/td3/progress.csv
,log_dir,frame_per_second,episode_reward,total_steps,total_episodes,total_time,target_q,actor_loss,critic_loss,success_rate
0,MetaDrive-test-og-td3,439,11.69510931979109,2001,2,4.553850889205933,,,,0.0
1,MetaDrive-test-og-td3,409,11.389396443761322,3002,3,7.3307390213012695,,,,0.0
2,MetaDrive-test-og-td3,460,10.874575634612063,4003,4,8.683555126190186,,,,0.0
3,MetaDrive-test-og-td3,443,11.253606093196032,5004,5,11.282193899154663,0.009263712912797928,,0.00944296270608902,0.0
4,MetaDrive-test-og-td3,235,0.08914560210061945,6024,42,25.59772491455078,0.08339376747608185,,0.039475902915000916,0.0
5,MetaDrive-test-og-td3,192,-0.39171545312762723,7466,49,38.84837102890015,0.06322364509105682,,0.022106381133198738,0.0
6,MetaDrive-test-og-td3,178,-0.42161933654910605,8467,50,47.40829110145569,0.07731848955154419,-0.06326767057180405,0.02243657410144806,0.0
7,MetaDrive-test-og-td3,168,-0.4674424114488062,9468,51,56.27593183517456,0.06117650866508484,,0.0059444839134812355,0.0
8,MetaDrive-test-og-td3,157,-0.21913231478460593,10662,54,67.61856317520142,0.07388797402381897,,0.012509754858911037,0.0
9,MetaDrive-test-og-td3,152,-0.1068978643495633,11706,56,76.80425095558167,0.11167742311954498,,0.008481420576572418,0.0
10,MetaDrive-test-og-td3,150,0.5269202419576005,12003,60,79.9828028678894,0.13445764780044556,-0.14810298383235931,0.014287229627370834,0.0
11,MetaDrive-test-og-td3,142,1.6305930973219613,13007,80,91.23230600357056,0.13589899241924286,-0.14175933599472046,0.8664799928665161,0.0
12,MetaDrive-test-og-td3,135,2.407597525996277,14023,101,103.65926098823547,0.29639533162117004,-0.3022312521934509,0.025939319282770157,0.0
13,MetaDrive-test-og-td3,130,4.212311755370622,15011,118,115.20559787750244,0.40974241495132446,-0.4397154748439789,0.035616323351860046,0.0
14,MetaDrive-test-og-td3,125,6.4006758749461525,16017,146,127.62756896018982,0.5708743929862976,-0.5977814197540283,0.06958542764186859,0.0
15,MetaDrive-test-og-td3,121,7.574549684797746,17021,169,139.5959610939026,0.7149455547332764,-0.731001079082489,0.5604519844055176,0.0
16,MetaDrive-test-og-td3,118,9.60980866127929,18035,190,151.59917497634888,0.8263533115386963,-1.1069951057434082,1.5215001106262207,0.0
17,MetaDrive-test-og-td3,116,10.95428488388884,19033,208,163.50642800331116,1.33689546585083,-1.358382225036621,0.0973462164402008,0.0
18,MetaDrive-test-og-td3,114,11.550125359266058,20038,226,174.50176692008972,1.4010940790176392,,2.36293888092041,0.0
19,MetaDrive-test-og-td3,113,13.537966125703164,21020,247,185.0855197906494,1.993465542793274,,1.4405033588409424,0.0
20,MetaDrive-test-og-td3,112,15.846132446513852,22033,264,196.0902841091156,2.325868844985962,-2.4832675457000732,1.8674380779266357,0.0
21,MetaDrive-test-og-td3,111,17.325796070883538,23015,281,207.18029284477234,2.5984182357788086,-2.808405637741089,4.181401252746582,0.0
22,MetaDrive-test-og-td3,109,19.989957866395876,24017,297,218.4380328655243,3.405330181121826,-3.377716541290283,0.3104531168937683,0.0
23,MetaDrive-test-og-td3,108,19.240276850797333,25019,315,229.85052704811096,2.9441351890563965,-3.75677490234375,14.62325668334961,0.0
24,MetaDrive-test-og-td3,108,22.788289983000208,26021,327,240.15472888946533,4.264302730560303,-4.329866409301758,0.1540493667125702,0.0
25,MetaDrive-test-og-td3,107,26.103952049447233,27091,340,251.61010599136353,4.861808776855469,-5.09733247756958,3.4920544624328613,0.0
26,MetaDrive-test-og-td3,107,28.005745640332602,28006,354,261.54147577285767,5.470085620880127,,0.22082367539405823,0.0
27,MetaDrive-test-og-td3,106,30.116879660083978,29044,368,272.30087208747864,6.116959571838379,,0.3009697496891022,0.0
28,MetaDrive-test-og-td3,106,35.77808164470995,30187,376,284.2684500217438,6.991282939910889,-7.285612106323242,4.088065147399902,0.0
29,MetaDrive-test-og-td3,105,38.734356902940824,31082,386,293.36083793640137,7.5475969314575195,,0.23776230216026306,0.0
30,MetaDrive-test-og-td3,105,42.160324306501295,32003,394,303.6030480861664,7.856451034545898,-8.4312744140625,12.001068115234375,0.0
31,MetaDrive-test-og-td3,105,47.8155418848178,33036,403,313.91407585144043,9.116656303405762,,0.6401309967041016,0.0
32,MetaDrive-test-og-td3,105,53.28129088059368,34103,413,324.74268794059753,9.525437355041504,-10.003891944885254,3.491367816925049,0.0
33,MetaDrive-test-og-td3,104,55.76101753800234,35045,423,335.71271896362305,10.693023681640625,-10.919817924499512,7.551590442657471,0.0
34,MetaDrive-test-og-td3,104,60.71327596363182,36047,431,346.49423480033875,11.869161605834961,-11.902932167053223,0.6874167323112488,0.0
35,MetaDrive-test-og-td3,103,65.65968735378077,37286,440,360.14570713043213,13.002861022949219,,0.9122915267944336,0.0
36,MetaDrive-test-og-td3,103,69.2807576165701,38007,446,367.7820129394531,13.119871139526367,-13.032207489013672,1.103074073791504,0.0
37,MetaDrive-test-og-td3,103,73.13443140999789,39006,456,378.3854260444641,13.59677505493164,,9.386356353759766,0.0
38,MetaDrive-test-og-td3,102,76.67737294987353,40016,465,389.0829679965973,14.827184677124023,,1.7052961587905884,0.01
39,MetaDrive-test-og-td3,102,79.58208080297003,41030,474,399.80443692207336,16.040119171142578,,1.1880223751068115,0.01
40,MetaDrive-test-og-td3,102,79.89917033513038,42089,484,410.9981060028076,16.423870086669922,-17.18203353881836,1.0249181985855103,0.01
41,MetaDrive-test-og-td3,102,78.88057016868903,43053,494,420.3881778717041,16.00834846496582,-17.378416061401367,41.77561950683594,0.01
42,MetaDrive-test-og-td3,102,81.0084683130447,44049,501,431.254362821579,18.06932258605957,-17.920040130615234,8.209150314331055,0.01
43,MetaDrive-test-og-td3,102,83.64484066499762,45161,508,441.76774406433105,19.447134017944336,-19.446016311645508,11.594526290893555,0.02
44,MetaDrive-test-og-td3,102,84.50896027327259,46062,515,451.5012722015381,19.16979217529297,,16.450332641601562,0.02
45,MetaDrive-test-og-td3,101,87.73560030145185,47180,523,463.4793128967285,19.633163452148438,,29.989307403564453,0.02
46,MetaDrive-test-og-td3,101,88.84487556238632,48265,529,474.46768498420715,21.40363121032715,-22.089120864868164,15.13258171081543,0.02
47,MetaDrive-test-og-td3,101,90.50410174347519,49030,534,482.24925899505615,21.819622039794922,,6.152531623840332,0.02
48,MetaDrive-test-og-td3,101,90.49401405593582,50054,540,493.42400789260864,21.28260040283203,,2.3941314220428467,0.02
49,MetaDrive-test-og-td3,101,91.09013344718393,51311,548,505.89465403556824,24.05887794494629,-24.841083526611328,41.66088104248047,0.02
50,MetaDrive-test-og-td3,101,96.33778146562457,52737,553,520.8977119922638,25.007875442504883,-24.820560455322266,4.417763710021973,0.03
51,MetaDrive-test-og-td3,101,99.65299124161176,53364,554,527.8152189254761,25.14461898803711,,3.3134090900421143,0.04
52,MetaDrive-test-og-td3,100,100.72198335062676,54061,558,535.7602980136871,24.841777801513672,-25.127391815185547,5.996025085449219,0.03
53,MetaDrive-test-og-td3,100,106.19244610784357,55036,562,546.9221971035004,23.488454818725586,,2.9180569648742676,0.03
54,MetaDrive-test-og-td3,100,109.94156664635386,56051,565,556.752580165863,25.22650718688965,-25.79876136779785,5.4216766357421875,0.04
55,MetaDrive-test-og-td3,100,110.73727433521331,57021,573,566.2303559780121,24.11882209777832,-24.87100601196289,17.64117431640625,0.04
56,MetaDrive-test-og-td3,100,113.87634569634973,58066,577,577.3136560916901,26.290958404541016,,16.146148681640625,0.05
57,MetaDrive-test-og-td3,100,115.82710074036873,59109,583,588.1941089630127,27.488018035888672,-28.246610641479492,3.3466756343841553,0.05
58,MetaDrive-test-og-td3,100,118.48319955140181,60118,590,598.2529540061951,26.93214225769043,,6.4823408126831055,0.05
59,MetaDrive-test-og-td3,100,121.08432028333748,61093,595,607.517548084259,27.123655319213867,-27.450984954833984,3.4686055183410645,0.06
60,MetaDrive-test-og-td3,100,123.28336659960505,62156,600,618.2199759483337,26.8889217376709,,30.782655715942383,0.06
61,MetaDrive-test-og-td3,100,123.69948012861431,63057,605,627.8691620826721,27.03829574584961,-28.123350143432617,47.632354736328125,0.05
62,MetaDrive-test-og-td3,100,126.56514633456308,64055,608,637.9918990135193,28.329395294189453,-28.500545501708984,1.1968148946762085,0.06
63,MetaDrive-test-og-td3,100,127.72132430990052,65188,613,650.0487880706787,29.067968368530273,,65.43232727050781,0.06
64,MetaDrive-test-og-td3,100,131.9627467478144,66032,617,658.5905530452728,30.71975326538086,,5.444528102874756,0.06
65,MetaDrive-test-og-td3,100,133.86751982662588,67045,621,669.1764199733734,29.369813919067383,-30.69034767150879,54.21246337890625,0.06
66,MetaDrive-test-og-td3,100,136.22649303728898,68234,625,681.40105509758,31.64657211303711,,4.04398250579834,0.06
67,MetaDrive-test-og-td3,100,138.73826883380366,69048,628,689.7873568534851,30.7132625579834,,3.0097508430480957,0.07
68,MetaDrive-test-og-td3,100,139.7330887338427,70024,632,699.704864025116,33.43632125854492,,2.723843574523926,0.08
69,MetaDrive-test-og-td3,99,138.16433514464777,71121,639,711.664176940918,31.018888473510742,-32.20790481567383,20.11217498779297,0.08
70,MetaDrive-test-og-td3,99,138.8397278268228,72086,644,722.011559009552,34.74507141113281,,2.451070785522461,0.08
71,MetaDrive-test-og-td3,99,136.2377350144338,73100,649,733.344563961029,32.313472747802734,,7.110584259033203,0.07
72,MetaDrive-test-og-td3,99,135.23607838421034,74351,654,746.3439719676971,33.6617431640625,-35.39463424682617,15.70201587677002,0.07
73,MetaDrive-test-og-td3,99,135.41791541221528,75109,657,754.7476291656494,35.36656188964844,-35.68088150024414,8.443737030029297,0.08
74,MetaDrive-test-og-td3,99,131.3433794306914,76102,663,765.8053021430969,32.047935485839844,,6.108512878417969,0.08
75,MetaDrive-test-og-td3,99,132.9474696506437,77299,667,778.2459001541138,33.54018020629883,-32.93183898925781,5.204363822937012,0.07
76,MetaDrive-test-og-td3,99,133.34455505644326,78038,672,785.5390100479126,32.44866943359375,,10.146801948547363,0.07
77,MetaDrive-test-og-td3,99,137.51359929439997,79016,674,795.9445908069611,33.277992248535156,,5.231347560882568,0.08
78,MetaDrive-test-og-td3,99,135.6413537325999,80148,680,807.8038580417633,34.299827575683594,,14.744073867797852,0.08
79,MetaDrive-test-og-td3,99,134.71365153227762,81019,686,816.5555899143219,35.16554641723633,-34.100460052490234,9.475017547607422,0.09
80,MetaDrive-test-og-td3,99,139.1735942122058,82145,688,829.2970139980316,32.2081184387207,-32.756526947021484,6.452338695526123,0.1
81,MetaDrive-test-og-td3,99,141.37506576396575,83263,691,840.8894970417023,38.31386947631836,-38.232391357421875,2.934086799621582,0.11
82,MetaDrive-test-og-td3,98,139.72635422491408,84302,696,852.0794360637665,33.213558197021484,,32.122901916503906,0.1
83,MetaDrive-test-og-td3,98,138.37650622925298,85138,700,860.3734400272369,34.764896392822266,,7.070736885070801,0.1
84,MetaDrive-test-og-td3,98,138.83146432412937,86004,704,869.3535799980164,34.966522216796875,,5.883173942565918,0.1
85,MetaDrive-test-og-td3,98,138.65091907203245,87281,708,881.8540370464325,38.964698791503906,-39.413612365722656,1.9271891117095947,0.11
86,MetaDrive-test-og-td3,98,137.75081126600344,88360,713,892.7935948371887,36.4494743347168,,3.4651334285736084,0.12
87,MetaDrive-test-og-td3,98,136.14101634659136,89098,717,900.835207939148,37.90215301513672,,3.999887704849243,0.13
88,MetaDrive-test-og-td3,98,137.66974900564787,90237,719,912.5409290790558,37.405860900878906,-38.87775421142578,48.25669860839844,0.14
89,MetaDrive-test-og-td3,98,141.0909263442827,91177,721,922.8592669963837,39.2679328918457,-38.82207107543945,15.838454246520996,0.15
90,MetaDrive-test-og-td3,98,136.42680893736247,92067,726,932.4133372306824,34.41078186035156,-34.933441162109375,35.343177795410156,0.15
91,MetaDrive-test-og-td3,98,137.3432773060165,93310,729,946.7793841362,38.685951232910156,,6.648911952972412,0.15
92,MetaDrive-test-og-td3,98,136.6712272678547,94234,731,956.2739729881287,38.51145935058594,,5.739219665527344,0.15
93,MetaDrive-test-og-td3,98,140.9836142568589,95431,734,968.9847679138184,41.413387298583984,-40.746700286865234,16.271682739257812,0.16
94,MetaDrive-test-og-td3,98,144.34645729771876,96099,735,976.2578179836273,38.68800354003906,-39.15263366699219,7.633668899536133,0.17
95,MetaDrive-test-og-td3,98,144.69161678926594,97003,739,984.6271619796753,38.2354621887207,-39.05354309082031,33.461341857910156,0.18
96,MetaDrive-test-og-td3,98,150.51210472800693,98413,741,1000.0940020084381,40.45454788208008,-40.865325927734375,2.8100640773773193,0.2
97,MetaDrive-test-og-td3,98,152.9231278002237,99721,745,1017.4480850696564,36.99019241333008,-37.2435417175293,28.560394287109375,0.21
98,MetaDrive-test-og-td3,98,154.98918698116182,100135,746,1021.2196958065033,38.64815902709961,-39.41825485229492,4.226079940795898,0.22
99,MetaDrive-test-og-td3,97,157.35321494041875,101117,748,1031.944787979126,38.09145736694336,-37.87179183959961,4.394457817077637,0.23
100,MetaDrive-test-og-td3,97,163.98408619003317,102551,750,1046.944836139679,39.928253173828125,-39.2409782409668,9.694539070129395,0.25
101,MetaDrive-test-og-td3,97,164.0468768554451,103814,752,1060.3446390628815,40.611812591552734,,5.497143745422363,0.25
102,MetaDrive-test-og-td3,97,165.4059813323897,104114,753,1062.9083058834076,39.34762191772461,,3.979652166366577,0.26
103,MetaDrive-test-og-td3,97,164.87476536360995,105115,754,1075.8623249530792,41.39151382446289,-41.79417419433594,70.93263244628906,0.25
104,MetaDrive-test-og-td3,97,167.8867924420861,106540,758,1092.9217500686646,43.52174758911133,,6.1788506507873535,0.25
105,MetaDrive-test-og-td3,97,169.28952651888034,107083,760,1098.1807429790497,43.27267837524414,-43.85988998413086,6.042202949523926,0.26
106,MetaDrive-test-og-td3,97,171.08675352094286,108907,763,1117.671641111374,39.97999954223633,-41.30585479736328,7.210876941680908,0.27
107,MetaDrive-test-og-td3,97,169.4033954835876,109017,764,1118.9931349754333,41.47405242919922,-42.449466705322266,38.99311065673828,0.27
108,MetaDrive-test-og-td3,97,173.1581774461856,110339,766,1131.544103860855,38.591007232666016,-38.691749572753906,4.144486427307129,0.29
109,MetaDrive-test-og-td3,97,174.9870708435068,111454,768,1144.4980330467224,43.31955337524414,,7.955533981323242,0.29
110,MetaDrive-test-og-td3,97,177.0490152919334,112005,770,1151.028785943985,41.43568801879883,-41.88566207885742,61.68153381347656,0.29
111,MetaDrive-test-og-td3,97,179.9998938537573,113796,773,1170.8272159099579,42.27680969238281,,2.5403785705566406,0.29
112,MetaDrive-test-og-td3,97,181.7289411991889,114320,774,1176.6015739440918,43.4388313293457,,8.404718399047852,0.3
113,MetaDrive-test-og-td3,97,185.5937316429505,115269,776,1187.0211679935455,42.15431213378906,-43.371063232421875,64.05792236328125,0.31
114,MetaDrive-test-og-td3,97,185.92172969345327,116853,779,1204.0584530830383,44.51611328125,-46.08332443237305,62.57585906982422,0.31
115,MetaDrive-test-og-td3,97,183.74767432397223,117106,781,1206.4223518371582,43.065948486328125,,32.091957092285156,0.3
116,MetaDrive-test-og-td3,97,188.5966808653655,118127,784,1216.5362100601196,43.591270446777344,-44.536415100097656,7.9304399490356445,0.31
117,MetaDrive-test-og-td3,97,188.84959415599783,119419,788,1228.8224000930786,41.243873596191406,-41.19150161743164,34.67974090576172,0.32
118,MetaDrive-test-og-td3,97,191.60252658731235,120123,789,1236.4379999637604,42.322994232177734,-42.63516616821289,8.530826568603516,0.33
119,MetaDrive-test-og-td3,97,192.7299027756553,121112,791,1246.323844909668,42.385623931884766,,22.450481414794922,0.34
120,MetaDrive-test-og-td3,97,194.84511552774404,122076,795,1255.2939960956573,44.90272903442383,,4.6021013259887695,0.35
121,MetaDrive-test-og-td3,97,195.8618393189845,123003,798,1263.5027861595154,40.82670211791992,-41.42196273803711,5.177102088928223,0.37
122,MetaDrive-test-og-td3,97,197.8849445959274,124523,804,1280.2500281333923,39.967796325683594,-40.674530029296875,6.817173957824707,0.39
123,MetaDrive-test-og-td3,97,195.32876448824743,125038,806,1285.788496017456,45.126583099365234,,154.65750122070312,0.37
124,MetaDrive-test-og-td3,97,196.97802494346215,126044,808,1297.9274950027466,42.8750114440918,,7.210938453674316,0.37
125,MetaDrive-test-og-td3,97,201.77123362910453,127044,810,1309.4121851921082,41.580787658691406,,6.818986892700195,0.38
126,MetaDrive-test-og-td3,96,203.09949622174,128192,812,1321.7776489257812,43.30851364135742,,12.087718963623047,0.38
127,MetaDrive-test-og-td3,96,203.78565600582394,129115,814,1331.178904056549,43.704490661621094,-44.021644592285156,5.08505916595459,0.37
128,MetaDrive-test-og-td3,97,202.9747333310001,130244,818,1342.0237419605255,42.28166961669922,,10.65179443359375,0.37
129,MetaDrive-test-og-td3,96,202.46847300360253,131563,822,1356.709643125534,43.73380661010742,-43.64849853515625,4.9484357833862305,0.37
130,MetaDrive-test-og-td3,96,204.9220361499281,132002,823,1361.0519199371338,44.758052825927734,,14.445474624633789,0.38
131,MetaDrive-test-og-td3,96,209.66497144999852,133129,825,1372.7273480892181,42.6475715637207,-44.06913757324219,6.949334621429443,0.4
132,MetaDrive-test-og-td3,96,217.1775376504196,134796,828,1391.2996690273285,44.404685974121094,,8.26694107055664,0.42
133,MetaDrive-test-og-td3,96,212.4286778395535,135327,831,1395.9558370113373,40.3405647277832,-40.13369369506836,7.8560638427734375,0.41
134,MetaDrive-test-og-td3,96,212.16944645019245,136359,834,1406.2326390743256,45.82635498046875,-46.674415588378906,5.765039443969727,0.42
135,MetaDrive-test-og-td3,96,213.1167502316062,137191,836,1415.3960251808167,42.71990966796875,-42.836570739746094,5.883101463317871,0.42
136,MetaDrive-test-og-td3,96,216.71017377826684,138073,837,1426.3349740505219,44.11923599243164,-44.114051818847656,6.501015663146973,0.43
137,MetaDrive-test-og-td3,96,213.22044813553333,139070,841,1435.8284318447113,41.54493713378906,,4.6202216148376465,0.41
138,MetaDrive-test-og-td3,96,216.12509285228217,140247,844,1449.9647538661957,50.09915542602539,-49.99027633666992,5.203398704528809,0.4
139,MetaDrive-test-og-td3,96,214.75316490973196,141102,847,1458.0097749233246,45.22699737548828,,10.606854438781738,0.4
140,MetaDrive-test-og-td3,96,214.38321270676403,142103,848,1471.7564949989319,40.6783561706543,-41.57332992553711,84.52493286132812,0.39
141,MetaDrive-test-og-td3,96,203.96824342719367,143229,854,1483.0023350715637,45.26439666748047,-45.94658279418945,15.642333984375,0.36
142,MetaDrive-test-og-td3,96,204.25892341782293,144036,857,1490.561367034912,39.304683685302734,,8.963241577148438,0.36
143,MetaDrive-test-og-td3,96,206.5107161051145,145084,859,1501.6252419948578,43.77880096435547,,12.867128372192383,0.37
144,MetaDrive-test-og-td3,96,207.39192171307926,146167,861,1512.176913022995,41.207298278808594,-41.85741424560547,11.682832717895508,0.37
145,MetaDrive-test-og-td3,96,211.11550592457502,147107,862,1523.8114130496979,46.62434387207031,-46.60923385620117,12.160768508911133,0.38
146,MetaDrive-test-og-td3,96,207.6417137792054,148070,866,1533.2119839191437,40.840694427490234,,7.001476287841797,0.37
147,MetaDrive-test-og-td3,96,209.25136095991235,149114,868,1545.6152579784393,48.554351806640625,,5.137523651123047,0.38
148,MetaDrive-test-og-td3,96,211.73087616830958,150052,869,1557.2609610557556,44.73479461669922,,8.559656143188477,0.39
149,MetaDrive-test-og-td3,96,206.49395020742665,151026,873,1566.7997570037842,44.56949996948242,,7.776923179626465,0.38
150,MetaDrive-test-og-td3,96,208.8374554546334,152179,875,1578.9154109954834,44.63645553588867,-45.312156677246094,5.591188430786133,0.39
151,MetaDrive-test-og-td3,96,208.57746279026415,153122,878,1587.8065569400787,44.11430358886719,,7.663161277770996,0.39
152,MetaDrive-test-og-td3,96,211.61381822048872,154061,880,1597.3305859565735,43.34080505371094,-43.34522247314453,5.2985639572143555,0.4
153,MetaDrive-test-og-td3,96,214.75718419041866,155062,881,1611.8909659385681,43.41667556762695,,7.353315830230713,0.4
154,MetaDrive-test-og-td3,96,214.5913618743355,156466,884,1626.1131789684296,41.71098327636719,,7.589374542236328,0.41
155,MetaDrive-test-og-td3,96,217.53738062627934,157281,886,1633.9130880832672,45.960113525390625,-47.07931900024414,5.76889705657959,0.42
156,MetaDrive-test-og-td3,96,216.68817448352172,158493,889,1646.2720131874084,44.11607360839844,-44.410621643066406,3.790731430053711,0.42
157,MetaDrive-test-og-td3,96,217.6339149735027,159253,890,1656.0854511260986,44.14677810668945,-43.54848861694336,7.1282548904418945,0.42
158,MetaDrive-test-og-td3,96,218.76153891295667,160109,892,1664.7271780967712,43.147823333740234,-44.325889587402344,48.864227294921875,0.42
159,MetaDrive-test-og-td3,96,222.6366146413654,161569,894,1679.6826519966125,47.83818817138672,-48.704734802246094,43.02881622314453,0.43
160,MetaDrive-test-og-td3,96,226.54114513238423,162559,895,1691.059664964676,44.16012954711914,-45.15500259399414,8.826793670654297,0.44
161,MetaDrive-test-og-td3,96,226.64278952553005,163105,896,1697.160628080368,43.90503692626953,-44.10239028930664,56.69151306152344,0.44
162,MetaDrive-test-og-td3,96,230.17266175598004,164171,898,1708.3880498409271,39.14850997924805,-38.89356231689453,19.116836547851562,0.45
163,MetaDrive-test-og-td3,96,232.52613528629954,165276,902,1721.5988528728485,46.38797378540039,,10.023442268371582,0.44
164,MetaDrive-test-og-td3,96,233.87146596697986,166126,904,1729.9557330608368,44.15776824951172,,11.246088027954102,0.45
165,MetaDrive-test-og-td3,96,235.89269795131884,167093,906,1740.4501729011536,42.02897644042969,-42.443790435791016,55.20185852050781,0.46
166,MetaDrive-test-og-td3,95,238.8058964232324,168571,908,1757.5426540374756,46.25224304199219,-46.729827880859375,6.857333183288574,0.48
167,MetaDrive-test-og-td3,95,240.62408581338946,169401,909,1767.4191229343414,45.96430587768555,-46.04767990112305,7.505252838134766,0.48
168,MetaDrive-test-og-td3,95,241.39125601258934,170562,912,1779.4433510303497,43.099571228027344,,12.011547088623047,0.49
169,MetaDrive-test-og-td3,95,240.62958674536898,171257,914,1787.0997240543365,49.0872688293457,-48.848472595214844,8.540617942810059,0.5
170,MetaDrive-test-og-td3,95,243.67350390014815,172441,916,1798.7949759960175,43.67053985595703,-43.894325256347656,39.44940948486328,0.51
171,MetaDrive-test-og-td3,95,244.55520626427366,173442,917,1808.7016201019287,45.386085510253906,,11.377105712890625,0.51
172,MetaDrive-test-og-td3,95,243.0286152399536,174094,919,1814.8463160991669,42.841007232666016,,9.20588493347168,0.5
173,MetaDrive-test-og-td3,95,248.60668668632,175263,921,1829.268751859665,44.6735725402832,-44.4901008605957,7.450321674346924,0.51
174,MetaDrive-test-og-td3,95,243.8330470072108,176235,924,1839.657781124115,44.32541275024414,-44.9471321105957,13.38487434387207,0.5
175,MetaDrive-test-og-td3,95,243.64880955443022,177816,926,1855.7007141113281,47.432220458984375,,112.33548736572266,0.5
176,MetaDrive-test-og-td3,95,243.38901342237526,178173,927,1858.8071839809418,47.61209487915039,-47.558467864990234,6.39700174331665,0.5
177,MetaDrive-test-og-td3,95,242.29450013145185,179174,928,1870.6640751361847,47.990638732910156,,3.757608413696289,0.49
178,MetaDrive-test-og-td3,95,247.38653014977118,180167,930,1879.676462173462,42.97688293457031,-42.74822998046875,7.618206977844238,0.51
179,MetaDrive-test-og-td3,95,250.47096039775525,181983,933,1899.6632390022278,44.72762680053711,-45.067691802978516,8.162591934204102,0.51
180,MetaDrive-test-og-td3,95,248.54825255533598,182170,934,1901.4030029773712,43.97354507446289,,10.43556022644043,0.5
181,MetaDrive-test-og-td3,95,249.2011944124593,183692,936,1921.7729711532593,43.37154769897461,,4.523774147033691,0.49
182,MetaDrive-test-og-td3,95,248.3373899734971,184446,937,1929.939502954483,44.17072296142578,,12.18917465209961,0.49
183,MetaDrive-test-og-td3,95,248.57924960187336,185224,938,1938.0095670223236,41.592247009277344,,101.91009521484375,0.49
184,MetaDrive-test-og-td3,95,251.31985609409642,186857,940,1955.9132118225098,46.10231399536133,-45.615028381347656,12.896255493164062,0.49
185,MetaDrive-test-og-td3,95,252.45809906560808,187190,941,1959.4394340515137,45.40966796875,,21.26388931274414,0.49
186,MetaDrive-test-og-td3,95,254.58299601616736,188445,944,1971.614429950714,44.85008239746094,-44.92694854736328,7.4277448654174805,0.52
187,MetaDrive-test-og-td3,95,258.4124214302947,189458,946,1981.3061389923096,42.06735610961914,,8.578107833862305,0.52
188,MetaDrive-test-og-td3,95,260.06974646338114,190039,947,1986.9636340141296,44.41741943359375,-45.023529052734375,61.68175506591797,0.53
189,MetaDrive-test-og-td3,95,262.39142322126577,191389,949,2001.5932800769806,42.09880065917969,-43.38428497314453,8.291528701782227,0.55
190,MetaDrive-test-og-td3,95,266.2008998007281,192122,950,2008.5782449245453,42.270660400390625,,7.7495574951171875,0.56
191,MetaDrive-test-og-td3,95,270.7007775822403,193287,952,2021.3734221458435,47.5539665222168,-46.54816436767578,13.650623321533203,0.58
192,MetaDrive-test-og-td3,95,271.6644459209184,194090,954,2030.1576919555664,43.971092224121094,,5.006022930145264,0.58
193,MetaDrive-test-og-td3,95,274.5355660361343,195488,957,2045.52108502388,45.35356903076172,,14.549771308898926,0.59
194,MetaDrive-test-og-td3,95,276.8020303859381,196477,959,2054.6728258132935,49.93220520019531,-49.746360778808594,3.801527976989746,0.6
195,MetaDrive-test-og-td3,95,272.9957717867875,197037,961,2059.7580239772797,46.76607131958008,-47.04695510864258,6.203577995300293,0.59
196,MetaDrive-test-og-td3,95,273.04178371521925,198392,963,2074.3366441726685,44.27567672729492,,6.694223403930664,0.59
197,MetaDrive-test-og-td3,95,278.3389388268335,199528,965,2087.1295318603516,44.13127899169922,,37.72974395751953,0.6
198,MetaDrive-test-og-td3,95,281.3476679674318,200108,966,2093.2612459659576,46.082977294921875,,4.219585418701172,0.61
199,MetaDrive-test-og-td3,95,277.7047569036975,201309,969,2104.9693319797516,45.47013473510742,-45.812400817871094,5.895997047424316,0.61
200,MetaDrive-test-og-td3,95,278.84504761431623,202310,970,2117.7010979652405,44.82465744018555,,5.1267805099487305,0.61
201,MetaDrive-test-og-td3,95,279.5489867936301,203311,971,2127.546219110489,47.3912467956543,-47.44035720825195,9.99750804901123,0.61
202,MetaDrive-test-og-td3,95,283.98493128240347,204489,973,2140.0336780548096,47.66437530517578,-48.51768493652344,3.6121511459350586,0.63
203,MetaDrive-test-og-td3,95,281.2252500679467,205260,975,2147.9341797828674,43.9154167175293,,16.343727111816406,0.62
204,MetaDrive-test-og-td3,95,282.5627216547401,206239,977,2158.729036092758,45.293548583984375,-45.96737289428711,4.776009559631348,0.62
205,MetaDrive-test-og-td3,95,280.07790807899454,207136,980,2167.3102650642395,46.91386413574219,,14.175861358642578,0.61
206,MetaDrive-test-og-td3,95,282.34364894944537,208936,982,2186.649665117264,45.43241882324219,,7.713254451751709,0.61
207,MetaDrive-test-og-td3,95,282.4318482260287,209042,983,2187.574563026428,43.854000091552734,,10.62411117553711,0.61
208,MetaDrive-test-og-td3,95,283.68833348784216,210336,985,2199.9491050243378,47.92580032348633,,6.296517372131348,0.61
209,MetaDrive-test-og-td3,95,284.83454896598886,211158,986,2208.9729228019714,47.39278030395508,,12.732730865478516,0.61
210,MetaDrive-test-og-td3,95,284.3088278587835,212120,989,2218.4426848888397,45.740753173828125,,10.330293655395508,0.6
211,MetaDrive-test-og-td3,95,280.98060423870885,213164,992,2230.0472259521484,47.84729766845703,,3.9422900676727295,0.58
212,MetaDrive-test-og-td3,95,279.1127197813287,214132,994,2239.6186938285828,48.47987747192383,,6.946916580200195,0.58
213,MetaDrive-test-og-td3,95,275.7084455672233,215133,995,2249.444482088089,47.75114440917969,-48.32733917236328,11.522398948669434,0.57
214,MetaDrive-test-og-td3,95,276.66157819326753,216640,997,2266.3400599956512,46.537696838378906,,8.934577941894531,0.57
215,MetaDrive-test-og-td3,95,278.73372862434894,217472,999,2274.2757680416107,45.882965087890625,,7.233312606811523,0.57
216,MetaDrive-test-og-td3,95,280.956102592813,218184,1001,2281.427300930023,49.97874069213867,,3.6517446041107178,0.57
217,MetaDrive-test-og-td3,95,281.8499132715223,219384,1003,2293.8581058979034,43.99418640136719,,32.71221923828125,0.58
218,MetaDrive-test-og-td3,95,282.9423265164599,220021,1004,2300.0434889793396,48.80959701538086,-49.22783279418945,4.54994010925293,0.58
219,MetaDrive-test-og-td3,95,282.3206692016904,221691,1007,2317.331825017929,46.99821472167969,-47.46106719970703,14.832984924316406,0.57
220,MetaDrive-test-og-td3,95,281.36474600866427,222237,1008,2322.544685125351,47.09383010864258,-46.12796401977539,9.023077011108398,0.57
221,MetaDrive-test-og-td3,95,281.4589630375042,223253,1010,2332.7111089229584,46.299346923828125,-46.505035400390625,7.821439743041992,0.57
222,MetaDrive-test-og-td3,95,283.91343224325357,224632,1013,2347.5199308395386,47.850738525390625,,9.454952239990234,0.57
223,MetaDrive-test-og-td3,95,283.8792122773326,225222,1014,2353.6747829914093,49.521854400634766,,18.080474853515625,0.57
224,MetaDrive-test-og-td3,95,282.6389258697781,226815,1016,2371.905597925186,42.486541748046875,-43.18821716308594,7.2286858558654785,0.56
225,MetaDrive-test-og-td3,95,282.954000550091,227072,1017,2374.275318145752,42.50450134277344,,5.334683418273926,0.56
226,MetaDrive-test-og-td3,95,284.51256496255604,228070,1019,2384.1247079372406,48.953163146972656,,19.74559211730957,0.56
227,MetaDrive-test-og-td3,95,283.9335807746868,229079,1021,2394.2583949565887,49.36900329589844,-49.52324676513672,15.025016784667969,0.55
228,MetaDrive-test-og-td3,95,284.8122367498894,230080,1022,2405.7224020957947,47.14030456542969,,11.45995807647705,0.55
229,MetaDrive-test-og-td3,95,286.9848433721359,231206,1024,2416.78568816185,47.04039001464844,,12.726829528808594,0.55
230,MetaDrive-test-og-td3,95,289.4719406255957,232567,1026,2432.6836018562317,47.737552642822266,-47.99188232421875,8.23442268371582,0.55
231,MetaDrive-test-og-td3,95,286.6147869452744,233284,1028,2440.6187739372253,45.97118377685547,,4.733262062072754,0.55
232,MetaDrive-test-og-td3,95,288.42917509013535,234567,1030,2453.1251788139343,51.7644157409668,-52.48236846923828,4.319596290588379,0.55
233,MetaDrive-test-og-td3,95,288.0932831530503,235568,1031,2463.7348008155823,45.34172439575195,,4.120882987976074,0.55
234,MetaDrive-test-og-td3,95,290.3342281906762,236390,1032,2473.3221220970154,45.833213806152344,,4.83077335357666,0.55
235,MetaDrive-test-og-td3,95,288.6341841086715,237391,1033,2485.7151968479156,49.66704177856445,-50.924354553222656,10.710976600646973,0.54
236,MetaDrive-test-og-td3,95,290.8222052858713,238110,1034,2492.354489803314,49.33973693847656,,8.109344482421875,0.55
237,MetaDrive-test-og-td3,95,288.5420030158465,239427,1037,2506.4401321411133,50.067630767822266,-50.18040084838867,8.200145721435547,0.55
238,MetaDrive-test-og-td3,95,288.7676286080759,240629,1039,2517.7538509368896,45.34239959716797,-45.80542755126953,5.647875785827637,0.56
239,MetaDrive-test-og-td3,95,289.8097578493533,241257,1040,2524.5912380218506,50.68410873413086,-51.460819244384766,7.005287170410156,0.57
240,MetaDrive-test-og-td3,95,286.02696813746314,242331,1044,2534.88427901268,46.240196228027344,-46.44227600097656,20.68256950378418,0.56
241,MetaDrive-test-og-td3,95,279.5276417351739,243236,1047,2544.2640981674194,46.343048095703125,,61.33219528198242,0.54
242,MetaDrive-test-og-td3,95,273.88422915093827,244109,1050,2553.4566972255707,50.43805694580078,-51.77902603149414,36.214603424072266,0.51
243,MetaDrive-test-og-td3,95,274.40634536639317,245358,1052,2566.8024849891663,44.359344482421875,,26.28420639038086,0.51
244,MetaDrive-test-og-td3,95,277.0280703410626,246435,1054,2579.4646599292755,51.427391052246094,-51.558536529541016,15.003829956054688,0.52
245,MetaDrive-test-og-td3,95,276.99382977331635,247081,1055,2587.001382827759,47.5118293762207,-48.035430908203125,6.359551429748535,0.51
246,MetaDrive-test-og-td3,95,279.23292106965175,248556,1057,2603.2430741786957,49.778079986572266,,9.544157028198242,0.51
247,MetaDrive-test-og-td3,95,279.4219199629952,249141,1058,2609.1829919815063,46.623775482177734,-47.06232833862305,5.32745361328125,0.51
248,MetaDrive-test-og-td3,95,273.5289769591446,250232,1060,2619.898369073868,46.471683502197266,,8.767889022827148,0.49
249,MetaDrive-test-og-td3,95,274.34184152007543,251103,1062,2629.231469154358,48.27872085571289,-49.1875,42.32897186279297,0.49
250,MetaDrive-test-og-td3,95,273.9390463948963,252253,1064,2642.3963589668274,50.70904541015625,-51.3475227355957,13.867696762084961,0.48
251,MetaDrive-test-og-td3,95,272.83628889440683,253206,1066,2651.930521965027,49.64115905761719,,7.610198497772217,0.48
252,MetaDrive-test-og-td3,95,273.75334840440297,254368,1068,2664.85187792778,46.942352294921875,,25.49929428100586,0.48
253,MetaDrive-test-og-td3,95,274.9977517378186,255004,1069,2671.932962179184,47.611732482910156,,9.128557205200195,0.48
254,MetaDrive-test-og-td3,95,271.7611887687156,256452,1073,2685.9126238822937,48.69691467285156,,10.718215942382812,0.47
255,MetaDrive-test-og-td3,95,272.6589785801757,257486,1075,2695.9282879829407,50.613765716552734,,28.219039916992188,0.48
256,MetaDrive-test-og-td3,95,271.5460167634669,258061,1077,2701.6751182079315,47.87151336669922,-49.08628463745117,9.246772766113281,0.48
257,MetaDrive-test-og-td3,95,274.23400065621854,259418,1080,2717.1992020606995,48.562255859375,,10.654550552368164,0.49
258,MetaDrive-test-og-td3,95,271.6288082703742,260644,1082,2730.657856941223,48.9803581237793,,7.490028381347656,0.5
259,MetaDrive-test-og-td3,95,269.19054303607055,261529,1085,2740.2021651268005,47.62446212768555,-46.96399688720703,7.502655982971191,0.49
260,MetaDrive-test-og-td3,95,268.5689518906549,262045,1086,2745.781508207321,47.845062255859375,-48.47978973388672,22.260498046875,0.49
261,MetaDrive-test-og-td3,95,269.7162301379972,263227,1089,2757.6776320934296,45.87504959106445,-45.45013427734375,8.800003051757812,0.5
262,MetaDrive-test-og-td3,95,270.9811992992388,264282,1092,2767.147267103195,47.37657928466797,,6.054656982421875,0.52
263,MetaDrive-test-og-td3,95,267.01500015840463,265133,1095,2776.954554796219,47.57624435424805,-47.73513412475586,9.297794342041016,0.5
264,MetaDrive-test-og-td3,95,262.78852001455033,266608,1099,2791.574084997177,47.98624801635742,,4.973787307739258,0.48
265,MetaDrive-test-og-td3,95,264.34365480791627,267313,1100,2800.4287180900574,42.79437255859375,-44.15943908691406,138.35546875,0.49
266,MetaDrive-test-og-td3,95,265.8915768895226,268005,1101,2807.8120160102844,47.26449966430664,-48.34729766845703,20.476139068603516,0.5
267,MetaDrive-test-og-td3,95,263.45602095521525,269567,1104,2824.67569899559,47.12300109863281,-47.709190368652344,7.879794120788574,0.49
268,MetaDrive-test-og-td3,95,266.12288424937566,270075,1105,2829.829829931259,48.07046127319336,-47.186256408691406,11.60007381439209,0.5
269,MetaDrive-test-og-td3,95,262.89683672442936,271403,1109,2843.431240081787,51.52361297607422,-52.82989501953125,7.460325241088867,0.5
270,MetaDrive-test-og-td3,95,262.8190021950012,272040,1110,2850.0802371501923,47.63536071777344,,10.942398071289062,0.5
271,MetaDrive-test-og-td3,95,266.2451187866054,273175,1112,2863.648006916046,48.80423355102539,-49.58033752441406,6.46867561340332,0.52
272,MetaDrive-test-og-td3,95,262.067540035954,274466,1115,2876.7328379154205,48.44169235229492,,8.188920974731445,0.51
273,MetaDrive-test-og-td3,95,263.36362451406154,275262,1116,2885.357284784317,50.70819091796875,,23.20714569091797,0.51
274,MetaDrive-test-og-td3,95,265.0872636154154,276484,1118,2898.329549074173,49.390140533447266,,6.6165771484375,0.51
275,MetaDrive-test-og-td3,95,264.67573844696244,277565,1120,2908.9331810474396,45.415992736816406,-45.69091796875,11.84705924987793,0.52
276,MetaDrive-test-og-td3,95,264.84819615166407,278248,1121,2916.2620680332184,46.85488510131836,,10.431408882141113,0.53
277,MetaDrive-test-og-td3,95,269.7141400889775,279797,1123,2934.894212245941,51.937320709228516,-50.938602447509766,8.156190872192383,0.54
278,MetaDrive-test-og-td3,95,269.45840652026936,280357,1124,2940.0646798610687,52.3295783996582,-51.973480224609375,9.746647834777832,0.55
279,MetaDrive-test-og-td3,95,267.1541609089883,281331,1126,2950.005436897278,49.44800567626953,-50.28327560424805,6.059802055358887,0.55
280,MetaDrive-test-og-td3,95,268.7187894826498,282337,1128,2960.6936450004578,48.95058059692383,-49.26047134399414,6.761213779449463,0.55
281,MetaDrive-test-og-td3,95,265.37766653306215,283406,1131,2970.1549229621887,48.33842468261719,,10.161948204040527,0.55
282,MetaDrive-test-og-td3,95,264.79810661420436,284120,1132,2978.311646938324,48.167659759521484,,12.268104553222656,0.55
283,MetaDrive-test-og-td3,95,265.2496148194608,285229,1134,2991.14932513237,48.760318756103516,-48.98732376098633,7.852321147918701,0.55
284,MetaDrive-test-og-td3,95,266.9128171427061,286325,1136,3002.5593202114105,47.981689453125,-48.12081527709961,8.165548324584961,0.56
285,MetaDrive-test-og-td3,95,265.57068164296334,287320,1138,3012.2663490772247,48.56781768798828,,10.87202262878418,0.55
286,MetaDrive-test-og-td3,95,263.63125180000725,288491,1141,3023.421154022217,47.888240814208984,-48.7642822265625,16.4517765045166,0.54
287,MetaDrive-test-og-td3,95,264.96444072884117,289429,1143,3033.2519459724426,47.02698516845703,-48.016807556152344,7.9508891105651855,0.54
288,MetaDrive-test-og-td3,95,265.57350448495527,290096,1145,3039.1310410499573,47.30849838256836,,9.561805725097656,0.54
289,MetaDrive-test-og-td3,95,267.3182139686227,291320,1148,3052.627961874008,49.79458999633789,,10.156196594238281,0.56
290,MetaDrive-test-og-td3,95,267.2584439461878,292028,1149,3061.9198348522186,51.57583999633789,,120.62339782714844,0.56
291,MetaDrive-test-og-td3,95,268.6263048179014,293138,1151,3071.8443961143494,45.27533721923828,,21.075653076171875,0.57
292,MetaDrive-test-og-td3,95,268.89457581353776,294375,1153,3084.050201177597,50.684791564941406,-50.704586029052734,5.481670379638672,0.58
293,MetaDrive-test-og-td3,95,269.26238308115126,295220,1154,3094.137493133545,48.9192008972168,,6.148967742919922,0.58
294,MetaDrive-test-og-td3,95,268.3343085202469,296435,1156,3106.563000202179,47.163875579833984,-46.837432861328125,6.922322750091553,0.59
295,MetaDrive-test-og-td3,95,268.8044567314334,297079,1157,3113.939419031143,45.914886474609375,-45.91731262207031,14.426240921020508,0.6
296,MetaDrive-test-og-td3,95,268.2052609382506,298107,1160,3124.4498040676117,50.58338165283203,-50.18531799316406,7.343317985534668,0.6
297,MetaDrive-test-og-td3,95,270.532256285885,299667,1162,3140.5642290115356,50.4451904296875,-50.777320861816406,7.013591766357422,0.61
298,MetaDrive-test-og-td3,95,270.79979966017027,300273,1163,3146.8726110458374,45.326210021972656,-44.90719223022461,13.61326789855957,0.61
299,MetaDrive-test-og-td3,95,273.1528735682888,301847,1165,3165.1122210025787,45.55902862548828,-45.47673797607422,7.52156925201416,0.62
300,MetaDrive-test-og-td3,95,270.5368125900778,302146,1166,3168.0032918453217,47.41786193847656,,7.520265579223633,0.61
301,MetaDrive-test-og-td3,95,271.2059407188787,303433,1168,3181.1666820049286,46.93632888793945,-47.52629089355469,5.800053596496582,0.61
302,MetaDrive-test-og-td3,95,267.80049022331764,304025,1170,3186.892175912857,49.08182907104492,-48.96776580810547,8.288561820983887,0.59
303,MetaDrive-test-og-td3,95,271.91604456333255,305337,1172,3200.2861750125885,47.454429626464844,-48.798500061035156,72.447509765625,0.61
304,MetaDrive-test-og-td3,95,274.30775089551605,306675,1174,3215.1274881362915,47.98896026611328,-48.30673599243164,8.072145462036133,0.62
305,MetaDrive-test-og-td3,95,273.5311651552081,307625,1176,3225.7678339481354,54.17870330810547,-54.24629211425781,3.8187096118927,0.61
306,MetaDrive-test-og-td3,95,276.53160325613663,308526,1177,3234.313465118408,48.07209777832031,,8.803899765014648,0.62
307,MetaDrive-test-og-td3,95,276.0444274885909,309567,1179,3246.691484928131,44.23423767089844,-45.066959381103516,6.084770202636719,0.62
308,MetaDrive-test-og-td3,95,276.4922867237428,310149,1180,3252.880825996399,43.111419677734375,-45.068321228027344,25.319610595703125,0.62
309,MetaDrive-test-og-td3,95,276.43240761058206,311323,1182,3263.7449049949646,48.37520217895508,-48.33174514770508,11.057413101196289,0.62
310,MetaDrive-test-og-td3,95,279.0420752115549,312021,1184,3271.342153072357,49.39305877685547,-49.701045989990234,10.54770278930664,0.63
311,MetaDrive-test-og-td3,95,277.0916968145595,313118,1186,3282.8758778572083,46.29250717163086,,8.584115982055664,0.63
312,MetaDrive-test-og-td3,95,275.7900804452453,314209,1189,3292.772740840912,48.697513580322266,-48.15290069580078,7.008437156677246,0.63
313,MetaDrive-test-og-td3,95,278.47715594916855,315475,1191,3305.820620059967,49.64994430541992,-50.268733978271484,111.62482452392578,0.64
314,MetaDrive-test-og-td3,95,281.39627088753264,316523,1193,3315.2520360946655,44.63732147216797,-45.194129943847656,9.00290298461914,0.64
315,MetaDrive-test-og-td3,95,282.645495718309,317693,1196,3327.1955699920654,47.53493118286133,-47.69724655151367,7.961930274963379,0.64
316,MetaDrive-test-og-td3,95,285.6935775136195,318389,1197,3335.247363090515,46.010189056396484,-46.41254425048828,7.951547145843506,0.65
317,MetaDrive-test-og-td3,95,287.12072209076223,319168,1198,3344.4606540203094,46.780696868896484,,8.558732986450195,0.66
318,MetaDrive-test-og-td3,95,281.59443678588724,320157,1201,3354.9052391052246,48.079803466796875,-47.56281661987305,9.22976303100586,0.63
319,MetaDrive-test-og-td3,95,281.88134967397406,321263,1203,3367.4386570453644,48.66215515136719,-48.918663024902344,5.202648162841797,0.63
320,MetaDrive-test-og-td3,95,279.6576673650097,322037,1205,3374.936590194702,44.10265350341797,-44.69258117675781,6.125275611877441,0.61
321,MetaDrive-test-og-td3,95,283.801417463496,323349,1207,3388.0019810199738,46.560333251953125,-45.99857711791992,12.98539924621582,0.62
322,MetaDrive-test-og-td3,95,284.1608554440808,324136,1209,3395.445172071457,50.802310943603516,,11.057310104370117,0.62
323,MetaDrive-test-og-td3,95,280.9702406881119,325335,1212,3408.640611886978,42.08122253417969,-42.400123596191406,7.2749223709106445,0.6
324,MetaDrive-test-og-td3,95,284.312237838686,326519,1214,3420.776181936264,46.81754684448242,-47.77637481689453,28.223621368408203,0.61
325,MetaDrive-test-og-td3,95,283.5830900378158,327249,1215,3429.0794219970703,49.92634582519531,-49.215599060058594,7.333797454833984,0.6
326,MetaDrive-test-og-td3,95,281.6528350242872,328185,1217,3437.662589073181,51.350975036621094,-52.457000732421875,15.529240608215332,0.62
327,MetaDrive-test-og-td3,95,280.1185041495044,329118,1219,3446.639501094818,45.44485092163086,,10.187942504882812,0.61
328,MetaDrive-test-og-td3,95,281.6669181577149,330752,1221,3466.133197069168,47.14228057861328,,7.3260297775268555,0.62
329,MetaDrive-test-og-td3,95,281.8950779639487,331753,1222,3476.392776966095,47.52937698364258,-47.43582534790039,13.132593154907227,0.61
330,MetaDrive-test-og-td3,95,275.67563482960526,332153,1224,3480.2560579776764,51.662353515625,-52.35578155517578,3.6895079612731934,0.59
331,MetaDrive-test-og-td3,95,276.5116957520664,333358,1227,3492.442542076111,47.9001350402832,,6.03170108795166,0.59
332,MetaDrive-test-og-td3,95,274.6504192343132,334296,1229,3501.8897049427032,46.05313491821289,,18.91547393798828,0.58
333,MetaDrive-test-og-td3,95,276.1220508279276,335379,1231,3514.0343618392944,46.16069030761719,-46.89087677001953,7.235032558441162,0.58
334,MetaDrive-test-og-td3,95,274.6080924106054,336068,1233,3520.9332070350647,47.326881408691406,,6.632621765136719,0.58
335,MetaDrive-test-og-td3,95,269.64274297175706,337109,1236,3530.71182012558,49.583580017089844,-48.75741195678711,9.948869705200195,0.58
336,MetaDrive-test-og-td3,95,267.6650817951897,338242,1240,3542.210988998413,46.93287658691406,,8.758674621582031,0.57
337,MetaDrive-test-og-td3,95,266.9160609506021,339155,1242,3551.632395029068,49.678466796875,-51.34884262084961,10.401317596435547,0.56
338,MetaDrive-test-og-td3,95,265.9812959736131,340615,1246,3568.026649236679,47.47504425048828,-47.071224212646484,6.09227991104126,0.54
339,MetaDrive-test-og-td3,95,266.0727925580707,341175,1247,3572.7973902225494,49.836978912353516,-49.923316955566406,7.011826992034912,0.54
340,MetaDrive-test-og-td3,95,265.9578195208002,342344,1249,3583.4004180431366,45.171104431152344,,7.6856560707092285,0.55
341,MetaDrive-test-og-td3,95,260.21220545050915,343508,1253,3595.4985270500183,42.70237350463867,,11.700428009033203,0.52
342,MetaDrive-test-og-td3,95,258.5509490864401,344035,1254,3600.055852174759,44.6868896484375,-44.44163131713867,8.651001930236816,0.52
343,MetaDrive-test-og-td3,95,253.66447509631317,345158,1257,3610.1759428977966,50.48588943481445,,10.080057144165039,0.5
344,MetaDrive-test-og-td3,95,255.32718291086013,346352,1259,3621.6141970157623,49.06243133544922,,7.998174667358398,0.5
345,MetaDrive-test-og-td3,95,255.51891226068997,347353,1260,3633.337656021118,51.92168426513672,-52.35064697265625,6.445758819580078,0.5
346,MetaDrive-test-og-td3,95,251.8823426437845,348719,1263,3647.4521770477295,47.067317962646484,-47.09233856201172,9.548542022705078,0.49
347,MetaDrive-test-og-td3,95,251.1538915360342,349307,1264,3653.2647728919983,48.68391418457031,-49.17823028564453,19.077926635742188,0.49
348,MetaDrive-test-og-td3,95,250.73512288084228,350050,1265,3660.5063030719757,46.861732482910156,,21.98088264465332,0.49
349,MetaDrive-test-og-td3,95,249.81359804398784,351424,1269,3675.583011865616,50.237342834472656,,8.213796615600586,0.48
350,MetaDrive-test-og-td3,95,245.15124646759787,352408,1272,3685.05317401886,46.33676528930664,,10.235456466674805,0.47
351,MetaDrive-test-og-td3,95,242.54978866037524,353453,1274,3694.607796907425,45.617549896240234,-45.897804260253906,6.42980432510376,0.46
352,MetaDrive-test-og-td3,95,242.05926320688795,354419,1275,3705.809362888336,44.59356689453125,-44.19081497192383,14.010046005249023,0.46
353,MetaDrive-test-og-td3,95,243.35444235362033,355286,1276,3715.7905962467194,43.82773971557617,,10.850868225097656,0.46
354,MetaDrive-test-og-td3,95,243.44400854320688,356048,1278,3724.1791689395905,42.41383361816406,,152.3963623046875,0.45
355,MetaDrive-test-og-td3,95,242.48436479067888,357102,1280,3734.701982021332,46.234779357910156,,6.963859558105469,0.45
356,MetaDrive-test-og-td3,95,242.46759145388555,358089,1283,3746.3952929973602,46.17302703857422,-46.97700119018555,14.187934875488281,0.43
357,MetaDrive-test-og-td3,95,240.85615863420543,359572,1286,3761.605489015579,44.99697494506836,,13.849413871765137,0.42
358,MetaDrive-test-og-td3,95,241.3086145495234,360165,1287,3767.064409971237,44.646507263183594,-45.881195068359375,17.038602828979492,0.42
359,MetaDrive-test-og-td3,95,242.71908090401303,361062,1289,3776.513979911804,45.093048095703125,,16.03680419921875,0.42
360,MetaDrive-test-og-td3,95,238.10449302899318,362128,1292,3786.5060710906982,45.107906341552734,,13.825784683227539,0.42
361,MetaDrive-test-og-td3,95,239.90927210394773,363317,1295,3799.7930738925934,45.33274459838867,-45.52384567260742,29.199737548828125,0.42
362,MetaDrive-test-og-td3,95,235.0494449764502,364143,1297,3807.990103006363,44.03166961669922,-43.787803649902344,9.69749641418457,0.41
363,MetaDrive-test-og-td3,95,235.17371217906458,365052,1298,3818.312763929367,47.49169158935547,,16.022592544555664,0.41
364,MetaDrive-test-og-td3,95,237.1123725891914,366053,1300,3826.940721988678,49.72230529785156,-50.61669921875,10.649491310119629,0.43
365,MetaDrive-test-og-td3,95,239.4571753426747,367234,1302,3839.7712359428406,44.028133392333984,,6.751377105712891,0.44
366,MetaDrive-test-og-td3,95,241.1437564115254,368523,1304,3852.6298060417175,43.63863754272461,-44.34510803222656,8.686872482299805,0.45
367,MetaDrive-test-og-td3,95,240.43326111384286,369162,1305,3859.3868980407715,47.40687942504883,,86.59390258789062,0.46
368,MetaDrive-test-og-td3,95,237.05701681512863,370124,1307,3867.998090028763,48.24574661254883,,6.899670600891113,0.45
369,MetaDrive-test-og-td3,95,238.0482505271285,371668,1310,3883.7489840984344,42.09534454345703,,6.027881622314453,0.45
370,MetaDrive-test-og-td3,95,239.39090773967666,372352,1311,3890.340126991272,45.62995910644531,,7.61469841003418,0.46
371,MetaDrive-test-og-td3,95,240.99160720979154,373500,1313,3900.8434929847717,48.435997009277344,,14.527229309082031,0.46
372,MetaDrive-test-og-td3,95,238.59937535494356,374406,1315,3909.6198048591614,47.25798416137695,,10.199146270751953,0.46
373,MetaDrive-test-og-td3,95,239.22242213425233,375116,1316,3916.4621188640594,48.62881088256836,,11.13282585144043,0.46
374,MetaDrive-test-og-td3,95,240.8706576797456,376433,1319,3929.9589970111847,48.20408248901367,-48.77688980102539,8.32827377319336,0.46
375,MetaDrive-test-og-td3,95,239.48833443908984,377618,1321,3941.757863998413,48.298160552978516,,143.11447143554688,0.46
376,MetaDrive-test-og-td3,95,239.41533407267957,378554,1323,3951.111757993698,48.042396545410156,,10.676595687866211,0.47
377,MetaDrive-test-og-td3,95,239.7467729758155,379030,1324,3956.300866127014,45.21977996826172,,16.032798767089844,0.47
378,MetaDrive-test-og-td3,95,241.28310591616423,380013,1326,3966.961142063141,44.21854019165039,-45.03793716430664,18.161033630371094,0.47
379,MetaDrive-test-og-td3,95,240.38615949685564,381323,1329,3980.126881122589,46.08268737792969,-46.72350311279297,18.466081619262695,0.47
380,MetaDrive-test-og-td3,95,237.8765388270141,382291,1332,3990.233990907669,46.08000564575195,-45.90144729614258,9.258275985717773,0.46
381,MetaDrive-test-og-td3,95,238.15638324530443,383078,1334,3998.5224158763885,47.26837921142578,,5.589757919311523,0.46
382,MetaDrive-test-og-td3,95,239.04729339978644,384081,1336,4008.8475770950317,42.80050277709961,-41.36262893676758,37.19280242919922,0.46
383,MetaDrive-test-og-td3,95,241.3213333234996,385114,1339,4019.6946380138397,42.00434112548828,,97.71858215332031,0.47
384,MetaDrive-test-og-td3,95,241.9425614849058,386031,1342,4028.759561061859,43.01939392089844,-44.32731628417969,22.300918579101562,0.49
385,MetaDrive-test-og-td3,95,240.84912562054785,387290,1346,4041.121351003647,48.326969146728516,,9.387269973754883,0.5
386,MetaDrive-test-og-td3,95,241.7306074743076,388048,1347,4048.1642801761627,42.52979278564453,,15.696212768554688,0.5
387,MetaDrive-test-og-td3,95,243.45606309872824,389477,1350,4063.8514890670776,42.36000442504883,-43.1087646484375,12.257333755493164,0.5
388,MetaDrive-test-og-td3,95,248.03956639228952,390435,1351,4077.503783941269,43.07779312133789,-44.03086853027344,7.844439506530762,0.51
389,MetaDrive-test-og-td3,95,250.13184506614934,391001,1352,4084.40505194664,48.22261047363281,-49.296669006347656,10.005550384521484,0.52
390,MetaDrive-test-og-td3,95,248.55756730310316,392096,1355,4096.152304887772,47.63996887207031,,13.190181732177734,0.5
391,MetaDrive-test-og-td3,95,251.4188050369359,393116,1357,4106.651416063309,48.9433479309082,,8.717657089233398,0.5
392,MetaDrive-test-og-td3,95,253.5693303914906,394220,1359,4118.104108095169,46.34694290161133,,17.811405181884766,0.5
393,MetaDrive-test-og-td3,95,253.87031808400673,395072,1361,4128.303073167801,50.5158805847168,,7.1996307373046875,0.5
394,MetaDrive-test-og-td3,95,252.18727676610368,396128,1364,4138.578961849213,44.352264404296875,,8.55611515045166,0.48
395,MetaDrive-test-og-td3,95,254.69439095896087,397293,1366,4149.469785928726,43.49559783935547,-44.533424377441406,10.548212051391602,0.48
396,MetaDrive-test-og-td3,95,256.6280474381031,398194,1368,4157.377804040909,41.537471771240234,,8.624834060668945,0.48
397,MetaDrive-test-og-td3,95,257.6934703681415,399560,1370,4174.216876029968,47.752197265625,,12.414834976196289,0.48
398,MetaDrive-test-og-td3,95,257.4009271828463,400159,1372,4180.079563140869,40.60566329956055,-40.96722412109375,13.595654487609863,0.47
399,MetaDrive-test-og-td3,95,258.138291153206,401885,1375,4200.2306571006775,43.33918762207031,-42.86902618408203,25.380475997924805,0.46
400,MetaDrive-test-og-td3,95,257.4542926970157,402680,1376,4207.848669052124,46.16773223876953,,8.193954467773438,0.46
401,MetaDrive-test-og-td3,95,258.2349188415069,403197,1377,4212.898125171661,48.79424285888672,-49.250911712646484,8.798921585083008,0.47
402,MetaDrive-test-og-td3,95,255.69828626265215,404101,1380,4222.908645868301,46.2682991027832,-44.96675109863281,15.454960823059082,0.45
403,MetaDrive-test-og-td3,95,257.59145618703604,405006,1382,4231.5666399002075,45.652374267578125,,56.389976501464844,0.46
404,MetaDrive-test-og-td3,95,259.52473106469955,406803,1384,4252.610392093658,44.22079849243164,-44.89788055419922,5.944736480712891,0.47
405,MetaDrive-test-og-td3,95,259.9283688015687,407305,1385,4257.47850394249,47.23026657104492,-48.726219177246094,8.805612564086914,0.47
406,MetaDrive-test-og-td3,95,259.8013222463578,408702,1387,4272.60515499115,48.616668701171875,,11.496282577514648,0.46
407,MetaDrive-test-og-td3,95,261.8480085809889,409335,1388,4279.325583934784,43.322479248046875,-43.63517379760742,9.408834457397461,0.47
408,MetaDrive-test-og-td3,95,260.84278456888586,410538,1390,4294.790730953217,49.98116683959961,,7.286746501922607,0.45
409,MetaDrive-test-og-td3,95,262.78004688817873,411852,1392,4310.684797048569,45.80057144165039,,22.577228546142578,0.44
410,MetaDrive-test-og-td3,95,261.5417206107058,412342,1393,4316.481113910675,44.69878387451172,,7.6113481521606445,0.43
411,MetaDrive-test-og-td3,95,264.76135257909993,413369,1395,4327.333169937134,42.43294906616211,-43.172027587890625,7.653560638427734,0.43
412,MetaDrive-test-og-td3,95,267.6860669491539,414370,1396,4339.562134027481,50.680118560791016,,5.4285736083984375,0.43
413,MetaDrive-test-og-td3,95,269.11422387034423,415312,1398,4348.469742774963,53.11359405517578,,34.219764709472656,0.43
414,MetaDrive-test-og-td3,95,269.4637066219653,416326,1400,4359.1291699409485,45.207298278808594,,9.651131629943848,0.41
415,MetaDrive-test-og-td3,95,263.4572555251175,417188,1403,4368.895071029663,43.79096984863281,,10.425721168518066,0.39
416,MetaDrive-test-og-td3,95,263.10991934867866,418189,1404,4380.2759308815,44.439659118652344,-44.88562774658203,33.905479431152344,0.38
417,MetaDrive-test-og-td3,95,263.67841377704497,419132,1406,4389.4350028038025,43.4602165222168,,14.07034683227539,0.37
418,MetaDrive-test-og-td3,95,263.25766905631446,420164,1408,4398.825063943863,44.98411178588867,,9.45107650756836,0.37
419,MetaDrive-test-og-td3,95,264.1885532168595,421458,1410,4412.673810005188,45.171791076660156,,6.86917781829834,0.38
420,MetaDrive-test-og-td3,95,263.9947830796198,422459,1411,4425.608024120331,42.061851501464844,-41.602420806884766,92.48681640625,0.37
421,MetaDrive-test-og-td3,95,263.7315428330153,423154,1412,4432.506520032883,43.41071319580078,,13.027420043945312,0.37
422,MetaDrive-test-og-td3,95,263.7987396371065,424086,1414,4441.798062086105,39.69234085083008,,5.954197883605957,0.37
423,MetaDrive-test-og-td3,95,261.210341926345,425284,1417,4453.641504049301,47.81901168823242,,10.089963912963867,0.35
424,MetaDrive-test-og-td3,95,260.8294865686085,426028,1418,4461.336642026901,47.93503189086914,,10.556102752685547,0.34
425,MetaDrive-test-og-td3,95,260.2771973751431,427160,1420,4473.282564163208,44.820228576660156,,6.518072128295898,0.33
426,MetaDrive-test-og-td3,95,259.50998797281113,428430,1423,4485.634577989578,46.09129333496094,,37.071231842041016,0.32
427,MetaDrive-test-og-td3,95,260.0483416511603,429717,1425,4499.534395933151,48.729766845703125,-49.44330978393555,6.406672477722168,0.33
428,MetaDrive-test-og-td3,95,261.8094624805146,430201,1426,4503.960430145264,45.88127899169922,-47.096710205078125,9.664952278137207,0.34
429,MetaDrive-test-og-td3,95,262.409780786567,431091,1428,4511.567493915558,47.518680572509766,-48.199867248535156,40.577850341796875,0.35
430,MetaDrive-test-og-td3,95,265.3238234872871,432627,1430,4527.0,50.910430908203125,-50.5279655456543,4.8575944900512695,0.35
431,MetaDrive-test-og-td3,95,267.52013689255864,433270,1431,4533.07945394516,45.01680374145508,,23.677610397338867,0.35
432,MetaDrive-test-og-td3,95,269.022427747257,434709,1433,4548.9247760772705,46.30807876586914,-45.771766662597656,19.25649642944336,0.35
433,MetaDrive-test-og-td3,95,265.60723702629184,435148,1435,4552.897118091583,47.505096435546875,,21.165637969970703,0.34
434,MetaDrive-test-og-td3,95,267.88079504651085,436727,1437,4569.870805978775,41.002403259277344,-42.390846252441406,17.239301681518555,0.35
435,MetaDrive-test-og-td3,95,269.05610044194435,437049,1438,4573.237060070038,44.83195877075195,-45.3145751953125,7.3267927169799805,0.35
436,MetaDrive-test-og-td3,95,268.16792710190373,438106,1440,4584.374500989914,41.24778366088867,,10.58041000366211,0.34
437,MetaDrive-test-og-td3,95,271.71852239265866,439467,1443,4599.462010860443,51.26705551147461,-51.166038513183594,18.658103942871094,0.34
438,MetaDrive-test-og-td3,95,272.5902958336183,440188,1444,4607.795342922211,46.89175796508789,,6.175224304199219,0.34
439,MetaDrive-test-og-td3,95,274.6854613579577,441405,1446,4620.067673921585,45.389427185058594,-46.185943603515625,43.64325714111328,0.33
440,MetaDrive-test-og-td3,95,275.2643273066003,442148,1447,4628.269497871399,46.22273635864258,,7.1527605056762695,0.33
441,MetaDrive-test-og-td3,95,274.3951318193043,443099,1449,4637.368740797043,46.964874267578125,-47.99692153930664,7.215470314025879,0.31
442,MetaDrive-test-og-td3,95,273.36524997268134,444445,1451,4651.494400978088,47.59690856933594,-49.139896392822266,17.955699920654297,0.31
443,MetaDrive-test-og-td3,95,271.6198114520008,445305,1453,4659.975060939789,41.499046325683594,-41.68706512451172,4.448709487915039,0.31
444,MetaDrive-test-og-td3,95,273.09842071876085,446184,1455,4668.739370107651,45.79922103881836,,20.46317481994629,0.32
445,MetaDrive-test-og-td3,95,271.10483753839685,447134,1457,4681.107367038727,42.5110969543457,,7.6130757331848145,0.31
446,MetaDrive-test-og-td3,95,269.19412288059016,448102,1459,4690.0538420677185,38.06646728515625,,6.906787872314453,0.31
447,MetaDrive-test-og-td3,95,271.3821602480911,449504,1461,4704.676316976547,48.54130935668945,,3.633028030395508,0.33
448,MetaDrive-test-og-td3,95,271.7957756277386,450411,1463,4713.525818824768,45.807098388671875,-45.850624084472656,130.3428955078125,0.34
449,MetaDrive-test-og-td3,95,273.43258344559797,451082,1464,4721.0607759952545,47.00745391845703,,9.040412902832031,0.34
450,MetaDrive-test-og-td3,95,271.1746524598317,452093,1466,4729.9273002147675,50.022804260253906,-49.64714431762695,5.776309490203857,0.35
451,MetaDrive-test-og-td3,95,272.6206158770553,453561,1468,4744.655309200287,45.501548767089844,-45.51179122924805,15.808225631713867,0.37
452,MetaDrive-test-og-td3,95,274.14001020306176,454562,1469,4755.547501087189,46.46223449707031,,10.202646255493164,0.37
453,MetaDrive-test-og-td3,95,275.1242643119658,455464,1470,4766.15807890892,46.746864318847656,,13.559209823608398,0.38
454,MetaDrive-test-og-td3,95,277.3544481680876,456103,1471,4772.92170715332,46.56610107421875,-45.679595947265625,16.320556640625,0.39
455,MetaDrive-test-og-td3,95,278.92930926789495,457344,1473,4786.1758069992065,49.63423156738281,,12.713184356689453,0.39
456,MetaDrive-test-og-td3,95,279.6903959333004,458898,1475,4801.4961631298065,48.713157653808594,,11.01063346862793,0.4
457,MetaDrive-test-og-td3,95,277.7131538662151,459361,1476,4806.892846822739,42.00586700439453,-42.4764518737793,7.93776273727417,0.39
458,MetaDrive-test-og-td3,95,280.44591386992545,460951,1478,4825.8127019405365,40.66170883178711,-41.169677734375,15.966011047363281,0.39
459,MetaDrive-test-og-td3,95,282.7013332544177,461889,1479,4837.24950003624,49.41606521606445,-50.509735107421875,11.319822311401367,0.4
460,MetaDrive-test-og-td3,95,284.6181142545809,462542,1480,4845.351027011871,46.36088943481445,,16.984045028686523,0.4
461,MetaDrive-test-og-td3,95,283.65410913560345,463441,1482,4854.4473559856415,44.47624588012695,-44.78209686279297,9.269270896911621,0.4
462,MetaDrive-test-og-td3,95,281.48309607325666,464227,1483,4862.858860015869,44.46076965332031,-45.735294342041016,12.477729797363281,0.4
463,MetaDrive-test-og-td3,95,281.144235299293,465338,1485,4874.047163009644,44.18815612792969,,10.328332901000977,0.39
464,MetaDrive-test-og-td3,95,280.18150456121725,466168,1487,4881.931542158127,41.50592041015625,,6.76301908493042,0.39
465,MetaDrive-test-og-td3,95,281.01374635119976,467089,1489,4891.661283016205,39.853790283203125,-40.12767028808594,13.02363395690918,0.39
466,MetaDrive-test-og-td3,95,280.8322922440237,468229,1491,4902.304663181305,47.27566909790039,-48.237464904785156,10.226655006408691,0.41
467,MetaDrive-test-og-td3,95,280.1917008254063,469612,1493,4916.610033035278,44.12812805175781,,7.0193023681640625,0.41
468,MetaDrive-test-og-td3,95,279.4808944193022,470148,1494,4921.387979030609,47.01202392578125,,16.23535919189453,0.42
469,MetaDrive-test-og-td3,95,276.87840342587117,471308,1497,4933.447234153748,40.349910736083984,,9.896692276000977,0.42
470,MetaDrive-test-og-td3,95,276.76224582407207,472575,1499,4945.640972137451,43.81528854370117,-44.56089782714844,9.265934944152832,0.43
471,MetaDrive-test-og-td3,95,276.64149682941917,473118,1500,4950.909572839737,44.58961868286133,,8.895729064941406,0.44
472,MetaDrive-test-og-td3,95,280.4422620458066,474119,1501,4963.70019698143,37.568634033203125,-38.099552154541016,15.91714096069336,0.44
473,MetaDrive-test-og-td3,95,282.2712568641331,475028,1503,4973.645614862442,43.695152282714844,,24.702816009521484,0.45
474,MetaDrive-test-og-td3,95,283.41185121196406,476029,1504,4986.595439910889,46.23180389404297,-46.318145751953125,3.279752254486084,0.45
475,MetaDrive-test-og-td3,95,286.14162708421617,477243,1506,4998.059921979904,45.00910568237305,-45.41098403930664,10.4303617477417,0.46
476,MetaDrive-test-og-td3,95,288.10303532639244,478586,1508,5013.1541249752045,43.63794708251953,,8.700550079345703,0.46
477,MetaDrive-test-og-td3,95,288.47511965027417,479259,1509,5019.834006071091,43.561187744140625,-42.17097091674805,23.28872299194336,0.45
478,MetaDrive-test-og-td3,95,287.54468038713173,480323,1511,5029.632304906845,42.364891052246094,-42.8904914855957,11.170373916625977,0.46
479,MetaDrive-test-og-td3,95,289.7537191904632,481339,1513,5039.652547121048,43.6966552734375,-44.37638473510742,6.56279182434082,0.47
480,MetaDrive-test-og-td3,95,289.3671939878326,482245,1514,5049.529433012009,44.24738693237305,-43.730690002441406,12.003890991210938,0.47
481,MetaDrive-test-og-td3,95,292.4938182462006,483602,1516,5062.361529827118,46.620452880859375,,18.417139053344727,0.49
482,MetaDrive-test-og-td3,95,292.31995150124885,484060,1517,5067.674238920212,43.802730560302734,,20.441314697265625,0.49
483,MetaDrive-test-og-td3,95,289.0961340276099,485345,1520,5080.986940860748,38.84268569946289,-38.89273452758789,22.794418334960938,0.49
484,MetaDrive-test-og-td3,95,293.1780529211544,486301,1521,5091.306761980057,43.15359115600586,-43.76030349731445,10.982277870178223,0.49
485,MetaDrive-test-og-td3,95,291.3571227101192,487260,1523,5100.017627000809,46.80076599121094,,11.857544898986816,0.5
486,MetaDrive-test-og-td3,95,288.58982061918095,488582,1526,5113.847728013992,46.19838333129883,,9.192300796508789,0.48
487,MetaDrive-test-og-td3,95,289.8682908653068,489346,1527,5121.952461004257,43.302921295166016,,8.607179641723633,0.49
488,MetaDrive-test-og-td3,95,289.42585732203617,490562,1529,5135.338258981705,43.62487030029297,,12.36282730102539,0.49
489,MetaDrive-test-og-td3,95,287.5882113568625,491473,1531,5144.017370939255,44.28520965576172,-44.53689193725586,14.066221237182617,0.5
490,MetaDrive-test-og-td3,95,288.93310201051247,492429,1532,5154.955932855606,43.2989616394043,-43.85215377807617,4.315349578857422,0.5
491,MetaDrive-test-og-td3,95,288.43964370106465,493026,1534,5160.124135017395,44.10078811645508,,7.377834320068359,0.51
492,MetaDrive-test-og-td3,95,289.86152202855914,494165,1536,5171.725519895554,41.62062454223633,-42.125823974609375,11.748710632324219,0.51
493,MetaDrive-test-og-td3,95,292.82237010610527,495623,1538,5186.866966962814,44.236663818359375,-44.35297393798828,8.875133514404297,0.53
494,MetaDrive-test-og-td3,95,292.64094355993456,496519,1539,5195.879657030106,39.464866638183594,-40.16236877441406,9.952281951904297,0.53
495,MetaDrive-test-og-td3,95,292.67096555111834,497349,1540,5204.427186012268,40.38678741455078,-40.33715057373047,10.812382698059082,0.53
496,MetaDrive-test-og-td3,95,295.3780740721296,498001,1541,5210.708209991455,39.91922378540039,-40.151920318603516,6.76668119430542,0.54
497,MetaDrive-test-og-td3,95,296.06228767745796,499627,1544,5227.089434862137,42.651153564453125,-42.18085479736328,9.07310962677002,0.54
