TanmayH/CS269-RL-project-code/MetaDrive-test-noise2-reduction-td3_weighted_ignore/td3/progress.csv
,log_dir,frame_per_second,episode_reward,total_steps,total_episodes,total_time,target_q,actor_loss,critic_loss,success_rate
0,MetaDrive-test-noise2-reduction-td3,476,11.36829300090816,2001,2,4.200222969055176,,,,0.0
1,MetaDrive-test-noise2-reduction-td3,412,11.597138296097468,3002,3,7.283828020095825,,,,0.0
2,MetaDrive-test-noise2-reduction-td3,448,11.032622189899085,4003,4,8.92374300956726,,,,0.0
3,MetaDrive-test-noise2-reduction-td3,493,11.186896718165158,5004,5,10.134091854095459,,,,0.0
4,MetaDrive-test-noise2-reduction-td3,440,11.176699701866868,6005,6,13.646234035491943,,,,0.0
5,MetaDrive-test-noise2-reduction-td3,471,11.514424457215508,7006,7,14.868916034698486,,,,0.0
6,MetaDrive-test-noise2-reduction-td3,476,11.158875888027602,8007,8,16.800065755844116,,,,0.0
7,MetaDrive-test-noise2-reduction-td3,483,10.101716781450508,9499,10,19.634949922561646,,,,0.0
8,MetaDrive-test-noise2-reduction-td3,476,9.383803550385183,10034,11,21.064414024353027,0.021721381694078445,,0.0008174374233931303,0.0
9,MetaDrive-test-noise2-reduction-td3,285,0.24724038746515317,11897,47,41.739301919937134,-0.023469120264053345,-0.0254693403840065,0.7829140424728394,0.0
10,MetaDrive-test-noise2-reduction-td3,255,0.3140127031635946,12898,48,50.53677296638489,9.959936141967773e-05,,0.8058648109436035,0.0
11,MetaDrive-test-noise2-reduction-td3,251,0.2049835229624173,13037,49,51.83570098876953,0.07155316323041916,-0.08132156729698181,0.0011780259665101767,0.0
12,MetaDrive-test-noise2-reduction-td3,229,-0.2304590353026853,14169,53,61.74022579193115,0.0851864293217659,-0.09997615218162537,0.00360636948607862,0.0
13,MetaDrive-test-noise2-reduction-td3,215,-0.3305134604894223,15268,55,70.98595690727234,0.0978449210524559,,0.00682985782623291,0.0
14,MetaDrive-test-noise2-reduction-td3,199,-0.17893032367764958,16544,57,82.77438187599182,0.1100069135427475,,0.01025356538593769,0.0
15,MetaDrive-test-noise2-reduction-td3,189,-0.05941716857792642,17545,58,92.8249340057373,0.04821033403277397,-0.11698123067617416,0.6741180419921875,0.0
16,MetaDrive-test-noise2-reduction-td3,183,0.05017356915795538,18355,59,100.1275200843811,0.13950419425964355,-0.15094219148159027,0.002525662537664175,0.0
17,MetaDrive-test-noise2-reduction-td3,175,0.5757200065723035,19482,68,110.73907279968262,0.17349615693092346,,0.001359640620648861,0.0
18,MetaDrive-test-noise2-reduction-td3,172,0.49526374584044075,20104,77,116.7855429649353,0.18734745681285858,,0.011668646708130836,0.0
19,MetaDrive-test-noise2-reduction-td3,166,1.3916039172499777,21018,88,126.59914088249207,0.22849388420581818,,0.008711293339729309,0.0
20,MetaDrive-test-noise2-reduction-td3,159,1.0658235093657136,22009,108,137.82438898086548,0.1657635122537613,-0.21253758668899536,0.8742400407791138,0.0
21,MetaDrive-test-noise2-reduction-td3,153,2.830660553918905,23251,121,151.56193900108337,0.31780532002449036,-0.3037952184677124,0.012388315051794052,0.0
22,MetaDrive-test-noise2-reduction-td3,150,4.787932591349017,24013,131,159.80897498130798,0.3002575635910034,-0.41068968176841736,0.6096609830856323,0.0
23,MetaDrive-test-noise2-reduction-td3,145,6.701949466074719,25012,154,171.40031695365906,0.46154898405075073,,0.051084406673908234,0.0
24,MetaDrive-test-noise2-reduction-td3,142,8.065348109852835,26011,176,183.02538299560547,0.5922066569328308,-0.6148994565010071,0.020042361691594124,0.0
25,MetaDrive-test-noise2-reduction-td3,138,9.048832152941252,27014,200,195.08151507377625,0.6535276174545288,,0.9680801630020142,0.0
26,MetaDrive-test-noise2-reduction-td3,135,10.862352456377371,28016,219,206.18448901176453,0.976947546005249,,0.0697115808725357,0.0
27,MetaDrive-test-noise2-reduction-td3,132,9.839618699224072,29018,243,218.29596710205078,1.166479229927063,,0.10177494585514069,0.0
28,MetaDrive-test-noise2-reduction-td3,130,11.071892509724968,30014,264,229.14982986450195,1.3722269535064697,,1.423141598701477,0.0
29,MetaDrive-test-noise2-reduction-td3,129,11.931883573023452,31014,286,239.80293488502502,1.8133389949798584,,0.07135738432407379,0.0
30,MetaDrive-test-noise2-reduction-td3,127,12.26814155122782,32027,309,250.97522807121277,2.231999397277832,-2.156531810760498,0.1266385018825531,0.0
31,MetaDrive-test-noise2-reduction-td3,126,14.079949924244982,33012,322,261.1612479686737,2.63728666305542,,0.1292913556098938,0.0
32,MetaDrive-test-noise2-reduction-td3,124,15.707970372881903,34019,340,272.5231659412384,2.7856807708740234,-3.1249256134033203,1.750567078590393,0.0
33,MetaDrive-test-noise2-reduction-td3,123,17.44736137385346,35079,358,283.996976852417,3.4425137042999268,-3.425767421722412,0.8507550954818726,0.0
34,MetaDrive-test-noise2-reduction-td3,122,19.08202054860053,36033,372,294.0957851409912,3.6921544075012207,-3.966008424758911,2.0667314529418945,0.0
35,MetaDrive-test-noise2-reduction-td3,121,22.50607775501151,37022,386,304.60876393318176,4.504733562469482,,0.46007996797561646,0.0
36,MetaDrive-test-noise2-reduction-td3,120,25.372049525752292,38111,400,315.1012690067291,5.127294063568115,-5.275296688079834,0.3359134793281555,0.0
37,MetaDrive-test-noise2-reduction-td3,119,28.19304415038231,39024,412,325.9220850467682,5.3336076736450195,,0.16761425137519836,0.0
38,MetaDrive-test-noise2-reduction-td3,118,30.182958636496465,40060,424,337.01611399650574,5.925511360168457,,1.7667900323867798,0.0
39,MetaDrive-test-noise2-reduction-td3,118,33.537420865987286,41023,434,346.95361590385437,6.734539985656738,-7.36096715927124,0.5103405714035034,0.0
40,MetaDrive-test-noise2-reduction-td3,117,38.16761798276091,42013,443,357.01710987091064,7.112298011779785,-7.730722427368164,0.45292899012565613,0.0
41,MetaDrive-test-noise2-reduction-td3,117,43.17478435474025,43145,452,368.53517508506775,7.710803031921387,-7.959384918212891,0.24050769209861755,0.0
42,MetaDrive-test-noise2-reduction-td3,116,49.19195043367288,44270,458,380.04881286621094,8.618560791015625,,7.431623458862305,0.01
43,MetaDrive-test-noise2-reduction-td3,115,53.79104157330373,45148,464,389.7218859195709,9.093399047851562,,5.353700637817383,0.01
44,MetaDrive-test-noise2-reduction-td3,115,58.510540644864044,46237,471,400.71656107902527,10.11678695678711,-10.67934513092041,0.9130823016166687,0.01
45,MetaDrive-test-noise2-reduction-td3,114,62.324589320198804,47091,477,409.93193674087524,11.244625091552734,-11.431413650512695,0.7755204439163208,0.01
46,MetaDrive-test-noise2-reduction-td3,114,67.30224592387971,48172,486,420.74701976776123,11.403809547424316,,4.922637939453125,0.01
47,MetaDrive-test-noise2-reduction-td3,114,71.74309867517303,49030,492,429.72890996932983,12.869184494018555,,9.868630409240723,0.01
48,MetaDrive-test-noise2-reduction-td3,113,79.56349401108174,50223,497,441.11940693855286,13.336596488952637,-13.856476783752441,0.6408677697181702,0.03
49,MetaDrive-test-noise2-reduction-td3,113,82.12476287621445,51075,505,450.33684372901917,14.100448608398438,-14.329621315002441,0.5456094741821289,0.03
50,MetaDrive-test-noise2-reduction-td3,113,85.06993689766261,52073,513,460.08717608451843,14.303388595581055,-14.7452974319458,14.274826049804688,0.03
51,MetaDrive-test-noise2-reduction-td3,112,91.32923950311564,53109,518,471.40721702575684,15.702131271362305,-15.4586820602417,1.8515971899032593,0.03
52,MetaDrive-test-noise2-reduction-td3,112,94.32384828932508,54180,525,481.8676800727844,17.320058822631836,,0.7211246490478516,0.04
53,MetaDrive-test-noise2-reduction-td3,112,96.3473013530624,55050,533,490.47659182548523,17.087526321411133,,0.7778589725494385,0.04
54,MetaDrive-test-noise2-reduction-td3,111,99.09628404022025,56078,539,500.8032879829407,17.731956481933594,,3.269669771194458,0.05
55,MetaDrive-test-noise2-reduction-td3,111,104.53095025949614,57340,547,514.747946023941,18.959482192993164,,1.4960265159606934,0.05
56,MetaDrive-test-noise2-reduction-td3,111,103.4099981787242,58002,553,521.8467090129852,18.436931610107422,,2.3922061920166016,0.05
57,MetaDrive-test-noise2-reduction-td3,110,103.59325413597105,59055,560,533.1278328895569,20.846708297729492,-21.102846145629883,1.2227568626403809,0.04
58,MetaDrive-test-noise2-reduction-td3,110,102.79416899501459,60057,567,544.13516497612,20.0613956451416,-20.60324478149414,1.9250131845474243,0.04
59,MetaDrive-test-noise2-reduction-td3,110,103.86654271392048,61073,575,554.5287880897522,21.379413604736328,-21.58571434020996,1.1983180046081543,0.04
60,MetaDrive-test-noise2-reduction-td3,109,104.35677741172437,62055,583,564.4514229297638,21.375877380371094,-21.98467254638672,2.9318933486938477,0.04
61,MetaDrive-test-noise2-reduction-td3,109,106.95738223842673,63194,588,577.4194650650024,21.20421600341797,,50.09410095214844,0.05
62,MetaDrive-test-noise2-reduction-td3,109,105.12817897021085,64064,594,586.0623059272766,23.055919647216797,,12.673025131225586,0.04
63,MetaDrive-test-noise2-reduction-td3,109,107.50638069683667,65165,599,596.8974721431732,23.33745574951172,-23.914674758911133,4.890055179595947,0.04
64,MetaDrive-test-noise2-reduction-td3,108,109.26107157012639,66228,606,607.7343819141388,22.932907104492188,,8.481473922729492,0.04
65,MetaDrive-test-noise2-reduction-td3,108,110.87933577390369,67013,611,615.8513188362122,22.69605827331543,-22.520263671875,6.735689640045166,0.04
66,MetaDrive-test-noise2-reduction-td3,108,108.14270962391241,68120,618,627.3696839809418,23.56012535095215,,2.7875561714172363,0.04
67,MetaDrive-test-noise2-reduction-td3,108,109.74374625605378,69060,623,638.3692800998688,23.986797332763672,,2.9714627265930176,0.05
68,MetaDrive-test-noise2-reduction-td3,107,112.74215525071345,70219,627,651.374969959259,25.543563842773438,-26.082359313964844,2.8051469326019287,0.05
69,MetaDrive-test-noise2-reduction-td3,107,116.21599873090331,71137,632,660.551568031311,24.674510955810547,-26.05443000793457,61.169471740722656,0.06
70,MetaDrive-test-noise2-reduction-td3,107,113.88070618910876,72328,640,673.0151469707489,26.932231903076172,,2.1809587478637695,0.05
71,MetaDrive-test-noise2-reduction-td3,107,116.54689906569126,73154,643,681.3168127536774,26.905963897705078,,5.647411823272705,0.06
72,MetaDrive-test-noise2-reduction-td3,107,117.5325987073139,74059,646,690.8546688556671,27.43411636352539,-26.904996871948242,1.6601650714874268,0.07
73,MetaDrive-test-noise2-reduction-td3,106,121.19143209646337,75096,648,702.0173330307007,27.89756965637207,,3.1253886222839355,0.09
74,MetaDrive-test-noise2-reduction-td3,106,124.70755115756518,76597,654,716.9378850460052,26.90084457397461,-26.784183502197266,38.57209014892578,0.1
75,MetaDrive-test-noise2-reduction-td3,106,123.22296683659931,77255,659,723.491369009018,28.54488182067871,-29.15983009338379,11.660991668701172,0.1
76,MetaDrive-test-noise2-reduction-td3,106,122.29123102774876,78027,662,732.7027249336243,28.23082160949707,-28.313236236572266,4.373067378997803,0.1
77,MetaDrive-test-noise2-reduction-td3,106,124.10517634900935,79271,669,745.5477347373962,28.712600708007812,-29.402177810668945,3.9690299034118652,0.11
78,MetaDrive-test-noise2-reduction-td3,106,125.2867334498838,80525,672,758.5377061367035,30.949785232543945,-31.419607162475586,2.800703525543213,0.11
79,MetaDrive-test-noise2-reduction-td3,106,124.14146013167861,81064,677,764.1740050315857,28.062707901000977,,89.24673461914062,0.11
80,MetaDrive-test-noise2-reduction-td3,105,124.10175422883768,82162,684,775.1702899932861,26.804899215698242,,4.988182067871094,0.12
81,MetaDrive-test-noise2-reduction-td3,105,127.04169859260908,83433,687,788.71164894104,30.38534927368164,-30.751651763916016,5.1699538230896,0.12
82,MetaDrive-test-noise2-reduction-td3,105,129.0112385665425,84602,691,801.2392609119415,30.45416831970215,,5.982975959777832,0.13
83,MetaDrive-test-noise2-reduction-td3,105,130.6912683425771,85043,692,805.5881419181824,33.008323669433594,-33.40160369873047,4.000367164611816,0.14
84,MetaDrive-test-noise2-reduction-td3,105,132.92488654513988,86083,695,816.4439220428467,32.15598678588867,-33.13030242919922,27.55552864074707,0.15
85,MetaDrive-test-noise2-reduction-td3,105,132.23753996521333,87084,696,826.4864158630371,31.961715698242188,,9.662076950073242,0.15
86,MetaDrive-test-noise2-reduction-td3,105,133.27816248661605,88252,698,838.2736849784851,32.607383728027344,,5.615624904632568,0.15
87,MetaDrive-test-noise2-reduction-td3,105,135.58028811750236,89120,703,847.418762922287,33.78832244873047,,38.001365661621094,0.16
88,MetaDrive-test-noise2-reduction-td3,105,140.05099006588725,90390,706,859.918112039566,31.276073455810547,,4.397946834564209,0.18
89,MetaDrive-test-noise2-reduction-td3,104,143.07366842508205,91072,707,867.8690667152405,32.33073425292969,,3.452601432800293,0.19
90,MetaDrive-test-noise2-reduction-td3,104,147.33756553075077,92085,710,877.6758370399475,33.63568878173828,-34.49678421020508,4.286703109741211,0.21
91,MetaDrive-test-noise2-reduction-td3,104,149.55111579370015,93037,713,887.8631389141083,32.585052490234375,-33.55512237548828,3.3070595264434814,0.22
92,MetaDrive-test-noise2-reduction-td3,104,152.64448801677455,94039,716,899.0742509365082,33.55695343017578,-33.853458404541016,3.9930062294006348,0.23
93,MetaDrive-test-noise2-reduction-td3,104,155.27170079375594,95287,720,912.4834439754486,32.5174446105957,-32.88771057128906,37.55834197998047,0.23
94,MetaDrive-test-noise2-reduction-td3,104,157.12423585478913,96419,724,923.3568320274353,34.744022369384766,-35.84760284423828,5.482485294342041,0.23
95,MetaDrive-test-noise2-reduction-td3,104,155.82300073240026,97049,726,930.0446510314941,36.10411071777344,-36.969696044921875,47.275760650634766,0.23
96,MetaDrive-test-noise2-reduction-td3,104,156.888795610893,98517,728,946.9315218925476,34.55421447753906,-34.40304946899414,8.920692443847656,0.24
97,MetaDrive-test-noise2-reduction-td3,104,160.16761086570298,99303,730,954.3547790050507,35.53776550292969,-35.884788513183594,26.002193450927734,0.25
98,MetaDrive-test-noise2-reduction-td3,103,162.5627740317234,100541,732,967.1616508960724,33.390602111816406,-34.493141174316406,17.071857452392578,0.26
99,MetaDrive-test-noise2-reduction-td3,103,164.40727414115165,101120,734,972.4004528522491,37.738094329833984,,22.32225227355957,0.27
100,MetaDrive-test-noise2-reduction-td3,103,169.9391012714211,102402,736,986.6299619674683,35.4058723449707,,4.659612655639648,0.29
101,MetaDrive-test-noise2-reduction-td3,103,173.92271256798466,103124,738,994.3662660121918,37.39105224609375,,16.134166717529297,0.3
102,MetaDrive-test-noise2-reduction-td3,103,174.07242120304156,104275,741,1006.4824500083923,36.176597595214844,-35.678504943847656,10.956482887268066,0.3
103,MetaDrive-test-noise2-reduction-td3,103,176.71388406424228,105269,743,1017.9552910327911,38.57106399536133,-39.642269134521484,59.56220245361328,0.31
104,MetaDrive-test-noise2-reduction-td3,103,179.83946307114186,106623,745,1031.3601529598236,36.062931060791016,-36.53810501098633,4.668866157531738,0.31
105,MetaDrive-test-noise2-reduction-td3,103,179.73135703745868,107337,746,1039.2662580013275,37.946388244628906,-38.183048248291016,4.925467014312744,0.31
106,MetaDrive-test-noise2-reduction-td3,103,175.97028048322983,108008,749,1047.032809972763,36.477134704589844,,6.624719142913818,0.29
107,MetaDrive-test-noise2-reduction-td3,103,181.84011605532405,109286,751,1059.9295599460602,35.963748931884766,,4.799945831298828,0.31
108,MetaDrive-test-noise2-reduction-td3,103,181.194327204472,110008,754,1066.497554063797,35.00577163696289,,48.89950942993164,0.31
109,MetaDrive-test-noise2-reduction-td3,102,185.00417480059085,111667,759,1084.7478539943695,37.701507568359375,-38.145408630371094,6.421054840087891,0.32
110,MetaDrive-test-noise2-reduction-td3,102,188.27562596560466,112226,760,1090.4998240470886,40.46245193481445,,4.792268753051758,0.33
111,MetaDrive-test-noise2-reduction-td3,102,188.73992460977627,113341,764,1101.5702900886536,37.43874740600586,-37.72981643676758,6.498726844787598,0.35
112,MetaDrive-test-noise2-reduction-td3,102,191.7258806263747,114342,765,1114.4314630031586,41.996421813964844,,25.799837112426758,0.35
113,MetaDrive-test-noise2-reduction-td3,102,196.44996797620917,115233,767,1123.7227499485016,39.550113677978516,-39.254390716552734,8.683762550354004,0.37
114,MetaDrive-test-noise2-reduction-td3,102,197.1160311266787,116279,770,1133.6834561824799,39.79236602783203,-40.525028228759766,5.481118202209473,0.37
115,MetaDrive-test-noise2-reduction-td3,102,198.84786744069478,117172,773,1142.521332025528,39.715511322021484,,68.10552215576172,0.38
116,MetaDrive-test-noise2-reduction-td3,102,202.95032623481558,118260,775,1153.0713040828705,38.166725158691406,,140.87086486816406,0.4
117,MetaDrive-test-noise2-reduction-td3,102,206.57388404770177,119017,777,1160.3434009552002,38.029945373535156,-39.028541564941406,4.820356845855713,0.4
118,MetaDrive-test-noise2-reduction-td3,102,213.26721656741123,120367,780,1173.9739317893982,38.976318359375,-39.5865478515625,56.947669982910156,0.43
119,MetaDrive-test-noise2-reduction-td3,102,217.1382639136581,121330,782,1185.1568641662598,42.73268127441406,,40.6169319152832,0.44
120,MetaDrive-test-noise2-reduction-td3,102,216.4980500660855,122216,785,1194.9355578422546,37.12297439575195,,86.6124496459961,0.43
121,MetaDrive-test-noise2-reduction-td3,102,215.60610541825372,123021,788,1203.198968887329,42.16914367675781,-41.78751754760742,2.9941978454589844,0.43
122,MetaDrive-test-noise2-reduction-td3,102,214.1188190533078,124367,792,1217.5486779212952,40.80088806152344,-40.74357223510742,4.094038963317871,0.43
123,MetaDrive-test-noise2-reduction-td3,102,216.60437522957173,125157,794,1226.615392923355,41.99470138549805,-41.68997573852539,6.806671619415283,0.43
124,MetaDrive-test-noise2-reduction-td3,101,214.2907648019236,126133,797,1237.3368000984192,41.197940826416016,-41.87873840332031,32.78900146484375,0.42
125,MetaDrive-test-noise2-reduction-td3,101,218.46503018961866,127425,799,1250.9328968524933,43.24140167236328,-44.88701629638672,67.18333435058594,0.44
126,MetaDrive-test-noise2-reduction-td3,101,220.9047986694946,128183,801,1258.311863899231,40.03024673461914,-40.535037994384766,5.478241920471191,0.45
127,MetaDrive-test-noise2-reduction-td3,101,224.68148550303792,129528,803,1272.7290000915527,41.5123291015625,,9.252279281616211,0.46
128,MetaDrive-test-noise2-reduction-td3,101,225.08773596493356,130096,804,1278.198400735855,43.903541564941406,,9.047240257263184,0.46
129,MetaDrive-test-noise2-reduction-td3,101,223.1277660073869,131767,808,1295.1134328842163,41.99843978881836,-42.53497314453125,5.3684163093566895,0.46
130,MetaDrive-test-noise2-reduction-td3,101,222.24343955212106,132191,809,1298.9911739826202,43.04499435424805,-42.395973205566406,7.380352020263672,0.45
131,MetaDrive-test-noise2-reduction-td3,101,219.67270245831503,133065,811,1308.1611909866333,41.60682678222656,-42.931068420410156,67.13433837890625,0.44
132,MetaDrive-test-noise2-reduction-td3,101,223.70322305981958,134733,814,1327.1720459461212,43.77111053466797,-44.196678161621094,7.290017127990723,0.46
133,MetaDrive-test-noise2-reduction-td3,101,222.06771167019772,135275,817,1332.0274739265442,45.06880569458008,-45.77811813354492,5.218502044677734,0.46
134,MetaDrive-test-noise2-reduction-td3,101,222.2291197284767,136393,819,1344.0273299217224,46.99954605102539,-47.07374572753906,11.079277038574219,0.46
135,MetaDrive-test-noise2-reduction-td3,101,221.8698499076281,137302,821,1354.2169609069824,46.54246139526367,,18.190288543701172,0.47
136,MetaDrive-test-noise2-reduction-td3,101,222.09106883963838,138303,822,1365.5271670818329,43.36168670654297,-44.005001068115234,6.012629508972168,0.47
137,MetaDrive-test-noise2-reduction-td3,101,219.83336047963635,139102,825,1372.9376537799835,46.713233947753906,,5.16292142868042,0.47
138,MetaDrive-test-noise2-reduction-td3,101,222.83792830789295,140439,827,1387.8508460521698,41.97522735595703,-42.69075012207031,59.66644287109375,0.48
139,MetaDrive-test-noise2-reduction-td3,101,224.75878173130334,141170,828,1395.8171479701996,45.38247299194336,,6.443328857421875,0.49
140,MetaDrive-test-noise2-reduction-td3,101,223.92128204046222,142661,831,1411.9067118167877,44.82159423828125,-44.996273040771484,8.758066177368164,0.49
141,MetaDrive-test-noise2-reduction-td3,100,222.8609018832211,143165,832,1417.9736998081207,42.39202117919922,-42.60818099975586,8.245137214660645,0.48
142,MetaDrive-test-noise2-reduction-td3,100,226.19333176884248,144037,833,1427.391785144806,44.919273376464844,-45.01331329345703,7.573939323425293,0.49
143,MetaDrive-test-noise2-reduction-td3,100,223.1175930994772,145318,836,1440.6994569301605,43.94700241088867,,4.277098655700684,0.48
144,MetaDrive-test-noise2-reduction-td3,100,223.9371707998531,146618,838,1455.633780002594,45.696388244628906,,78.74156951904297,0.48
145,MetaDrive-test-noise2-reduction-td3,100,223.82710213732742,147082,839,1459.6121969223022,42.43353271484375,,41.092796325683594,0.48
146,MetaDrive-test-noise2-reduction-td3,100,227.49785473745908,148268,841,1471.7591400146484,43.122867584228516,,8.886533737182617,0.49
147,MetaDrive-test-noise2-reduction-td3,100,227.57370217863047,149356,843,1486.5392537117004,44.618839263916016,,5.651381015777588,0.48
148,MetaDrive-test-noise2-reduction-td3,100,229.57929982786467,150470,845,1497.545418024063,42.090877532958984,,7.852993488311768,0.5
149,MetaDrive-test-noise2-reduction-td3,100,231.01474076502853,151824,847,1513.1890788078308,44.57111358642578,,17.58359146118164,0.5
150,MetaDrive-test-noise2-reduction-td3,100,232.39648051682957,152721,848,1525.600397825241,46.52345275878906,-47.38072967529297,3.8529839515686035,0.5
151,MetaDrive-test-noise2-reduction-td3,100,235.93985922905512,153529,849,1533.9878528118134,45.565208435058594,-45.51936340332031,8.62179183959961,0.51
152,MetaDrive-test-noise2-reduction-td3,100,233.964759114975,154876,851,1547.722086906433,43.20870590209961,,49.412925720214844,0.5
153,MetaDrive-test-noise2-reduction-td3,99,237.99804013404267,155877,852,1560.5364911556244,48.44682312011719,-49.36566162109375,5.545512676239014,0.5
154,MetaDrive-test-noise2-reduction-td3,99,237.31987020976678,156261,853,1564.6196439266205,47.23225402832031,-47.94374465942383,4.312711715698242,0.49
155,MetaDrive-test-noise2-reduction-td3,99,240.40827491188844,157674,855,1578.8677740097046,45.67524719238281,,12.463212013244629,0.51
156,MetaDrive-test-noise2-reduction-td3,99,244.42416665616744,158279,856,1584.691500902176,44.697540283203125,-44.18281555175781,13.99686050415039,0.52
157,MetaDrive-test-noise2-reduction-td3,99,250.30004680943995,159575,858,1599.300982952118,46.65153503417969,-46.770057678222656,2.732182741165161,0.53
158,MetaDrive-test-noise2-reduction-td3,99,250.11988569773123,160139,859,1604.7264778614044,47.640098571777344,-49.02678680419922,58.65675354003906,0.53
159,MetaDrive-test-noise2-reduction-td3,99,252.39647645221834,161665,863,1620.9586849212646,48.233516693115234,-48.947837829589844,5.438288688659668,0.53
160,MetaDrive-test-noise2-reduction-td3,99,248.44328408228913,162151,865,1625.5511708259583,46.06736755371094,-46.538604736328125,3.882420063018799,0.52
161,MetaDrive-test-noise2-reduction-td3,99,250.60665342230678,163674,868,1641.4928879737854,50.260704040527344,,3.9236650466918945,0.51
162,MetaDrive-test-noise2-reduction-td3,99,247.74396171020487,164051,870,1644.832113981247,48.2447395324707,-49.23256301879883,6.7093024253845215,0.5
163,MetaDrive-test-noise2-reduction-td3,99,247.52514197133846,165171,874,1656.7181918621063,47.336875915527344,-48.25105667114258,43.97142791748047,0.49
164,MetaDrive-test-noise2-reduction-td3,99,247.22480626006458,166149,876,1667.0736908912659,49.64488983154297,-49.754573822021484,4.907527923583984,0.49
165,MetaDrive-test-noise2-reduction-td3,99,248.27033488348206,167507,879,1680.0896649360657,47.284088134765625,-47.7380256652832,5.85078239440918,0.49
166,MetaDrive-test-noise2-reduction-td3,99,248.65175284620182,168428,881,1688.799221754074,43.83504104614258,,127.12515258789062,0.5
167,MetaDrive-test-noise2-reduction-td3,99,248.02826719702207,169339,884,1697.553802728653,45.71330642700195,-46.489723205566406,9.651039123535156,0.51
168,MetaDrive-test-noise2-reduction-td3,99,249.2957885047088,170864,887,1715.3471791744232,50.89368438720703,,12.572546005249023,0.52
169,MetaDrive-test-noise2-reduction-td3,99,252.14980327544316,171593,888,1723.2892928123474,45.784942626953125,-47.45627212524414,29.93085479736328,0.53
170,MetaDrive-test-noise2-reduction-td3,99,253.09678311795275,172207,889,1730.2834258079529,49.71246337890625,-50.37856674194336,4.983799457550049,0.53
171,MetaDrive-test-noise2-reduction-td3,99,259.9190119623623,173787,891,1748.2759120464325,45.423851013183594,-46.366268157958984,71.89691162109375,0.54
172,MetaDrive-test-noise2-reduction-td3,99,258.36880770170285,174788,892,1759.0646390914917,43.8074836730957,,126.61797332763672,0.53
173,MetaDrive-test-noise2-reduction-td3,99,260.26489870052245,175189,893,1762.4112179279327,45.73954772949219,-46.32713317871094,17.150146484375,0.54
174,MetaDrive-test-noise2-reduction-td3,99,260.21092458863455,176234,895,1772.845736026764,48.70403289794922,,6.1031494140625,0.55
175,MetaDrive-test-noise2-reduction-td3,99,262.6510956551299,177030,897,1780.3795969486237,49.72400665283203,,8.272857666015625,0.56
176,MetaDrive-test-noise2-reduction-td3,99,257.1119872722852,178209,899,1792.0015697479248,45.72785186767578,-45.67546463012695,5.605396747589111,0.54
177,MetaDrive-test-noise2-reduction-td3,99,254.45783176760634,179031,902,1800.5339658260345,47.89336013793945,-47.36396408081055,7.965068817138672,0.53
178,MetaDrive-test-noise2-reduction-td3,99,254.11791716575334,180109,905,1811.6118550300598,47.35437774658203,-47.612144470214844,54.83950424194336,0.52
179,MetaDrive-test-noise2-reduction-td3,99,256.09314062331845,181122,907,1821.3642399311066,48.63692855834961,,10.136430740356445,0.52
180,MetaDrive-test-noise2-reduction-td3,99,255.11731793724456,182578,911,1836.8747279644012,47.31273651123047,,5.812595367431641,0.51
181,MetaDrive-test-noise2-reduction-td3,99,256.04913675212606,183210,912,1844.2741367816925,49.39680862426758,,5.454974174499512,0.51
182,MetaDrive-test-noise2-reduction-td3,99,259.4887973675369,184193,913,1855.1627008914948,47.348384857177734,-46.55097961425781,13.558721542358398,0.52
183,MetaDrive-test-noise2-reduction-td3,99,262.40459468867124,185240,915,1866.2339107990265,44.004234313964844,,8.732364654541016,0.53
184,MetaDrive-test-noise2-reduction-td3,99,264.8467099433674,186241,916,1879.9636149406433,48.251625061035156,-46.92924880981445,18.45262908935547,0.53
185,MetaDrive-test-noise2-reduction-td3,99,266.9781668234436,187264,918,1891.126030921936,50.59067916870117,,3.8843321800231934,0.53
186,MetaDrive-test-noise2-reduction-td3,99,268.7564546004225,188074,920,1898.9360520839691,51.250572204589844,,5.725437164306641,0.54
187,MetaDrive-test-noise2-reduction-td3,98,267.78942770711456,189075,921,1910.3011858463287,48.43143081665039,-48.31231689453125,6.241689682006836,0.53
188,MetaDrive-test-noise2-reduction-td3,98,267.6140373461546,190281,924,1925.109107017517,48.949241638183594,-49.373779296875,5.767790794372559,0.52
189,MetaDrive-test-noise2-reduction-td3,98,264.93247505112447,191810,927,1939.977243900299,50.859840393066406,,18.637142181396484,0.51
190,MetaDrive-test-noise2-reduction-td3,98,264.7334186491198,192418,928,1946.1991729736328,48.632301330566406,,8.726958274841309,0.51
191,MetaDrive-test-noise2-reduction-td3,98,262.3964363256208,193290,931,1955.4120199680328,46.8599853515625,,14.081241607666016,0.5
192,MetaDrive-test-noise2-reduction-td3,98,263.1119484260624,194575,934,1968.0573978424072,47.153446197509766,-46.93640899658203,9.884254455566406,0.51
193,MetaDrive-test-noise2-reduction-td3,98,262.51748064198114,195695,936,1979.605132818222,45.980316162109375,-46.476722717285156,8.541116714477539,0.5
194,MetaDrive-test-noise2-reduction-td3,98,263.2572258779118,196162,937,1983.885547876358,46.35463333129883,,6.3452959060668945,0.51
195,MetaDrive-test-noise2-reduction-td3,98,261.0185288619566,197115,939,1993.8646988868713,50.503379821777344,-51.654869079589844,87.802001953125,0.5
196,MetaDrive-test-noise2-reduction-td3,98,262.5549537402914,198497,941,2008.0016767978668,51.03002166748047,-51.58662033081055,6.073919296264648,0.51
197,MetaDrive-test-noise2-reduction-td3,98,261.1819893256166,199245,943,2015.8898129463196,53.35744857788086,-52.90766906738281,10.542329788208008,0.52
198,MetaDrive-test-noise2-reduction-td3,98,257.42896810973167,200090,946,2024.0873160362244,51.3861198425293,,11.045146942138672,0.5
199,MetaDrive-test-noise2-reduction-td3,98,255.3021880995485,201441,949,2037.8864579200745,52.8773193359375,-52.120445251464844,65.8231201171875,0.51
200,MetaDrive-test-noise2-reduction-td3,98,249.21720786905178,202362,952,2047.754877090454,51.78044128417969,,46.25768280029297,0.5
201,MetaDrive-test-noise2-reduction-td3,98,244.0923646232921,203062,955,2056.189922809601,49.725006103515625,,5.919408798217773,0.48
202,MetaDrive-test-noise2-reduction-td3,98,243.5047407449225,204053,957,2066.990425825119,50.15462875366211,-49.54513168334961,11.417303085327148,0.48
203,MetaDrive-test-noise2-reduction-td3,98,241.26393166339147,205300,959,2083.8981609344482,53.713157653808594,,5.813056945800781,0.46
204,MetaDrive-test-noise2-reduction-td3,98,244.11823853128058,206335,961,2093.971204996109,49.396488189697266,-50.00244903564453,16.456695556640625,0.47
205,MetaDrive-test-noise2-reduction-td3,98,244.73689476665953,207330,963,2103.486891746521,55.01297378540039,,5.751677989959717,0.48
206,MetaDrive-test-noise2-reduction-td3,98,244.90699449997908,208390,966,2115.1116890907288,55.540096282958984,,13.169578552246094,0.49
207,MetaDrive-test-noise2-reduction-td3,98,247.0913641499432,209242,967,2124.356094121933,53.00041580200195,,7.430074691772461,0.5
208,MetaDrive-test-noise2-reduction-td3,98,246.53743484047246,210264,971,2134.709557056427,52.31181335449219,,10.247663497924805,0.5
209,MetaDrive-test-noise2-reduction-td3,98,241.07094968950653,211243,975,2144.0888299942017,52.526695251464844,-53.07709503173828,14.315454483032227,0.49
210,MetaDrive-test-noise2-reduction-td3,98,239.97817150326932,212154,977,2152.731078863144,48.78361892700195,,7.498383522033691,0.49
211,MetaDrive-test-noise2-reduction-td3,98,243.9246582318799,213294,979,2165.227380990982,48.04838180541992,,6.419966697692871,0.5
212,MetaDrive-test-noise2-reduction-td3,98,244.24872933940773,214278,982,2175.384110927582,49.89988327026367,,58.19306945800781,0.5
213,MetaDrive-test-noise2-reduction-td3,98,246.05809433900785,215390,984,2186.439378976822,55.63218307495117,,12.668495178222656,0.5
214,MetaDrive-test-noise2-reduction-td3,98,246.8781291523159,216160,985,2194.088334798813,53.55656814575195,,8.483020782470703,0.5
215,MetaDrive-test-noise2-reduction-td3,98,242.97521573432823,217001,988,2202.1810479164124,50.89841842651367,-51.132225036621094,10.429370880126953,0.49
216,MetaDrive-test-noise2-reduction-td3,98,240.52865720167418,218002,989,2213.406142950058,55.36383056640625,,8.422563552856445,0.48
217,MetaDrive-test-noise2-reduction-td3,98,239.12131265194898,219557,992,2228.9770789146423,53.98738479614258,-55.49320983886719,45.191986083984375,0.49
218,MetaDrive-test-noise2-reduction-td3,98,241.472295969005,220414,993,2239.233440876007,52.589141845703125,,5.273148536682129,0.49
219,MetaDrive-test-noise2-reduction-td3,98,242.01838082582512,221020,994,2245.3913900852203,53.127052307128906,,8.491415023803711,0.49
220,MetaDrive-test-noise2-reduction-td3,98,244.0613424134929,222223,996,2258.392026901245,55.18321228027344,-55.3001594543457,26.694541931152344,0.5
221,MetaDrive-test-noise2-reduction-td3,98,246.5776151405771,223074,997,2268.5550470352173,53.753448486328125,,6.433917045593262,0.5
222,MetaDrive-test-noise2-reduction-td3,98,249.99082283924147,224364,1000,2280.507861852646,52.79460144042969,,6.6493635177612305,0.52
223,MetaDrive-test-noise2-reduction-td3,98,251.59532165158166,225365,1001,2291.527766942978,51.15169906616211,-51.93075942993164,61.355918884277344,0.52
224,MetaDrive-test-noise2-reduction-td3,98,248.59990904535357,226276,1003,2300.0602979660034,51.79261779785156,,14.793747901916504,0.51
225,MetaDrive-test-noise2-reduction-td3,98,245.91011251176565,227054,1006,2308.9741599559784,52.43947219848633,,35.461082458496094,0.5
226,MetaDrive-test-noise2-reduction-td3,98,248.63596493775108,228597,1010,2326.291340827942,53.15580368041992,-53.600257873535156,123.05162811279297,0.51
227,MetaDrive-test-noise2-reduction-td3,98,243.52989769200005,229249,1012,2332.1496658325195,52.972755432128906,-52.413875579833984,6.8034281730651855,0.51
228,MetaDrive-test-noise2-reduction-td3,98,240.4566264599658,230168,1014,2341.372303009033,51.90839767456055,,10.023614883422852,0.5
229,MetaDrive-test-noise2-reduction-td3,98,241.3414242480709,231037,1015,2351.598293066025,56.646934509277344,-57.248992919921875,5.414858341217041,0.5
230,MetaDrive-test-noise2-reduction-td3,98,240.70800349545843,232068,1017,2363.098363876343,52.87887954711914,,63.175472259521484,0.51
231,MetaDrive-test-noise2-reduction-td3,98,241.06751513532257,233053,1019,2373.0539181232452,57.066287994384766,-57.62792205810547,7.99654483795166,0.5
232,MetaDrive-test-noise2-reduction-td3,98,241.87049649298632,234296,1021,2384.7599308490753,54.67627716064453,,19.869911193847656,0.51
233,MetaDrive-test-noise2-reduction-td3,98,244.66881482081905,235494,1024,2395.7508387565613,54.8292350769043,,25.564434051513672,0.53
234,MetaDrive-test-noise2-reduction-td3,98,246.7483866217634,236446,1026,2404.4670827388763,51.530704498291016,,7.527246952056885,0.54
235,MetaDrive-test-noise2-reduction-td3,98,246.2200463453707,237445,1028,2413.664613008499,56.34233856201172,-57.101192474365234,4.994856834411621,0.54
236,MetaDrive-test-noise2-reduction-td3,98,246.53207497124947,238094,1030,2421.1903738975525,54.68448257446289,,17.909013748168945,0.54
237,MetaDrive-test-noise2-reduction-td3,98,250.30320004460793,239214,1032,2435.3380608558655,56.75400161743164,,3.7030158042907715,0.54
238,MetaDrive-test-noise2-reduction-td3,98,245.975648627262,240007,1035,2442.861867904663,53.523189544677734,-55.433990478515625,9.976192474365234,0.53
239,MetaDrive-test-noise2-reduction-td3,98,243.7537924646226,241079,1038,2453.4812350273132,50.265174865722656,-50.292823791503906,8.131026268005371,0.52
240,MetaDrive-test-noise2-reduction-td3,98,243.36671845485935,242107,1040,2463.2759919166565,54.88719177246094,-55.2403564453125,6.432724952697754,0.52
241,MetaDrive-test-noise2-reduction-td3,98,241.32481381270654,243108,1041,2475.3038499355316,60.125946044921875,,10.738500595092773,0.51
242,MetaDrive-test-noise2-reduction-td3,98,239.87399770369535,244382,1045,2487.725610971451,58.02605056762695,,13.392986297607422,0.5
243,MetaDrive-test-noise2-reduction-td3,98,242.25233276448955,245519,1047,2501.7045011520386,52.5445442199707,-52.6829948425293,9.770788192749023,0.5
244,MetaDrive-test-noise2-reduction-td3,98,239.31790210979324,246014,1049,2506.9202020168304,55.81649398803711,,6.775699615478516,0.49
245,MetaDrive-test-noise2-reduction-td3,98,243.23336628334718,247749,1052,2527.566806793213,58.92439270019531,-59.414955139160156,3.6693406105041504,0.5
246,MetaDrive-test-noise2-reduction-td3,98,244.98020028794093,248387,1053,2533.838446855545,54.988563537597656,-54.738243103027344,4.92982292175293,0.5
247,MetaDrive-test-noise2-reduction-td3,97,247.3720873962962,249287,1054,2545.798619031906,55.186031341552734,-55.481117248535156,7.6246843338012695,0.51
248,MetaDrive-test-noise2-reduction-td3,97,248.8697445652537,250010,1056,2552.3493258953094,54.603118896484375,,4.025174617767334,0.52
249,MetaDrive-test-noise2-reduction-td3,97,247.5977558276411,251058,1058,2563.685310125351,54.938053131103516,,6.337904453277588,0.52
250,MetaDrive-test-noise2-reduction-td3,97,246.35554357452972,252412,1061,2577.2234609127045,56.20957565307617,,10.882033348083496,0.52
251,MetaDrive-test-noise2-reduction-td3,97,243.0493457964863,253184,1063,2585.190222978592,56.85601806640625,,6.211295127868652,0.5
252,MetaDrive-test-noise2-reduction-td3,97,245.3733298275035,254529,1065,2599.694510936737,55.63808822631836,-56.460174560546875,8.37406063079834,0.5
253,MetaDrive-test-noise2-reduction-td3,97,245.54852612092674,255233,1066,2607.1008698940277,54.77294158935547,-54.880035400390625,40.97230911254883,0.5
254,MetaDrive-test-noise2-reduction-td3,97,244.63112389062908,256426,1070,2619.23521900177,56.70629119873047,,10.126731872558594,0.5
255,MetaDrive-test-noise2-reduction-td3,97,245.6846730002283,257141,1071,2625.9247250556946,55.31044006347656,-54.99189376831055,3.9132096767425537,0.5
256,MetaDrive-test-noise2-reduction-td3,97,249.4087756599103,258300,1073,2637.5396168231964,57.43621063232422,,11.773178100585938,0.52
257,MetaDrive-test-noise2-reduction-td3,97,249.29976060911625,259461,1075,2650.1580340862274,56.92437744140625,-57.014381408691406,5.021424293518066,0.51
258,MetaDrive-test-noise2-reduction-td3,97,249.09109459959,260344,1077,2658.3212649822235,55.69778060913086,,21.478347778320312,0.51
259,MetaDrive-test-noise2-reduction-td3,97,248.388259205204,261371,1079,2668.8807299137115,53.187232971191406,-54.891788482666016,13.05998420715332,0.51
260,MetaDrive-test-noise2-reduction-td3,97,237.9403419531382,262658,1085,2682.769021987915,53.774784088134766,,11.461416244506836,0.47
261,MetaDrive-test-noise2-reduction-td3,97,239.41628036020575,263066,1086,2686.897711992264,56.26189041137695,,76.08547973632812,0.47
262,MetaDrive-test-noise2-reduction-td3,97,237.88380341518197,264098,1090,2696.7450799942017,53.0129508972168,,10.08144760131836,0.46
263,MetaDrive-test-noise2-reduction-td3,97,233.70354810779102,265296,1093,2708.878574848175,56.99540710449219,,118.57128143310547,0.45
264,MetaDrive-test-noise2-reduction-td3,97,234.06095272422644,266049,1094,2718.0459258556366,52.91191101074219,-53.919742584228516,30.923931121826172,0.45
265,MetaDrive-test-noise2-reduction-td3,97,226.91897492477034,267062,1098,2729.872344970703,57.20475387573242,,12.225725173950195,0.42
266,MetaDrive-test-noise2-reduction-td3,97,226.4269166978285,268168,1100,2742.5486748218536,56.6827392578125,,5.577582836151123,0.41
267,MetaDrive-test-noise2-reduction-td3,97,225.583325231844,269169,1101,2754.1031408309937,51.55565643310547,-51.14210891723633,12.691072463989258,0.41
268,MetaDrive-test-noise2-reduction-td3,97,225.79064936957764,270477,1105,2766.8388328552246,51.28484344482422,-51.05229949951172,6.939956188201904,0.41
269,MetaDrive-test-noise2-reduction-td3,97,228.23655670980662,271354,1107,2775.5697309970856,58.724830627441406,,25.935678482055664,0.42
270,MetaDrive-test-noise2-reduction-td3,97,231.69896125711423,272415,1109,2786.0467739105225,52.23625946044922,-52.64244079589844,9.010872840881348,0.43
271,MetaDrive-test-noise2-reduction-td3,97,230.38170911888773,273009,1110,2794.34188079834,55.73419952392578,-56.899871826171875,12.233537673950195,0.42
272,MetaDrive-test-noise2-reduction-td3,97,233.26696981836756,274050,1112,2803.854943037033,52.27587127685547,,62.31169128417969,0.43
273,MetaDrive-test-noise2-reduction-td3,97,231.59676673957603,275329,1115,2815.0183889865875,51.28398513793945,-51.73230743408203,35.774356842041016,0.43
274,MetaDrive-test-noise2-reduction-td3,97,232.16718221704028,276330,1116,2826.404753923416,52.55685043334961,,4.731371879577637,0.43
275,MetaDrive-test-noise2-reduction-td3,97,231.8742867349993,277059,1117,2836.8742637634277,53.172027587890625,-53.7264518737793,6.2990264892578125,0.42
276,MetaDrive-test-noise2-reduction-td3,97,229.89807004056945,278026,1120,2846.3669080734253,55.2677001953125,,24.816429138183594,0.41
277,MetaDrive-test-noise2-reduction-td3,97,232.5868002479078,279830,1123,2865.7527179718018,55.17947769165039,,21.00324058532715,0.4
278,MetaDrive-test-noise2-reduction-td3,97,231.5604606396681,280273,1124,2870.3894839286804,55.04360580444336,-55.375213623046875,6.445982456207275,0.39
279,MetaDrive-test-noise2-reduction-td3,97,229.5994974435355,281984,1127,2888.7883620262146,54.56324005126953,,6.49311637878418,0.37
280,MetaDrive-test-noise2-reduction-td3,97,229.60891246549897,282458,1128,2893.540240049362,54.78337478637695,,104.28236389160156,0.37
281,MetaDrive-test-noise2-reduction-td3,97,232.62381100436994,283393,1130,2902.7247529029846,54.83698272705078,-55.590606689453125,8.251341819763184,0.38
282,MetaDrive-test-noise2-reduction-td3,97,234.58189197021397,284059,1131,2909.3343000411987,55.965641021728516,-56.08848571777344,10.13065242767334,0.39
283,MetaDrive-test-noise2-reduction-td3,97,232.58095566471954,285086,1133,2922.1531207561493,56.875221252441406,,5.931112289428711,0.38
284,MetaDrive-test-noise2-reduction-td3,97,231.10829178773517,286076,1136,2932.4287440776825,50.232574462890625,,6.987799167633057,0.37
285,MetaDrive-test-noise2-reduction-td3,97,229.32016178819492,287274,1139,2945.650060892105,53.190834045410156,,9.154726028442383,0.35
286,MetaDrive-test-noise2-reduction-td3,97,229.36601952691154,288142,1141,2954.3742938041687,54.16754913330078,,7.521161079406738,0.36
287,MetaDrive-test-noise2-reduction-td3,97,232.52732145571528,289287,1143,2966.501039981842,54.058345794677734,-54.164520263671875,6.464178562164307,0.37
288,MetaDrive-test-noise2-reduction-td3,97,229.2948276500204,290154,1146,2974.5544888973236,51.48204803466797,,9.405275344848633,0.36
289,MetaDrive-test-noise2-reduction-td3,97,231.18745255060975,291382,1148,2986.4832680225372,57.94860076904297,,7.423596382141113,0.38
290,MetaDrive-test-noise2-reduction-td3,97,236.04778647087696,292524,1150,2997.390485048294,57.367462158203125,,9.174577713012695,0.4
291,MetaDrive-test-noise2-reduction-td3,97,235.62124433002407,293497,1152,3006.334883928299,50.41905212402344,-50.790714263916016,6.596343040466309,0.41
292,MetaDrive-test-noise2-reduction-td3,97,230.55652694677505,294691,1154,3019.9072818756104,51.47715759277344,-51.65275192260742,11.923847198486328,0.4
293,MetaDrive-test-noise2-reduction-td3,97,230.4971355440274,295355,1156,3026.192375898361,55.40749740600586,-55.850345611572266,6.358819961547852,0.4
294,MetaDrive-test-noise2-reduction-td3,97,229.63782095541464,296323,1159,3036.3439960479736,53.96691131591797,-54.731632232666016,4.760097026824951,0.39
295,MetaDrive-test-noise2-reduction-td3,97,227.32561025035247,297341,1161,3046.6309530735016,55.37607192993164,-55.57356643676758,6.523197174072266,0.38
296,MetaDrive-test-noise2-reduction-td3,97,230.2941577213307,298975,1164,3067.092695951462,54.582462310791016,-56.12556838989258,139.61260986328125,0.39
297,MetaDrive-test-noise2-reduction-td3,97,230.79153541162833,299455,1165,3071.7820229530334,54.19736862182617,-55.07461166381836,8.457067489624023,0.4
298,MetaDrive-test-noise2-reduction-td3,97,230.76954013568113,300291,1167,3079.621892929077,52.670814514160156,-52.481441497802734,7.871494293212891,0.4
299,MetaDrive-test-noise2-reduction-td3,97,233.66132185975047,301122,1169,3088.9350259304047,53.08370590209961,,5.121626377105713,0.41
300,MetaDrive-test-noise2-reduction-td3,97,232.91116290406157,302010,1171,3097.4565949440002,53.67557144165039,,4.66261625289917,0.41
301,MetaDrive-test-noise2-reduction-td3,97,233.31868675398073,303340,1174,3110.1663019657135,53.40134048461914,,7.721518516540527,0.4
302,MetaDrive-test-noise2-reduction-td3,97,235.41935138677607,304212,1176,3118.1092410087585,54.17407989501953,,12.012385368347168,0.41
303,MetaDrive-test-noise2-reduction-td3,97,234.95769108393574,305518,1178,3132.2157888412476,49.69948959350586,,11.906721115112305,0.4
304,MetaDrive-test-noise2-reduction-td3,97,234.47397543289782,306157,1180,3138.4328620433807,55.41243362426758,-55.848724365234375,7.778017044067383,0.39
305,MetaDrive-test-noise2-reduction-td3,97,239.68063688084484,307057,1182,3149.144387960434,56.62980651855469,-57.13316345214844,5.148658752441406,0.4
306,MetaDrive-test-noise2-reduction-td3,97,240.27675222440254,308118,1185,3159.7091648578644,52.22808074951172,,131.81370544433594,0.4
307,MetaDrive-test-noise2-reduction-td3,97,242.53871791549426,309305,1188,3170.976343870163,55.68122863769531,-55.8455924987793,15.588815689086914,0.41
308,MetaDrive-test-noise2-reduction-td3,97,243.2627433409795,310137,1190,3179.440011739731,51.981624603271484,-52.011436462402344,6.381278038024902,0.41
309,MetaDrive-test-noise2-reduction-td3,97,238.6467071017743,311270,1194,3191.2466990947723,55.27753829956055,,77.7841567993164,0.39
310,MetaDrive-test-noise2-reduction-td3,97,240.44437802580467,312297,1197,3201.0794887542725,54.671783447265625,-56.19239044189453,6.579235076904297,0.4
311,MetaDrive-test-noise2-reduction-td3,97,243.31148828669225,313114,1199,3210.527715921402,55.04328918457031,,3.2203149795532227,0.41
312,MetaDrive-test-noise2-reduction-td3,97,240.7593742587157,314241,1202,3221.325264930725,56.557247161865234,-56.738014221191406,6.467118263244629,0.41
313,MetaDrive-test-noise2-reduction-td3,97,242.77855194959741,315242,1203,3233.725432872772,58.65363693237305,,7.5899271965026855,0.41
314,MetaDrive-test-noise2-reduction-td3,97,241.58428990272895,316128,1205,3243.5795238018036,52.27829360961914,,9.827390670776367,0.4
315,MetaDrive-test-noise2-reduction-td3,97,242.65318125851059,317157,1207,3253.3986179828644,59.62343978881836,-59.79670333862305,9.049324035644531,0.4
316,MetaDrive-test-noise2-reduction-td3,97,233.4536218199716,318085,1211,3262.930748939514,57.23056411743164,-58.8951301574707,9.191898345947266,0.37
317,MetaDrive-test-noise2-reduction-td3,97,231.00028059935283,319042,1213,3274.831687927246,55.042762756347656,,7.1728596687316895,0.35
318,MetaDrive-test-noise2-reduction-td3,97,231.78163197435475,320071,1216,3284.634311914444,57.119834899902344,-57.06843948364258,7.3810014724731445,0.35
319,MetaDrive-test-noise2-reduction-td3,97,231.77087199045312,321554,1219,3300.588961839676,54.54286575317383,,9.38658332824707,0.36
320,MetaDrive-test-noise2-reduction-td3,97,233.6473372635169,322239,1220,3307.915018796921,59.15182113647461,-58.659027099609375,7.614223480224609,0.37
321,MetaDrive-test-noise2-reduction-td3,97,232.82900292996155,323086,1222,3315.945925951004,53.0554313659668,,24.988718032836914,0.37
322,MetaDrive-test-noise2-reduction-td3,97,229.77282368180877,324011,1225,3325.805402994156,54.32453155517578,-54.94244384765625,10.451545715332031,0.37
323,MetaDrive-test-noise2-reduction-td3,97,230.33698903898642,325482,1227,3341.529233932495,53.94117736816406,,6.789604187011719,0.37
324,MetaDrive-test-noise2-reduction-td3,97,230.89574083873197,326296,1229,3349.1518969535828,49.65409469604492,,11.342063903808594,0.37
325,MetaDrive-test-noise2-reduction-td3,97,227.4380582930114,327170,1231,3358.6467270851135,53.89727783203125,,7.707571983337402,0.36
326,MetaDrive-test-noise2-reduction-td3,97,228.21954292708855,328086,1233,3368.622577905655,53.363548278808594,,13.63517951965332,0.37
327,MetaDrive-test-noise2-reduction-td3,97,231.81900642505235,329367,1236,3382.2601051330566,51.558815002441406,-51.71773910522461,8.161791801452637,0.37
328,MetaDrive-test-noise2-reduction-td3,97,232.54874509142445,330340,1239,3391.119845867157,52.97425842285156,,7.978301525115967,0.38
329,MetaDrive-test-noise2-reduction-td3,97,233.33910844317464,331133,1241,3398.952341079712,55.585723876953125,-55.453269958496094,8.213930130004883,0.39
330,MetaDrive-test-noise2-reduction-td3,97,230.9477494868049,332182,1245,3410.0726170539856,57.013397216796875,,6.6866350173950195,0.37
331,MetaDrive-test-noise2-reduction-td3,97,231.46930906299644,333616,1248,3426.1489210128784,53.794166564941406,,14.146552085876465,0.37
332,MetaDrive-test-noise2-reduction-td3,97,226.6438414302625,334101,1250,3430.9384808540344,55.51688766479492,-55.22877883911133,17.932518005371094,0.35
333,MetaDrive-test-noise2-reduction-td3,97,224.21641617414923,335051,1253,3439.307379961014,51.26417541503906,-52.13682556152344,6.660768508911133,0.35
334,MetaDrive-test-noise2-reduction-td3,97,224.9517832391313,336411,1257,3452.8398847579956,57.92362594604492,-57.7528190612793,15.839906692504883,0.36
335,MetaDrive-test-noise2-reduction-td3,97,225.525950963586,337041,1258,3461.8745369911194,55.165382385253906,-56.02260971069336,11.645843505859375,0.36
336,MetaDrive-test-noise2-reduction-td3,97,229.27539299497832,338653,1260,3480.7588188648224,54.20306396484375,-54.27865982055664,5.252638816833496,0.37
337,MetaDrive-test-noise2-reduction-td3,97,229.05918055082992,339320,1261,3487.0558519363403,55.70482635498047,,8.695735931396484,0.37
338,MetaDrive-test-noise2-reduction-td3,97,230.71230021856255,340293,1263,3496.37499499321,56.74681854248047,-56.24339294433594,7.796234607696533,0.38
339,MetaDrive-test-noise2-reduction-td3,97,229.33303014837668,341259,1265,3505.620250940323,51.155364990234375,-52.07353210449219,15.447042465209961,0.39
340,MetaDrive-test-noise2-reduction-td3,97,228.94576961235197,342260,1266,3516.433991909027,54.72246170043945,,16.823497772216797,0.39
341,MetaDrive-test-noise2-reduction-td3,97,226.32456752598435,343152,1268,3525.9580891132355,51.762939453125,,8.691324234008789,0.37
342,MetaDrive-test-noise2-reduction-td3,97,230.08749755047188,344398,1270,3539.689941883087,55.50030517578125,,7.2962517738342285,0.38
343,MetaDrive-test-noise2-reduction-td3,97,229.5114372534772,345040,1272,3545.9081790447235,58.34565353393555,,7.0003485679626465,0.37
344,MetaDrive-test-noise2-reduction-td3,97,227.14521706976615,346226,1275,3556.479742050171,55.470916748046875,,135.89149475097656,0.39
345,MetaDrive-test-noise2-reduction-td3,97,225.55018034199315,347256,1278,3567.183266878128,57.864471435546875,,12.728181838989258,0.38
346,MetaDrive-test-noise2-reduction-td3,97,229.45353059643497,348388,1280,3578.1944739818573,54.25141525268555,,7.569159984588623,0.4
347,MetaDrive-test-noise2-reduction-td3,97,228.81299801180816,349249,1282,3587.350485801697,51.589813232421875,-51.691864013671875,9.568777084350586,0.4
348,MetaDrive-test-noise2-reduction-td3,97,228.6916581059812,350652,1285,3603.4872920513153,54.91930389404297,,32.88898468017578,0.4
349,MetaDrive-test-noise2-reduction-td3,97,228.41836044643284,351288,1286,3609.4415509700775,53.46784210205078,,11.72930908203125,0.41
350,MetaDrive-test-noise2-reduction-td3,97,229.342908626393,352220,1288,3618.4779200553894,57.77824020385742,,7.375870227813721,0.41
351,MetaDrive-test-noise2-reduction-td3,97,230.197712921028,353041,1290,3626.9320237636566,59.145751953125,-59.263771057128906,20.952434539794922,0.42
352,MetaDrive-test-noise2-reduction-td3,97,234.16789708484572,354382,1293,3640.3042390346527,52.968223571777344,,19.856124877929688,0.42
353,MetaDrive-test-noise2-reduction-td3,97,234.477265288306,355289,1295,3649.183501958847,50.32138442993164,-51.053924560546875,7.437734603881836,0.43
354,MetaDrive-test-noise2-reduction-td3,97,236.0516610016014,356295,1297,3661.234174013138,56.047271728515625,-56.931922912597656,6.8445844650268555,0.42
355,MetaDrive-test-noise2-reduction-td3,97,232.62595814286902,357233,1300,3670.1686549186707,52.82476043701172,-53.22534942626953,6.749176025390625,0.4
356,MetaDrive-test-noise2-reduction-td3,97,231.44182902779414,358315,1303,3681.9778909683228,54.43736267089844,-55.497440338134766,120.5419692993164,0.4
357,MetaDrive-test-noise2-reduction-td3,97,233.0259023729077,359263,1305,3691.5865828990936,54.97871398925781,-55.38386154174805,9.444732666015625,0.42
358,MetaDrive-test-noise2-reduction-td3,97,232.8924891074917,360231,1307,3701.5159068107605,57.85302734375,-57.56165313720703,4.94685173034668,0.42
359,MetaDrive-test-noise2-reduction-td3,97,235.68648096006035,361232,1308,3715.7184879779816,55.11269760131836,,38.73274612426758,0.42
360,MetaDrive-test-noise2-reduction-td3,97,235.21905688839047,362007,1311,3723.663731098175,55.41987991333008,-56.61241912841797,11.401618957519531,0.43
361,MetaDrive-test-noise2-reduction-td3,97,238.18523188941356,363439,1314,3736.935448884964,57.717193603515625,-57.951805114746094,9.225610733032227,0.45
362,MetaDrive-test-noise2-reduction-td3,97,237.10971064304803,364277,1317,3744.8747520446777,55.09716796875,-55.33313751220703,15.46633529663086,0.45
363,MetaDrive-test-noise2-reduction-td3,97,238.21158237448108,365618,1319,3758.4799571037292,52.68934631347656,,33.63828659057617,0.46
364,MetaDrive-test-noise2-reduction-td3,97,238.9673762399096,366382,1320,3766.638556957245,54.15498733520508,,7.431858539581299,0.46
365,MetaDrive-test-noise2-reduction-td3,97,239.33658305911334,367256,1322,3775.017033100128,52.77658462524414,,6.528648853302002,0.46
366,MetaDrive-test-noise2-reduction-td3,97,240.43771509150454,368119,1324,3784.9484519958496,55.53546142578125,-56.57141876220703,12.77147102355957,0.46
367,MetaDrive-test-noise2-reduction-td3,97,242.89963623968205,369144,1326,3794.657670021057,53.23802185058594,,17.380352020263672,0.46
368,MetaDrive-test-noise2-reduction-td3,97,243.41915951009184,370464,1328,3808.051093816757,54.88409423828125,,7.3485107421875,0.47
369,MetaDrive-test-noise2-reduction-td3,97,243.93881255178547,371043,1329,3814.1104431152344,58.06631851196289,-58.84868240356445,8.851428985595703,0.47
370,MetaDrive-test-noise2-reduction-td3,97,245.789331967022,372602,1331,3833.572326898575,54.46787643432617,,19.784587860107422,0.46
371,MetaDrive-test-noise2-reduction-td3,97,247.09099486848407,373443,1332,3841.8055670261383,54.78684616088867,-55.334285736083984,6.558163642883301,0.46
372,MetaDrive-test-noise2-reduction-td3,97,245.14287874777736,374157,1334,3848.7073271274567,54.25587844848633,-54.76821517944336,4.876715660095215,0.46
373,MetaDrive-test-noise2-reduction-td3,97,246.22535002781922,375066,1336,3858.638581752777,54.45740509033203,,7.9151740074157715,0.48
374,MetaDrive-test-noise2-reduction-td3,97,250.73472859261253,376638,1338,3878.279613018036,52.64209747314453,,22.55434799194336,0.49
375,MetaDrive-test-noise2-reduction-td3,97,251.34050916308945,377180,1339,3883.479168176651,56.98839569091797,,8.106851577758789,0.49
376,MetaDrive-test-noise2-reduction-td3,97,253.13813476144657,378155,1340,3893.24986410141,57.627540588378906,-58.29698944091797,14.45591926574707,0.49
377,MetaDrive-test-noise2-reduction-td3,97,255.4933896150993,379296,1343,3904.495843887329,55.12095642089844,,100.82996368408203,0.5
378,MetaDrive-test-noise2-reduction-td3,97,257.3271610162658,380813,1345,3919.5179438591003,55.1356086730957,-55.922760009765625,12.348004341125488,0.51
379,MetaDrive-test-noise2-reduction-td3,97,255.99556633494703,381162,1346,3923.0464808940887,54.99507141113281,,14.557759284973145,0.5
380,MetaDrive-test-noise2-reduction-td3,97,256.3272943074217,382411,1349,3935.2801990509033,52.394325256347656,-52.23895263671875,7.987600326538086,0.5
381,MetaDrive-test-noise2-reduction-td3,97,260.487431444128,383283,1350,3947.6670479774475,53.71349334716797,-53.48287582397461,7.357660293579102,0.51
382,MetaDrive-test-noise2-reduction-td3,97,264.60558918357657,384284,1351,3960.1847109794617,51.8623046875,,14.314191818237305,0.51
383,MetaDrive-test-noise2-reduction-td3,97,266.3258034720384,385307,1353,3969.3738729953766,53.03726577758789,-52.9713020324707,7.236043930053711,0.51
384,MetaDrive-test-noise2-reduction-td3,97,267.3765862240703,386236,1355,3979.386382818222,51.418861389160156,,19.227670669555664,0.51
385,MetaDrive-test-noise2-reduction-td3,97,270.7856835121544,387379,1357,3991.184551000595,56.8394660949707,-57.13215637207031,8.242314338684082,0.52
386,MetaDrive-test-noise2-reduction-td3,97,268.4971844354802,388531,1359,4005.2107589244843,54.46649932861328,-54.10947799682617,25.532363891601562,0.52
387,MetaDrive-test-noise2-reduction-td3,97,263.9401922033861,389027,1361,4009.9632380008698,59.01502990722656,-58.70654296875,7.940098762512207,0.51
388,MetaDrive-test-noise2-reduction-td3,96,260.2787953209397,390174,1363,4023.109382867813,53.712615966796875,,6.186194896697998,0.49
389,MetaDrive-test-noise2-reduction-td3,96,259.47567948005735,391006,1365,4031.129280090332,54.68989562988281,,182.4298858642578,0.48
390,MetaDrive-test-noise2-reduction-td3,97,257.638467271115,392220,1369,4043.103903055191,52.02469253540039,,78.80819702148438,0.48
391,MetaDrive-test-noise2-reduction-td3,97,255.69280618062174,393469,1372,4055.725553035736,54.0810546875,-54.22767639160156,7.448372840881348,0.48
392,MetaDrive-test-noise2-reduction-td3,96,258.637644866394,394268,1373,4064.8900470733643,58.95423126220703,,8.936695098876953,0.49
393,MetaDrive-test-noise2-reduction-td3,96,257.3098589397495,395199,1376,4074.7643060684204,56.69662857055664,-57.509979248046875,138.69627380371094,0.48
394,MetaDrive-test-noise2-reduction-td3,97,255.99819121617503,396573,1379,4087.929363965988,53.37030792236328,-54.31617736816406,9.53136157989502,0.48
395,MetaDrive-test-noise2-reduction-td3,97,255.21836960804742,397049,1380,4092.1562950611115,54.57357406616211,-54.52032470703125,8.212820053100586,0.48
396,MetaDrive-test-noise2-reduction-td3,97,253.51420688217138,398073,1384,4101.490369796753,53.131263732910156,-53.1852912902832,6.197368144989014,0.48
397,MetaDrive-test-noise2-reduction-td3,97,251.42017703489185,399454,1387,4116.7003400325775,51.227745056152344,,14.927021980285645,0.47
398,MetaDrive-test-noise2-reduction-td3,97,250.5706864100469,400375,1390,4125.924812793732,55.047889709472656,-55.231204986572266,20.072582244873047,0.46
399,MetaDrive-test-noise2-reduction-td3,97,252.8228015711618,401058,1391,4132.461325883865,55.26887512207031,,6.090202331542969,0.47
400,MetaDrive-test-noise2-reduction-td3,97,253.4915448263334,402086,1393,4141.9566259384155,51.685543060302734,,14.651557922363281,0.48
401,MetaDrive-test-noise2-reduction-td3,97,252.60029427894708,403191,1396,4152.864864826202,51.87114334106445,-52.543365478515625,12.257200241088867,0.48
402,MetaDrive-test-noise2-reduction-td3,97,256.2813293336357,404682,1399,4167.66810297966,53.19514083862305,,11.56696605682373,0.5
403,MetaDrive-test-noise2-reduction-td3,97,256.82584869701236,405282,1401,4174.0345287323,58.947967529296875,,121.74870300292969,0.51
404,MetaDrive-test-noise2-reduction-td3,97,259.74147146365397,406169,1402,4182.665513038635,54.73185729980469,-54.459259033203125,11.494577407836914,0.52
405,MetaDrive-test-noise2-reduction-td3,97,259.39273920623896,407234,1404,4192.558336019516,53.82422637939453,,8.798633575439453,0.52
406,MetaDrive-test-noise2-reduction-td3,97,262.5890047316754,408678,1406,4207.324833869934,59.349151611328125,,21.70630645751953,0.53
407,MetaDrive-test-noise2-reduction-td3,97,261.05841333639125,409161,1407,4212.01197886467,57.76815414428711,-57.653350830078125,10.067106246948242,0.52
408,MetaDrive-test-noise2-reduction-td3,97,261.55676614101236,410448,1409,4224.122323989868,56.04147720336914,,7.862086296081543,0.53
409,MetaDrive-test-noise2-reduction-td3,97,268.33297518689085,411946,1411,4241.320810079575,57.64629364013672,,14.003181457519531,0.55
410,MetaDrive-test-noise2-reduction-td3,97,269.70187939894436,412338,1412,4244.565142869949,56.20285415649414,,5.346936225891113,0.56
411,MetaDrive-test-noise2-reduction-td3,97,268.91113586059,413585,1414,4258.941246032715,56.370277404785156,-56.98936080932617,7.586028099060059,0.55
412,MetaDrive-test-noise2-reduction-td3,97,273.1892115669141,414583,1415,4269.337859869003,54.04322052001953,-54.709842681884766,16.757305145263672,0.56
413,MetaDrive-test-noise2-reduction-td3,97,275.662657716536,415840,1417,4282.424448013306,56.46406936645508,,13.646387100219727,0.55
414,MetaDrive-test-noise2-reduction-td3,97,276.7582857289351,416476,1418,4288.547570943832,55.66624450683594,,16.525251388549805,0.55
415,MetaDrive-test-noise2-reduction-td3,97,272.2956509844467,417070,1420,4294.866099119186,56.78485870361328,,14.929512977600098,0.54
416,MetaDrive-test-noise2-reduction-td3,97,272.26580325732186,418149,1423,4305.503724813461,56.45393753051758,-58.372947692871094,126.94419860839844,0.53
417,MetaDrive-test-noise2-reduction-td3,97,271.18232767024944,419256,1425,4316.101982116699,53.71489715576172,,55.24958419799805,0.53
418,MetaDrive-test-noise2-reduction-td3,97,268.32429348745586,420781,1427,4332.012309074402,53.73039245605469,-54.578975677490234,50.892967224121094,0.52
419,MetaDrive-test-noise2-reduction-td3,97,269.41725877235297,421422,1428,4338.344815015793,59.35398483276367,,6.126045227050781,0.53
420,MetaDrive-test-noise2-reduction-td3,97,270.59631814079853,422154,1429,4345.3861520290375,51.94658279418945,,8.057351112365723,0.53
421,MetaDrive-test-noise2-reduction-td3,97,270.6503627438044,423476,1431,4359.303969860077,54.44135284423828,,11.468069076538086,0.54
422,MetaDrive-test-noise2-reduction-td3,97,270.364575687095,424214,1432,4367.342699766159,57.477176666259766,,6.557360649108887,0.54
423,MetaDrive-test-noise2-reduction-td3,97,270.70186337752307,425204,1434,4377.036589860916,57.30253219604492,,9.00512409210205,0.54
424,MetaDrive-test-noise2-reduction-td3,97,269.2252798674772,426118,1436,4385.726750135422,56.3355712890625,,7.006158828735352,0.53
425,MetaDrive-test-noise2-reduction-td3,97,268.56632197023794,427119,1437,4399.602123737335,54.523433685302734,-54.986854553222656,24.392013549804688,0.52
426,MetaDrive-test-noise2-reduction-td3,97,267.6340501031911,428351,1439,4411.427473068237,54.66131591796875,-55.36619186401367,11.681503295898438,0.53
427,MetaDrive-test-noise2-reduction-td3,97,268.7806304434548,429721,1441,4425.467540025711,50.6804313659668,-50.84478759765625,13.617822647094727,0.54
428,MetaDrive-test-noise2-reduction-td3,97,267.8868340054366,430934,1443,4438.424062013626,54.63289260864258,,9.982179641723633,0.53
429,MetaDrive-test-noise2-reduction-td3,97,265.3709301756064,431102,1444,4440.017818927765,52.38214111328125,,18.829044342041016,0.52
430,MetaDrive-test-noise2-reduction-td3,97,266.45187196669883,432342,1447,4451.469949007034,57.581809997558594,,4.4497761726379395,0.52
431,MetaDrive-test-noise2-reduction-td3,97,269.8417436505955,433224,1448,4461.112888813019,53.222991943359375,,25.494632720947266,0.53
432,MetaDrive-test-noise2-reduction-td3,97,262.36951814584756,434386,1451,4472.402283191681,59.59801483154297,,11.033628463745117,0.52
433,MetaDrive-test-noise2-reduction-td3,97,262.2668346348834,435305,1452,4483.193279027939,48.46363067626953,-47.90508270263672,16.659610748291016,0.52
434,MetaDrive-test-noise2-reduction-td3,97,263.78601125895983,436411,1454,4493.464724063873,57.03913879394531,-57.38945770263672,10.399114608764648,0.52
435,MetaDrive-test-noise2-reduction-td3,97,257.133634256201,437043,1457,4499.628183841705,57.098121643066406,-58.90974426269531,153.7445068359375,0.49
436,MetaDrive-test-noise2-reduction-td3,97,258.50204520048356,438197,1459,4510.675382852554,55.872459411621094,-56.41312026977539,14.772052764892578,0.5
437,MetaDrive-test-noise2-reduction-td3,97,259.5522691096423,439445,1461,4522.4765429496765,50.720787048339844,-51.83036422729492,13.431694030761719,0.49
438,MetaDrive-test-noise2-reduction-td3,97,264.95472093426787,440709,1463,4536.478236913681,54.25452423095703,-54.381568908691406,6.318908214569092,0.51
439,MetaDrive-test-noise2-reduction-td3,97,267.36562601764194,441332,1464,4542.230181932449,53.50740432739258,,10.62277603149414,0.52
440,MetaDrive-test-noise2-reduction-td3,97,267.41578200015954,442325,1466,4552.952631950378,56.673580169677734,-56.7835578918457,10.730894088745117,0.52
441,MetaDrive-test-noise2-reduction-td3,97,268.58711818519436,443628,1468,4570.267494916916,53.656620025634766,,5.976457595825195,0.51
442,MetaDrive-test-noise2-reduction-td3,97,268.42171854275324,444716,1470,4580.426548957825,57.30498123168945,,15.940506935119629,0.51
443,MetaDrive-test-noise2-reduction-td3,97,269.1351512941518,445478,1471,4588.4958119392395,54.836647033691406,,8.177807807922363,0.51
444,MetaDrive-test-noise2-reduction-td3,97,267.33364238111307,446523,1473,4599.314942121506,51.869415283203125,-52.56185531616211,10.115775108337402,0.5
445,MetaDrive-test-noise2-reduction-td3,97,267.6368811464157,447179,1475,4605.244932889938,55.26057434082031,-55.837928771972656,6.175409317016602,0.5
446,MetaDrive-test-noise2-reduction-td3,97,270.2802507876986,448180,1476,4618.358602762222,51.02782440185547,,6.1545209884643555,0.5
447,MetaDrive-test-noise2-reduction-td3,97,272.120941783314,449397,1478,4629.814584970474,55.771488189697266,-56.23893737792969,6.103841781616211,0.51
448,MetaDrive-test-noise2-reduction-td3,97,269.8684933690087,450398,1479,4641.253431797028,54.937294006347656,,23.22515869140625,0.5
449,MetaDrive-test-noise2-reduction-td3,97,268.45462258002345,451072,1481,4647.579993963242,51.18900680541992,,170.98397827148438,0.49
450,MetaDrive-test-noise2-reduction-td3,97,271.76085583522956,452078,1483,4658.02873301506,55.59733963012695,,5.733168601989746,0.49
451,MetaDrive-test-noise2-reduction-td3,97,275.18828109479045,453420,1485,4672.000842094421,59.98641586303711,,7.608827114105225,0.5
452,MetaDrive-test-noise2-reduction-td3,97,277.2330148415455,454206,1486,4679.639574766159,56.370174407958984,,5.815589427947998,0.51
453,MetaDrive-test-noise2-reduction-td3,97,278.3437709034984,455207,1487,4691.666652917862,54.768768310546875,-55.44884490966797,10.24048900604248,0.5
454,MetaDrive-test-noise2-reduction-td3,96,283.2945652236387,456652,1489,4709.561495780945,58.22415542602539,,16.48882293701172,0.5
455,MetaDrive-test-noise2-reduction-td3,96,281.9228062056248,457978,1491,4722.293547153473,59.245399475097656,,10.318923950195312,0.49
456,MetaDrive-test-noise2-reduction-td3,96,282.6014341388582,458572,1492,4728.146808862686,52.171512603759766,,118.09374237060547,0.49
457,MetaDrive-test-noise2-reduction-td3,96,281.7852423133125,459520,1493,4737.9607520103455,52.10585403442383,,16.37567138671875,0.49
458,MetaDrive-test-noise2-reduction-td3,97,285.25185075206184,460751,1495,4749.6614599227905,56.80228042602539,-57.789512634277344,7.1073408126831055,0.5
459,MetaDrive-test-noise2-reduction-td3,97,285.80203853228414,461355,1496,4755.5817749500275,55.126399993896484,-55.33000946044922,8.518793106079102,0.5
460,MetaDrive-test-noise2-reduction-td3,97,286.61792463734315,462061,1497,4761.416876792908,56.64328384399414,-57.22361373901367,8.621627807617188,0.51
461,MetaDrive-test-noise2-reduction-td3,97,284.49505397966766,463553,1500,4777.213175773621,56.32600784301758,-56.88644790649414,11.06189250946045,0.5
462,MetaDrive-test-noise2-reduction-td3,97,285.75933576531355,464491,1501,4787.331529140472,54.188804626464844,-54.95693588256836,21.903053283691406,0.5
463,MetaDrive-test-noise2-reduction-td3,97,283.5562568417982,465260,1502,4795.396740913391,53.112247467041016,,21.43490982055664,0.49
464,MetaDrive-test-noise2-reduction-td3,97,284.1927387563618,466235,1503,4803.701446056366,60.67716979980469,-60.88233947753906,8.975194931030273,0.5
465,MetaDrive-test-noise2-reduction-td3,97,282.2763265087444,467549,1505,4815.67444396019,54.661231994628906,-54.67879104614258,11.031944274902344,0.48
466,MetaDrive-test-noise2-reduction-td3,97,282.25879111066035,468306,1506,4823.089767932892,57.87199783325195,,7.904559135437012,0.48
467,MetaDrive-test-noise2-reduction-td3,96,283.21281540978794,469307,1507,4838.254106998444,54.52739715576172,-56.610572814941406,44.575721740722656,0.48
468,MetaDrive-test-noise2-reduction-td3,97,282.81187269644767,470783,1509,4851.624392032623,51.537010192871094,-52.92580795288086,7.020188331604004,0.47
469,MetaDrive-test-noise2-reduction-td3,97,282.87785257814784,471784,1510,4862.047225952148,53.27159881591797,,11.71051025390625,0.46
470,MetaDrive-test-noise2-reduction-td3,97,279.1237747583568,472043,1511,4864.827083826065,54.83396911621094,-55.025146484375,85.35787963867188,0.45
471,MetaDrive-test-noise2-reduction-td3,97,281.85877966634365,473404,1513,4878.463322877884,51.03419876098633,,6.789181709289551,0.46
472,MetaDrive-test-noise2-reduction-td3,97,281.86090767598074,474313,1514,4887.368773937225,54.82712936401367,-54.165367126464844,22.262224197387695,0.46
473,MetaDrive-test-noise2-reduction-td3,97,280.09506702563317,475113,1515,4895.522022008896,56.12867736816406,-56.45283508300781,65.0899658203125,0.46
474,MetaDrive-test-noise2-reduction-td3,97,282.35777330547614,476054,1516,4904.866585016251,58.033287048339844,,11.059993743896484,0.47
475,MetaDrive-test-noise2-reduction-td3,97,281.38832917449986,477708,1518,4922.331956148148,52.801612854003906,,9.210695266723633,0.47
476,MetaDrive-test-noise2-reduction-td3,97,282.4360411748155,478554,1519,4932.24395608902,59.49391174316406,,14.29343032836914,0.47
477,MetaDrive-test-noise2-reduction-td3,97,282.5673645993277,479017,1521,4936.397216081619,52.93587112426758,-53.019248962402344,4.0875396728515625,0.47
478,MetaDrive-test-noise2-reduction-td3,97,284.444212272822,480315,1523,4950.955860137939,55.3306770324707,-56.24027633666992,148.27532958984375,0.48
479,MetaDrive-test-noise2-reduction-td3,96,284.05383680155614,481003,1524,4959.363883018494,54.562408447265625,-55.09376907348633,15.903984069824219,0.47
480,MetaDrive-test-noise2-reduction-td3,96,286.2967804203692,482378,1526,4974.06100487709,57.11715316772461,,10.610527038574219,0.49
481,MetaDrive-test-noise2-reduction-td3,96,285.2721601919899,483024,1528,4980.524483919144,55.74067306518555,,5.862196922302246,0.48
482,MetaDrive-test-noise2-reduction-td3,96,280.46694154962194,484038,1531,4991.115410089493,53.354576110839844,,154.25985717773438,0.46
483,MetaDrive-test-noise2-reduction-td3,96,283.3896702750775,485621,1533,5008.68522977829,53.4239387512207,-54.33517074584961,9.350926399230957,0.46
484,MetaDrive-test-noise2-reduction-td3,96,283.9405282052046,486440,1534,5017.5045619010925,50.307823181152344,,7.108064651489258,0.46
485,MetaDrive-test-noise2-reduction-td3,96,284.71420404228064,487709,1536,5030.132237911224,55.59123611450195,-55.85959243774414,12.421168327331543,0.47
486,MetaDrive-test-noise2-reduction-td3,96,283.65530998133977,488434,1538,5037.577105045319,54.71971893310547,,4.7718305587768555,0.46
487,MetaDrive-test-noise2-reduction-td3,96,281.01924884428735,489533,1540,5048.376842021942,47.96493911743164,-48.32048797607422,64.84320068359375,0.44
488,MetaDrive-test-noise2-reduction-td3,96,281.07740876711466,490534,1541,5059.815857887268,54.594932556152344,,4.186084747314453,0.43
489,MetaDrive-test-noise2-reduction-td3,96,282.41411547623386,491026,1542,5064.615201950073,58.45957565307617,,41.45042419433594,0.44
490,MetaDrive-test-noise2-reduction-td3,96,283.84682746707153,492711,1544,5083.658229827881,51.99555206298828,-52.236968994140625,7.141297340393066,0.43
491,MetaDrive-test-noise2-reduction-td3,96,284.07963357566325,493131,1545,5087.2630360126495,57.40425109863281,-57.79928970336914,7.446186065673828,0.44
492,MetaDrive-test-noise2-reduction-td3,96,286.565117180227,494015,1546,5097.645948886871,53.43549346923828,-52.86131286621094,8.558629989624023,0.45
493,MetaDrive-test-noise2-reduction-td3,96,283.3902920789401,495081,1549,5108.362851858139,51.158790588378906,-51.98053741455078,8.427858352661133,0.44
494,MetaDrive-test-noise2-reduction-td3,96,284.4378845373909,496165,1551,5118.34587597847,52.155487060546875,-52.476844787597656,5.149252891540527,0.45
495,MetaDrive-test-noise2-reduction-td3,96,282.44109475560583,497673,1554,5133.188358068466,57.19553756713867,-57.773929595947266,5.57369327545166,0.45
496,MetaDrive-test-noise2-reduction-td3,96,284.55920633605575,498250,1555,5138.417418003082,54.91841125488281,,12.509073257446289,0.46
497,MetaDrive-test-noise2-reduction-td3,96,287.18336331562364,499274,1557,5148.031573057175,50.702903747558594,,11.555497169494629,0.47
