TanmayH/CS269-RL-project-code/MetaDrive-td3combine-expt_with_safe-leaky-adamw-in-q-weighted-corrected/MetaDrive-Gen-Next-v0/td3/progress.csv
,log_dir,frame_per_second,episode_reward,total_steps,total_episodes,total_time,actor_loss,critic_loss,target_q,success_rate
0,MetaDrive-td3combine-expt_with_safe-leaky-adamw-in-q-weighted-corrected,597,6.86304873510692,1054,2,1.7648379802703857,,0.0008640098385512829,0.03609664738178253,0.0
1,MetaDrive-td3combine-expt_with_safe-leaky-adamw-in-q-weighted-corrected,133,-1.792342100602363,2364,16,17.70330810546875,,0.011977527290582657,0.05915221571922302,0.0
2,MetaDrive-td3combine-expt_with_safe-leaky-adamw-in-q-weighted-corrected,115,-2.057775383874807,3630,18,31.436249017715454,,0.002536079380661249,0.05995860695838928,0.0
3,MetaDrive-td3combine-expt_with_safe-leaky-adamw-in-q-weighted-corrected,111,-2.169028889698247,4631,19,41.70261192321777,-0.060566797852516174,0.003119644708931446,0.05376356467604637,0.0
4,MetaDrive-td3combine-expt_with_safe-leaky-adamw-in-q-weighted-corrected,108,-2.3405497162510196,5295,20,48.78422999382019,-0.060859810560941696,0.004247033037245274,0.052839167416095734,0.0
5,MetaDrive-td3combine-expt_with_safe-leaky-adamw-in-q-weighted-corrected,105,-2.6461614892754173,6831,22,64.68639588356018,-0.03926278278231621,0.8035000562667847,-0.028390681371092796,0.0
6,MetaDrive-td3combine-expt_with_safe-leaky-adamw-in-q-weighted-corrected,103,-2.6024476105970167,7958,24,76.73364901542664,,0.01180662214756012,0.015045621432363987,0.0
7,MetaDrive-td3combine-expt_with_safe-leaky-adamw-in-q-weighted-corrected,103,-2.770243239763374,8478,25,82.17328906059265,,0.6481685042381287,-0.051227450370788574,0.0
8,MetaDrive-td3combine-expt_with_safe-leaky-adamw-in-q-weighted-corrected,102,-2.7744303896406004,9479,26,92.5740270614624,-0.01802607998251915,0.0007506735855713487,0.003251862246543169,0.0
9,MetaDrive-td3combine-expt_with_safe-leaky-adamw-in-q-weighted-corrected,101,-2.8097862058329275,10480,27,102.91374802589417,,0.0028134442400187254,-0.026642967015504837,0.0
10,MetaDrive-td3combine-expt_with_safe-leaky-adamw-in-q-weighted-corrected,101,-2.9416995997632642,11689,29,115.2880311012268,0.06697474420070648,0.003780961036682129,-0.035930316895246506,0.0
11,MetaDrive-td3combine-expt_with_safe-leaky-adamw-in-q-weighted-corrected,101,-2.9563394738324593,12690,30,125.41604781150818,,0.004069190938025713,-0.046780358999967575,0.0
12,MetaDrive-td3combine-expt_with_safe-leaky-adamw-in-q-weighted-corrected,100,-2.82799150002056,13691,31,135.68604278564453,0.06224869191646576,0.006033342331647873,-0.047533851116895676,0.0
13,MetaDrive-td3combine-expt_with_safe-leaky-adamw-in-q-weighted-corrected,100,-2.930871112452833,14156,32,140.48833107948303,,0.0030138608999550343,-0.04671783372759819,0.0
14,MetaDrive-td3combine-expt_with_safe-leaky-adamw-in-q-weighted-corrected,100,-2.9421462542895367,15311,35,152.52129411697388,0.05199939012527466,0.001617314643226564,-0.05979285016655922,0.0
15,MetaDrive-td3combine-expt_with_safe-leaky-adamw-in-q-weighted-corrected,100,-3.0040947022021283,16180,36,161.3987331390381,,0.0017634782707318664,-0.0677553340792656,0.0
16,MetaDrive-td3combine-expt_with_safe-leaky-adamw-in-q-weighted-corrected,99,-2.954477506116083,17300,38,173.05577611923218,,0.001557184848934412,-0.07967527210712433,0.0
17,MetaDrive-td3combine-expt_with_safe-leaky-adamw-in-q-weighted-corrected,99,-2.854394078906895,18301,39,183.22620797157288,0.09520398825407028,0.00013769246288575232,-0.08835906535387039,0.0
18,MetaDrive-td3combine-expt_with_safe-leaky-adamw-in-q-weighted-corrected,99,-2.8655732146898565,19552,42,196.200199842453,,9.883390157483518e-05,-0.09972353279590607,0.0
19,MetaDrive-td3combine-expt_with_safe-leaky-adamw-in-q-weighted-corrected,99,-2.775186541662854,20553,43,206.36980199813843,0.10718948394060135,5.2470120863290504e-05,-0.10874278098344803,0.0
20,MetaDrive-td3combine-expt_with_safe-leaky-adamw-in-q-weighted-corrected,99,-2.7377574116911965,21554,44,216.53535199165344,,0.0008513660286553204,-0.1171206682920456,0.0
21,MetaDrive-td3combine-expt_with_safe-leaky-adamw-in-q-weighted-corrected,99,-2.8307920862613227,22749,46,228.82183504104614,0.12714609503746033,0.000101509052910842,-0.12627269327640533,0.0
22,MetaDrive-td3combine-expt_with_safe-leaky-adamw-in-q-weighted-corrected,99,-2.847413027823838,23750,47,238.9817349910736,,0.00018924669711850584,-0.13745133578777313,0.0
23,MetaDrive-td3combine-expt_with_safe-leaky-adamw-in-q-weighted-corrected,99,-2.9034971739246487,24555,48,247.23151397705078,0.16738244891166687,0.7394949793815613,-0.2219068706035614,0.0
24,MetaDrive-td3combine-expt_with_safe-leaky-adamw-in-q-weighted-corrected,98,-2.9045403587607592,25556,49,258.2346758842468,,0.00033070892095565796,-0.15517981350421906,0.0
25,MetaDrive-td3combine-expt_with_safe-leaky-adamw-in-q-weighted-corrected,98,-2.906468425992785,26218,50,265.0638289451599,,0.00017180078430101275,-0.1611243486404419,0.0
26,MetaDrive-td3combine-expt_with_safe-leaky-adamw-in-q-weighted-corrected,98,-2.549923606813393,27014,77,275.4751601219177,,0.0027006566524505615,-0.14187969267368317,0.0
27,MetaDrive-td3combine-expt_with_safe-leaky-adamw-in-q-weighted-corrected,97,-2.6456382325597367,28386,93,290.693696975708,,0.0009882551385089755,-0.1586860865354538,0.0
28,MetaDrive-td3combine-expt_with_safe-leaky-adamw-in-q-weighted-corrected,97,-2.495967230487939,29011,105,298.5643000602722,0.19293153285980225,0.01457896176725626,-0.14573407173156738,0.0
29,MetaDrive-td3combine-expt_with_safe-leaky-adamw-in-q-weighted-corrected,96,-1.6063591692159978,30006,125,311.50751304626465,,0.014321156777441502,-0.07656992226839066,0.0
30,MetaDrive-td3combine-expt_with_safe-leaky-adamw-in-q-weighted-corrected,95,-0.058299032620595916,31037,150,324.56707310676575,-0.014049986377358437,0.0019415991846472025,-0.03552643582224846,0.0
31,MetaDrive-td3combine-expt_with_safe-leaky-adamw-in-q-weighted-corrected,94,1.7318982974103767,32025,172,337.619225025177,-0.06364849954843521,0.031014908105134964,0.07237683981657028,0.0
32,MetaDrive-td3combine-expt_with_safe-leaky-adamw-in-q-weighted-corrected,94,4.054451193349562,33050,197,350.33817291259766,,0.04972338676452637,0.2708151042461395,0.0
33,MetaDrive-td3combine-expt_with_safe-leaky-adamw-in-q-weighted-corrected,93,5.860430086673176,34066,221,362.9258539676666,,0.017399612814188004,0.5344735980033875,0.0
34,MetaDrive-td3combine-expt_with_safe-leaky-adamw-in-q-weighted-corrected,93,7.723508276911824,35004,241,374.26849579811096,,0.3414574861526489,0.7068287134170532,0.0
35,MetaDrive-td3combine-expt_with_safe-leaky-adamw-in-q-weighted-corrected,93,8.595813855544552,36021,266,386.8097560405731,-1.2351354360580444,0.02773434668779373,1.0737637281417847,0.0
36,MetaDrive-td3combine-expt_with_safe-leaky-adamw-in-q-weighted-corrected,92,9.377321623407886,37103,288,400.5967400074005,-1.5587139129638672,0.08585360646247864,1.4722251892089844,0.0
37,MetaDrive-td3combine-expt_with_safe-leaky-adamw-in-q-weighted-corrected,92,9.154483171861724,38003,308,411.35163593292236,-1.933192491531372,0.017609184607863426,1.7298469543457031,0.0
38,MetaDrive-td3combine-expt_with_safe-leaky-adamw-in-q-weighted-corrected,92,8.290009150914953,39089,333,424.3755099773407,-2.2998297214508057,0.009789465926587582,2.1114416122436523,0.0
39,MetaDrive-td3combine-expt_with_safe-leaky-adamw-in-q-weighted-corrected,91,9.340808527795804,40042,350,435.6999161243439,,0.24070367217063904,2.5055015087127686,0.0
40,MetaDrive-td3combine-expt_with_safe-leaky-adamw-in-q-weighted-corrected,91,10.55049563455838,41045,368,447.20861291885376,-3.0025081634521484,0.07306908071041107,2.8238003253936768,0.0
41,MetaDrive-td3combine-expt_with_safe-leaky-adamw-in-q-weighted-corrected,91,12.96737419239691,42046,377,458.36419796943665,,0.09344718605279922,3.331475257873535,0.0
42,MetaDrive-td3combine-expt_with_safe-leaky-adamw-in-q-weighted-corrected,91,16.7706205005204,43004,386,468.8873929977417,,0.10278678685426712,3.7166364192962646,0.0
43,MetaDrive-td3combine-expt_with_safe-leaky-adamw-in-q-weighted-corrected,91,19.41399853709356,44174,399,482.25771284103394,,6.265725135803223,4.012823581695557,0.01
44,MetaDrive-td3combine-expt_with_safe-leaky-adamw-in-q-weighted-corrected,91,23.909607553333327,45161,406,492.9065899848938,-4.924243927001953,2.784487247467041,4.680605411529541,0.01
45,MetaDrive-td3combine-expt_with_safe-leaky-adamw-in-q-weighted-corrected,91,27.069317572125833,46109,417,503.7882959842682,-5.429437637329102,3.405862808227539,5.10721492767334,0.01
46,MetaDrive-td3combine-expt_with_safe-leaky-adamw-in-q-weighted-corrected,91,30.801075803337802,47005,423,513.6583330631256,-5.958578586578369,0.060785628855228424,5.800388813018799,0.02
47,MetaDrive-td3combine-expt_with_safe-leaky-adamw-in-q-weighted-corrected,91,35.35509325606848,48109,428,525.5615649223328,-6.5608296394348145,0.17855069041252136,6.442172050476074,0.03
48,MetaDrive-td3combine-expt_with_safe-leaky-adamw-in-q-weighted-corrected,91,39.00017697946606,49343,437,539.2289578914642,-7.456432342529297,5.516446113586426,7.0724334716796875,0.04
49,MetaDrive-td3combine-expt_with_safe-leaky-adamw-in-q-weighted-corrected,91,41.40480035992509,50143,442,547.8920361995697,-8.010629653930664,9.525161743164062,7.182278156280518,0.05
50,MetaDrive-td3combine-expt_with_safe-leaky-adamw-in-q-weighted-corrected,91,44.702858061987726,51088,447,558.1651270389557,,0.2568131685256958,8.596181869506836,0.05
51,MetaDrive-td3combine-expt_with_safe-leaky-adamw-in-q-weighted-corrected,91,48.775703520788575,52125,452,569.4979200363159,-9.00834846496582,8.85902214050293,8.457710266113281,0.06
52,MetaDrive-td3combine-expt_with_safe-leaky-adamw-in-q-weighted-corrected,91,51.14340552666154,53330,454,583.4834160804749,,8.785934448242188,9.232998847961426,0.06
53,MetaDrive-td3combine-expt_with_safe-leaky-adamw-in-q-weighted-corrected,91,54.51759609814192,54051,457,591.5883600711823,-10.421300888061523,0.8180992603302002,9.960620880126953,0.07
54,MetaDrive-td3combine-expt_with_safe-leaky-adamw-in-q-weighted-corrected,91,57.159056328641654,55225,459,604.7529449462891,-11.483270645141602,12.863481521606445,10.933981895446777,0.07
55,MetaDrive-td3combine-expt_with_safe-leaky-adamw-in-q-weighted-corrected,91,60.04495388188818,56016,465,613.7652280330658,,1.180408239364624,10.863231658935547,0.08
56,MetaDrive-td3combine-expt_with_safe-leaky-adamw-in-q-weighted-corrected,91,61.518211536427906,57013,471,624.7376780509949,-12.514863967895508,1.4211338758468628,11.799941062927246,0.09
57,MetaDrive-td3combine-expt_with_safe-leaky-adamw-in-q-weighted-corrected,91,61.62199884525661,58239,474,637.8884680271149,-13.52940559387207,0.3872031271457672,13.351877212524414,0.09
58,MetaDrive-td3combine-expt_with_safe-leaky-adamw-in-q-weighted-corrected,91,64.38413696687662,59119,479,647.700385093689,-12.599889755249023,8.950051307678223,12.136178970336914,0.11
59,MetaDrive-td3combine-expt_with_safe-leaky-adamw-in-q-weighted-corrected,91,69.1929142731523,60023,482,657.4753642082214,-14.138964653015137,1.111435055732727,13.72807502746582,0.13
60,MetaDrive-td3combine-expt_with_safe-leaky-adamw-in-q-weighted-corrected,91,69.5698432765685,61155,489,669.9102249145508,-14.67451000213623,3.0020575523376465,14.22854995727539,0.13
61,MetaDrive-td3combine-expt_with_safe-leaky-adamw-in-q-weighted-corrected,91,71.96167953438777,62157,494,680.9079880714417,-14.61828327178955,14.043498992919922,13.640606880187988,0.13
62,MetaDrive-td3combine-expt_with_safe-leaky-adamw-in-q-weighted-corrected,91,70.740355526733,63544,499,696.3101608753204,,9.106913566589355,13.330507278442383,0.12
63,MetaDrive-td3combine-expt_with_safe-leaky-adamw-in-q-weighted-corrected,91,71.53490164021481,64545,500,707.1547930240631,-16.79806900024414,1.1829320192337036,16.08592987060547,0.12
64,MetaDrive-td3combine-expt_with_safe-leaky-adamw-in-q-weighted-corrected,91,71.45355937127053,65230,504,715.085834980011,,22.436279296875,14.481551170349121,0.13
65,MetaDrive-td3combine-expt_with_safe-leaky-adamw-in-q-weighted-corrected,91,76.06391863681745,66295,510,726.7137968540192,-14.505498886108398,3.772488832473755,14.598761558532715,0.15
66,MetaDrive-td3combine-expt_with_safe-leaky-adamw-in-q-weighted-corrected,91,81.4120055927044,67144,514,736.1439120769501,,4.262020111083984,15.288969993591309,0.15
67,MetaDrive-td3combine-expt_with_safe-leaky-adamw-in-q-weighted-corrected,91,80.81282761564454,68145,515,747.2150239944458,-17.02639389038086,12.204029083251953,16.71299171447754,0.15
68,MetaDrive-td3combine-expt_with_safe-leaky-adamw-in-q-weighted-corrected,91,83.11006003142207,69657,520,763.3648121356964,-16.646947860717773,11.635549545288086,16.09351921081543,0.14
69,MetaDrive-td3combine-expt_with_safe-leaky-adamw-in-q-weighted-corrected,91,83.92883716624335,70249,523,769.8310239315033,-17.64035415649414,0.8185282945632935,17.40672492980957,0.15
70,MetaDrive-td3combine-expt_with_safe-leaky-adamw-in-q-weighted-corrected,91,86.1309845694977,71308,527,781.5719830989838,,1.7498979568481445,17.312856674194336,0.16
71,MetaDrive-td3combine-expt_with_safe-leaky-adamw-in-q-weighted-corrected,91,87.98201735600728,72802,531,797.7082240581512,,3.8357772827148438,17.66092300415039,0.16
72,MetaDrive-td3combine-expt_with_safe-leaky-adamw-in-q-weighted-corrected,91,90.40511896898468,73218,533,802.1766238212585,,15.529379844665527,16.533750534057617,0.17
73,MetaDrive-td3combine-expt_with_safe-leaky-adamw-in-q-weighted-corrected,91,91.29602631909404,74219,534,812.8008451461792,-17.481311798095703,1.3442859649658203,16.998716354370117,0.17
74,MetaDrive-td3combine-expt_with_safe-leaky-adamw-in-q-weighted-corrected,91,92.04269204147016,75173,535,822.8271300792694,-20.037290573120117,7.073153495788574,19.585357666015625,0.18
75,MetaDrive-td3combine-expt_with_safe-leaky-adamw-in-q-weighted-corrected,91,94.38497778994486,76153,541,833.6498670578003,-18.463376998901367,3.3274948596954346,18.627887725830078,0.17
76,MetaDrive-td3combine-expt_with_safe-leaky-adamw-in-q-weighted-corrected,91,94.0703511551201,77046,547,843.6266210079193,,7.477191925048828,18.152353286743164,0.16
77,MetaDrive-td3combine-expt_with_safe-leaky-adamw-in-q-weighted-corrected,91,92.99925069282219,78724,553,862.2987949848175,,1.4809571504592896,20.663349151611328,0.15
78,MetaDrive-td3combine-expt_with_safe-leaky-adamw-in-q-weighted-corrected,91,92.14660121437205,79809,555,874.0619750022888,-18.074148178100586,4.076692581176758,17.32311248779297,0.15
79,MetaDrive-td3combine-expt_with_safe-leaky-adamw-in-q-weighted-corrected,91,94.52770430584339,80166,556,878.0329260826111,,1.533624291419983,19.071876525878906,0.16
80,MetaDrive-td3combine-expt_with_safe-leaky-adamw-in-q-weighted-corrected,91,93.92336809182149,81048,560,887.6607849597931,,3.394303798675537,23.248865127563477,0.17
81,MetaDrive-td3combine-expt_with_safe-leaky-adamw-in-q-weighted-corrected,91,94.4528305367833,82134,562,899.6963589191437,,3.2569217681884766,18.640588760375977,0.17
82,MetaDrive-td3combine-expt_with_safe-leaky-adamw-in-q-weighted-corrected,91,95.68612947661222,83135,563,910.1920399665833,-17.56304931640625,4.821961402893066,18.249168395996094,0.17
83,MetaDrive-td3combine-expt_with_safe-leaky-adamw-in-q-weighted-corrected,91,96.97394341422392,84502,566,924.2306740283966,,3.517824649810791,16.748083114624023,0.17
84,MetaDrive-td3combine-expt_with_safe-leaky-adamw-in-q-weighted-corrected,91,97.2187390272133,85630,568,936.1973690986633,,15.942588806152344,22.317873001098633,0.17
85,MetaDrive-td3combine-expt_with_safe-leaky-adamw-in-q-weighted-corrected,91,99.2013234250006,86224,571,942.8352041244507,,7.3691911697387695,20.92938995361328,0.17
86,MetaDrive-td3combine-expt_with_safe-leaky-adamw-in-q-weighted-corrected,91,99.4516651107872,87403,574,955.4784979820251,-19.18401336669922,5.300854682922363,18.96428108215332,0.17
87,MetaDrive-td3combine-expt_with_safe-leaky-adamw-in-q-weighted-corrected,91,102.57747207587546,88080,577,962.7378799915314,,10.955726623535156,22.51510238647461,0.17
88,MetaDrive-td3combine-expt_with_safe-leaky-adamw-in-q-weighted-corrected,91,96.95406537727496,89528,583,978.1188638210297,,3.8794994354248047,17.155475616455078,0.15
89,MetaDrive-td3combine-expt_with_safe-leaky-adamw-in-q-weighted-corrected,91,98.8409724156161,90527,585,989.1046001911163,-21.869447708129883,5.268244743347168,21.231409072875977,0.15
90,MetaDrive-td3combine-expt_with_safe-leaky-adamw-in-q-weighted-corrected,91,99.18648428659215,91631,587,1001.0532150268555,-23.39381980895996,19.784622192382812,21.93972396850586,0.15
91,MetaDrive-td3combine-expt_with_safe-leaky-adamw-in-q-weighted-corrected,91,104.93502548899836,92460,589,1010.6888799667358,,21.922866821289062,19.820842742919922,0.17
92,MetaDrive-td3combine-expt_with_safe-leaky-adamw-in-q-weighted-corrected,91,105.24943297075383,93461,590,1021.7413802146912,-24.981014251708984,41.77238464355469,23.88066864013672,0.17
93,MetaDrive-td3combine-expt_with_safe-leaky-adamw-in-q-weighted-corrected,91,105.25781194624562,94462,591,1032.902240037918,,5.193417549133301,21.721717834472656,0.17
94,MetaDrive-td3combine-expt_with_safe-leaky-adamw-in-q-weighted-corrected,91,104.97187084518144,95463,592,1043.5846099853516,-21.446306228637695,15.703444480895996,20.072002410888672,0.17
95,MetaDrive-td3combine-expt_with_safe-leaky-adamw-in-q-weighted-corrected,91,105.61578344843967,96464,593,1054.9862310886383,,2.249450206756592,24.69993019104004,0.17
96,MetaDrive-td3combine-expt_with_safe-leaky-adamw-in-q-weighted-corrected,91,105.48930795957158,97465,594,1065.9192461967468,-22.540019989013672,5.374663352966309,22.766090393066406,0.17
97,MetaDrive-td3combine-expt_with_safe-leaky-adamw-in-q-weighted-corrected,91,107.51884270860646,98781,597,1079.7797000408173,-26.154878616333008,3.287173271179199,25.375904083251953,0.18
98,MetaDrive-td3combine-expt_with_safe-leaky-adamw-in-q-weighted-corrected,91,107.79135872966535,99715,598,1089.6191999912262,-22.72743797302246,6.85715389251709,22.405614852905273,0.18
99,MetaDrive-td3combine-expt_with_safe-leaky-adamw-in-q-weighted-corrected,91,107.36187309581108,100716,599,1100.1542122364044,,16.118534088134766,21.335723876953125,0.18
100,MetaDrive-td3combine-expt_with_safe-leaky-adamw-in-q-weighted-corrected,91,109.24322199775048,101717,600,1111.0048031806946,-19.871631622314453,5.5661725997924805,19.61562156677246,0.18
101,MetaDrive-td3combine-expt_with_safe-leaky-adamw-in-q-weighted-corrected,91,110.67440462731648,102007,601,1114.2076570987701,-21.872562408447266,3.6145334243774414,21.31344985961914,0.19
102,MetaDrive-td3combine-expt_with_safe-leaky-adamw-in-q-weighted-corrected,91,110.17963172766349,103396,604,1129.002326965332,,3.5842108726501465,19.73952293395996,0.19
103,MetaDrive-td3combine-expt_with_safe-leaky-adamw-in-q-weighted-corrected,91,110.75143488799424,104397,605,1139.2414751052856,-25.156869888305664,3.5223946571350098,24.639101028442383,0.19
104,MetaDrive-td3combine-expt_with_safe-leaky-adamw-in-q-weighted-corrected,91,110.37284095265218,105551,607,1151.3860800266266,-25.259170532226562,3.135831356048584,25.016464233398438,0.18
105,MetaDrive-td3combine-expt_with_safe-leaky-adamw-in-q-weighted-corrected,91,113.50669609344033,106218,609,1158.6478600502014,,43.95096206665039,21.335262298583984,0.2
106,MetaDrive-td3combine-expt_with_safe-leaky-adamw-in-q-weighted-corrected,91,114.0072055753693,107292,612,1170.3642189502716,,27.14716339111328,24.22397804260254,0.2
107,MetaDrive-td3combine-expt_with_safe-leaky-adamw-in-q-weighted-corrected,91,110.96328202075456,108113,614,1179.3914439678192,-19.442737579345703,4.834944725036621,19.843570709228516,0.2
108,MetaDrive-td3combine-expt_with_safe-leaky-adamw-in-q-weighted-corrected,91,111.26838685792247,109114,615,1189.9904489517212,,3.7918431758880615,23.439634323120117,0.2
109,MetaDrive-td3combine-expt_with_safe-leaky-adamw-in-q-weighted-corrected,91,111.27956384982136,110438,618,1203.8880960941315,,3.747756242752075,25.264116287231445,0.2
110,MetaDrive-td3combine-expt_with_safe-leaky-adamw-in-q-weighted-corrected,91,112.01715779512806,111316,620,1213.206866979599,,5.29304313659668,26.067646026611328,0.21
111,MetaDrive-td3combine-expt_with_safe-leaky-adamw-in-q-weighted-corrected,91,111.99728068672184,112317,621,1224.0122640132904,-25.103092193603516,11.054401397705078,24.435781478881836,0.21
112,MetaDrive-td3combine-expt_with_safe-leaky-adamw-in-q-weighted-corrected,91,111.14429210715662,113318,622,1234.8968620300293,,6.860943794250488,17.20145606994629,0.21
113,MetaDrive-td3combine-expt_with_safe-leaky-adamw-in-q-weighted-corrected,91,111.6165291043077,114197,625,1244.480052947998,-25.53366470336914,12.431884765625,24.24358558654785,0.2
114,MetaDrive-td3combine-expt_with_safe-leaky-adamw-in-q-weighted-corrected,91,110.12017413184158,115088,628,1254.0584790706635,,5.468033313751221,22.356943130493164,0.21
115,MetaDrive-td3combine-expt_with_safe-leaky-adamw-in-q-weighted-corrected,91,109.73337224832407,116668,631,1271.1454501152039,,9.933116912841797,22.441429138183594,0.22
116,MetaDrive-td3combine-expt_with_safe-leaky-adamw-in-q-weighted-corrected,91,109.06332467210919,117940,633,1284.5259490013123,,12.121713638305664,24.356218338012695,0.22
117,MetaDrive-td3combine-expt_with_safe-leaky-adamw-in-q-weighted-corrected,91,109.92664112331346,118248,634,1287.9944047927856,,4.115634918212891,20.601444244384766,0.22
118,MetaDrive-td3combine-expt_with_safe-leaky-adamw-in-q-weighted-corrected,91,109.63498029971377,119366,638,1299.903461933136,,5.136915683746338,24.222312927246094,0.23
119,MetaDrive-td3combine-expt_with_safe-leaky-adamw-in-q-weighted-corrected,91,113.55665543590212,120549,640,1312.497148990631,-27.333454132080078,4.258925437927246,26.872615814208984,0.25
120,MetaDrive-td3combine-expt_with_safe-leaky-adamw-in-q-weighted-corrected,91,116.58134455290752,121182,642,1319.4889659881592,,9.410371780395508,20.79636573791504,0.27
121,MetaDrive-td3combine-expt_with_safe-leaky-adamw-in-q-weighted-corrected,91,116.83816956108662,122869,645,1337.8188500404358,-26.238996505737305,3.7696142196655273,25.89742660522461,0.29
122,MetaDrive-td3combine-expt_with_safe-leaky-adamw-in-q-weighted-corrected,91,115.52378705237696,123870,646,1348.7470440864563,,4.714118957519531,22.187816619873047,0.29
123,MetaDrive-td3combine-expt_with_safe-leaky-adamw-in-q-weighted-corrected,91,116.53173154107158,124255,647,1352.8412191867828,-26.106422424316406,7.833160400390625,25.716205596923828,0.3
124,MetaDrive-td3combine-expt_with_safe-leaky-adamw-in-q-weighted-corrected,91,119.67143648321435,125738,649,1368.4716320037842,,8.088746070861816,20.507465362548828,0.31
125,MetaDrive-td3combine-expt_with_safe-leaky-adamw-in-q-weighted-corrected,91,120.35761807672444,126144,650,1372.874029159546,,24.544925689697266,24.322402954101562,0.31
126,MetaDrive-td3combine-expt_with_safe-leaky-adamw-in-q-weighted-corrected,91,119.400432295296,127773,655,1389.8773729801178,-24.314937591552734,4.212818622589111,23.534196853637695,0.32
127,MetaDrive-td3combine-expt_with_safe-leaky-adamw-in-q-weighted-corrected,91,118.37083122598655,128130,656,1393.6553778648376,,15.676111221313477,22.60738754272461,0.32
128,MetaDrive-td3combine-expt_with_safe-leaky-adamw-in-q-weighted-corrected,91,117.26375505878202,129880,659,1413.2558348178864,,17.364240646362305,25.817394256591797,0.32
129,MetaDrive-td3combine-expt_with_safe-leaky-adamw-in-q-weighted-corrected,91,117.33005925110324,130089,660,1415.4797649383545,-23.518451690673828,8.029627799987793,23.380813598632812,0.32
130,MetaDrive-td3combine-expt_with_safe-leaky-adamw-in-q-weighted-corrected,91,117.23004070617995,131090,661,1426.5597040653229,,11.47607135772705,25.958858489990234,0.32
131,MetaDrive-td3combine-expt_with_safe-leaky-adamw-in-q-weighted-corrected,91,118.41061713385332,132531,663,1442.1176810264587,-24.14006233215332,7.095470905303955,23.937288284301758,0.32
132,MetaDrive-td3combine-expt_with_safe-leaky-adamw-in-q-weighted-corrected,91,116.32114452305748,133520,664,1452.8363032341003,,4.681265830993652,27.392452239990234,0.31
133,MetaDrive-td3combine-expt_with_safe-leaky-adamw-in-q-weighted-corrected,91,118.59978817740813,134581,666,1465.150516986847,-21.36836051940918,4.816195964813232,20.914981842041016,0.33
134,MetaDrive-td3combine-expt_with_safe-leaky-adamw-in-q-weighted-corrected,91,118.73804381766176,135530,667,1475.6008069515228,,11.478845596313477,25.479915618896484,0.33
135,MetaDrive-td3combine-expt_with_safe-leaky-adamw-in-q-weighted-corrected,91,118.9639924057416,136112,669,1482.0109901428223,,8.949243545532227,27.421796798706055,0.34
136,MetaDrive-td3combine-expt_with_safe-leaky-adamw-in-q-weighted-corrected,91,118.85810723661403,137113,670,1492.5786349773407,-28.817276000976562,28.664846420288086,29.357099533081055,0.34
137,MetaDrive-td3combine-expt_with_safe-leaky-adamw-in-q-weighted-corrected,91,120.93026708814814,138880,674,1511.4258170127869,,10.238018035888672,26.45242691040039,0.34
138,MetaDrive-td3combine-expt_with_safe-leaky-adamw-in-q-weighted-corrected,91,120.63174231161345,139248,675,1515.3986508846283,,6.0952887535095215,25.47594451904297,0.34
139,MetaDrive-td3combine-expt_with_safe-leaky-adamw-in-q-weighted-corrected,91,122.26435421804196,140402,679,1528.392685174942,,6.505147933959961,21.247928619384766,0.36
140,MetaDrive-td3combine-expt_with_safe-leaky-adamw-in-q-weighted-corrected,91,125.90566584364902,141547,681,1541.0423460006714,-24.92181968688965,24.869354248046875,24.45842933654785,0.37
141,MetaDrive-td3combine-expt_with_safe-leaky-adamw-in-q-weighted-corrected,91,125.68550058507259,142548,682,1551.9283831119537,,8.930534362792969,23.02368927001953,0.37
142,MetaDrive-td3combine-expt_with_safe-leaky-adamw-in-q-weighted-corrected,91,123.3728882037029,143549,683,1562.5821599960327,-29.45252799987793,4.10560417175293,29.382450103759766,0.36
143,MetaDrive-td3combine-expt_with_safe-leaky-adamw-in-q-weighted-corrected,91,121.43180901304511,144550,684,1573.1442790031433,,16.191715240478516,28.64217758178711,0.36
144,MetaDrive-td3combine-expt_with_safe-leaky-adamw-in-q-weighted-corrected,91,121.44501293864994,145551,685,1583.5934779644012,-20.50558090209961,5.82502555847168,19.707529067993164,0.36
145,MetaDrive-td3combine-expt_with_safe-leaky-adamw-in-q-weighted-corrected,91,122.06884568845524,146109,686,1589.4100840091705,-22.725656509399414,40.47871398925781,22.714937210083008,0.37
146,MetaDrive-td3combine-expt_with_safe-leaky-adamw-in-q-weighted-corrected,91,122.33945917973186,147325,688,1602.8016669750214,-26.18632698059082,3.353116273880005,25.95374298095703,0.37
147,MetaDrive-td3combine-expt_with_safe-leaky-adamw-in-q-weighted-corrected,91,119.14397886165328,148428,690,1614.7061278820038,,44.174781799316406,25.07451057434082,0.36
148,MetaDrive-td3combine-expt_with_safe-leaky-adamw-in-q-weighted-corrected,91,118.51766963840262,149713,693,1628.9655191898346,-21.881927490234375,99.61454772949219,20.401384353637695,0.36
149,MetaDrive-td3combine-expt_with_safe-leaky-adamw-in-q-weighted-corrected,91,120.12760381970044,150199,694,1634.2141780853271,-29.763248443603516,18.9989070892334,29.22573471069336,0.37
150,MetaDrive-td3combine-expt_with_safe-leaky-adamw-in-q-weighted-corrected,91,120.34740042683687,151610,696,1648.8213481903076,,5.3890533447265625,30.229961395263672,0.37
151,MetaDrive-td3combine-expt_with_safe-leaky-adamw-in-q-weighted-corrected,91,121.94887570645965,152611,697,1659.4464859962463,-24.17560386657715,9.866828918457031,23.261049270629883,0.37
152,MetaDrive-td3combine-expt_with_safe-leaky-adamw-in-q-weighted-corrected,91,123.93790326106318,153285,699,1666.7443888187408,-22.527732849121094,31.22340202331543,22.091888427734375,0.38
153,MetaDrive-td3combine-expt_with_safe-leaky-adamw-in-q-weighted-corrected,91,122.80640212449568,154451,702,1679.2674391269684,-23.40316390991211,5.077081680297852,22.561208724975586,0.39
154,MetaDrive-td3combine-expt_with_safe-leaky-adamw-in-q-weighted-corrected,91,123.88306530353636,155166,703,1686.7967109680176,,4.462968826293945,26.43044662475586,0.39
155,MetaDrive-td3combine-expt_with_safe-leaky-adamw-in-q-weighted-corrected,92,124.24827452973099,156566,706,1701.6866450309753,,5.581937789916992,20.405000686645508,0.4
156,MetaDrive-td3combine-expt_with_safe-leaky-adamw-in-q-weighted-corrected,92,124.08418451009167,157567,707,1712.1758999824524,-25.556018829345703,4.632622718811035,24.99921417236328,0.4
157,MetaDrive-td3combine-expt_with_safe-leaky-adamw-in-q-weighted-corrected,92,122.1585446947128,158568,708,1722.9675130844116,,5.035064697265625,21.51085662841797,0.39
158,MetaDrive-td3combine-expt_with_safe-leaky-adamw-in-q-weighted-corrected,92,119.42341248779707,159290,711,1731.1096849441528,,5.630675315856934,25.9704532623291,0.38
159,MetaDrive-td3combine-expt_with_safe-leaky-adamw-in-q-weighted-corrected,91,118.77900459349534,160291,712,1742.4530959129333,-23.942514419555664,7.326864242553711,23.025592803955078,0.38
160,MetaDrive-td3combine-expt_with_safe-leaky-adamw-in-q-weighted-corrected,92,121.81784538624572,161785,714,1758.1694750785828,-18.918319702148438,6.2652435302734375,19.471454620361328,0.38
161,MetaDrive-td3combine-expt_with_safe-leaky-adamw-in-q-weighted-corrected,92,123.93036402825511,162428,715,1765.2731640338898,,7.766242980957031,27.05906105041504,0.39
162,MetaDrive-td3combine-expt_with_safe-leaky-adamw-in-q-weighted-corrected,92,123.48979709749365,163429,716,1775.8122601509094,-27.476350784301758,3.053861618041992,26.581249237060547,0.39
163,MetaDrive-td3combine-expt_with_safe-leaky-adamw-in-q-weighted-corrected,92,124.51691514052006,164231,718,1784.4409511089325,-27.868549346923828,125.68144226074219,27.39358139038086,0.4
164,MetaDrive-td3combine-expt_with_safe-leaky-adamw-in-q-weighted-corrected,92,125.02846677600539,165571,720,1799.5601069927216,-25.75600242614746,5.866208076477051,25.64174461364746,0.4
165,MetaDrive-td3combine-expt_with_safe-leaky-adamw-in-q-weighted-corrected,92,127.60379420109614,166561,722,1810.3053991794586,-20.951135635375977,4.378169059753418,20.367042541503906,0.41
166,MetaDrive-td3combine-expt_with_safe-leaky-adamw-in-q-weighted-corrected,92,125.0276305162285,167997,725,1825.2479948997498,-26.3032283782959,4.267873287200928,25.20014190673828,0.41
167,MetaDrive-td3combine-expt_with_safe-leaky-adamw-in-q-weighted-corrected,92,125.11891124495709,168134,726,1826.7353339195251,,58.73530578613281,22.468963623046875,0.41
168,MetaDrive-td3combine-expt_with_safe-leaky-adamw-in-q-weighted-corrected,92,124.53028892827697,169135,727,1837.2086889743805,-29.80120849609375,30.65569496154785,29.136003494262695,0.4
169,MetaDrive-td3combine-expt_with_safe-leaky-adamw-in-q-weighted-corrected,92,124.06114981626042,170136,728,1847.9292800426483,,5.264627933502197,30.64992904663086,0.39
170,MetaDrive-td3combine-expt_with_safe-leaky-adamw-in-q-weighted-corrected,92,124.12006414942356,171437,730,1862.4241559505463,-27.2685546875,5.147107124328613,27.079553604125977,0.38
171,MetaDrive-td3combine-expt_with_safe-leaky-adamw-in-q-weighted-corrected,92,124.8269590341626,172438,731,1873.2665758132935,,9.09184455871582,23.5114688873291,0.38
172,MetaDrive-td3combine-expt_with_safe-leaky-adamw-in-q-weighted-corrected,92,125.16603542444807,173439,732,1883.927568912506,-26.07694435119629,6.898699760437012,25.16046905517578,0.37
173,MetaDrive-td3combine-expt_with_safe-leaky-adamw-in-q-weighted-corrected,92,125.53156062235158,174440,733,1894.5296461582184,,9.877436637878418,26.369230270385742,0.37
174,MetaDrive-td3combine-expt_with_safe-leaky-adamw-in-q-weighted-corrected,92,125.88525190739907,175441,734,1905.3331019878387,-29.15810203552246,8.147269248962402,29.51846694946289,0.37
175,MetaDrive-td3combine-expt_with_safe-leaky-adamw-in-q-weighted-corrected,92,126.44665476112752,176442,735,1916.9672989845276,,52.56417465209961,26.29292106628418,0.37
176,MetaDrive-td3combine-expt_with_safe-leaky-adamw-in-q-weighted-corrected,92,124.44944470693405,177551,737,1928.6495389938354,-28.75148582458496,9.776090621948242,28.24949836730957,0.36
177,MetaDrive-td3combine-expt_with_safe-leaky-adamw-in-q-weighted-corrected,92,124.44113101782085,178095,738,1934.5454850196838,-23.56358528137207,28.486236572265625,23.226154327392578,0.36
178,MetaDrive-td3combine-expt_with_safe-leaky-adamw-in-q-weighted-corrected,92,120.39743629911099,179195,740,1946.4389472007751,-25.853769302368164,10.790634155273438,25.548112869262695,0.34
179,MetaDrive-td3combine-expt_with_safe-leaky-adamw-in-q-weighted-corrected,92,119.18468626768778,180177,742,1957.3717629909515,-22.46487045288086,48.17483901977539,20.91356086730957,0.33
180,MetaDrive-td3combine-expt_with_safe-leaky-adamw-in-q-weighted-corrected,92,117.98991029698013,181178,743,1967.7734470367432,,3.9008312225341797,26.472789764404297,0.32
181,MetaDrive-td3combine-expt_with_safe-leaky-adamw-in-q-weighted-corrected,92,122.11047291486334,182673,746,1984.1009340286255,-27.96087074279785,26.068023681640625,28.20301628112793,0.33
182,MetaDrive-td3combine-expt_with_safe-leaky-adamw-in-q-weighted-corrected,92,122.85772870116722,183588,748,1993.8994460105896,,5.918630599975586,27.469364166259766,0.33
183,MetaDrive-td3combine-expt_with_safe-leaky-adamw-in-q-weighted-corrected,92,123.86253843472201,184589,749,2005.2775728702545,-23.242094039916992,9.864333152770996,22.10737419128418,0.33
184,MetaDrive-td3combine-expt_with_safe-leaky-adamw-in-q-weighted-corrected,92,123.45553406337989,185203,750,2011.9165041446686,-25.68096923828125,13.077285766601562,25.462772369384766,0.33
185,MetaDrive-td3combine-expt_with_safe-leaky-adamw-in-q-weighted-corrected,92,127.27254754848391,186338,753,2024.0418848991394,,11.556962966918945,28.327463150024414,0.34
186,MetaDrive-td3combine-expt_with_safe-leaky-adamw-in-q-weighted-corrected,92,127.00049946744781,187339,754,2034.9772050380707,-22.712257385253906,4.078926086425781,23.225940704345703,0.34
187,MetaDrive-td3combine-expt_with_safe-leaky-adamw-in-q-weighted-corrected,92,129.521658229536,188309,755,2045.2823240756989,-25.202346801757812,4.281525611877441,24.82744598388672,0.35
188,MetaDrive-td3combine-expt_with_safe-leaky-adamw-in-q-weighted-corrected,92,129.83491897208057,189793,757,2061.629194021225,-29.028993606567383,6.605855941772461,28.738048553466797,0.34
189,MetaDrive-td3combine-expt_with_safe-leaky-adamw-in-q-weighted-corrected,92,127.35236271729626,190794,758,2072.19460105896,,7.297431468963623,29.458219528198242,0.33
190,MetaDrive-td3combine-expt_with_safe-leaky-adamw-in-q-weighted-corrected,92,130.3126987892768,191586,759,2080.764883995056,,4.494378089904785,24.108047485351562,0.34
191,MetaDrive-td3combine-expt_with_safe-leaky-adamw-in-q-weighted-corrected,92,130.22315292774735,192587,760,2091.0757460594177,-28.698640823364258,10.959892272949219,27.842714309692383,0.34
192,MetaDrive-td3combine-expt_with_safe-leaky-adamw-in-q-weighted-corrected,92,130.80471419621742,193442,762,2099.944839954376,,7.645262718200684,23.81094741821289,0.36
193,MetaDrive-td3combine-expt_with_safe-leaky-adamw-in-q-weighted-corrected,92,135.92272007590856,194569,764,2112.4996449947357,-25.063692092895508,13.971174240112305,25.182579040527344,0.38
194,MetaDrive-td3combine-expt_with_safe-leaky-adamw-in-q-weighted-corrected,92,136.0094825762468,195041,765,2117.535941839218,-24.437026977539062,6.589311599731445,24.255847930908203,0.38
195,MetaDrive-td3combine-expt_with_safe-leaky-adamw-in-q-weighted-corrected,92,135.5972997632781,196063,768,2128.83443403244,-31.968666076660156,4.386452674865723,31.99480438232422,0.38
196,MetaDrive-td3combine-expt_with_safe-leaky-adamw-in-q-weighted-corrected,92,140.090104554685,197142,770,2141.1918609142303,,26.756534576416016,22.009658813476562,0.39
197,MetaDrive-td3combine-expt_with_safe-leaky-adamw-in-q-weighted-corrected,92,138.47349238779162,198232,773,2152.7135059833527,,6.337146282196045,30.691701889038086,0.39
198,MetaDrive-td3combine-expt_with_safe-leaky-adamw-in-q-weighted-corrected,92,135.89380597417681,199036,777,2161.6291880607605,,4.23580265045166,26.00798225402832,0.38
199,MetaDrive-td3combine-expt_with_safe-leaky-adamw-in-q-weighted-corrected,92,133.50168265787894,200153,779,2173.8567860126495,-26.4201602935791,7.983968734741211,25.685970306396484,0.37
200,MetaDrive-td3combine-expt_with_safe-leaky-adamw-in-q-weighted-corrected,92,131.0090451523407,201518,781,2188.6246349811554,,54.85361099243164,25.659168243408203,0.36
201,MetaDrive-td3combine-expt_with_safe-leaky-adamw-in-q-weighted-corrected,92,132.23687908066458,202054,783,2194.340494155884,,7.7710771560668945,28.956382751464844,0.36
202,MetaDrive-td3combine-expt_with_safe-leaky-adamw-in-q-weighted-corrected,92,132.4968076730825,203055,784,2205.1922471523285,-25.216352462768555,7.871419906616211,24.272056579589844,0.36
203,MetaDrive-td3combine-expt_with_safe-leaky-adamw-in-q-weighted-corrected,92,137.03170772785393,204341,786,2219.234712123871,-29.329757690429688,9.05916690826416,29.566360473632812,0.37
204,MetaDrive-td3combine-expt_with_safe-leaky-adamw-in-q-weighted-corrected,92,136.39298954997057,205342,787,2229.915761947632,,10.03136920928955,32.009796142578125,0.37
205,MetaDrive-td3combine-expt_with_safe-leaky-adamw-in-q-weighted-corrected,92,134.44837302773226,206343,788,2240.4769620895386,-29.93327522277832,10.295526504516602,29.512697219848633,0.36
206,MetaDrive-td3combine-expt_with_safe-leaky-adamw-in-q-weighted-corrected,92,136.26819318039514,207029,790,2247.805818796158,-29.605815887451172,5.456831932067871,29.038965225219727,0.37
207,MetaDrive-td3combine-expt_with_safe-leaky-adamw-in-q-weighted-corrected,92,137.8311410490602,208621,793,2264.9197840690613,-34.79999923706055,7.792923927307129,34.76854705810547,0.38
208,MetaDrive-td3combine-expt_with_safe-leaky-adamw-in-q-weighted-corrected,92,137.15943716448658,209040,794,2269.6441140174866,,17.303997039794922,28.147722244262695,0.37
209,MetaDrive-td3combine-expt_with_safe-leaky-adamw-in-q-weighted-corrected,92,134.4184448718239,210010,797,2279.9068830013275,,83.10525512695312,27.414981842041016,0.37
210,MetaDrive-td3combine-expt_with_safe-leaky-adamw-in-q-weighted-corrected,92,133.7264878939115,211221,799,2293.13515996933,-30.07329750061035,4.096165657043457,30.176959991455078,0.36
211,MetaDrive-td3combine-expt_with_safe-leaky-adamw-in-q-weighted-corrected,92,130.7629579555762,212839,803,2311.9342410564423,-25.03255271911621,8.066834449768066,25.01072883605957,0.34
212,MetaDrive-td3combine-expt_with_safe-leaky-adamw-in-q-weighted-corrected,92,131.45977690819333,213162,804,2315.3168320655823,,8.821245193481445,29.663536071777344,0.34
213,MetaDrive-td3combine-expt_with_safe-leaky-adamw-in-q-weighted-corrected,92,129.11390855591102,214258,806,2326.919417142868,,10.79676628112793,25.15399169921875,0.33
214,MetaDrive-td3combine-expt_with_safe-leaky-adamw-in-q-weighted-corrected,92,131.02595791410653,215255,807,2337.3445329666138,-30.309017181396484,9.720678329467773,30.043243408203125,0.34
215,MetaDrive-td3combine-expt_with_safe-leaky-adamw-in-q-weighted-corrected,92,132.0453568008971,216656,809,2351.965793132782,,4.80491304397583,24.112316131591797,0.35
216,MetaDrive-td3combine-expt_with_safe-leaky-adamw-in-q-weighted-corrected,92,132.16106772080948,217657,810,2362.5081448554993,-22.19460678100586,9.61850357055664,22.29263687133789,0.35
217,MetaDrive-td3combine-expt_with_safe-leaky-adamw-in-q-weighted-corrected,92,132.97364777453123,218246,811,2368.9456100463867,,7.929679870605469,31.657175064086914,0.35
218,MetaDrive-td3combine-expt_with_safe-leaky-adamw-in-q-weighted-corrected,92,134.02344658775547,219405,813,2381.95889210701,-26.61244773864746,10.391244888305664,25.29413604736328,0.37
219,MetaDrive-td3combine-expt_with_safe-leaky-adamw-in-q-weighted-corrected,92,131.88932212257126,220099,815,2389.2721118927,-26.949514389038086,29.228153228759766,25.159982681274414,0.37
220,MetaDrive-td3combine-expt_with_safe-leaky-adamw-in-q-weighted-corrected,92,133.71823967340856,221552,817,2404.735563993454,,7.213309288024902,28.686725616455078,0.38
221,MetaDrive-td3combine-expt_with_safe-leaky-adamw-in-q-weighted-corrected,92,133.30119818853385,222074,818,2410.23720908165,,11.329195022583008,22.851760864257812,0.38
222,MetaDrive-td3combine-expt_with_safe-leaky-adamw-in-q-weighted-corrected,92,136.60517710480966,223557,821,2426.336189031601,-36.71001434326172,6.973123550415039,35.84495544433594,0.39
223,MetaDrive-td3combine-expt_with_safe-leaky-adamw-in-q-weighted-corrected,92,136.1743594973095,224454,822,2435.9348878860474,,12.52477741241455,23.979202270507812,0.39
224,MetaDrive-td3combine-expt_with_safe-leaky-adamw-in-q-weighted-corrected,92,135.41628918484193,225455,823,2446.6599690914154,-31.71155548095703,7.225096702575684,31.32108497619629,0.38
225,MetaDrive-td3combine-expt_with_safe-leaky-adamw-in-q-weighted-corrected,92,138.41841687252963,226206,826,2454.7564539909363,,9.206643104553223,30.00074577331543,0.39
226,MetaDrive-td3combine-expt_with_safe-leaky-adamw-in-q-weighted-corrected,92,140.99919006640823,227752,828,2470.969178915024,,14.994709014892578,25.515331268310547,0.4
227,MetaDrive-td3combine-expt_with_safe-leaky-adamw-in-q-weighted-corrected,92,140.5109741503873,228290,830,2476.892847776413,,7.806426048278809,28.25281524658203,0.41
228,MetaDrive-td3combine-expt_with_safe-leaky-adamw-in-q-weighted-corrected,92,141.90808276384965,229892,832,2494.5666539669037,,3.5128016471862793,31.017913818359375,0.42
229,MetaDrive-td3combine-expt_with_safe-leaky-adamw-in-q-weighted-corrected,92,142.72354948932497,230893,833,2505.4565670490265,-33.018821716308594,4.875555992126465,33.04202651977539,0.42
230,MetaDrive-td3combine-expt_with_safe-leaky-adamw-in-q-weighted-corrected,92,140.46203511432094,231089,835,2507.643923997879,-27.824907302856445,9.426027297973633,27.908443450927734,0.42
231,MetaDrive-td3combine-expt_with_safe-leaky-adamw-in-q-weighted-corrected,92,144.4963456584261,232310,837,2520.641126871109,,8.795461654663086,29.7438907623291,0.43
232,MetaDrive-td3combine-expt_with_safe-leaky-adamw-in-q-weighted-corrected,92,146.44989336035462,233562,839,2533.9798181056976,,31.316360473632812,30.306848526000977,0.44
233,MetaDrive-td3combine-expt_with_safe-leaky-adamw-in-q-weighted-corrected,92,144.32736172824926,234859,842,2547.7242760658264,-26.162668228149414,7.01585578918457,26.465097427368164,0.43
234,MetaDrive-td3combine-expt_with_safe-leaky-adamw-in-q-weighted-corrected,92,143.56910159380743,235201,843,2551.4410061836243,-31.7727108001709,3.7854561805725098,31.436256408691406,0.43
235,MetaDrive-td3combine-expt_with_safe-leaky-adamw-in-q-weighted-corrected,92,143.83389900610078,236202,844,2562.0788412094116,,10.166078567504883,30.542936325073242,0.43
236,MetaDrive-td3combine-expt_with_safe-leaky-adamw-in-q-weighted-corrected,92,143.92037249603158,237203,845,2572.8756108283997,-25.38922691345215,8.30494213104248,25.993003845214844,0.42
237,MetaDrive-td3combine-expt_with_safe-leaky-adamw-in-q-weighted-corrected,92,141.2846418228146,238036,846,2581.8165378570557,,11.967196464538574,28.774856567382812,0.41
238,MetaDrive-td3combine-expt_with_safe-leaky-adamw-in-q-weighted-corrected,92,138.27496056941325,239628,849,2598.637732028961,,8.635126113891602,29.925243377685547,0.39
239,MetaDrive-td3combine-expt_with_safe-leaky-adamw-in-q-weighted-corrected,92,139.29955317631476,240533,850,2607.9866330623627,-36.93267822265625,25.050851821899414,37.59381866455078,0.4
240,MetaDrive-td3combine-expt_with_safe-leaky-adamw-in-q-weighted-corrected,92,139.4378461672931,241183,851,2615.0908539295197,-31.8364200592041,21.954998016357422,31.315834045410156,0.4
241,MetaDrive-td3combine-expt_with_safe-leaky-adamw-in-q-weighted-corrected,92,137.48185599560162,242184,852,2625.674355983734,,7.342518329620361,29.223255157470703,0.39
242,MetaDrive-td3combine-expt_with_safe-leaky-adamw-in-q-weighted-corrected,92,136.16153152848386,243185,853,2636.29536485672,-33.39109802246094,6.463253021240234,32.99198532104492,0.38
243,MetaDrive-td3combine-expt_with_safe-leaky-adamw-in-q-weighted-corrected,92,135.31307348771014,244555,855,2650.822546005249,-28.93316650390625,6.802241802215576,29.08789825439453,0.38
244,MetaDrive-td3combine-expt_with_safe-leaky-adamw-in-q-weighted-corrected,92,135.77259868544087,245838,857,2665.4660370349884,,5.314119338989258,32.64517593383789,0.38
245,MetaDrive-td3combine-expt_with_safe-leaky-adamw-in-q-weighted-corrected,92,138.07844789234468,246236,858,2670.095298051834,,8.078706741333008,29.609024047851562,0.39
246,MetaDrive-td3combine-expt_with_safe-leaky-adamw-in-q-weighted-corrected,92,134.98715743835712,247213,861,2681.098315000534,-27.961244583129883,10.28146743774414,27.966222763061523,0.38
247,MetaDrive-td3combine-expt_with_safe-leaky-adamw-in-q-weighted-corrected,92,136.40876407290784,248214,862,2692.002666950226,,9.218814849853516,28.118789672851562,0.37
248,MetaDrive-td3combine-expt_with_safe-leaky-adamw-in-q-weighted-corrected,92,132.3074660317768,249698,864,2707.837342977524,,7.986636161804199,35.2669677734375,0.36
249,MetaDrive-td3combine-expt_with_safe-leaky-adamw-in-q-weighted-corrected,92,131.90592482908812,250699,865,2718.6898469924927,-33.80335998535156,9.667352676391602,32.561134338378906,0.35
250,MetaDrive-td3combine-expt_with_safe-leaky-adamw-in-q-weighted-corrected,92,132.1155442552509,251700,866,2729.5652050971985,,11.90666675567627,31.44699478149414,0.35
251,MetaDrive-td3combine-expt_with_safe-leaky-adamw-in-q-weighted-corrected,92,131.5665895958564,252084,867,2733.5043551921844,,5.212454795837402,38.33933639526367,0.35
252,MetaDrive-td3combine-expt_with_safe-leaky-adamw-in-q-weighted-corrected,92,129.98940537638617,253255,869,2745.838706970215,-36.33376693725586,8.437895774841309,35.38686752319336,0.35
253,MetaDrive-td3combine-expt_with_safe-leaky-adamw-in-q-weighted-corrected,92,128.06298257047527,254256,870,2756.4931740760803,,6.847673416137695,30.580692291259766,0.34
254,MetaDrive-td3combine-expt_with_safe-leaky-adamw-in-q-weighted-corrected,92,129.0980828694319,255201,873,2766.6690340042114,-35.65833282470703,7.379881858825684,34.67354202270508,0.34
255,MetaDrive-td3combine-expt_with_safe-leaky-adamw-in-q-weighted-corrected,92,130.5951405816568,256202,874,2778.0318977832794,,15.295146942138672,22.578577041625977,0.34
256,MetaDrive-td3combine-expt_with_safe-leaky-adamw-in-q-weighted-corrected,92,129.48092107392037,257058,877,2787.5960388183594,,8.984270095825195,28.838563919067383,0.33
257,MetaDrive-td3combine-expt_with_safe-leaky-adamw-in-q-weighted-corrected,92,132.15810106061065,258091,879,2798.810483932495,-31.931177139282227,9.404022216796875,31.621469497680664,0.34
258,MetaDrive-td3combine-expt_with_safe-leaky-adamw-in-q-weighted-corrected,92,131.3687249624608,259092,880,2809.49120593071,,5.690516948699951,34.18479919433594,0.34
259,MetaDrive-td3combine-expt_with_safe-leaky-adamw-in-q-weighted-corrected,92,133.4343473518048,260599,883,2825.6071031093597,-32.71027755737305,9.738727569580078,32.16742706298828,0.34
260,MetaDrive-td3combine-expt_with_safe-leaky-adamw-in-q-weighted-corrected,92,131.0609228072105,261238,885,2832.5944409370422,,5.186279296875,35.37854766845703,0.33
261,MetaDrive-td3combine-expt_with_safe-leaky-adamw-in-q-weighted-corrected,92,131.8088138164201,262058,887,2841.5523178577423,,8.883787155151367,33.30049514770508,0.33
262,MetaDrive-td3combine-expt_with_safe-leaky-adamw-in-q-weighted-corrected,92,132.60868197831954,263416,889,2856.6098070144653,,6.047364234924316,27.85992431640625,0.33
263,MetaDrive-td3combine-expt_with_safe-leaky-adamw-in-q-weighted-corrected,92,132.77231054953242,264131,890,2864.3388528823853,-34.25006866455078,8.340925216674805,33.6089973449707,0.33
264,MetaDrive-td3combine-expt_with_safe-leaky-adamw-in-q-weighted-corrected,92,135.7631928985491,265414,893,2878.328207015991,,7.802510738372803,36.36615753173828,0.33
265,MetaDrive-td3combine-expt_with_safe-leaky-adamw-in-q-weighted-corrected,92,134.53117640286095,266294,894,2888.0103890895844,,19.06454086303711,33.08390808105469,0.33
266,MetaDrive-td3combine-expt_with_safe-leaky-adamw-in-q-weighted-corrected,92,134.8856523022726,267295,895,2898.9557189941406,-26.062692642211914,9.804079055786133,25.06752586364746,0.33
267,MetaDrive-td3combine-expt_with_safe-leaky-adamw-in-q-weighted-corrected,92,136.60100966485842,268096,897,2907.628788948059,,8.12037467956543,35.16107940673828,0.33
268,MetaDrive-td3combine-expt_with_safe-leaky-adamw-in-q-weighted-corrected,92,136.18527841192582,269191,899,2919.1344470977783,-33.68562316894531,7.130408763885498,32.60000991821289,0.33
269,MetaDrive-td3combine-expt_with_safe-leaky-adamw-in-q-weighted-corrected,92,135.19141712328735,270756,902,2936.154361009598,,14.601251602172852,33.529945373535156,0.33
270,MetaDrive-td3combine-expt_with_safe-leaky-adamw-in-q-weighted-corrected,92,133.95541679117446,271956,905,2949.009271144867,,5.851644515991211,29.54622459411621,0.33
271,MetaDrive-td3combine-expt_with_safe-leaky-adamw-in-q-weighted-corrected,92,133.94424569011866,272125,906,2950.8745510578156,-35.72965621948242,5.730376243591309,35.254024505615234,0.33
272,MetaDrive-td3combine-expt_with_safe-leaky-adamw-in-q-weighted-corrected,92,131.30959828737522,273347,909,2963.7994718551636,-31.36155128479004,8.37195110321045,30.761314392089844,0.31
273,MetaDrive-td3combine-expt_with_safe-leaky-adamw-in-q-weighted-corrected,92,131.9267342346846,274348,910,2974.9163241386414,,5.36563777923584,28.989992141723633,0.31
274,MetaDrive-td3combine-expt_with_safe-leaky-adamw-in-q-weighted-corrected,92,130.17154253002565,275349,911,2986.069760084152,-32.309043884277344,7.43162727355957,31.586650848388672,0.3
275,MetaDrive-td3combine-expt_with_safe-leaky-adamw-in-q-weighted-corrected,92,129.77516381396828,276457,913,2998.1682550907135,-31.213603973388672,21.04507827758789,29.803110122680664,0.3
276,MetaDrive-td3combine-expt_with_safe-leaky-adamw-in-q-weighted-corrected,92,131.25684389831176,277830,915,3013.02716588974,,2.916689872741699,32.17475128173828,0.29
277,MetaDrive-td3combine-expt_with_safe-leaky-adamw-in-q-weighted-corrected,92,131.37981388308125,278831,916,3024.195764064789,-30.42631721496582,5.3269805908203125,29.97081756591797,0.28
278,MetaDrive-td3combine-expt_with_safe-leaky-adamw-in-q-weighted-corrected,92,131.76248795319395,279399,917,3030.3644709587097,-32.83143615722656,8.74294662475586,31.739852905273438,0.29
279,MetaDrive-td3combine-expt_with_safe-leaky-adamw-in-q-weighted-corrected,92,130.97043353143962,280400,918,3041.3530769348145,,15.57948112487793,34.494441986083984,0.28
280,MetaDrive-td3combine-expt_with_safe-leaky-adamw-in-q-weighted-corrected,92,132.30929162120157,281788,920,3056.7002120018005,,9.258275985717773,28.8837833404541,0.28
281,MetaDrive-td3combine-expt_with_safe-leaky-adamw-in-q-weighted-corrected,92,129.31489225984518,282789,921,3067.683319091797,-29.879779815673828,16.34827995300293,29.052249908447266,0.27
282,MetaDrive-td3combine-expt_with_safe-leaky-adamw-in-q-weighted-corrected,92,126.50970289479211,283072,923,3070.831559896469,,13.239917755126953,29.27410888671875,0.26
283,MetaDrive-td3combine-expt_with_safe-leaky-adamw-in-q-weighted-corrected,92,124.48017274309572,284137,925,3082.0831990242004,-30.0147647857666,12.643560409545898,30.08438491821289,0.25
284,MetaDrive-td3combine-expt_with_safe-leaky-adamw-in-q-weighted-corrected,92,121.53423949696155,285217,929,3094.1399779319763,-29.78702735900879,3.546102523803711,29.578357696533203,0.24
285,MetaDrive-td3combine-expt_with_safe-leaky-adamw-in-q-weighted-corrected,92,121.97657401556462,286218,930,3105.118043899536,,8.224139213562012,30.466869354248047,0.23
286,MetaDrive-td3combine-expt_with_safe-leaky-adamw-in-q-weighted-corrected,92,121.38648903860766,287085,931,3114.4480550289154,-31.122840881347656,15.557870864868164,30.64474868774414,0.23
287,MetaDrive-td3combine-expt_with_safe-leaky-adamw-in-q-weighted-corrected,92,120.74092697123503,288176,933,3126.3849260807037,,15.142971992492676,35.74129867553711,0.23
288,MetaDrive-td3combine-expt_with_safe-leaky-adamw-in-q-weighted-corrected,92,122.37916237037798,289825,936,3144.615803003311,-25.649921417236328,11.193452835083008,25.513046264648438,0.23
289,MetaDrive-td3combine-expt_with_safe-leaky-adamw-in-q-weighted-corrected,92,121.8785018635927,290223,937,3149.0282390117645,-36.60350799560547,120.1746826171875,34.85357666015625,0.23
290,MetaDrive-td3combine-expt_with_safe-leaky-adamw-in-q-weighted-corrected,92,124.36154661358158,291341,940,3161.637223005295,-34.72319412231445,7.659902095794678,35.006126403808594,0.23
291,MetaDrive-td3combine-expt_with_safe-leaky-adamw-in-q-weighted-corrected,92,124.18965378219212,292342,941,3172.6609930992126,,7.056923866271973,36.36921310424805,0.23
292,MetaDrive-td3combine-expt_with_safe-leaky-adamw-in-q-weighted-corrected,92,124.47208279443846,293343,942,3183.9073820114136,-37.414527893066406,14.051340103149414,36.8486213684082,0.23
293,MetaDrive-td3combine-expt_with_safe-leaky-adamw-in-q-weighted-corrected,92,124.65296574344478,294344,943,3194.854255914688,,11.192869186401367,34.54641342163086,0.23
294,MetaDrive-td3combine-expt_with_safe-leaky-adamw-in-q-weighted-corrected,92,123.65674577453065,295345,944,3206.114212036133,-32.54576873779297,9.052665710449219,32.69913101196289,0.23
295,MetaDrive-td3combine-expt_with_safe-leaky-adamw-in-q-weighted-corrected,92,127.52238519884123,296286,946,3217.1199219226837,,7.202608108520508,27.735008239746094,0.25
296,MetaDrive-td3combine-expt_with_safe-leaky-adamw-in-q-weighted-corrected,92,124.35077411175347,297196,950,3227.791538000107,,7.201328277587891,33.16604232788086,0.24
297,MetaDrive-td3combine-expt_with_safe-leaky-adamw-in-q-weighted-corrected,92,123.64043528904494,298753,952,3244.7720971107483,-29.298763275146484,7.835566520690918,29.068340301513672,0.24
298,MetaDrive-td3combine-expt_with_safe-leaky-adamw-in-q-weighted-corrected,92,123.34278827606481,299754,953,3255.8155789375305,,15.6885986328125,30.132436752319336,0.24
299,MetaDrive-td3combine-expt_with_safe-leaky-adamw-in-q-weighted-corrected,92,123.15152316763299,300506,954,3264.908910036087,,10.971808433532715,26.507692337036133,0.24
300,MetaDrive-td3combine-expt_with_safe-leaky-adamw-in-q-weighted-corrected,92,123.02835377057339,301578,957,3277.0033621788025,,4.988232135772705,31.041576385498047,0.24
301,MetaDrive-td3combine-expt_with_safe-leaky-adamw-in-q-weighted-corrected,92,120.97163039806568,302326,959,3285.6118211746216,,58.722686767578125,35.13896179199219,0.23
302,MetaDrive-td3combine-expt_with_safe-leaky-adamw-in-q-weighted-corrected,92,119.5734876593179,303327,960,3296.875566005707,-28.900779724121094,6.424300670623779,27.910385131835938,0.22
303,MetaDrive-td3combine-expt_with_safe-leaky-adamw-in-q-weighted-corrected,91,119.63903042859855,304178,963,3306.6018691062927,,11.117935180664062,34.22255325317383,0.22
304,MetaDrive-td3combine-expt_with_safe-leaky-adamw-in-q-weighted-corrected,91,119.36485071587218,305458,965,3320.9473960399628,,10.378124237060547,30.0040225982666,0.22
305,MetaDrive-td3combine-expt_with_safe-leaky-adamw-in-q-weighted-corrected,91,119.79126734281493,306245,966,3329.287802219391,-34.30819320678711,5.583746910095215,33.72594451904297,0.23
306,MetaDrive-td3combine-expt_with_safe-leaky-adamw-in-q-weighted-corrected,91,119.00230768469419,307246,967,3340.4125561714172,,8.488454818725586,38.782527923583984,0.22
307,MetaDrive-td3combine-expt_with_safe-leaky-adamw-in-q-weighted-corrected,91,119.90241531175403,308532,970,3354.916067123413,,9.165084838867188,29.226730346679688,0.23
308,MetaDrive-td3combine-expt_with_safe-leaky-adamw-in-q-weighted-corrected,91,119.14446348854872,309533,971,3365.8656420707703,-32.15290069580078,6.779555797576904,30.866954803466797,0.22
309,MetaDrive-td3combine-expt_with_safe-leaky-adamw-in-q-weighted-corrected,91,121.9718911872803,310017,972,3371.4420459270477,-31.32859992980957,20.333114624023438,30.303760528564453,0.23
310,MetaDrive-td3combine-expt_with_safe-leaky-adamw-in-q-weighted-corrected,91,122.1292064863959,311406,974,3386.7351009845734,,10.496360778808594,31.823444366455078,0.24
311,MetaDrive-td3combine-expt_with_safe-leaky-adamw-in-q-weighted-corrected,91,121.69285703922814,312669,977,3400.5193099975586,-32.580867767333984,5.862630844116211,32.07207489013672,0.24
312,MetaDrive-td3combine-expt_with_safe-leaky-adamw-in-q-weighted-corrected,91,119.74388581016422,313670,978,3411.562033891678,,11.275169372558594,31.488941192626953,0.23
313,MetaDrive-td3combine-expt_with_safe-leaky-adamw-in-q-weighted-corrected,91,121.35797729265565,314671,979,3422.7037229537964,-33.47319030761719,8.747425079345703,32.95624542236328,0.23
314,MetaDrive-td3combine-expt_with_safe-leaky-adamw-in-q-weighted-corrected,91,121.57345815538291,315952,981,3437.247241973877,,44.53486251831055,34.712276458740234,0.24
315,MetaDrive-td3combine-expt_with_safe-leaky-adamw-in-q-weighted-corrected,91,123.60655461245962,316675,982,3445.300849914551,-32.28666687011719,9.474872589111328,31.975765228271484,0.25
316,MetaDrive-td3combine-expt_with_safe-leaky-adamw-in-q-weighted-corrected,91,123.00544631536118,317248,984,3451.6244201660156,,11.577688217163086,36.1508903503418,0.25
317,MetaDrive-td3combine-expt_with_safe-leaky-adamw-in-q-weighted-corrected,91,123.57909864868448,318731,986,3468.296014070511,-35.11807632446289,7.960690975189209,35.34531784057617,0.24
318,MetaDrive-td3combine-expt_with_safe-leaky-adamw-in-q-weighted-corrected,91,123.67929319596377,319732,987,3479.4481830596924,,7.518574237823486,34.552215576171875,0.24
319,MetaDrive-td3combine-expt_with_safe-leaky-adamw-in-q-weighted-corrected,91,123.49447463277492,320085,988,3483.557151079178,-31.52984619140625,4.298667907714844,31.47863006591797,0.24
320,MetaDrive-td3combine-expt_with_safe-leaky-adamw-in-q-weighted-corrected,91,124.68777690168059,321357,990,3497.461840867996,-31.603429794311523,13.323419570922852,30.718719482421875,0.24
321,MetaDrive-td3combine-expt_with_safe-leaky-adamw-in-q-weighted-corrected,91,124.86106209950148,322505,993,3510.799325942993,-35.48772048950195,10.940041542053223,35.71345901489258,0.25
322,MetaDrive-td3combine-expt_with_safe-leaky-adamw-in-q-weighted-corrected,91,125.89680708624267,323803,996,3525.9865851402283,-33.094234466552734,18.69312286376953,32.49346923828125,0.25
323,MetaDrive-td3combine-expt_with_safe-leaky-adamw-in-q-weighted-corrected,91,125.92607778507264,324794,997,3536.665858030319,,6.814478397369385,33.80324935913086,0.25
324,MetaDrive-td3combine-expt_with_safe-leaky-adamw-in-q-weighted-corrected,91,126.6465618439585,325795,998,3547.448765039444,-36.47471237182617,6.851156711578369,36.69822692871094,0.25
325,MetaDrive-td3combine-expt_with_safe-leaky-adamw-in-q-weighted-corrected,91,128.14215713643662,326226,999,3552.602196931839,,8.676769256591797,35.343875885009766,0.26
326,MetaDrive-td3combine-expt_with_safe-leaky-adamw-in-q-weighted-corrected,91,129.25386475213037,327634,1001,3568.1741251945496,,7.624151706695557,33.46195602416992,0.26
327,MetaDrive-td3combine-expt_with_safe-leaky-adamw-in-q-weighted-corrected,91,129.22716610516846,328635,1002,3579.212597131729,-33.51367950439453,10.051615715026855,32.91655731201172,0.26
328,MetaDrive-td3combine-expt_with_safe-leaky-adamw-in-q-weighted-corrected,91,129.4476943096737,329636,1003,3590.603973865509,,14.4528169631958,31.60702133178711,0.26
329,MetaDrive-td3combine-expt_with_safe-leaky-adamw-in-q-weighted-corrected,91,132.0105667873675,330512,1005,3600.664318084717,,35.54323959350586,32.65238952636719,0.27
330,MetaDrive-td3combine-expt_with_safe-leaky-adamw-in-q-weighted-corrected,91,131.69607110456923,331513,1006,3611.7768840789795,-41.23223876953125,5.4371562004089355,41.631553649902344,0.27
331,MetaDrive-td3combine-expt_with_safe-leaky-adamw-in-q-weighted-corrected,91,133.1147637308114,332514,1007,3623.0645530223846,,6.2030348777771,37.973052978515625,0.27
332,MetaDrive-td3combine-expt_with_safe-leaky-adamw-in-q-weighted-corrected,91,133.8460181704386,333515,1008,3634.8451130390167,-33.84521484375,6.458844184875488,33.466522216796875,0.27
333,MetaDrive-td3combine-expt_with_safe-leaky-adamw-in-q-weighted-corrected,91,135.30959474303938,334152,1009,3642.2725760936737,,6.621025085449219,34.97816467285156,0.28
334,MetaDrive-td3combine-expt_with_safe-leaky-adamw-in-q-weighted-corrected,91,135.69817191374855,335153,1010,3653.939038991928,-29.068321228027344,21.227249145507812,28.93132209777832,0.28
335,MetaDrive-td3combine-expt_with_safe-leaky-adamw-in-q-weighted-corrected,91,136.1565435510105,336127,1011,3664.425024986267,-30.34409523010254,17.08940887451172,30.27776336669922,0.29
336,MetaDrive-td3combine-expt_with_safe-leaky-adamw-in-q-weighted-corrected,91,133.83673739969913,337278,1013,3676.9600319862366,,7.576784133911133,33.27156448364258,0.28
337,MetaDrive-td3combine-expt_with_safe-leaky-adamw-in-q-weighted-corrected,91,132.17123359696882,338265,1014,3688.059066057205,-34.548858642578125,5.565601348876953,34.145259857177734,0.28
338,MetaDrive-td3combine-expt_with_safe-leaky-adamw-in-q-weighted-corrected,91,132.803098558962,339266,1015,3699.836364030838,,9.836414337158203,31.191112518310547,0.28
339,MetaDrive-td3combine-expt_with_safe-leaky-adamw-in-q-weighted-corrected,91,133.37353712634285,340714,1017,3716.4636931419373,,7.815636157989502,34.30506134033203,0.28
340,MetaDrive-td3combine-expt_with_safe-leaky-adamw-in-q-weighted-corrected,91,133.71475834712948,341207,1018,3722.1345641613007,-34.28812789916992,4.958750247955322,33.740543365478516,0.29
341,MetaDrive-td3combine-expt_with_safe-leaky-adamw-in-q-weighted-corrected,91,133.6353384278473,342089,1020,3732.638706922531,-33.68404006958008,12.212383270263672,33.56037521362305,0.29
342,MetaDrive-td3combine-expt_with_safe-leaky-adamw-in-q-weighted-corrected,91,138.14008612134808,343182,1022,3745.351965904236,,11.952842712402344,35.987361907958984,0.31
343,MetaDrive-td3combine-expt_with_safe-leaky-adamw-in-q-weighted-corrected,91,139.24900887768266,344183,1023,3756.6777279376984,-33.9538459777832,5.434106826782227,33.69626235961914,0.31
344,MetaDrive-td3combine-expt_with_safe-leaky-adamw-in-q-weighted-corrected,91,139.3512181757742,345184,1024,3767.6798961162567,,13.55044174194336,28.638376235961914,0.31
345,MetaDrive-td3combine-expt_with_safe-leaky-adamw-in-q-weighted-corrected,91,141.61476744759398,346638,1026,3783.6335010528564,,6.146275520324707,33.97136688232422,0.32
346,MetaDrive-td3combine-expt_with_safe-leaky-adamw-in-q-weighted-corrected,91,143.30899587089232,347632,1027,3794.468602180481,,9.597312927246094,37.37184143066406,0.33
347,MetaDrive-td3combine-expt_with_safe-leaky-adamw-in-q-weighted-corrected,91,145.0393742665434,348633,1028,3805.9893379211426,-35.04582977294922,10.274465560913086,34.51759338378906,0.33
348,MetaDrive-td3combine-expt_with_safe-leaky-adamw-in-q-weighted-corrected,91,148.54158000184125,349326,1029,3814.0730090141296,,8.048952102661133,35.921043395996094,0.34
349,MetaDrive-td3combine-expt_with_safe-leaky-adamw-in-q-weighted-corrected,91,146.69630953790758,350171,1030,3823.7370150089264,-41.22691345214844,14.226202011108398,42.06228256225586,0.34
350,MetaDrive-td3combine-expt_with_safe-leaky-adamw-in-q-weighted-corrected,91,145.73823190719213,351172,1031,3835.8656890392303,,7.938148498535156,36.18851852416992,0.33
351,MetaDrive-td3combine-expt_with_safe-leaky-adamw-in-q-weighted-corrected,91,147.0331485603821,352173,1032,3847.5502569675446,-37.74445343017578,9.803394317626953,37.27679443359375,0.33
352,MetaDrive-td3combine-expt_with_safe-leaky-adamw-in-q-weighted-corrected,91,146.6420950062594,353174,1033,3860.5035660266876,,8.802932739257812,29.546377182006836,0.33
353,MetaDrive-td3combine-expt_with_safe-leaky-adamw-in-q-weighted-corrected,91,146.56048057144923,354352,1035,3874.738770008087,,6.330644607543945,32.54781723022461,0.34
354,MetaDrive-td3combine-expt_with_safe-leaky-adamw-in-q-weighted-corrected,91,144.4216139050153,355076,1037,3882.9324560165405,,7.915337562561035,38.15968322753906,0.33
355,MetaDrive-td3combine-expt_with_safe-leaky-adamw-in-q-weighted-corrected,91,143.71073630938668,356077,1038,3894.0945479869843,-36.6693115234375,46.42390441894531,36.588653564453125,0.33
356,MetaDrive-td3combine-expt_with_safe-leaky-adamw-in-q-weighted-corrected,91,144.4392814526432,357567,1040,3911.2344059944153,-34.76458740234375,11.253753662109375,34.524261474609375,0.32
357,MetaDrive-td3combine-expt_with_safe-leaky-adamw-in-q-weighted-corrected,91,145.90346765254134,358568,1041,3922.4682779312134,,17.845813751220703,33.381195068359375,0.32
358,MetaDrive-td3combine-expt_with_safe-leaky-adamw-in-q-weighted-corrected,91,147.99639795437582,359569,1042,3933.845789909363,-32.43031692504883,9.916208267211914,32.88044357299805,0.32
359,MetaDrive-td3combine-expt_with_safe-leaky-adamw-in-q-weighted-corrected,91,148.6381296245743,360485,1043,3944.8807458877563,-27.114107131958008,5.569628715515137,26.11295509338379,0.32
360,MetaDrive-td3combine-expt_with_safe-leaky-adamw-in-q-weighted-corrected,91,152.173864798456,361321,1044,3954.3293199539185,-40.89371109008789,7.330094337463379,40.6175537109375,0.33
361,MetaDrive-td3combine-expt_with_safe-leaky-adamw-in-q-weighted-corrected,91,151.21522511716748,362322,1045,3965.2710239887238,,13.952278137207031,37.77509689331055,0.32
362,MetaDrive-td3combine-expt_with_safe-leaky-adamw-in-q-weighted-corrected,91,148.06488108844238,363743,1047,3981.002179145813,-31.702651977539062,5.636891841888428,31.72471046447754,0.31
363,MetaDrive-td3combine-expt_with_safe-leaky-adamw-in-q-weighted-corrected,91,150.07221018887773,364744,1048,3992.1379861831665,,17.2805118560791,30.940052032470703,0.31
364,MetaDrive-td3combine-expt_with_safe-leaky-adamw-in-q-weighted-corrected,91,150.0062770626575,365745,1049,4003.242255926132,-41.13654708862305,35.80483627319336,39.991390228271484,0.31
365,MetaDrive-td3combine-expt_with_safe-leaky-adamw-in-q-weighted-corrected,91,150.16970758898242,366746,1050,4014.790948152542,,14.354507446289062,37.97269058227539,0.31
366,MetaDrive-td3combine-expt_with_safe-leaky-adamw-in-q-weighted-corrected,91,150.8019737730382,367747,1051,4026.1867678165436,-29.610443115234375,6.1892194747924805,29.30838966369629,0.31
367,MetaDrive-td3combine-expt_with_safe-leaky-adamw-in-q-weighted-corrected,91,152.04640060234738,368748,1052,4037.5856239795685,,7.5150651931762695,30.41876792907715,0.31
368,MetaDrive-td3combine-expt_with_safe-leaky-adamw-in-q-weighted-corrected,91,155.44096972426306,369360,1053,4044.9594070911407,,35.555511474609375,39.28696823120117,0.32
369,MetaDrive-td3combine-expt_with_safe-leaky-adamw-in-q-weighted-corrected,91,154.58097992702184,370491,1055,4057.5850670337677,-26.216110229492188,14.799997329711914,26.321773529052734,0.31
370,MetaDrive-td3combine-expt_with_safe-leaky-adamw-in-q-weighted-corrected,91,156.2209482172656,371492,1056,4068.2280509471893,,7.537657737731934,42.12285232543945,0.31
371,MetaDrive-td3combine-expt_with_safe-leaky-adamw-in-q-weighted-corrected,91,154.75617168590853,372286,1057,4077.293601989746,,15.526519775390625,34.665443420410156,0.3
372,MetaDrive-td3combine-expt_with_safe-leaky-adamw-in-q-weighted-corrected,91,158.1409714016653,373037,1058,4086.2414729595184,-35.07590866088867,16.303945541381836,35.1065673828125,0.31
373,MetaDrive-td3combine-expt_with_safe-leaky-adamw-in-q-weighted-corrected,91,160.61455274277424,374023,1062,4097.640175104141,-34.878684997558594,17.179969787597656,34.06254577636719,0.32
374,MetaDrive-td3combine-expt_with_safe-leaky-adamw-in-q-weighted-corrected,91,157.70674462352812,375141,1064,4110.625317811966,-32.42253112792969,5.958241939544678,32.64078903198242,0.31
375,MetaDrive-td3combine-expt_with_safe-leaky-adamw-in-q-weighted-corrected,91,159.0133330883065,376050,1065,4121.198820114136,,8.659786224365234,31.872873306274414,0.32
376,MetaDrive-td3combine-expt_with_safe-leaky-adamw-in-q-weighted-corrected,91,160.1045554262,377975,1067,4142.450521945953,-37.08879089355469,34.40616989135742,36.659332275390625,0.32
377,MetaDrive-td3combine-expt_with_safe-leaky-adamw-in-q-weighted-corrected,91,160.04518346174243,378976,1068,4154.504197835922,,12.342626571655273,37.6573486328125,0.31
378,MetaDrive-td3combine-expt_with_safe-leaky-adamw-in-q-weighted-corrected,91,160.1433603599156,379601,1069,4161.636192083359,-33.72835159301758,7.863755226135254,34.21025085449219,0.31
379,MetaDrive-td3combine-expt_with_safe-leaky-adamw-in-q-weighted-corrected,91,160.2655316367786,380068,1070,4167.2412741184235,,8.988039016723633,32.76739501953125,0.31
380,MetaDrive-td3combine-expt_with_safe-leaky-adamw-in-q-weighted-corrected,91,156.78067369054727,381689,1073,4185.9430730342865,-36.01630783081055,17.863872528076172,35.08345413208008,0.3
381,MetaDrive-td3combine-expt_with_safe-leaky-adamw-in-q-weighted-corrected,91,157.17174528303812,382690,1074,4196.914927244186,,15.128889083862305,33.78130340576172,0.3
382,MetaDrive-td3combine-expt_with_safe-leaky-adamw-in-q-weighted-corrected,91,158.808842139769,383443,1075,4205.575766086578,-34.170528411865234,10.93848991394043,34.87651824951172,0.31
383,MetaDrive-td3combine-expt_with_safe-leaky-adamw-in-q-weighted-corrected,91,159.00629219475897,384444,1076,4217.621444225311,,66.46701049804688,32.97671890258789,0.31
384,MetaDrive-td3combine-expt_with_safe-leaky-adamw-in-q-weighted-corrected,91,160.7612933123885,385819,1078,4233.275974988937,-37.42348098754883,17.385501861572266,37.07271194458008,0.31
385,MetaDrive-td3combine-expt_with_safe-leaky-adamw-in-q-weighted-corrected,91,158.8074868411705,386428,1079,4240.773552894592,,13.771636962890625,35.70090103149414,0.31
386,MetaDrive-td3combine-expt_with_safe-leaky-adamw-in-q-weighted-corrected,91,159.3717790041878,387739,1081,4255.829140901566,-28.47187042236328,8.75547981262207,28.98308563232422,0.31
387,MetaDrive-td3combine-expt_with_safe-leaky-adamw-in-q-weighted-corrected,91,158.09825681980612,388731,1082,4267.070837974548,-35.81880569458008,186.68682861328125,32.518184661865234,0.3
388,MetaDrive-td3combine-expt_with_safe-leaky-adamw-in-q-weighted-corrected,91,159.42627619837359,389732,1083,4278.991797924042,,53.42350769042969,35.32600784301758,0.3
389,MetaDrive-td3combine-expt_with_safe-leaky-adamw-in-q-weighted-corrected,91,159.85199117439458,390733,1084,4290.709769964218,-45.83317565917969,3.2259297370910645,45.57960510253906,0.3
390,MetaDrive-td3combine-expt_with_safe-leaky-adamw-in-q-weighted-corrected,91,158.8267920653754,391267,1085,4296.596121788025,-33.45453643798828,7.240769386291504,33.51264190673828,0.31
391,MetaDrive-td3combine-expt_with_safe-leaky-adamw-in-q-weighted-corrected,91,161.75237950855654,392358,1087,4309.67444396019,,9.788835525512695,30.794925689697266,0.32
392,MetaDrive-td3combine-expt_with_safe-leaky-adamw-in-q-weighted-corrected,91,161.92015221926837,393261,1089,4320.356468915939,-29.92584228515625,11.568925857543945,29.23169708251953,0.33
393,MetaDrive-td3combine-expt_with_safe-leaky-adamw-in-q-weighted-corrected,91,160.80469332407992,394908,1092,4339.5847799777985,,15.613090515136719,35.14098358154297,0.32
394,MetaDrive-td3combine-expt_with_safe-leaky-adamw-in-q-weighted-corrected,90,159.7680417157247,395909,1093,4350.8527710437775,-33.59364318847656,7.551668167114258,33.49847412109375,0.31
395,MetaDrive-td3combine-expt_with_safe-leaky-adamw-in-q-weighted-corrected,90,160.08310620900488,396910,1094,4362.349761962891,,8.06716537475586,31.98990249633789,0.31
396,MetaDrive-td3combine-expt_with_safe-leaky-adamw-in-q-weighted-corrected,90,162.40315261004682,397484,1095,4369.0844621658325,,22.644506454467773,39.670108795166016,0.32
397,MetaDrive-td3combine-expt_with_safe-leaky-adamw-in-q-weighted-corrected,90,164.4990262966288,398177,1096,4376.955481052399,-31.424739837646484,11.742265701293945,31.70673179626465,0.33
398,MetaDrive-td3combine-expt_with_safe-leaky-adamw-in-q-weighted-corrected,90,164.41679179950495,399871,1098,4395.290588855743,-33.79331588745117,75.15304565429688,33.30268096923828,0.32
