TanmayH/CS269-RL-project-code/MetaDrive-test-adamW/td3/progress.csv
,log_dir,frame_per_second,episode_reward,total_steps,total_episodes,total_time,target_q,actor_loss,critic_loss,success_rate
0,MetaDrive-test-adamW,232,11.751540816620953,2001,2,8.611605882644653,,,,0.0
1,MetaDrive-test-adamW,217,8.808264040692272,3709,4,17.059484004974365,,,,0.0
2,MetaDrive-test-adamW,204,7.501941051432989,5000,6,24.41597008705139,0.008570792153477669,,0.05117807537317276,0.0
3,MetaDrive-test-adamW,144,-0.046885256543815576,6736,35,46.68731999397278,0.029459962621331215,,0.005678001791238785,0.0
4,MetaDrive-test-adamW,136,-0.34576146964184046,7503,37,54.98251032829285,-0.04385676607489586,-0.010236578062176704,0.7888392210006714,0.0
5,MetaDrive-test-adamW,132,-0.39232492941897257,8504,38,64.39355778694153,0.03595777973532677,,0.008845213800668716,0.0
6,MetaDrive-test-adamW,128,-0.32293348595698645,9505,39,73.95971322059631,-0.1264456808567047,-0.009599588811397552,1.5398831367492676,0.0
7,MetaDrive-test-adamW,127,-0.37338584970520916,10221,40,80.1184229850769,0.012159960344433784,0.020250238478183746,0.005344899371266365,0.0
8,MetaDrive-test-adamW,120,-0.7370048310769932,11632,52,96.48246431350708,-0.0413135290145874,,0.6914917230606079,0.0
9,MetaDrive-test-adamW,115,-0.39444140680093376,12770,54,110.56886792182922,0.09965905547142029,,0.014490729197859764,0.0
10,MetaDrive-test-adamW,114,-0.25104490842728217,13289,55,115.56050539016724,0.10468711704015732,-0.10548585653305054,0.005953055806457996,0.0
11,MetaDrive-test-adamW,113,0.5018012761917517,14008,61,123.82747960090637,0.13496944308280945,,0.01892794668674469,0.0
12,MetaDrive-test-adamW,108,1.1696668943909945,15123,73,139.40347456932068,0.2027280032634735,-0.22077572345733643,0.03713513910770416,0.0
13,MetaDrive-test-adamW,105,1.7187999074388602,16034,85,151.28839635849,0.26497575640678406,,0.04568970948457718,0.0
14,MetaDrive-test-adamW,104,2.2665025671220467,17056,97,163.9656000137329,0.4180110692977905,,0.01780550554394722,0.0
15,MetaDrive-test-adamW,102,1.902178384052856,18096,111,176.0173943042755,0.5369658470153809,,0.03149278461933136,0.0
16,MetaDrive-test-adamW,101,2.8933935204655743,19783,119,194.6896951198578,0.6048775911331177,-0.7483387589454651,0.9988925457000732,0.0
17,MetaDrive-test-adamW,101,3.261731647775046,20001,123,197.33765625953674,0.7472610473632812,-0.756277859210968,0.019214387983083725,0.0
18,MetaDrive-test-adamW,100,4.77812705394739,21662,128,216.07411885261536,0.9988774657249451,,0.031369149684906006,0.0
19,MetaDrive-test-adamW,99,6.122909316507995,22238,132,224.11621165275574,1.0582430362701416,,0.02854914590716362,0.0
20,MetaDrive-test-adamW,98,6.056858411044585,23340,134,236.59255695343018,1.2047226428985596,,0.05251852422952652,0.0
21,MetaDrive-test-adamW,98,7.7704883813744985,24027,142,244.95597338676453,1.2341547012329102,-1.3246004581451416,0.2712068557739258,0.0
22,MetaDrive-test-adamW,97,11.59955498770063,25001,153,257.0843827724457,1.6203384399414062,-1.7746608257293701,0.023542171344161034,0.0
23,MetaDrive-test-adamW,95,14.802086023157312,26025,168,271.1162977218628,1.7465169429779053,-1.9437378644943237,0.3842473030090332,0.0
24,MetaDrive-test-adamW,94,18.243052304019834,27056,184,285.20433926582336,2.110239028930664,,1.1728339195251465,0.0
25,MetaDrive-test-adamW,93,22.316445961573308,28078,198,299.6295988559723,2.793710470199585,,1.246900200843811,0.0
26,MetaDrive-test-adamW,92,29.053447198348625,29050,208,314.3927595615387,3.152160882949829,,0.17670154571533203,0.0
27,MetaDrive-test-adamW,91,33.554308623830615,30002,222,327.5526509284973,3.3155007362365723,,2.988630533218384,0.0
28,MetaDrive-test-adamW,90,35.830297202478626,31055,237,341.31180214881897,4.110274791717529,-4.279329299926758,0.13114269077777863,0.0
29,MetaDrive-test-adamW,90,38.79336919024646,32052,249,354.9448263645172,4.609624862670898,,5.469576835632324,0.0
30,MetaDrive-test-adamW,89,46.01978928928624,33121,259,369.25656032562256,5.752785682678223,-5.955260753631592,0.1552819311618805,0.0
31,MetaDrive-test-adamW,89,49.28541470688326,34089,270,381.85422825813293,6.590602874755859,-6.856617450714111,0.4657864272594452,0.0
32,MetaDrive-test-adamW,88,54.146284048311784,35011,280,393.39721727371216,6.423139572143555,-6.672913074493408,10.652250289916992,0.0
33,MetaDrive-test-adamW,88,59.364413187353684,36063,291,405.38179063796997,7.439306259155273,-7.736963272094727,0.2894911468029022,0.0
34,MetaDrive-test-adamW,88,61.12734530799796,37106,302,420.46571016311646,8.730518341064453,,6.642611503601074,0.0
35,MetaDrive-test-adamW,88,60.71096131810649,38046,313,431.67128324508667,8.933982849121094,,6.702981948852539,0.0
36,MetaDrive-test-adamW,87,65.03431209190774,39052,323,444.48238372802734,10.631261825561523,,0.33987781405448914,0.0
37,MetaDrive-test-adamW,87,66.89899861752797,40088,336,457.3855562210083,11.205366134643555,,0.4848879277706146,0.0
38,MetaDrive-test-adamW,87,67.1980828381031,41042,347,469.6356658935547,11.237882614135742,,4.565282821655273,0.0
39,MetaDrive-test-adamW,87,63.40603739401629,42060,360,481.47751569747925,12.464762687683105,,11.500100135803223,0.0
40,MetaDrive-test-adamW,87,62.817347789399825,43061,372,493.5703158378601,13.6527099609375,-14.001692771911621,16.444847106933594,0.0
41,MetaDrive-test-adamW,87,60.15722231091182,44094,385,506.2754113674164,14.826173782348633,,0.7999858856201172,0.0
42,MetaDrive-test-adamW,86,57.416425822499114,45028,397,518.642124414444,14.527679443359375,,1.6598769426345825,0.0
43,MetaDrive-test-adamW,86,55.721010929663954,46039,409,530.9906578063965,15.686546325683594,-15.872213363647461,1.2098015546798706,0.0
44,MetaDrive-test-adamW,86,55.26323662186736,47076,420,543.5099093914032,16.649545669555664,,0.4278877377510071,0.0
45,MetaDrive-test-adamW,86,53.857902666324684,48027,433,555.5575361251831,16.557884216308594,-16.54619026184082,1.4901763200759888,0.0
46,MetaDrive-test-adamW,86,52.96362108481775,49124,446,569.995630979538,18.55204963684082,,2.8986339569091797,0.0
47,MetaDrive-test-adamW,86,54.65891522479153,50031,456,581.1763381958008,19.69070816040039,-19.65283966064453,2.067660093307495,0.0
48,MetaDrive-test-adamW,86,56.10780907921545,51089,468,593.6712944507599,21.295976638793945,-21.38713264465332,2.4333276748657227,0.0
49,MetaDrive-test-adamW,85,56.74551711506775,52052,479,607.270322561264,18.986072540283203,,24.712692260742188,0.0
50,MetaDrive-test-adamW,85,58.62428111887935,53039,490,619.2534501552582,20.70966339111328,-21.130081176757812,1.6588177680969238,0.0
51,MetaDrive-test-adamW,85,60.14973183183486,54048,500,631.3672766685486,23.114849090576172,,13.995850563049316,0.0
52,MetaDrive-test-adamW,85,61.0618508135629,55066,511,645.1873371601105,20.590198516845703,,3.828784227371216,0.0
53,MetaDrive-test-adamW,85,63.84871761772918,56037,518,657.8442807197571,22.835758209228516,-23.572458267211914,65.1467056274414,0.0
54,MetaDrive-test-adamW,85,67.29535773998599,57014,525,670.103098154068,23.675315856933594,,1.480260968208313,0.0
55,MetaDrive-test-adamW,84,70.8133336750423,58029,535,683.6767616271973,23.79608154296875,-23.690135955810547,2.8324830532073975,0.0
56,MetaDrive-test-adamW,84,72.4035861948277,59002,545,695.2935490608215,24.097797393798828,,2.4634737968444824,0.0
57,MetaDrive-test-adamW,84,72.66906499434954,60055,554,709.0698885917664,23.797466278076172,-24.528911590576172,33.492225646972656,0.0
58,MetaDrive-test-adamW,84,75.0040107929127,61100,560,725.4325215816498,26.980998992919922,,1.593590259552002,0.0
59,MetaDrive-test-adamW,84,77.47590901262477,62073,567,738.4948863983154,24.241878509521484,-24.374534606933594,11.62018871307373,0.0
60,MetaDrive-test-adamW,83,80.90019608620382,63265,573,754.4647340774536,25.28653335571289,-26.284576416015625,14.992513656616211,0.01
61,MetaDrive-test-adamW,83,82.59873372279407,64011,580,763.3157699108124,26.181774139404297,-26.044414520263672,1.6169270277023315,0.01
62,MetaDrive-test-adamW,83,83.70505491180835,65065,589,778.9993329048157,26.550750732421875,-27.53626823425293,4.904885768890381,0.01
63,MetaDrive-test-adamW,83,87.06599078057451,66024,596,791.4202036857605,26.823429107666016,,39.878108978271484,0.02
64,MetaDrive-test-adamW,83,88.99515641782173,67106,604,805.2640526294708,26.86058807373047,,10.323284149169922,0.02
65,MetaDrive-test-adamW,83,92.66072640790902,68043,609,817.8016188144684,26.98162269592285,-27.665809631347656,11.150360107421875,0.02
66,MetaDrive-test-adamW,83,94.68531941069956,69040,614,830.9186379909515,30.87111473083496,,3.4042489528656006,0.03
67,MetaDrive-test-adamW,82,96.67236475862467,70356,616,850.7885200977325,29.23957061767578,,5.58247184753418,0.03
68,MetaDrive-test-adamW,82,98.58990747107735,71038,618,860.6640424728394,25.288673400878906,,36.920127868652344,0.04
69,MetaDrive-test-adamW,82,101.7800058231357,72024,622,875.4353682994843,29.194530487060547,,2.9863569736480713,0.04
70,MetaDrive-test-adamW,82,102.03632385235473,73141,629,891.1858179569244,28.854206085205078,-29.069438934326172,23.262147903442383,0.05
71,MetaDrive-test-adamW,82,107.40284067407063,74403,634,906.7352907657623,30.079221725463867,-30.628585815429688,6.534650802612305,0.06
72,MetaDrive-test-adamW,81,110.4336000405346,75168,636,916.9638390541077,29.371334075927734,,9.818105697631836,0.07
73,MetaDrive-test-adamW,81,113.67419631611091,76078,640,929.6184651851654,31.506681442260742,,44.64362335205078,0.07
74,MetaDrive-test-adamW,81,117.95577719683871,77449,645,949.0540685653687,29.51144027709961,-30.8845272064209,2.485356330871582,0.07
75,MetaDrive-test-adamW,81,118.51040549104965,78502,652,961.6951560974121,28.3568115234375,,5.86737585067749,0.08
76,MetaDrive-test-adamW,81,121.14484897934142,79196,655,970.82892537117,32.46620559692383,,14.313149452209473,0.08
77,MetaDrive-test-adamW,81,123.19560832874724,80103,659,985.2014961242676,31.489181518554688,-31.754871368408203,13.44688892364502,0.08
78,MetaDrive-test-adamW,81,122.70726746472921,81155,665,996.6516230106354,33.361915588378906,-33.69734191894531,3.953449010848999,0.1
79,MetaDrive-test-adamW,81,126.3944887886336,82259,670,1011.8656823635101,34.146339416503906,-34.5694694519043,23.465652465820312,0.11
80,MetaDrive-test-adamW,81,125.23621742679721,83659,675,1029.7903056144714,35.28956604003906,-35.94670104980469,2.2087273597717285,0.1
81,MetaDrive-test-adamW,81,124.60868293032294,84020,679,1035.15056848526,31.6355037689209,,65.61222839355469,0.1
82,MetaDrive-test-adamW,81,128.8549725219724,85001,682,1048.5613851547241,31.773418426513672,-31.80166244506836,23.47295379638672,0.11
83,MetaDrive-test-adamW,80,133.06323213401558,86247,686,1065.9697477817535,32.3592529296875,-33.02737045288086,59.39763641357422,0.12
84,MetaDrive-test-adamW,80,134.943471096838,87046,687,1079.3755190372467,33.3842887878418,,18.48150634765625,0.12
85,MetaDrive-test-adamW,80,137.1600091213518,88375,693,1094.779598236084,31.57074737548828,-31.787094116210938,4.7036237716674805,0.14
86,MetaDrive-test-adamW,80,138.18243609557413,89410,696,1108.6395304203033,34.38275909423828,,3.943678379058838,0.14
87,MetaDrive-test-adamW,80,141.1531345611242,90817,698,1126.8511235713959,33.4867057800293,-33.87512969970703,5.005302429199219,0.14
88,MetaDrive-test-adamW,80,141.2495327596923,91084,700,1129.5817301273346,32.85902404785156,,39.90238571166992,0.14
89,MetaDrive-test-adamW,80,141.56715848249777,92072,705,1139.845769405365,35.91363525390625,,3.5820083618164062,0.15
90,MetaDrive-test-adamW,80,143.55776443133544,93933,709,1167.631961107254,32.31744384765625,-32.42314147949219,5.429007530212402,0.16
91,MetaDrive-test-adamW,80,143.8843436669893,94300,710,1172.5558853149414,34.55109405517578,,2.632913589477539,0.16
92,MetaDrive-test-adamW,80,140.85925481648883,95035,715,1181.660237312317,36.25829315185547,-36.65740966796875,62.13975524902344,0.15
93,MetaDrive-test-adamW,80,142.7372015016832,96690,718,1204.385627746582,36.53072738647461,,5.640783309936523,0.14
94,MetaDrive-test-adamW,80,142.05229467363986,97318,720,1212.4766640663147,33.42701721191406,,65.01820373535156,0.14
95,MetaDrive-test-adamW,80,145.0919454848719,98187,724,1222.5407485961914,34.56795883178711,-34.529422760009766,4.718503952026367,0.16
96,MetaDrive-test-adamW,80,147.97142933654175,99014,726,1237.2826566696167,34.24383544921875,,8.536251068115234,0.16
97,MetaDrive-test-adamW,79,147.8738877130039,100011,730,1252.163157939911,35.94281768798828,-37.04304504394531,58.146087646484375,0.16
98,MetaDrive-test-adamW,79,146.83710586280367,101151,734,1267.0651314258575,36.12146759033203,-36.53794860839844,2.5980072021484375,0.16
99,MetaDrive-test-adamW,79,146.4993359212618,102186,738,1281.582133769989,38.742279052734375,,9.358565330505371,0.15
100,MetaDrive-test-adamW,79,147.7190952201283,103340,741,1297.77117395401,36.92738342285156,,28.202375411987305,0.16
101,MetaDrive-test-adamW,79,149.87157874846247,104040,743,1306.451583623886,33.920265197753906,,4.953136920928955,0.17
102,MetaDrive-test-adamW,79,149.98309540509467,105617,747,1327.1634771823883,38.48259735107422,-38.12052917480469,6.50767707824707,0.18
103,MetaDrive-test-adamW,79,152.99932826372375,106354,749,1336.8085062503815,37.314048767089844,,3.847445487976074,0.18
104,MetaDrive-test-adamW,79,156.84198881300748,107769,751,1355.053230524063,38.36882781982422,-38.962303161621094,5.364964485168457,0.19
105,MetaDrive-test-adamW,79,156.79208132367302,108571,752,1365.241726398468,36.42644119262695,-37.14459991455078,14.599546432495117,0.19
106,MetaDrive-test-adamW,79,157.464935665094,109712,754,1379.8143138885498,36.1068000793457,,7.149507999420166,0.19
107,MetaDrive-test-adamW,79,155.3892557418091,110420,757,1390.0307512283325,37.071075439453125,,24.382808685302734,0.2
108,MetaDrive-test-adamW,79,155.82063593026822,111530,759,1408.3813478946686,34.45475769042969,,42.166969299316406,0.2
109,MetaDrive-test-adamW,79,158.32349495519938,112195,762,1415.967102766037,37.69101333618164,-37.527984619140625,41.55644607543945,0.21
110,MetaDrive-test-adamW,79,159.94242154449776,113389,766,1429.2265911102295,38.74786376953125,-39.57283020019531,15.782064437866211,0.21
111,MetaDrive-test-adamW,79,162.96458116413223,114159,768,1440.0076298713684,34.308753967285156,-34.944175720214844,3.7068374156951904,0.22
112,MetaDrive-test-adamW,79,163.58111977595865,115160,769,1454.6661069393158,36.19774627685547,,9.12807846069336,0.22
113,MetaDrive-test-adamW,79,163.09792535343172,116816,774,1475.4490222930908,38.01582336425781,,37.06058883666992,0.21
114,MetaDrive-test-adamW,79,162.7625999215969,117817,775,1490.51327085495,37.03484344482422,-37.58034133911133,5.699376583099365,0.21
115,MetaDrive-test-adamW,78,165.24474338553642,118220,776,1496.777536392212,35.31377410888672,,6.424389839172363,0.22
116,MetaDrive-test-adamW,78,166.43820261818118,119115,780,1509.8084092140198,39.726661682128906,-40.648250579833984,3.4393677711486816,0.22
117,MetaDrive-test-adamW,78,166.48462110393666,120290,783,1526.8299117088318,40.490623474121094,,7.122556686401367,0.22
118,MetaDrive-test-adamW,78,170.14701023631872,121391,785,1540.6693851947784,36.90656280517578,-37.48162078857422,4.536949634552002,0.24
119,MetaDrive-test-adamW,78,167.5232422652129,122033,787,1551.488361120224,40.08171844482422,-41.15599060058594,5.711258411407471,0.23
120,MetaDrive-test-adamW,78,163.86326413274762,123050,794,1563.702481508255,34.69798278808594,,73.5508041381836,0.21
121,MetaDrive-test-adamW,78,164.68599369054985,124051,795,1579.6390380859375,35.460670471191406,-35.36644744873047,4.449345588684082,0.21
122,MetaDrive-test-adamW,78,161.90510132939488,125274,800,1594.539050579071,39.09014892578125,,4.070353984832764,0.21
123,MetaDrive-test-adamW,78,160.56069848556285,126057,804,1604.727326631546,35.79265213012695,-36.54256820678711,3.8391623497009277,0.2
124,MetaDrive-test-adamW,78,163.60843117070428,127063,806,1617.8960673809052,38.925086975097656,-39.314144134521484,58.51853942871094,0.22
125,MetaDrive-test-adamW,78,165.8741377174087,128534,809,1641.608639240265,37.39604949951172,,47.852317810058594,0.22
126,MetaDrive-test-adamW,78,167.72703930536534,129089,810,1648.1641020774841,41.27849578857422,-41.26018524169922,6.442984580993652,0.23
127,MetaDrive-test-adamW,78,171.71767516509098,130580,813,1664.5835490226746,35.34730529785156,,3.301264762878418,0.24
128,MetaDrive-test-adamW,78,172.37555617527605,131267,816,1674.1525626182556,35.76220703125,-36.613765716552734,5.190271854400635,0.24
129,MetaDrive-test-adamW,78,171.51577548971312,132268,817,1686.8500592708588,38.72397232055664,,8.904067993164062,0.24
130,MetaDrive-test-adamW,78,169.74666355853398,133046,819,1698.0165388584137,41.554443359375,,5.802943229675293,0.25
131,MetaDrive-test-adamW,78,173.66596668341612,134955,821,1723.1734294891357,40.2787971496582,-39.675262451171875,6.341721534729004,0.25
132,MetaDrive-test-adamW,78,173.15274934063754,135315,822,1726.8963875770569,35.134735107421875,-35.169132232666016,23.364103317260742,0.25
133,MetaDrive-test-adamW,78,174.51458576974332,136758,826,1750.0821800231934,35.824951171875,,15.329951286315918,0.25
134,MetaDrive-test-adamW,78,171.8826891799455,137306,829,1755.6619234085083,38.60173797607422,,5.422746181488037,0.24
135,MetaDrive-test-adamW,78,175.58003246221728,138216,832,1768.126861333847,38.62153625488281,,12.936800003051758,0.25
136,MetaDrive-test-adamW,78,176.17247748114943,139217,833,1781.2697958946228,40.712589263916016,-41.54153060913086,9.37030029296875,0.24
137,MetaDrive-test-adamW,78,179.54753634268724,140877,836,1801.7422859668732,36.1219596862793,-35.95525360107422,8.355352401733398,0.26
138,MetaDrive-test-adamW,78,178.89322409486005,141382,838,1806.7142736911774,39.4453239440918,,4.348013401031494,0.27
139,MetaDrive-test-adamW,78,179.60061730734617,142328,840,1818.5170764923096,35.072601318359375,,4.626394748687744,0.27
140,MetaDrive-test-adamW,78,180.15797218987052,143329,841,1836.8334794044495,34.76947021484375,-34.3602294921875,7.172978401184082,0.27
141,MetaDrive-test-adamW,78,181.72908188105828,144265,843,1848.157166481018,39.01884078979492,-39.00124740600586,7.33577823638916,0.27
142,MetaDrive-test-adamW,77,180.52396867860145,145266,844,1867.4508481025696,37.04838562011719,,19.536903381347656,0.26
143,MetaDrive-test-adamW,77,184.98144819101879,146624,847,1886.599782705307,40.08783721923828,,11.774476051330566,0.28
144,MetaDrive-test-adamW,77,184.4818238465724,147304,849,1894.6874046325684,39.78999710083008,,4.00132942199707,0.29
145,MetaDrive-test-adamW,77,183.3236155717236,148110,851,1905.9371209144592,42.06165313720703,,9.117380142211914,0.29
146,MetaDrive-test-adamW,77,183.54332424461435,149361,853,1926.1360170841217,37.56096649169922,-37.85637664794922,12.03887939453125,0.28
147,MetaDrive-test-adamW,77,185.1868475260794,150076,855,1934.357365846634,38.097320556640625,,9.37576961517334,0.29
148,MetaDrive-test-adamW,77,189.627757193138,151976,858,1964.4417080879211,36.8331184387207,,4.736432075500488,0.29
149,MetaDrive-test-adamW,77,190.74709787367655,152462,859,1970.3206157684326,36.06817626953125,,38.444339752197266,0.3
150,MetaDrive-test-adamW,77,194.1352871497555,153404,861,1982.4010245800018,34.954002380371094,,29.565462112426758,0.3
151,MetaDrive-test-adamW,77,191.76191678815613,154023,863,1990.2067277431488,34.254722595214844,-34.682106018066406,25.790592193603516,0.29
152,MetaDrive-test-adamW,77,193.1875424881722,155560,867,2012.0507462024689,37.78575134277344,,6.089591979980469,0.3
153,MetaDrive-test-adamW,77,194.71884963592314,156306,868,2023.8450524806976,39.048919677734375,,13.198962211608887,0.3
154,MetaDrive-test-adamW,77,196.84936739469754,157269,871,2035.6906096935272,38.82444381713867,-39.94490051269531,5.20159387588501,0.31
155,MetaDrive-test-adamW,77,200.0519515245722,158150,873,2048.139827489853,37.09435272216797,,6.110307693481445,0.32
156,MetaDrive-test-adamW,77,202.09158226126445,159458,876,2063.598427772522,39.59816360473633,,12.339964866638184,0.33
157,MetaDrive-test-adamW,77,203.52837208750728,160155,877,2073.773248195648,37.25966262817383,-36.96662139892578,19.7165584564209,0.34
158,MetaDrive-test-adamW,77,207.19442674329778,161797,879,2096.3403441905975,38.8350830078125,-38.24171829223633,5.930299282073975,0.35
159,MetaDrive-test-adamW,77,208.49784407768323,162281,880,2101.23077583313,39.77936553955078,-40.2836799621582,6.360447883605957,0.36
160,MetaDrive-test-adamW,77,210.21647522299295,163468,882,2118.0704975128174,36.192787170410156,,10.454080581665039,0.37
161,MetaDrive-test-adamW,77,212.2981497633601,164053,883,2124.5532219409943,40.02296447753906,-40.6290397644043,19.62826156616211,0.38
162,MetaDrive-test-adamW,77,207.29899565936972,165070,887,2136.3789205551147,36.96512985229492,,4.555517673492432,0.36
163,MetaDrive-test-adamW,77,211.69729078792264,166182,890,2147.9740328788757,36.89463806152344,,22.029115676879883,0.38
164,MetaDrive-test-adamW,77,213.33441397541637,167234,892,2166.3571355342865,38.42084503173828,,13.717392921447754,0.38
165,MetaDrive-test-adamW,77,218.7527900687176,168500,894,2182.997638940811,40.758544921875,,5.719067096710205,0.39
166,MetaDrive-test-adamW,77,221.459000943621,169384,897,2195.436121702194,36.696876525878906,,7.315187931060791,0.39
167,MetaDrive-test-adamW,77,222.7193038667188,170067,899,2202.990602493286,42.520050048828125,-43.40986251831055,100.7894287109375,0.4
168,MetaDrive-test-adamW,77,222.9665992597941,171069,902,2218.2579295635223,39.19775390625,-40.064754486083984,32.02379608154297,0.4
169,MetaDrive-test-adamW,76,226.32074563990514,172231,904,2237.317859649658,36.90106201171875,-36.75999450683594,5.256661415100098,0.41
170,MetaDrive-test-adamW,76,225.4186627355981,173171,906,2251.4155416488647,34.47540283203125,-35.17431640625,7.832596302032471,0.4
171,MetaDrive-test-adamW,76,225.09408010323813,174417,909,2266.5804591178894,38.930477142333984,-40.43779754638672,7.946769714355469,0.41
172,MetaDrive-test-adamW,76,223.82618712400924,175470,911,2281.880798101425,41.066749572753906,,7.063346862792969,0.4
173,MetaDrive-test-adamW,76,222.45442786840894,176190,914,2292.08970451355,38.97397232055664,,5.52375602722168,0.4
174,MetaDrive-test-adamW,76,222.3557212950599,177277,918,2304.055654525757,39.1236572265625,-40.098087310791016,4.726002216339111,0.41
175,MetaDrive-test-adamW,77,219.7897919114325,178019,921,2311.7887818813324,41.26678466796875,-41.962833404541016,100.23030090332031,0.42
176,MetaDrive-test-adamW,77,221.945495017686,179190,924,2326.0840990543365,41.54150390625,,3.7775845527648926,0.43
177,MetaDrive-test-adamW,77,221.061219748243,180423,926,2341.6383035182953,40.00386428833008,-41.02391052246094,4.841360092163086,0.43
178,MetaDrive-test-adamW,77,227.1846610595542,181496,928,2353.4762670993805,40.45696258544922,,5.269809722900391,0.45
179,MetaDrive-test-adamW,77,225.97412386040688,182093,930,2361.0282270908356,39.8848991394043,-40.41847610473633,5.861483573913574,0.45
180,MetaDrive-test-adamW,77,224.04820534368437,183589,934,2379.6414210796356,38.167076110839844,-38.116554260253906,3.953981399536133,0.45
181,MetaDrive-test-adamW,77,227.359488219326,184321,935,2393.0071983337402,39.26123809814453,-39.310359954833984,5.07574462890625,0.46
182,MetaDrive-test-adamW,77,227.8584338082824,185170,937,2404.352515220642,43.22711944580078,,3.386554718017578,0.46
183,MetaDrive-test-adamW,76,225.57940457996926,186859,942,2427.4320356845856,38.75016784667969,-38.886741638183594,4.687867164611816,0.45
184,MetaDrive-test-adamW,77,222.68023418405383,187316,944,2432.16455411911,37.78388977050781,,42.27699661254883,0.45
185,MetaDrive-test-adamW,76,225.71375287011725,188847,946,2452.829560995102,41.92955017089844,-42.73432159423828,4.213754653930664,0.45
186,MetaDrive-test-adamW,76,225.89268697740306,189602,948,2463.3331367969513,36.066959381103516,,11.944782257080078,0.45
187,MetaDrive-test-adamW,76,226.2794428349989,190331,949,2473.1215546131134,40.6946907043457,-41.583683013916016,6.694074630737305,0.45
188,MetaDrive-test-adamW,76,230.3410411073341,191022,950,2482.764834880829,35.289615631103516,,62.50651550292969,0.46
189,MetaDrive-test-adamW,76,228.8402763084008,192443,954,2501.8364520072937,34.11238098144531,-34.68439483642578,12.090237617492676,0.46
190,MetaDrive-test-adamW,76,233.37123662781948,193423,955,2518.158639192581,39.2712287902832,-39.20832061767578,9.53647232055664,0.47
191,MetaDrive-test-adamW,76,234.1532833550177,194218,957,2528.2833573818207,34.42011642456055,,5.724339485168457,0.47
192,MetaDrive-test-adamW,76,232.34332121800566,195104,959,2538.851385116577,43.8220100402832,,2.411221981048584,0.47
193,MetaDrive-test-adamW,76,231.6636148132514,196351,962,2550.760394334793,40.02803039550781,-39.981689453125,5.351005554199219,0.48
194,MetaDrive-test-adamW,76,234.49449263817172,197023,963,2560.3471937179565,40.08811950683594,-40.839324951171875,3.4263195991516113,0.49
195,MetaDrive-test-adamW,76,237.75557627709998,198183,965,2575.4724271297455,36.49688720703125,-36.98067092895508,7.63541316986084,0.5
196,MetaDrive-test-adamW,76,235.01618899812038,199976,968,2599.642994403839,41.96051788330078,,20.476734161376953,0.48
197,MetaDrive-test-adamW,76,235.03806462678213,200142,969,2601.6148295402527,38.54852294921875,,2.4360365867614746,0.48
198,MetaDrive-test-adamW,76,231.0344651429646,201036,972,2612.444449186325,40.65388107299805,,7.296048164367676,0.47
199,MetaDrive-test-adamW,76,229.05473218173847,202436,976,2633.244584083557,37.85790252685547,,5.562420845031738,0.46
200,MetaDrive-test-adamW,76,229.96190643819048,203180,977,2642.805321455002,40.668697357177734,,8.233386993408203,0.46
201,MetaDrive-test-adamW,76,232.2139684113186,204101,978,2659.7678055763245,39.7130241394043,-40.715152740478516,49.07569885253906,0.46
202,MetaDrive-test-adamW,76,229.20208550052857,205790,982,2688.0541059970856,41.79046630859375,,10.6254243850708,0.43
203,MetaDrive-test-adamW,76,227.49446975149672,206276,984,2694.0860471725464,39.37616729736328,,6.218207359313965,0.42
204,MetaDrive-test-adamW,76,231.4865316765744,207310,986,2705.405796289444,40.30095672607422,,9.154403686523438,0.44
205,MetaDrive-test-adamW,76,232.8411330463633,208008,987,2713.385899782181,37.54319763183594,,6.012473106384277,0.45
206,MetaDrive-test-adamW,76,229.0809842729507,209513,992,2734.4564394950867,40.07023620605469,-41.12257385253906,5.682926177978516,0.44
207,MetaDrive-test-adamW,76,226.04622327765918,210155,994,2741.569857120514,40.581634521484375,-41.13770294189453,29.702003479003906,0.44
208,MetaDrive-test-adamW,76,226.9786693221386,211603,998,2762.68004155159,38.19407653808594,-38.81092071533203,3.523444175720215,0.44
209,MetaDrive-test-adamW,76,225.13699880033863,212092,1000,2769.1190259456635,40.069637298583984,,4.4868998527526855,0.43
210,MetaDrive-test-adamW,76,225.6096394352636,213301,1003,2785.2735266685486,42.11176681518555,-42.852027893066406,5.750332832336426,0.43
211,MetaDrive-test-adamW,76,221.78974207689174,214350,1006,2797.3583512306213,39.608665466308594,,43.35858154296875,0.42
212,MetaDrive-test-adamW,76,216.4196598571526,215077,1010,2806.836829185486,41.23996353149414,-41.89002227783203,10.521186828613281,0.41
213,MetaDrive-test-adamW,76,218.74025157662123,216364,1013,2825.593727827072,36.540000915527344,,11.106256484985352,0.41
214,MetaDrive-test-adamW,76,219.4582991675491,217016,1015,2833.594512939453,44.607032775878906,,4.868906021118164,0.42
215,MetaDrive-test-adamW,76,220.96355264820053,218350,1019,2847.2819724082947,40.610694885253906,,6.831154823303223,0.42
216,MetaDrive-test-adamW,76,222.75666841704881,219403,1022,2860.3584163188934,37.598899841308594,-37.862762451171875,65.025146484375,0.42
217,MetaDrive-test-adamW,76,219.19388494913312,220196,1025,2868.374758005142,41.860652923583984,,6.082066535949707,0.41
218,MetaDrive-test-adamW,76,219.88174605341257,221568,1027,2888.4858725070953,44.84710693359375,,2.686248779296875,0.41
219,MetaDrive-test-adamW,76,216.87294873387395,222215,1030,2895.1655151844025,37.97478485107422,-37.73516845703125,4.893120765686035,0.4
220,MetaDrive-test-adamW,76,220.78746572972966,223106,1032,2906.2321338653564,41.1058464050293,,5.59028959274292,0.42
221,MetaDrive-test-adamW,76,220.4499314805086,224780,1035,2930.043321609497,42.93431854248047,,6.067111015319824,0.42
222,MetaDrive-test-adamW,76,220.98362072522707,225046,1036,2933.694975376129,41.55290603637695,,5.206450939178467,0.42
223,MetaDrive-test-adamW,76,220.67226630635446,226091,1040,2946.9090185165405,41.3482551574707,-41.6156005859375,6.933259963989258,0.42
224,MetaDrive-test-adamW,76,221.45394186702168,227092,1041,2963.978842496872,38.41077423095703,,11.263689994812012,0.42
225,MetaDrive-test-adamW,76,222.1245249487234,228101,1043,2975.895148038864,43.0566291809082,-43.97288513183594,4.468322277069092,0.43
226,MetaDrive-test-adamW,76,221.87348084651697,229405,1045,2993.7273423671722,40.64498519897461,-41.74297332763672,55.20018768310547,0.43
227,MetaDrive-test-adamW,76,222.9168641378096,230744,1047,3013.128167152405,40.404144287109375,,6.739582061767578,0.43
228,MetaDrive-test-adamW,76,220.21688477051356,231446,1049,3021.652956724167,45.47700119018555,,16.859325408935547,0.42
229,MetaDrive-test-adamW,76,219.57276943975896,232516,1051,3035.991546869278,40.55357360839844,,7.259072303771973,0.42
230,MetaDrive-test-adamW,76,223.5485409216856,233235,1052,3046.661940097809,41.11494445800781,-41.21544647216797,4.990686416625977,0.43
231,MetaDrive-test-adamW,76,222.9538312638846,234653,1054,3064.8098816871643,40.09538269042969,-39.74443817138672,9.944356918334961,0.42
232,MetaDrive-test-adamW,76,219.93528368817715,235119,1055,3071.1598896980286,42.31586837768555,-42.242950439453125,9.767762184143066,0.41
233,MetaDrive-test-adamW,76,221.22984780556536,236250,1057,3086.664020061493,39.854957580566406,,4.941023826599121,0.41
234,MetaDrive-test-adamW,76,220.83461821483462,237211,1059,3097.8087763786316,44.4268913269043,-44.34288024902344,3.996638298034668,0.42
235,MetaDrive-test-adamW,76,223.9009302690165,238456,1061,3114.2075119018555,39.27997970581055,,8.058965682983398,0.43
236,MetaDrive-test-adamW,76,222.5005932761082,239403,1063,3127.8556864261627,44.334659576416016,-44.187191009521484,5.6832356452941895,0.42
237,MetaDrive-test-adamW,76,219.66594992962345,240533,1065,3140.773119211197,47.24920654296875,-47.879703521728516,3.6912710666656494,0.41
238,MetaDrive-test-adamW,76,222.9713953241609,241522,1067,3150.093650817871,42.308372497558594,,50.061866760253906,0.43
239,MetaDrive-test-adamW,76,218.92484352686992,242002,1070,3156.0789659023285,40.66254806518555,,6.49134635925293,0.42
240,MetaDrive-test-adamW,76,217.717991942429,243284,1075,3172.165244102478,45.194942474365234,,30.149089813232422,0.41
241,MetaDrive-test-adamW,76,217.59989779142398,244515,1077,3191.429122209549,44.01377487182617,-44.194236755371094,5.193406581878662,0.41
242,MetaDrive-test-adamW,76,215.08433780838047,245174,1078,3200.7206485271454,41.58595275878906,,53.61355972290039,0.4
243,MetaDrive-test-adamW,76,218.55688042684113,246516,1080,3221.3148980140686,39.58357238769531,,8.327824592590332,0.41
244,MetaDrive-test-adamW,76,221.61732377258033,247478,1081,3237.433676958084,39.01972961425781,,20.527008056640625,0.42
245,MetaDrive-test-adamW,76,219.88378770836255,248117,1083,3244.9513835906982,42.38178253173828,-42.31675338745117,6.894216537475586,0.42
246,MetaDrive-test-adamW,76,220.37565628726716,249206,1085,3257.6994540691376,43.34654235839844,,5.068854331970215,0.42
247,MetaDrive-test-adamW,76,219.4537749380389,250207,1086,3271.22252202034,46.059844970703125,-46.42604446411133,9.040431022644043,0.41
248,MetaDrive-test-adamW,76,219.69137843420478,251062,1088,3282.7040123939514,44.522010803222656,,3.24836802482605,0.4
249,MetaDrive-test-adamW,76,222.45483572412576,252203,1091,3297.2445302009583,44.86762237548828,-44.95248031616211,6.267433166503906,0.41
250,MetaDrive-test-adamW,76,221.88528508212377,253300,1093,3310.7580189704895,44.05791091918945,,96.28144836425781,0.41
251,MetaDrive-test-adamW,76,225.6546350245508,254600,1095,3327.804345846176,43.079811096191406,,32.596561431884766,0.42
252,MetaDrive-test-adamW,76,226.23349776300526,255159,1096,3334.817836999893,40.40580368041992,-41.63309097290039,64.24454498291016,0.43
253,MetaDrive-test-adamW,76,228.26475498902943,256159,1098,3349.9756512641907,48.912010192871094,-48.56912612915039,3.6308233737945557,0.44
254,MetaDrive-test-adamW,76,228.9160339469962,257218,1101,3363.053610563278,43.65776824951172,,49.49945068359375,0.45
255,MetaDrive-test-adamW,76,230.85151780939185,258122,1103,3374.4601435661316,46.72533416748047,,5.782297134399414,0.46
256,MetaDrive-test-adamW,76,227.86394707033224,259629,1107,3394.700875043869,43.27021789550781,-43.258243560791016,4.56571102142334,0.44
257,MetaDrive-test-adamW,76,229.22365563967304,260108,1109,3399.7446308135986,43.827293395996094,,11.332313537597656,0.44
258,MetaDrive-test-adamW,76,232.88292655745093,261012,1110,3414.547675848007,41.548526763916016,,4.985859394073486,0.45
259,MetaDrive-test-adamW,76,236.66764743003006,262124,1112,3426.7745537757874,44.329734802246094,,2.8040852546691895,0.47
260,MetaDrive-test-adamW,76,236.36491420666823,263365,1115,3441.873443365097,44.470191955566406,-44.85376739501953,4.729091644287109,0.47
261,MetaDrive-test-adamW,76,239.0564158525319,264373,1117,3454.704938650131,44.05490493774414,-45.17955017089844,21.22141456604004,0.48
262,MetaDrive-test-adamW,76,240.37103746122,265110,1118,3466.1024034023285,42.189231872558594,,3.3199615478515625,0.48
263,MetaDrive-test-adamW,76,240.87890956343628,266030,1120,3475.980264902115,46.51109313964844,,3.7724578380584717,0.48
264,MetaDrive-test-adamW,76,240.38031081742574,267313,1123,3489.647819519043,44.5236701965332,-44.417701721191406,22.504497528076172,0.48
265,MetaDrive-test-adamW,76,244.57552251979232,268378,1125,3504.4509415626526,41.417449951171875,,5.046142101287842,0.49
266,MetaDrive-test-adamW,76,244.05625926260157,269024,1126,3513.626898765564,45.875675201416016,,6.8190412521362305,0.49
267,MetaDrive-test-adamW,76,246.903961233453,270342,1129,3529.0884380340576,45.90724182128906,,7.2295331954956055,0.5
268,MetaDrive-test-adamW,76,245.92201304409664,271095,1131,3536.6460058689117,42.661651611328125,-43.09367370605469,4.601162910461426,0.49
269,MetaDrive-test-adamW,76,244.28226825800274,272260,1134,3550.101162672043,44.6091423034668,,3.9855756759643555,0.49
270,MetaDrive-test-adamW,76,242.46557571851434,273184,1137,3559.864216566086,44.17132568359375,,10.074749946594238,0.49
271,MetaDrive-test-adamW,76,244.9386869843521,274172,1139,3570.0198101997375,44.9815788269043,,11.897640228271484,0.49
272,MetaDrive-test-adamW,76,241.9026789815106,275126,1142,3582.606358528137,45.21312713623047,,36.5286865234375,0.48
273,MetaDrive-test-adamW,76,243.49640285424834,276363,1144,3596.894186258316,41.61847686767578,-41.65460205078125,5.199636459350586,0.48
274,MetaDrive-test-adamW,76,244.75531068433082,277593,1146,3612.8519072532654,41.29240417480469,-42.54903793334961,107.52593994140625,0.49
275,MetaDrive-test-adamW,76,245.41033575775248,278126,1147,3618.488894701004,46.065040588378906,,7.419078826904297,0.5
276,MetaDrive-test-adamW,76,246.7158320347099,279667,1149,3645.289329767227,48.69824981689453,-48.00028991699219,9.246719360351562,0.5
277,MetaDrive-test-adamW,76,249.28815340169075,280489,1150,3657.8577132225037,47.109710693359375,-47.747520446777344,5.546440124511719,0.51
278,MetaDrive-test-adamW,76,247.96795273142595,281869,1152,3672.832051753998,43.777015686035156,-44.10599136352539,9.758508682250977,0.51
279,MetaDrive-test-adamW,76,248.61304334054924,282870,1153,3684.974749326706,44.09440612792969,,8.060711860656738,0.51
280,MetaDrive-test-adamW,76,245.68084094724213,283005,1154,3686.2964944839478,41.8300895690918,-41.29294967651367,3.7745730876922607,0.5
281,MetaDrive-test-adamW,76,245.19717983686533,284318,1157,3699.9389567375183,46.753684997558594,,8.031990051269531,0.52
282,MetaDrive-test-adamW,76,245.414283177406,285318,1159,3710.7018868923187,42.21492385864258,,29.97594451904297,0.51
283,MetaDrive-test-adamW,76,240.35774216264082,286459,1162,3727.085930109024,46.863250732421875,-47.283443450927734,13.923338890075684,0.48
284,MetaDrive-test-adamW,76,242.60400397501274,287125,1163,3737.2342376708984,44.55162811279297,-45.432373046875,5.884698867797852,0.49
285,MetaDrive-test-adamW,76,244.76679809581418,288430,1165,3757.459689617157,48.20375061035156,,7.513965606689453,0.49
286,MetaDrive-test-adamW,76,242.71358997670413,289429,1167,3772.8468725681305,39.179542541503906,-41.137550354003906,39.186466217041016,0.48
287,MetaDrive-test-adamW,76,244.06813550491773,290231,1168,3782.689035654068,43.27024841308594,-43.234718322753906,4.141359806060791,0.48
288,MetaDrive-test-adamW,76,248.0990077527804,291420,1170,3800.135255098343,46.13654327392578,,6.31057071685791,0.49
289,MetaDrive-test-adamW,76,251.3715691326333,292274,1172,3809.0614228248596,43.91674041748047,,6.446926116943359,0.5
290,MetaDrive-test-adamW,76,251.3138246811072,293275,1173,3820.9741196632385,44.84660339355469,-45.443302154541016,5.080511093139648,0.5
291,MetaDrive-test-adamW,76,254.5174291292064,294467,1175,3836.0177636146545,46.053070068359375,-45.88539505004883,6.594178676605225,0.52
292,MetaDrive-test-adamW,76,253.62164209961986,295002,1176,3842.3208298683167,42.90517807006836,,15.425481796264648,0.52
293,MetaDrive-test-adamW,76,247.78724540331302,296452,1180,3858.8270268440247,45.25318908691406,,13.423965454101562,0.52
294,MetaDrive-test-adamW,76,247.862634341055,297453,1181,3877.35573387146,44.19526290893555,-44.879615783691406,43.4399299621582,0.51
295,MetaDrive-test-adamW,76,249.00606605980124,298208,1183,3886.0300130844116,42.303680419921875,,4.894294738769531,0.52
296,MetaDrive-test-adamW,76,250.4071434797164,299548,1185,3904.2939536571503,45.011077880859375,,4.397977828979492,0.52
297,MetaDrive-test-adamW,76,252.05824328111828,300160,1186,3910.7922620773315,41.98101043701172,,5.841967582702637,0.53
298,MetaDrive-test-adamW,76,253.68363147716977,301570,1188,3927.983467578888,40.47491455078125,,7.484139919281006,0.53
299,MetaDrive-test-adamW,76,252.63792476345864,302571,1189,3938.24098944664,44.50893020629883,-44.724830627441406,8.091808319091797,0.52
300,MetaDrive-test-adamW,76,254.96581874573306,303080,1190,3943.583151817322,45.82817077636719,,7.7838263511657715,0.53
301,MetaDrive-test-adamW,76,253.87538779640704,304047,1193,3953.674478530884,44.01026153564453,-44.21214294433594,5.861726760864258,0.54
302,MetaDrive-test-adamW,76,252.3634283923046,305451,1195,3970.821542263031,43.587745666503906,-44.936012268066406,16.95989227294922,0.53
303,MetaDrive-test-adamW,76,248.66080850616945,306922,1198,3992.0425646305084,43.262229919433594,,12.976123809814453,0.51
304,MetaDrive-test-adamW,76,248.74351429967945,307375,1199,3997.610558986664,46.69112014770508,-46.64460372924805,32.6901741027832,0.51
305,MetaDrive-test-adamW,76,251.90845252445786,308069,1200,4004.85187792778,42.115745544433594,-42.749664306640625,4.996154308319092,0.52
306,MetaDrive-test-adamW,76,252.89467640094514,309730,1202,4025.4101774692535,42.39744567871094,,5.902029037475586,0.52
307,MetaDrive-test-adamW,76,253.05118834040692,310420,1203,4034.769194126129,43.43913269042969,,20.334102630615234,0.52
308,MetaDrive-test-adamW,76,254.8494620815685,311500,1205,4055.45237159729,44.77600860595703,,14.725879669189453,0.52
309,MetaDrive-test-adamW,76,255.82858503216707,312110,1207,4063.140640974045,47.72203063964844,,4.192687034606934,0.52
310,MetaDrive-test-adamW,76,260.1423719521643,313226,1209,4074.3196189403534,43.76437759399414,,4.181325912475586,0.54
311,MetaDrive-test-adamW,76,257.5687802050793,314180,1211,4086.9304537773132,46.303157806396484,,6.743182182312012,0.53
312,MetaDrive-test-adamW,76,257.47528928057443,315524,1213,4105.762929677963,48.70636749267578,,4.128365993499756,0.52
313,MetaDrive-test-adamW,76,256.6604076739252,316028,1214,4110.781367778778,43.67059326171875,,5.414910316467285,0.52
314,MetaDrive-test-adamW,76,258.5240725358681,317336,1216,4128.124436378479,44.377960205078125,,4.012637138366699,0.52
315,MetaDrive-test-adamW,76,258.54328877478287,318243,1217,4139.331414937973,43.67193603515625,-44.35258483886719,10.270028114318848,0.51
316,MetaDrive-test-adamW,76,257.55355058685853,319975,1219,4161.164988279343,41.839576721191406,-42.77301025390625,26.00107192993164,0.5
317,MetaDrive-test-adamW,76,260.2009987875415,320703,1220,4167.685001373291,44.075721740722656,-44.497676849365234,5.265448570251465,0.51
318,MetaDrive-test-adamW,76,263.1702382815849,321704,1221,4186.325184583664,45.806053161621094,,7.503945350646973,0.51
319,MetaDrive-test-adamW,76,258.1153981994172,322068,1223,4191.189270734787,44.33839797973633,,4.9220991134643555,0.49
320,MetaDrive-test-adamW,76,252.8858571647272,323927,1226,4216.078840255737,46.36460494995117,-45.75177001953125,5.119696617126465,0.49
321,MetaDrive-test-adamW,76,251.74206580319128,324743,1227,4227.752072811127,46.937095642089844,-47.251068115234375,6.754934787750244,0.48
322,MetaDrive-test-adamW,76,254.63378923904887,325294,1228,4235.457192182541,41.28516387939453,,4.220293045043945,0.49
323,MetaDrive-test-adamW,76,251.13413546861773,326068,1231,4244.691747188568,45.582801818847656,,4.101045608520508,0.47
324,MetaDrive-test-adamW,76,254.16821763681546,327419,1233,4262.524193525314,44.401580810546875,-44.5858268737793,10.293842315673828,0.48
325,MetaDrive-test-adamW,76,256.63664322915173,328598,1235,4278.193036317825,40.923919677734375,,7.205835342407227,0.49
326,MetaDrive-test-adamW,76,259.4339175352672,329268,1236,4285.5702266693115,44.12375259399414,,10.279874801635742,0.5
327,MetaDrive-test-adamW,76,256.10349897150024,330381,1239,4296.960552453995,42.0701904296875,-42.0384635925293,48.02954864501953,0.5
328,MetaDrive-test-adamW,76,259.4453616485848,331378,1241,4310.299525737762,44.77507781982422,,65.3520278930664,0.51
329,MetaDrive-test-adamW,76,259.7717482958552,332379,1242,4326.843379020691,44.347206115722656,-44.061431884765625,4.798860549926758,0.51
330,MetaDrive-test-adamW,76,255.08524200166912,333197,1244,4337.8991639614105,49.667728424072266,-49.93623352050781,19.692768096923828,0.5
331,MetaDrive-test-adamW,76,255.69462103498535,334181,1245,4350.977857589722,46.79719543457031,-46.89420700073242,4.375271797180176,0.49
332,MetaDrive-test-adamW,76,247.39042452587933,335075,1249,4362.420219182968,47.29881286621094,-47.32354736328125,2.691727638244629,0.46
333,MetaDrive-test-adamW,76,247.21022830600643,336032,1250,4379.677549362183,41.044761657714844,,5.377425670623779,0.46
334,MetaDrive-test-adamW,76,243.3767619700813,337616,1253,4404.705764770508,45.90167999267578,,3.639346122741699,0.44
335,MetaDrive-test-adamW,76,246.4415691440459,338294,1254,4412.737218379974,44.63140106201172,,5.398321151733398,0.45
336,MetaDrive-test-adamW,76,246.0630053327393,339415,1256,4431.660024881363,46.41102981567383,-46.177574157714844,9.498241424560547,0.44
337,MetaDrive-test-adamW,76,248.46951152084822,340953,1258,4460.591463804245,46.740421295166016,-46.69230651855469,5.142520427703857,0.43
338,MetaDrive-test-adamW,76,246.56494667288553,341277,1259,4465.415596008301,46.245460510253906,-47.434471130371094,76.59600830078125,0.42
339,MetaDrive-test-adamW,76,245.62124689025143,342108,1262,4474.588200569153,47.14613342285156,,29.29608154296875,0.43
340,MetaDrive-test-adamW,76,245.2936320524016,343109,1263,4487.756192922592,40.919334411621094,-41.40922164916992,3.9244308471679688,0.42
341,MetaDrive-test-adamW,76,245.78918789826886,344546,1265,4507.512429475784,46.74537658691406,,6.468939304351807,0.43
342,MetaDrive-test-adamW,76,250.3231582823699,345335,1266,4518.9786241054535,46.506492614746094,-47.12055587768555,9.315923690795898,0.44
343,MetaDrive-test-adamW,76,246.60264738594822,346091,1269,4526.398156404495,46.59627151489258,-46.8311767578125,10.584627151489258,0.44
344,MetaDrive-test-adamW,76,244.66612141304168,347214,1272,4540.0763919353485,43.48554992675781,,7.631259918212891,0.44
345,MetaDrive-test-adamW,76,245.78465350008156,348139,1274,4550.5521495342255,44.72029495239258,-44.26182556152344,10.468952178955078,0.44
346,MetaDrive-test-adamW,76,244.39610892996618,349106,1276,4564.6094172000885,43.956398010253906,,6.363428115844727,0.44
347,MetaDrive-test-adamW,76,247.56429297641608,350168,1278,4577.948447942734,46.996253967285156,,30.914398193359375,0.45
348,MetaDrive-test-adamW,76,249.24683982104588,351041,1280,4586.099706888199,44.74174118041992,-45.54401397705078,6.228696346282959,0.46
349,MetaDrive-test-adamW,76,249.0472251005667,352153,1282,4598.477781295776,42.13359832763672,-42.75407409667969,6.147198677062988,0.47
350,MetaDrive-test-adamW,76,246.59207238471498,353261,1284,4618.254474401474,41.506195068359375,-40.97380828857422,4.423148155212402,0.45
351,MetaDrive-test-adamW,76,245.20190857644656,354272,1286,4630.364208221436,46.6541748046875,,6.787816047668457,0.45
352,MetaDrive-test-adamW,76,241.68873555710823,355421,1289,4645.490081787109,43.805973052978516,-43.9388427734375,60.8602294921875,0.45
353,MetaDrive-test-adamW,76,242.23330698897308,356446,1291,4662.22699379921,42.51472473144531,,3.6198644638061523,0.44
354,MetaDrive-test-adamW,76,242.4208267593889,357016,1292,4669.110825538635,42.023616790771484,,11.543914794921875,0.43
355,MetaDrive-test-adamW,76,245.59422102413566,358020,1294,4680.410125732422,43.43895721435547,,6.868808746337891,0.43
356,MetaDrive-test-adamW,76,248.88395638545532,359548,1296,4704.633274316788,44.83245849609375,,9.285558700561523,0.44
357,MetaDrive-test-adamW,76,248.83736974317213,360549,1297,4718.778131484985,50.218780517578125,-50.677337646484375,10.081618309020996,0.44
358,MetaDrive-test-adamW,76,247.91071909144517,361408,1299,4730.346218347549,44.683650970458984,,4.841920852661133,0.44
359,MetaDrive-test-adamW,76,248.75117334963906,362409,1300,4749.549746751785,42.313201904296875,-42.89775466918945,3.9792654514312744,0.43
360,MetaDrive-test-adamW,76,249.12428413950235,363413,1302,4762.058752775192,44.14160919189453,-44.61077117919922,6.388881206512451,0.43
361,MetaDrive-test-adamW,76,249.24162623089845,364194,1303,4775.196985244751,44.254581451416016,,4.297993183135986,0.43
362,MetaDrive-test-adamW,76,251.459257642122,365304,1305,4787.182621002197,46.11864471435547,,8.613186836242676,0.45
363,MetaDrive-test-adamW,76,251.63834049222908,366125,1306,4798.03039932251,47.16590881347656,-47.83052062988281,22.586944580078125,0.45
364,MetaDrive-test-adamW,76,253.1551397030965,367462,1308,4814.893828392029,42.426300048828125,,6.3029069900512695,0.46
365,MetaDrive-test-adamW,76,250.818011250179,368191,1310,4823.049834489822,40.054779052734375,-40.3234977722168,13.145708084106445,0.45
366,MetaDrive-test-adamW,76,252.75061143244147,369596,1313,4842.680507659912,46.945716857910156,,8.38420295715332,0.47
367,MetaDrive-test-adamW,76,253.2232417238465,370069,1314,4848.375992298126,43.172489166259766,-43.75331115722656,22.140682220458984,0.47
368,MetaDrive-test-adamW,76,251.8369232845297,371076,1316,4863.704914093018,47.72263717651367,,17.29766845703125,0.47
369,MetaDrive-test-adamW,76,251.43505087825642,372975,1319,4893.3379628658295,45.64378356933594,-46.0180549621582,7.718445301055908,0.47
370,MetaDrive-test-adamW,76,250.62600334491825,373509,1320,4899.0770473480225,46.34492492675781,-46.29889678955078,3.5789031982421875,0.47
371,MetaDrive-test-adamW,76,249.82761431880598,374084,1321,4907.278575658798,45.86396789550781,,9.959198951721191,0.47
372,MetaDrive-test-adamW,76,254.47318812270566,375303,1323,4925.910905838013,44.322105407714844,-43.10544967651367,28.058490753173828,0.48
373,MetaDrive-test-adamW,76,255.44091611975406,376196,1325,4938.612406730652,44.19733810424805,,7.462193489074707,0.47
374,MetaDrive-test-adamW,76,258.1296721452922,377188,1327,4951.113348722458,46.11701965332031,,77.62551879882812,0.47
375,MetaDrive-test-adamW,76,259.4976454913815,378236,1329,4964.3250069618225,48.295204162597656,,9.34865665435791,0.47
376,MetaDrive-test-adamW,76,260.3436736255145,379288,1331,4980.110107421875,39.439796447753906,,8.540521621704102,0.47
377,MetaDrive-test-adamW,76,255.17152297014994,380091,1334,4989.354816913605,48.42820358276367,-49.20174026489258,88.95590209960938,0.44
378,MetaDrive-test-adamW,76,253.69660122809827,381381,1336,5007.045292139053,40.020835876464844,-39.218971252441406,13.232093811035156,0.43
379,MetaDrive-test-adamW,76,248.19254960732076,382166,1340,5017.162456989288,45.94573211669922,,9.587310791015625,0.4
380,MetaDrive-test-adamW,76,250.57924764451815,383592,1343,5035.62109708786,45.540557861328125,,148.60687255859375,0.42
381,MetaDrive-test-adamW,76,245.92493764321628,384024,1345,5040.584848403931,43.406829833984375,,11.047394752502441,0.41
382,MetaDrive-test-adamW,76,250.09747706729542,385409,1349,5055.878264904022,46.16081237792969,-45.801124572753906,15.640674591064453,0.43
383,MetaDrive-test-adamW,76,249.68380451535918,386266,1350,5067.618231296539,47.72758865356445,,2.058466672897339,0.43
384,MetaDrive-test-adamW,76,251.28938638829922,387232,1352,5078.546714782715,42.89331817626953,,10.63335132598877,0.44
385,MetaDrive-test-adamW,76,248.74007576697957,388429,1354,5092.134027957916,43.03657913208008,-43.33616638183594,5.856195449829102,0.44
386,MetaDrive-test-adamW,76,251.42962121423326,389216,1355,5103.325548887253,43.21733093261719,,6.826656818389893,0.45
387,MetaDrive-test-adamW,76,253.3404917849476,390808,1357,5127.557155132294,45.92193603515625,,4.281713485717773,0.46
388,MetaDrive-test-adamW,76,252.84539742787277,391809,1358,5149.103110790253,42.681846618652344,-43.597694396972656,6.70947790145874,0.46
389,MetaDrive-test-adamW,76,254.03636445029935,392808,1360,5163.74905872345,40.99203872680664,,12.001239776611328,0.47
390,MetaDrive-test-adamW,76,256.8113590458327,393875,1362,5175.945981025696,43.17173767089844,-44.188228607177734,7.824643135070801,0.47
391,MetaDrive-test-adamW,76,256.6498292184974,394806,1363,5190.299342632294,49.356204986572266,,83.24541473388672,0.48
392,MetaDrive-test-adamW,75,255.6490955125203,395807,1364,5208.980930566788,44.034645080566406,-44.4506721496582,7.078226566314697,0.47
393,MetaDrive-test-adamW,75,256.28396162645606,396493,1365,5217.23419213295,49.66932678222656,-49.65266799926758,4.633640766143799,0.47
394,MetaDrive-test-adamW,75,254.00822168490456,397494,1366,5232.562681913376,44.039817810058594,,10.473184585571289,0.46
395,MetaDrive-test-adamW,75,255.08467681006624,398145,1368,5242.033134698868,45.752159118652344,-46.04045867919922,7.34266471862793,0.45
396,MetaDrive-test-adamW,76,256.31615430333926,399194,1370,5251.841333866119,50.05769729614258,,5.560091018676758,0.46
397,MetaDrive-test-adamW,76,259.28356803018744,400129,1371,5264.154146432877,36.63252258300781,-36.68854522705078,7.685886859893799,0.47
398,MetaDrive-test-adamW,76,255.40670158315675,401127,1374,5275.9770765304565,49.58903503417969,-49.5674934387207,4.2892351150512695,0.46
399,MetaDrive-test-adamW,76,257.5886761114393,402415,1376,5294.867341756821,40.76976013183594,-41.361480712890625,7.780154228210449,0.47
400,MetaDrive-test-adamW,76,254.1895767239863,403024,1378,5302.3277270793915,48.164608001708984,,4.600098609924316,0.46
401,MetaDrive-test-adamW,76,254.30960767737116,404332,1381,5316.386155605316,41.974552154541016,,3.046046018600464,0.45
402,MetaDrive-test-adamW,76,254.86570370711965,405113,1382,5327.134341478348,45.39913558959961,-45.30794906616211,8.940045356750488,0.46
403,MetaDrive-test-adamW,76,258.006646929705,406598,1384,5343.037976741791,45.38380432128906,,8.765106201171875,0.48
404,MetaDrive-test-adamW,76,258.1564711415529,407094,1385,5348.334185123444,42.23072052001953,,103.86239624023438,0.48
405,MetaDrive-test-adamW,76,258.7598771679253,408304,1388,5361.030629396439,43.482696533203125,,9.987846374511719,0.49
406,MetaDrive-test-adamW,76,260.5094594339995,409328,1390,5371.098001003265,44.30754089355469,,7.670828819274902,0.5
407,MetaDrive-test-adamW,76,260.7379012866784,410418,1392,5382.93098783493,47.087032318115234,,7.9144606590271,0.51
408,MetaDrive-test-adamW,76,261.21736221126287,411449,1394,5395.378836154938,42.99757766723633,-42.69218444824219,11.579731941223145,0.52
409,MetaDrive-test-adamW,76,261.8678173320453,412450,1395,5407.378849029541,44.40594482421875,,6.96309232711792,0.51
410,MetaDrive-test-adamW,76,253.86739511141207,413028,1399,5414.794763326645,45.63887023925781,,5.458532333374023,0.5
411,MetaDrive-test-adamW,76,253.7085703219286,414029,1400,5430.01412653923,46.49299621582031,-46.640201568603516,4.003509998321533,0.5
412,MetaDrive-test-adamW,76,254.16227332519264,415294,1402,5448.066305398941,44.601837158203125,,6.668773174285889,0.49
413,MetaDrive-test-adamW,76,251.77593895344987,416112,1404,5457.666986703873,44.650657653808594,,8.051376342773438,0.48
414,MetaDrive-test-adamW,76,251.2949624221098,417482,1407,5473.755758523941,46.16053771972656,,10.224712371826172,0.48
415,MetaDrive-test-adamW,76,251.03998836226765,418237,1408,5482.54558467865,44.278831481933594,-44.08206558227539,3.2653160095214844,0.48
416,MetaDrive-test-adamW,76,252.26371488546226,419238,1409,5502.334981679916,44.25634765625,,37.05375289916992,0.48
417,MetaDrive-test-adamW,76,254.0417261994049,420022,1410,5514.8165807724,49.270591735839844,,6.151891708374023,0.48
418,MetaDrive-test-adamW,76,251.75597176041762,421583,1414,5533.796933412552,48.06627655029297,-47.85258483886719,6.288479804992676,0.46
419,MetaDrive-test-adamW,76,254.95107630099037,422467,1415,5546.2296307086945,44.097923278808594,-44.1982536315918,9.337448120117188,0.47
420,MetaDrive-test-adamW,76,254.09538403326604,423468,1416,5558.9817860126495,41.95793914794922,,11.432415008544922,0.46
421,MetaDrive-test-adamW,76,254.5819336720199,424097,1417,5565.649648189545,40.53785705566406,-41.17298889160156,7.402858734130859,0.46
422,MetaDrive-test-adamW,76,251.4799863828026,425386,1420,5583.50855922699,43.43922424316406,,5.277183532714844,0.46
423,MetaDrive-test-adamW,76,252.73149350902236,426709,1422,5600.4992780685425,47.78363037109375,-47.891571044921875,9.664260864257812,0.48
424,MetaDrive-test-adamW,76,252.79736852651655,427246,1423,5606.009639263153,46.42534637451172,,6.736536026000977,0.48
425,MetaDrive-test-adamW,76,253.8434244831947,428438,1425,5621.584339380264,46.64384078979492,,9.041316986083984,0.49
426,MetaDrive-test-adamW,76,254.50521411830584,429095,1426,5628.516011714935,47.58354187011719,-47.53569412231445,6.128672122955322,0.5
427,MetaDrive-test-adamW,76,256.19959115681775,430367,1428,5645.969781637192,47.10945129394531,-47.30625915527344,6.372109889984131,0.51
428,MetaDrive-test-adamW,76,258.23689063807916,431296,1429,5656.892441511154,45.8323974609375,,4.509405136108398,0.52
429,MetaDrive-test-adamW,76,257.958133174501,432203,1431,5666.9211456775665,45.23311233520508,-46.58936309814453,15.335699081420898,0.53
430,MetaDrive-test-adamW,76,262.94592264011453,433284,1433,5679.68744301796,40.95806884765625,,8.122516632080078,0.55
431,MetaDrive-test-adamW,76,263.1557355801183,434539,1435,5695.72311425209,40.57825469970703,-41.07817840576172,34.670997619628906,0.55
432,MetaDrive-test-adamW,76,266.10531571330927,435416,1436,5706.816762685776,48.58815002441406,,12.578868865966797,0.56
433,MetaDrive-test-adamW,76,270.75110750148707,436509,1438,5717.938753604889,49.69450378417969,-49.864601135253906,18.12818717956543,0.58
434,MetaDrive-test-adamW,76,273.6931965365286,437243,1439,5727.80483174324,43.11013412475586,-43.72372817993164,6.238264083862305,0.59
435,MetaDrive-test-adamW,76,277.6982217426606,438750,1441,5751.544767856598,47.827354431152344,,19.89004135131836,0.6
436,MetaDrive-test-adamW,76,278.1168052581906,439157,1442,5755.463903903961,46.94847869873047,-47.49791717529297,14.593047142028809,0.6
437,MetaDrive-test-adamW,76,277.59486207695426,440158,1443,5772.963540554047,48.927391052246094,,10.629232406616211,0.59
438,MetaDrive-test-adamW,76,282.46036732465205,441430,1445,5791.431626081467,45.7637939453125,,12.851704597473145,0.6
439,MetaDrive-test-adamW,76,282.0727258189121,442267,1447,5803.029321908951,44.16790771484375,-43.77268600463867,7.841303825378418,0.59
440,MetaDrive-test-adamW,76,282.482650294801,443327,1449,5816.519344806671,41.611083984375,-41.55644226074219,6.670804977416992,0.58
441,MetaDrive-test-adamW,76,282.91999947987364,444414,1451,5830.833853006363,48.273887634277344,,5.830290794372559,0.58
442,MetaDrive-test-adamW,76,285.28677053365107,445684,1453,5848.606336593628,45.1497917175293,,174.76055908203125,0.59
443,MetaDrive-test-adamW,76,287.38453709204197,446632,1454,5863.422575712204,40.47076416015625,,9.373397827148438,0.59
444,MetaDrive-test-adamW,76,279.7544814219967,447496,1457,5874.9425048828125,45.703887939453125,,4.353341102600098,0.56
445,MetaDrive-test-adamW,76,278.4446142887092,448090,1459,5885.67268204689,44.48855972290039,,7.102993011474609,0.56
446,MetaDrive-test-adamW,76,278.92491497982036,449352,1461,5901.613438606262,43.083473205566406,,5.426865100860596,0.56
447,MetaDrive-test-adamW,76,278.04229701233174,450177,1462,5911.344110965729,42.604217529296875,-43.04439163208008,6.246852874755859,0.56
448,MetaDrive-test-adamW,76,277.2051410150338,451236,1464,5927.869769573212,48.20447540283203,,9.883143424987793,0.56
449,MetaDrive-test-adamW,76,276.1986394302128,452081,1466,5936.677551746368,45.79022979736328,-45.65190124511719,4.571175575256348,0.57
450,MetaDrive-test-adamW,76,279.5334318790524,453376,1468,5952.35044002533,45.51812744140625,,11.762388229370117,0.59
451,MetaDrive-test-adamW,76,281.1871267097286,454151,1469,5964.323413133621,44.762332916259766,-45.69426727294922,53.74533462524414,0.59
452,MetaDrive-test-adamW,76,280.2774982410397,455024,1471,5976.829480886459,44.53912353515625,,17.302024841308594,0.58
453,MetaDrive-test-adamW,76,283.8910139440524,456695,1474,5996.954022884369,45.24449920654297,-45.82200622558594,6.032074451446533,0.59
454,MetaDrive-test-adamW,76,279.4628449650616,457360,1476,6004.806776762009,49.2811393737793,,7.680645942687988,0.57
455,MetaDrive-test-adamW,76,280.08756777674614,458079,1478,6012.563601016998,43.387306213378906,-42.72868347167969,8.469415664672852,0.57
456,MetaDrive-test-adamW,76,284.12406789749383,459692,1480,6039.140624046326,45.16978454589844,,3.1374411582946777,0.58
457,MetaDrive-test-adamW,76,285.27506916005837,460693,1481,6056.504152774811,48.215187072753906,-48.14257049560547,7.744945526123047,0.57
458,MetaDrive-test-adamW,76,284.6131462561684,461179,1482,6061.683492422104,48.97537612915039,-48.6016731262207,6.143157005310059,0.57
459,MetaDrive-test-adamW,76,282.4055049787032,462342,1484,6076.92880487442,46.9178581237793,,4.690192222595215,0.56
460,MetaDrive-test-adamW,76,284.66920507719834,463220,1486,6087.056888341904,43.83919906616211,,93.34574127197266,0.57
461,MetaDrive-test-adamW,76,286.27821212417706,464590,1488,6106.210772514343,47.1769905090332,,8.20233154296875,0.57
462,MetaDrive-test-adamW,76,286.2449167347953,465124,1489,6112.555144309998,45.825439453125,,5.117715835571289,0.57
463,MetaDrive-test-adamW,76,286.8632173290355,466672,1491,6130.737772703171,50.42932891845703,,10.458492279052734,0.57
464,MetaDrive-test-adamW,76,286.7625243171559,467142,1492,6136.0214376449585,46.865394592285156,,6.265832901000977,0.58
465,MetaDrive-test-adamW,76,286.5342104560369,468199,1494,6146.958478689194,43.22682189941406,-43.61751937866211,5.918887138366699,0.57
466,MetaDrive-test-adamW,76,287.6024156934286,469089,1495,6160.401017665863,43.229576110839844,-44.184322357177734,91.75706481933594,0.58
467,MetaDrive-test-adamW,76,293.43884080309846,470495,1498,6174.968867301941,48.22936248779297,-48.396793365478516,6.559496879577637,0.59
468,MetaDrive-test-adamW,76,295.65243394188093,471074,1499,6181.640284061432,47.93413162231445,,4.351607322692871,0.59
469,MetaDrive-test-adamW,76,293.1534612061878,472075,1500,6195.479578256607,48.629966735839844,-49.356449127197266,6.398913383483887,0.59
470,MetaDrive-test-adamW,76,290.084411990161,473369,1502,6213.373507976532,44.80988311767578,-45.848876953125,6.379366874694824,0.59
471,MetaDrive-test-adamW,76,289.7423136093779,474280,1504,6224.834579467773,45.7533073425293,,10.436100006103516,0.59
472,MetaDrive-test-adamW,76,289.5799369056396,475093,1506,6235.004224777222,42.83273696899414,-43.59677505493164,149.6332244873047,0.59
473,MetaDrive-test-adamW,76,287.84704357644677,476065,1508,6245.290947675705,45.96311950683594,-46.88299560546875,148.543212890625,0.58
474,MetaDrive-test-adamW,76,287.6622327882058,477205,1510,6257.2502698898315,49.396690368652344,-50.10456848144531,3.318401336669922,0.59
475,MetaDrive-test-adamW,76,286.81089727047146,478484,1512,6273.376830339432,45.40412902832031,,6.139488220214844,0.59
476,MetaDrive-test-adamW,76,289.691590159218,479034,1513,6279.506859779358,43.084617614746094,,5.514230728149414,0.6
477,MetaDrive-test-adamW,76,285.42335592313276,480543,1516,6298.289806127548,45.38824462890625,-46.21807098388672,7.420576095581055,0.59
478,MetaDrive-test-adamW,76,285.2178826132103,481544,1517,6313.578993797302,41.77824401855469,,5.332062244415283,0.58
479,MetaDrive-test-adamW,76,287.3831538722349,482249,1518,6320.8495399951935,46.882537841796875,-46.74182891845703,5.767289161682129,0.59
480,MetaDrive-test-adamW,76,288.5677643643692,483497,1520,6334.349984169006,41.795936584472656,-42.19206237792969,9.75538444519043,0.59
481,MetaDrive-test-adamW,76,287.58882228267817,484638,1522,6347.532351016998,46.65721130371094,,18.595529556274414,0.58
482,MetaDrive-test-adamW,76,287.5157080481637,485182,1523,6354.101070404053,46.26063537597656,,10.642200469970703,0.58
483,MetaDrive-test-adamW,76,286.76111056251705,486420,1525,6369.465014219284,46.74244689941406,,7.104532718658447,0.58
484,MetaDrive-test-adamW,76,284.81928438636095,487205,1527,6378.155982732773,49.37759780883789,-49.110877990722656,4.817357063293457,0.57
485,MetaDrive-test-adamW,76,283.1733996894754,488457,1529,6393.412369251251,45.308135986328125,-45.50971984863281,29.336669921875,0.56
486,MetaDrive-test-adamW,76,282.86413117478685,489343,1531,6404.06148314476,48.326332092285156,-48.19766616821289,6.905379772186279,0.55
487,MetaDrive-test-adamW,76,284.0898460558742,490075,1532,6413.762806653976,43.245567321777344,-43.252227783203125,5.279913902282715,0.55
488,MetaDrive-test-adamW,76,283.685874662287,491242,1534,6425.515844583511,48.86109161376953,,9.149681091308594,0.55
489,MetaDrive-test-adamW,76,282.6669810503324,492385,1536,6437.935756444931,45.4036865234375,-46.61515426635742,9.383288383483887,0.56
490,MetaDrive-test-adamW,76,281.39759691420375,493386,1537,6452.818950176239,45.57997131347656,,7.6042070388793945,0.55
491,MetaDrive-test-adamW,76,282.48932243475997,494135,1538,6460.998245477676,48.586265563964844,-48.367530822753906,5.5392045974731445,0.55
492,MetaDrive-test-adamW,76,277.0206232695688,495513,1541,6476.017150878906,44.64301300048828,-45.152549743652344,9.126190185546875,0.54
493,MetaDrive-test-adamW,76,277.54278068853637,496219,1542,6485.053666353226,48.04541778564453,-47.9000244140625,8.428604125976562,0.54
494,MetaDrive-test-adamW,76,278.17441658925026,497672,1544,6502.4910933971405,46.192604064941406,,149.05575561523438,0.55
495,MetaDrive-test-adamW,76,278.7361713912825,498146,1545,6507.177346944809,44.424869537353516,,5.504629135131836,0.56
496,MetaDrive-test-adamW,76,281.7280421949093,499377,1547,6524.019565105438,45.370113372802734,-45.84033203125,7.930288314819336,0.57
