TanmayH/CS269-RL-project-code/MetaDrive-Expt-Safe-Combine/td3/progress.csv
,log_dir,frame_per_second,episode_reward,total_steps,total_episodes,total_time,target_q,actor_loss,critic_loss,success_rate
0,MetaDrive-td3combine-expt_with_safe_fix_again,421,96.32119854714773,1186,2,2.8132567405700684,,,,0.0
1,MetaDrive-td3combine-expt_with_safe_fix_again,390,148.32529573601914,2706,4,6.927011966705322,,,,0.0
2,MetaDrive-td3combine-expt_with_safe_fix_again,401,168.07567533560734,3211,5,7.995206117630005,,,,0.0
3,MetaDrive-td3combine-expt_with_safe_fix_again,404,158.22470047003313,4212,6,10.408887147903442,,,,0.0
4,MetaDrive-td3combine-expt_with_safe_fix_again,337,155.79430653623498,5502,8,16.2915141582489,18.53765869140625,,3.087125301361084,0.0
5,MetaDrive-td3combine-expt_with_safe_fix_again,272,150.5876105839347,6503,9,23.854833602905273,19.208545684814453,-19.470563888549805,4.749220848083496,0.0
6,MetaDrive-td3combine-expt_with_safe_fix_again,234,179.01364242314932,7447,11,31.753442525863647,25.647140502929688,-25.394332885742188,3.6083011627197266,0.0
7,MetaDrive-td3combine-expt_with_safe_fix_again,207,221.38684848157683,8530,13,41.143799781799316,17.805009841918945,,2.302947521209717,0.07692307692307693
8,MetaDrive-td3combine-expt_with_safe_fix_again,196,214.44271021985384,9531,14,48.3827702999115,23.400514602661133,-24.369125366210938,3.9450769424438477,0.07142857142857142
9,MetaDrive-td3combine-expt_with_safe_fix_again,186,215.96120233873825,10966,16,58.81855130195618,29.079307556152344,,2.188188076019287,0.125
10,MetaDrive-td3combine-expt_with_safe_fix_again,180,210.25389893836038,11967,17,66.25461983680725,21.82468032836914,-21.654306411743164,7.80231237411499,0.11764705882352941
11,MetaDrive-td3combine-expt_with_safe_fix_again,178,209.70549078110125,12285,18,68.94334769248962,29.346023559570312,-29.61046600341797,10.027533531188965,0.1111111111111111
12,MetaDrive-td3combine-expt_with_safe_fix_again,174,215.7782988566915,13286,19,76.30065298080444,24.59583282470703,,9.478161811828613,0.10526315789473684
13,MetaDrive-td3combine-expt_with_safe_fix_again,170,215.6481797406206,14531,21,85.40665030479431,33.498291015625,-34.39824295043945,7.628109455108643,0.09523809523809523
14,MetaDrive-td3combine-expt_with_safe_fix_again,165,225.35751825097367,15963,23,96.40879392623901,29.938152313232422,-30.346721649169922,3.937335729598999,0.13043478260869565
15,MetaDrive-td3combine-expt_with_safe_fix_again,164,220.42912286067167,16222,24,98.88838791847229,28.00261878967285,,8.081668853759766,0.125
16,MetaDrive-td3combine-expt_with_safe_fix_again,161,221.8221317785357,17223,25,106.85652422904968,26.642534255981445,-26.046850204467773,3.576793670654297,0.12
17,MetaDrive-td3combine-expt_with_safe_fix_again,158,215.9095441488321,18062,27,113.95289254188538,29.072677612304688,,6.688260555267334,0.1111111111111111
18,MetaDrive-td3combine-expt_with_safe_fix_again,154,202.35397258556048,19839,30,128.1507489681244,24.967849731445312,-25.300796508789062,10.172103881835938,0.13333333333333333
19,MetaDrive-td3combine-expt_with_safe_fix_again,153,204.44208075531037,20249,31,131.75217962265015,33.632286071777344,-34.39898681640625,11.83985710144043,0.12903225806451613
20,MetaDrive-td3combine-expt_with_safe_fix_again,151,210.67915830288462,21291,34,140.6771969795227,32.2469482421875,-31.922698974609375,12.46483039855957,0.14705882352941177
21,MetaDrive-td3combine-expt_with_safe_fix_again,150,211.05392578749135,22533,36,149.77105617523193,31.155487060546875,-31.162464141845703,39.06575012207031,0.1388888888888889
22,MetaDrive-td3combine-expt_with_safe_fix_again,149,212.23027344005467,23063,38,154.4163601398468,32.50822830200195,-33.118431091308594,14.784143447875977,0.13157894736842105
23,MetaDrive-td3combine-expt_with_safe_fix_again,147,200.78092196513077,24025,44,162.57966089248657,30.54641342163086,-30.195499420166016,29.313568115234375,0.11363636363636363
24,MetaDrive-td3combine-expt_with_safe_fix_again,145,201.51932716110926,25411,46,174.15825629234314,27.07210922241211,-26.969051361083984,6.632491111755371,0.10869565217391304
25,MetaDrive-td3combine-expt_with_safe_fix_again,145,199.5741861925173,26412,47,181.52046012878418,29.949825286865234,,3.3252859115600586,0.10638297872340426
26,MetaDrive-td3combine-expt_with_safe_fix_again,144,199.86470116774512,27158,50,187.77940678596497,34.120174407958984,,25.78000259399414,0.1
27,MetaDrive-td3combine-expt_with_safe_fix_again,143,194.5969252436585,28111,55,195.94376516342163,31.18482208251953,-30.648696899414062,7.311652183532715,0.09090909090909091
28,MetaDrive-td3combine-expt_with_safe_fix_again,142,186.4725696770147,29874,62,210.21475553512573,33.33890151977539,,14.734357833862305,0.08064516129032258
29,MetaDrive-td3combine-expt_with_safe_fix_again,141,184.55516892919454,30875,63,218.44638872146606,25.64315414428711,-25.30388641357422,4.542959690093994,0.07936507936507936
30,MetaDrive-td3combine-expt_with_safe_fix_again,141,181.58206973193882,31963,65,226.47221446037292,34.10478210449219,-34.532623291015625,6.729290008544922,0.07692307692307693
31,MetaDrive-td3combine-expt_with_safe_fix_again,140,180.68904665917418,32964,66,233.8771369457245,30.28192901611328,,14.866240501403809,0.07575757575757576
32,MetaDrive-td3combine-expt_with_safe_fix_again,140,178.8439182189902,33050,67,234.72460532188416,26.539371490478516,,10.948247909545898,0.07462686567164178
33,MetaDrive-td3combine-expt_with_safe_fix_again,140,172.87496753789117,34927,71,249.26809740066528,35.61317443847656,-35.97458267211914,13.895891189575195,0.07042253521126761
34,MetaDrive-td3combine-expt_with_safe_fix_again,140,172.0557634388441,35057,72,250.32373571395874,29.53935432434082,-28.312929153442383,21.03900718688965,0.06944444444444445
35,MetaDrive-td3combine-expt_with_safe_fix_again,139,163.36149473561292,36090,80,259.2450397014618,36.642791748046875,,33.20028305053711,0.0625
36,MetaDrive-td3combine-expt_with_safe_fix_again,139,162.40340568921965,37091,81,266.6329770088196,35.9256591796875,-35.3127555847168,18.048309326171875,0.06172839506172839
37,MetaDrive-td3combine-expt_with_safe_fix_again,138,158.4263367392951,38356,85,276.53041672706604,35.06060028076172,,15.734289169311523,0.058823529411764705
38,MetaDrive-td3combine-expt_with_safe_fix_again,138,155.3943206501569,39540,88,285.1955728530884,30.494932174682617,,16.22315216064453,0.056818181818181816
39,MetaDrive-td3combine-expt_with_safe_fix_again,138,155.0571288117331,40541,89,292.31885719299316,34.642120361328125,-35.585792541503906,11.240606307983398,0.056179775280898875
40,MetaDrive-td3combine-expt_with_safe_fix_again,138,154.455764206225,41657,91,300.3945474624634,32.94781494140625,-33.58343505859375,6.238155364990234,0.054945054945054944
41,MetaDrive-td3combine-expt_with_safe_fix_again,138,154.2907377971084,42658,92,308.22076511383057,34.7477912902832,,26.10254669189453,0.05434782608695652
42,MetaDrive-td3combine-expt_with_safe_fix_again,138,157.87062585694167,43993,94,318.08108854293823,40.57261276245117,-41.500572204589844,22.703716278076172,0.05319148936170213
43,MetaDrive-td3combine-expt_with_safe_fix_again,138,157.1512786783293,44118,95,319.38188672065735,27.752002716064453,,24.934738159179688,0.05263157894736842
44,MetaDrive-td3combine-expt_with_safe_fix_again,138,156.20444664318953,45119,96,326.6766803264618,34.691776275634766,-36.08782196044922,21.98739242553711,0.052083333333333336
45,MetaDrive-td3combine-expt_with_safe_fix_again,138,155.64177213696706,46120,97,333.9777455329895,34.24607849121094,,12.306661605834961,0.05154639175257732
46,MetaDrive-td3combine-expt_with_safe_fix_again,137,155.98951469781835,47305,99,343.8442895412445,27.80868911743164,-27.343637466430664,6.731446743011475,0.050505050505050504
47,MetaDrive-td3combine-expt_with_safe_fix_again,137,154.99907966918238,48306,100,351.18947863578796,30.10063934326172,,9.422004699707031,0.05
48,MetaDrive-td3combine-expt_with_safe_fix_again,136,157.1419251271141,49200,102,359.45921897888184,30.141225814819336,,13.393007278442383,0.05
49,MetaDrive-td3combine-expt_with_safe_fix_again,136,154.24256254704662,50201,103,366.9411709308624,28.035301208496094,-27.09973907470703,16.912860870361328,0.05
50,MetaDrive-td3combine-expt_with_safe_fix_again,136,156.3433631804771,51503,105,378.304479598999,25.12713050842285,-25.88774871826172,40.20005798339844,0.05
51,MetaDrive-td3combine-expt_with_safe_fix_again,135,156.38273603398065,52182,106,384.4323801994324,25.750938415527344,,54.853416442871094,0.05
52,MetaDrive-td3combine-expt_with_safe_fix_again,135,156.8092542768194,53183,107,392.68904066085815,30.109630584716797,-30.49322509765625,28.560596466064453,0.05
53,MetaDrive-td3combine-expt_with_safe_fix_again,135,157.09472044646884,54184,108,400.67178559303284,28.561412811279297,,5.246624946594238,0.05
54,MetaDrive-td3combine-expt_with_safe_fix_again,135,150.31659490359337,55530,112,410.74714827537537,25.857040405273438,,25.90751838684082,0.05
55,MetaDrive-td3combine-expt_with_safe_fix_again,135,147.9940552849936,56029,114,414.8763632774353,33.793235778808594,-34.77449417114258,6.2512335777282715,0.04
56,MetaDrive-td3combine-expt_with_safe_fix_again,134,146.73468971573763,57034,116,422.7992558479309,30.309173583984375,,11.954508781433105,0.03
57,MetaDrive-td3combine-expt_with_safe_fix_again,134,148.1177756526923,58035,117,430.0568299293518,28.40584373474121,-29.10379409790039,13.861528396606445,0.03
58,MetaDrive-td3combine-expt_with_safe_fix_again,134,143.00313809955875,59168,122,439.30900144577026,25.799217224121094,,12.741304397583008,0.02
59,MetaDrive-td3combine-expt_with_safe_fix_again,134,143.77574500886874,60169,123,446.85594034194946,25.524219512939453,-25.060230255126953,14.698417663574219,0.02
60,MetaDrive-td3combine-expt_with_safe_fix_again,134,142.83298648431196,61294,125,455.84358167648315,31.242305755615234,,7.856147766113281,0.02
61,MetaDrive-td3combine-expt_with_safe_fix_again,134,142.15303407656845,62295,126,463.26454043388367,38.026092529296875,-37.54474639892578,22.43524169921875,0.02
62,MetaDrive-td3combine-expt_with_safe_fix_again,134,141.34693567573217,63296,127,470.93562483787537,28.704877853393555,,6.81162691116333,0.02
63,MetaDrive-td3combine-expt_with_safe_fix_again,134,140.90946799292342,64297,128,478.1154851913452,22.337570190429688,-21.583316802978516,9.05466365814209,0.01
64,MetaDrive-td3combine-expt_with_safe_fix_again,134,147.331112128038,65247,131,486.21488428115845,32.2353515625,-32.577484130859375,45.08200454711914,0.01
65,MetaDrive-td3combine-expt_with_safe_fix_again,134,143.144954662291,66795,134,498.0250415802002,29.02382469177246,-28.241992950439453,21.789443969726562,0.0
66,MetaDrive-td3combine-expt_with_safe_fix_again,134,143.9213639550718,67796,135,505.0021777153015,30.835674285888672,,34.26805114746094,0.0
67,MetaDrive-td3combine-expt_with_safe_fix_again,134,141.79385109255912,68887,137,513.9273297786713,37.83354949951172,-38.47746276855469,9.131078720092773,0.0
68,MetaDrive-td3combine-expt_with_safe_fix_again,133,142.00610667623408,69207,138,516.5301423072815,28.666553497314453,-30.018991470336914,23.242589950561523,0.01
69,MetaDrive-td3combine-expt_with_safe_fix_again,133,141.9986838109228,70208,139,524.0792315006256,35.63275146484375,,17.309688568115234,0.01
70,MetaDrive-td3combine-expt_with_safe_fix_again,133,141.42277102986347,71209,140,532.1250333786011,25.226367950439453,-24.133155822753906,16.380321502685547,0.01
71,MetaDrive-td3combine-expt_with_safe_fix_again,133,141.08775698531463,72895,143,545.0255246162415,26.77611541748047,-27.054527282714844,13.917757034301758,0.02
72,MetaDrive-td3combine-expt_with_safe_fix_again,133,143.24633359825157,73177,144,547.0064001083374,26.493608474731445,-26.704605102539062,5.187786102294922,0.03
73,MetaDrive-td3combine-expt_with_safe_fix_again,133,143.6376337795603,74688,146,558.4876799583435,32.236175537109375,,20.709857940673828,0.03
74,MetaDrive-td3combine-expt_with_safe_fix_again,133,143.79373946038325,75689,147,566.4254977703094,23.812774658203125,-24.96950340270996,17.409957885742188,0.03
75,MetaDrive-td3combine-expt_with_safe_fix_again,133,143.89134952556032,76690,148,574.1731986999512,30.521921157836914,,14.29017162322998,0.03
76,MetaDrive-td3combine-expt_with_safe_fix_again,133,143.766616092503,77939,150,583.7849442958832,29.963890075683594,-30.60936164855957,11.62863540649414,0.03
77,MetaDrive-td3combine-expt_with_safe_fix_again,133,142.12828196744115,78171,151,585.8473987579346,26.012619018554688,-24.51069450378418,24.481807708740234,0.03
78,MetaDrive-td3combine-expt_with_safe_fix_again,133,144.02338828152963,79172,152,593.2898588180542,23.71617889404297,,8.94964599609375,0.03
79,MetaDrive-td3combine-expt_with_safe_fix_again,133,145.3132727023937,80173,153,601.0159299373627,22.785526275634766,-22.15148162841797,11.88433837890625,0.03
80,MetaDrive-td3combine-expt_with_safe_fix_again,133,144.02051183760767,81293,155,609.3121902942657,29.025575637817383,-28.60997772216797,8.763080596923828,0.03
81,MetaDrive-td3combine-expt_with_safe_fix_again,133,144.4587943586898,82294,156,616.9647078514099,31.51803970336914,,13.196849822998047,0.03
82,MetaDrive-td3combine-expt_with_safe_fix_again,133,145.85958596547414,83703,159,627.8188226222992,33.72604751586914,-34.010231018066406,9.716361999511719,0.03
83,MetaDrive-td3combine-expt_with_safe_fix_again,133,146.9975045959514,84073,160,631.208375453949,31.686283111572266,-32.36420440673828,6.347513198852539,0.03
84,MetaDrive-td3combine-expt_with_safe_fix_again,133,148.97420663718646,85074,161,638.3969638347626,30.939924240112305,,10.072421073913574,0.03
85,MetaDrive-td3combine-expt_with_safe_fix_again,133,148.61578696885607,86075,162,645.8035681247711,24.2810115814209,-23.420372009277344,13.54401683807373,0.03
86,MetaDrive-td3combine-expt_with_safe_fix_again,133,150.34921692825327,87295,164,655.2043778896332,26.120147705078125,-26.207256317138672,62.13239669799805,0.03
87,MetaDrive-td3combine-expt_with_safe_fix_again,133,149.8360345614339,88652,166,665.6210114955902,23.955244064331055,,8.587160110473633,0.03
88,MetaDrive-td3combine-expt_with_safe_fix_again,133,151.9836298843496,89283,168,670.9230225086212,19.162616729736328,-19.381549835205078,11.519806861877441,0.03
89,MetaDrive-td3combine-expt_with_safe_fix_again,133,153.32776419938378,90934,172,683.4453654289246,28.529170989990234,,10.572402954101562,0.03
90,MetaDrive-td3combine-expt_with_safe_fix_again,133,155.0712892697554,91935,173,690.7263472080231,26.67814826965332,-28.092504501342773,142.28648376464844,0.03
91,MetaDrive-td3combine-expt_with_safe_fix_again,133,155.90913191624634,92936,174,698.76029753685,27.68396759033203,,20.39651870727539,0.03
92,MetaDrive-td3combine-expt_with_safe_fix_again,132,158.02223492142164,93642,175,704.1561169624329,24.603870391845703,,23.364500045776367,0.03
93,MetaDrive-td3combine-expt_with_safe_fix_again,132,158.92047826476235,94870,178,713.3705608844757,31.104949951171875,,52.962196350097656,0.03
94,MetaDrive-td3combine-expt_with_safe_fix_again,132,159.58741067450367,95102,179,715.3347706794739,26.713546752929688,,35.721736907958984,0.03
95,MetaDrive-td3combine-expt_with_safe_fix_again,132,161.71729966452668,96103,180,722.5922772884369,26.686920166015625,-26.697593688964844,44.75145721435547,0.03
96,MetaDrive-td3combine-expt_with_safe_fix_again,133,165.54779745604574,97655,183,734.1193451881409,25.510765075683594,-25.683853149414062,27.65288543701172,0.03
97,MetaDrive-td3combine-expt_with_safe_fix_again,133,167.9279301355533,98656,184,741.2915885448456,31.19029426574707,,84.847900390625,0.03
98,MetaDrive-td3combine-expt_with_safe_fix_again,133,170.51404179328168,99146,186,745.3316583633423,29.458393096923828,,52.38125991821289,0.04
99,MetaDrive-td3combine-expt_with_safe_fix_again,132,170.0565077402801,100147,187,753.0167789459229,32.716670989990234,-33.40348434448242,41.26361083984375,0.04
100,MetaDrive-td3combine-expt_with_safe_fix_again,133,170.87652948495676,101148,188,760.3417866230011,26.517101287841797,,8.336906433105469,0.04
101,MetaDrive-td3combine-expt_with_safe_fix_again,133,171.1388342119722,102149,189,767.85289478302,29.183605194091797,-29.85723304748535,16.016582489013672,0.04
102,MetaDrive-td3combine-expt_with_safe_fix_again,132,173.1883169668193,103503,191,779.0868871212006,19.669185638427734,-21.040760040283203,19.169782638549805,0.05
103,MetaDrive-td3combine-expt_with_safe_fix_again,132,172.18952182163082,104504,192,786.7191524505615,20.299625396728516,,13.287342071533203,0.05
104,MetaDrive-td3combine-expt_with_safe_fix_again,132,172.3073692433936,105505,193,794.1249248981476,25.050128936767578,-24.388031005859375,23.355236053466797,0.05
105,MetaDrive-td3combine-expt_with_safe_fix_again,132,170.73187223369993,106506,194,801.6391220092773,31.708572387695312,,26.40724754333496,0.05
106,MetaDrive-td3combine-expt_with_safe_fix_again,132,171.26562812436705,107507,195,809.8253111839294,25.591463088989258,-27.869434356689453,35.505706787109375,0.05
107,MetaDrive-td3combine-expt_with_safe_fix_again,132,172.1993282598833,108632,197,818.3654379844666,21.11900520324707,,14.439330101013184,0.05
108,MetaDrive-td3combine-expt_with_safe_fix_again,132,171.09412035324283,109633,198,825.4166302680969,25.00830078125,-26.148401260375977,13.495967864990234,0.05
109,MetaDrive-td3combine-expt_with_safe_fix_again,132,172.1683692428798,110204,201,830.1399219036102,19.753719329833984,,21.496273040771484,0.06
110,MetaDrive-td3combine-expt_with_safe_fix_again,132,173.09371676425167,111609,204,840.798770904541,25.491228103637695,-25.777551651000977,30.90073013305664,0.07
111,MetaDrive-td3combine-expt_with_safe_fix_again,132,173.12294492350887,112610,205,848.1567630767822,30.359968185424805,,29.07480239868164,0.07
112,MetaDrive-td3combine-expt_with_safe_fix_again,132,175.9786902802121,113080,206,851.7112085819244,27.80254364013672,,36.18800354003906,0.08
113,MetaDrive-td3combine-expt_with_safe_fix_again,132,176.6802352209198,114601,208,863.9366672039032,22.41333770751953,-23.477256774902344,28.64447593688965,0.08
114,MetaDrive-td3combine-expt_with_safe_fix_again,132,176.81918872877776,115602,209,872.5736343860626,27.72667694091797,,18.25074005126953,0.08
115,MetaDrive-td3combine-expt_with_safe_fix_again,132,178.82116431842277,116764,211,881.2509596347809,29.959936141967773,,14.18720817565918,0.08
116,MetaDrive-td3combine-expt_with_safe_fix_again,132,178.22989190428987,117765,212,888.4309396743774,28.339811325073242,-28.006628036499023,22.885143280029297,0.08
117,MetaDrive-td3combine-expt_with_safe_fix_again,132,174.1969886457538,118889,214,896.996829032898,36.046695709228516,-36.91466522216797,25.437740325927734,0.08
118,MetaDrive-td3combine-expt_with_safe_fix_again,132,175.51817221181824,119432,215,901.0272560119629,31.56435775756836,,11.86865234375,0.08
119,MetaDrive-td3combine-expt_with_safe_fix_again,132,177.6335247917349,120318,217,908.3169279098511,27.467491149902344,,7.77496337890625,0.09
120,MetaDrive-td3combine-expt_with_safe_fix_again,132,179.79605305759006,121066,220,914.1525619029999,23.30868148803711,,54.65581512451172,0.1
121,MetaDrive-td3combine-expt_with_safe_fix_again,132,179.25700374057132,122288,222,923.6445970535278,33.41875457763672,,15.99538803100586,0.1
122,MetaDrive-td3combine-expt_with_safe_fix_again,132,180.12274061826542,123875,225,936.6817860603333,30.250137329101562,-31.300996780395508,12.956088066101074,0.11
123,MetaDrive-td3combine-expt_with_safe_fix_again,132,180.55683707167165,124876,226,944.2952582836151,38.339805603027344,,20.280445098876953,0.11
124,MetaDrive-td3combine-expt_with_safe_fix_again,132,184.43432749681375,125345,227,948.174341917038,24.72115707397461,-25.469154357910156,13.858957290649414,0.12
125,MetaDrive-td3combine-expt_with_safe_fix_again,132,182.25590705103045,126014,230,953.6750047206879,27.57572364807129,,45.48548889160156,0.13
126,MetaDrive-td3combine-expt_with_safe_fix_again,132,180.79936365970858,127015,231,962.1109504699707,28.681495666503906,-28.634143829345703,30.675277709960938,0.13
127,MetaDrive-td3combine-expt_with_safe_fix_again,131,183.19086960115962,128316,233,972.689418554306,21.698673248291016,,9.765857696533203,0.14
128,MetaDrive-td3combine-expt_with_safe_fix_again,131,185.89356884830065,129206,236,979.4264585971832,11.404438972473145,,12.287723541259766,0.14
129,MetaDrive-td3combine-expt_with_safe_fix_again,131,183.05706994101493,130410,238,988.5967280864716,31.2485294342041,,12.138251304626465,0.13
130,MetaDrive-td3combine-expt_with_safe_fix_again,131,183.95701995347434,131925,242,1000.6807868480682,35.48773193359375,-35.02923583984375,12.733821868896484,0.12
131,MetaDrive-td3combine-expt_with_safe_fix_again,131,183.1842794112979,132016,243,1001.7912738323212,24.810653686523438,,40.75811767578125,0.12
132,MetaDrive-td3combine-expt_with_safe_fix_again,131,179.60214041356372,133212,245,1011.1089103221893,29.411109924316406,,17.44727897644043,0.11
133,MetaDrive-td3combine-expt_with_safe_fix_again,131,179.85078408794132,134213,246,1018.5068533420563,26.37910270690918,-26.935760498046875,26.19301986694336,0.11
134,MetaDrive-td3combine-expt_with_safe_fix_again,131,184.15939910903955,135192,249,1026.3241274356842,18.896461486816406,,24.277565002441406,0.13
135,MetaDrive-td3combine-expt_with_safe_fix_again,131,181.78542578607673,136893,253,1039.633573770523,20.850576400756836,-21.121278762817383,8.435580253601074,0.14
136,MetaDrive-td3combine-expt_with_safe_fix_again,131,181.51171922317084,137894,254,1047.311348438263,28.778118133544922,,40.213401794433594,0.14
137,MetaDrive-td3combine-expt_with_safe_fix_again,131,183.1947132195068,138888,255,1054.6070070266724,33.102874755859375,,12.17393684387207,0.14
138,MetaDrive-td3combine-expt_with_safe_fix_again,131,183.8088234329736,139889,256,1061.778238773346,28.71411895751953,-29.591171264648438,36.79985809326172,0.14
139,MetaDrive-td3combine-expt_with_safe_fix_again,131,185.56416096305446,140193,257,1064.1322400569916,32.19472885131836,-32.589195251464844,18.882396697998047,0.15
140,MetaDrive-td3combine-expt_with_safe_fix_again,131,183.65011253300648,141506,260,1075.120445728302,29.410842895507812,,9.380849838256836,0.15
141,MetaDrive-td3combine-expt_with_safe_fix_again,131,184.7064316181503,142076,262,1080.1813497543335,18.347103118896484,,10.510611534118652,0.16
142,MetaDrive-td3combine-expt_with_safe_fix_again,131,184.54826337800142,143182,264,1088.9147510528564,36.920928955078125,,19.735118865966797,0.16
143,MetaDrive-td3combine-expt_with_safe_fix_again,131,184.8768215248597,144183,265,1096.1156322956085,22.94989776611328,-22.54753875732422,9.143077850341797,0.16
144,MetaDrive-td3combine-expt_with_safe_fix_again,131,185.78068542860265,145184,266,1103.3126516342163,26.87299346923828,,20.90904998779297,0.16
145,MetaDrive-td3combine-expt_with_safe_fix_again,131,185.8683248326612,146185,267,1111.0361332893372,27.99688720703125,-28.6690616607666,35.527061462402344,0.16
146,MetaDrive-td3combine-expt_with_safe_fix_again,131,185.44474149935675,147186,268,1118.328281879425,32.0585823059082,,18.386821746826172,0.16
147,MetaDrive-td3combine-expt_with_safe_fix_again,131,186.77576213053,148187,269,1127.0278058052063,24.890323638916016,-24.880443572998047,32.794219970703125,0.16
148,MetaDrive-td3combine-expt_with_safe_fix_again,131,187.3259764868865,149380,271,1136.1488082408905,40.26948547363281,,17.840190887451172,0.16
149,MetaDrive-td3combine-expt_with_safe_fix_again,131,185.36749403963643,150480,273,1144.6218283176422,42.65540313720703,,32.28229522705078,0.16
150,MetaDrive-td3combine-expt_with_safe_fix_again,131,183.735092804204,151808,275,1154.2789208889008,26.462575912475586,,10.92167854309082,0.17
151,MetaDrive-td3combine-expt_with_safe_fix_again,131,184.51442742848528,152260,276,1157.9336137771606,23.984378814697266,,14.616659164428711,0.17
152,MetaDrive-td3combine-expt_with_safe_fix_again,131,183.7840378915758,153583,278,1168.2517719268799,24.72726058959961,-24.81446075439453,16.108905792236328,0.17
153,MetaDrive-td3combine-expt_with_safe_fix_again,131,183.0186621728128,154269,279,1173.5616431236267,37.41466522216797,-38.37627410888672,42.15498352050781,0.17
154,MetaDrive-td3combine-expt_with_safe_fix_again,131,184.1265810193042,155022,282,1180.0649106502533,18.361330032348633,,18.297468185424805,0.18
155,MetaDrive-td3combine-expt_with_safe_fix_again,131,184.5082875864316,156580,284,1192.8179285526276,28.889135360717773,,21.47437286376953,0.18
156,MetaDrive-td3combine-expt_with_safe_fix_again,131,183.73162919992558,157019,286,1196.6368222236633,29.057849884033203,-30.660945892333984,18.320777893066406,0.17
157,MetaDrive-td3combine-expt_with_safe_fix_again,131,183.62114526336518,158267,290,1205.936415195465,24.461063385009766,-23.617502212524414,13.085704803466797,0.17
158,MetaDrive-td3combine-expt_with_safe_fix_again,131,182.92562060154572,159268,291,1213.5494463443756,31.398103713989258,,48.298370361328125,0.17
159,MetaDrive-td3combine-expt_with_safe_fix_again,131,183.3120654827129,160269,292,1220.9071815013885,23.595111846923828,-23.46457290649414,15.2364501953125,0.17
160,MetaDrive-td3combine-expt_with_safe_fix_again,131,181.9344535291359,161169,296,1227.7594485282898,30.203807830810547,-30.541799545288086,46.086612701416016,0.18
161,MetaDrive-td3combine-expt_with_safe_fix_again,131,181.08867669136242,162170,297,1235.579121351242,29.419235229492188,,28.266294479370117,0.18
162,MetaDrive-td3combine-expt_with_safe_fix_again,131,187.7865201356125,163121,300,1243.4114956855774,27.661266326904297,-29.912494659423828,63.82367706298828,0.19
163,MetaDrive-td3combine-expt_with_safe_fix_again,131,185.4693331209849,164122,301,1250.9516270160675,18.656600952148438,,28.493953704833984,0.18
164,MetaDrive-td3combine-expt_with_safe_fix_again,131,185.24985577900839,165767,304,1263.7118899822235,27.058725357055664,-27.503787994384766,19.257644653320312,0.17
165,MetaDrive-td3combine-expt_with_safe_fix_again,131,180.7963977259968,166951,306,1273.1161007881165,29.143024444580078,-31.128711700439453,24.702899932861328,0.16
166,MetaDrive-td3combine-expt_with_safe_fix_again,131,180.7134719774429,167442,307,1277.471743106842,29.12506866455078,,95.70088195800781,0.16
167,MetaDrive-td3combine-expt_with_safe_fix_again,131,182.88136928460062,168443,308,1284.5845003128052,32.27345657348633,-33.17847442626953,17.517024993896484,0.16
168,MetaDrive-td3combine-expt_with_safe_fix_again,131,182.88502070135547,169444,309,1292.8097043037415,29.76352882385254,,48.994728088378906,0.16
169,MetaDrive-td3combine-expt_with_safe_fix_again,131,181.76616128636908,170091,311,1298.0140526294708,26.611492156982422,-27.41747283935547,37.46754455566406,0.16
170,MetaDrive-td3combine-expt_with_safe_fix_again,131,184.30682772109,171190,313,1305.8584351539612,27.45226287841797,,45.82745361328125,0.16
171,MetaDrive-td3combine-expt_with_safe_fix_again,131,182.10343397539194,172113,316,1313.086404800415,35.3555793762207,-35.1101188659668,8.838859558105469,0.15
172,MetaDrive-td3combine-expt_with_safe_fix_again,130,182.51319592223302,173102,319,1321.8309297561646,43.69171905517578,,104.5869140625,0.14
173,MetaDrive-td3combine-expt_with_safe_fix_again,130,179.1819530918141,174757,323,1334.9425041675568,34.406028747558594,-35.21456527709961,8.175071716308594,0.13
174,MetaDrive-td3combine-expt_with_safe_fix_again,130,178.3298909361058,175885,325,1342.9584317207336,36.275169372558594,-37.15752410888672,52.733123779296875,0.13
175,MetaDrive-td3combine-expt_with_safe_fix_again,130,178.89362763880285,176151,326,1345.618944644928,18.53738021850586,-18.529598236083984,18.816898345947266,0.13
176,MetaDrive-td3combine-expt_with_safe_fix_again,130,175.4117553243578,177152,327,1353.20662856102,28.372299194335938,,65.42356872558594,0.12
177,MetaDrive-td3combine-expt_with_safe_fix_again,130,172.44025365021204,178008,330,1360.3350031375885,25.827884674072266,,16.60067367553711,0.11
178,MetaDrive-td3combine-expt_with_safe_fix_again,130,173.17897930064333,179035,333,1369.1026129722595,24.264522552490234,-24.88288116455078,26.691162109375,0.1
179,MetaDrive-td3combine-expt_with_safe_fix_again,130,171.13779716546765,180036,334,1376.6619763374329,25.421566009521484,,22.00643539428711,0.1
180,MetaDrive-td3combine-expt_with_safe_fix_again,130,170.31875822201934,181037,335,1383.9146020412445,22.38785171508789,-23.155719757080078,5.050815105438232,0.1
181,MetaDrive-td3combine-expt_with_safe_fix_again,130,173.37113042673883,182190,340,1393.45552110672,27.576305389404297,,31.368389129638672,0.12
182,MetaDrive-td3combine-expt_with_safe_fix_again,130,172.25564292797145,183309,342,1402.2330906391144,28.996591567993164,-31.069316864013672,46.54266357421875,0.12
183,MetaDrive-td3combine-expt_with_safe_fix_again,130,173.1959930913598,184565,344,1411.7206408977509,29.863914489746094,-29.90407943725586,21.466886520385742,0.12
184,MetaDrive-td3combine-expt_with_safe_fix_again,130,174.63035334693566,185139,346,1416.7545738220215,30.69900894165039,-31.28514862060547,14.606355667114258,0.12
185,MetaDrive-td3combine-expt_with_safe_fix_again,130,176.17639815677086,186140,347,1424.8234083652496,34.951202392578125,,46.402183532714844,0.12
186,MetaDrive-td3combine-expt_with_safe_fix_again,130,173.97204789352298,187141,348,1431.827404975891,34.13007736206055,-33.107669830322266,31.52206039428711,0.11
187,MetaDrive-td3combine-expt_with_safe_fix_again,130,172.7207247651009,188270,350,1441.400140285492,33.2574348449707,,46.301673889160156,0.1
188,MetaDrive-td3combine-expt_with_safe_fix_again,130,172.28265824961719,189007,353,1447.5327553749084,33.192325592041016,-32.34551239013672,17.813852310180664,0.09
189,MetaDrive-td3combine-expt_with_safe_fix_again,130,173.02553924108636,190008,354,1455.2055637836456,34.7830810546875,,74.76052856445312,0.09
190,MetaDrive-td3combine-expt_with_safe_fix_again,130,171.34787679233,191432,357,1466.082231760025,37.34638977050781,,16.94365882873535,0.08
191,MetaDrive-td3combine-expt_with_safe_fix_again,130,173.06539504255895,192189,360,1472.6541330814362,21.20238494873047,-21.172889709472656,12.720660209655762,0.09
192,MetaDrive-td3combine-expt_with_safe_fix_again,130,171.00302513571205,193923,363,1485.8304138183594,20.124881744384766,-20.52730369567871,14.174112319946289,0.08
193,MetaDrive-td3combine-expt_with_safe_fix_again,130,170.85349622159958,194217,364,1488.4803829193115,25.55164337158203,-24.74026870727539,8.063798904418945,0.08
194,MetaDrive-td3combine-expt_with_safe_fix_again,130,170.9992586185914,195347,366,1497.7504069805145,24.159164428710938,-24.73593521118164,22.694217681884766,0.08
195,MetaDrive-td3combine-expt_with_safe_fix_again,130,175.18843914383652,196141,368,1504.8735790252686,22.217418670654297,-22.324209213256836,19.528045654296875,0.08
196,MetaDrive-td3combine-expt_with_safe_fix_again,130,178.78572568654573,197403,371,1515.6788401603699,35.78081130981445,-36.30018615722656,12.315450668334961,0.09
197,MetaDrive-td3combine-expt_with_safe_fix_again,130,179.5283340908594,198404,372,1523.6203544139862,32.116539001464844,,52.284027099609375,0.09
198,MetaDrive-td3combine-expt_with_safe_fix_again,130,181.23373935831572,199108,375,1529.5501012802124,24.33010482788086,,15.891380310058594,0.08
199,MetaDrive-td3combine-expt_with_safe_fix_again,130,184.46299400355826,200532,377,1540.413834810257,33.44147872924805,,42.52082824707031,0.09
200,MetaDrive-td3combine-expt_with_safe_fix_again,130,184.40532556486895,201533,378,1547.8780040740967,27.063716888427734,-27.645160675048828,12.006837844848633,0.09
201,MetaDrive-td3combine-expt_with_safe_fix_again,130,187.28488343103146,202213,379,1552.9268925189972,26.99416732788086,-26.732221603393555,17.349027633666992,0.1
202,MetaDrive-td3combine-expt_with_safe_fix_again,130,187.26205495188523,203214,380,1560.7138650417328,21.3406982421875,,9.977371215820312,0.1
203,MetaDrive-td3combine-expt_with_safe_fix_again,130,184.0559313199074,204866,383,1574.3204698562622,30.4736328125,,23.030315399169922,0.1
204,MetaDrive-td3combine-expt_with_safe_fix_again,130,185.23162240752654,205867,384,1581.6664144992828,18.950477600097656,-18.92119598388672,9.499189376831055,0.1
205,MetaDrive-td3combine-expt_with_safe_fix_again,130,185.14235130768418,206115,385,1583.702482700348,33.76459884643555,-33.71882629394531,17.49909210205078,0.1
206,MetaDrive-td3combine-expt_with_safe_fix_again,130,185.05275014430387,207819,388,1596.6552057266235,30.069372177124023,-29.928627014160156,13.441840171813965,0.09
207,MetaDrive-td3combine-expt_with_safe_fix_again,130,185.55597444579556,208820,389,1604.8610734939575,18.911697387695312,,24.05190658569336,0.09
208,MetaDrive-td3combine-expt_with_safe_fix_again,130,186.23287934267205,209821,390,1612.0697617530823,24.547746658325195,-25.34150505065918,28.720340728759766,0.09
209,MetaDrive-td3combine-expt_with_safe_fix_again,130,187.55627956207485,210028,391,1614.219556570053,27.471363067626953,,10.47492790222168,0.09
210,MetaDrive-td3combine-expt_with_safe_fix_again,130,192.91794209172232,211319,394,1624.1114485263824,27.300981521606445,-26.753265380859375,17.134855270385742,0.11
211,MetaDrive-td3combine-expt_with_safe_fix_again,130,191.27550082119615,212737,397,1635.0498929023743,23.807415008544922,-23.435726165771484,29.73300552368164,0.1
212,MetaDrive-td3combine-expt_with_safe_fix_again,130,189.31965736307797,213276,398,1639.5334055423737,24.402114868164062,,32.56889343261719,0.1
213,MetaDrive-td3combine-expt_with_safe_fix_again,130,186.84792763500184,214518,400,1649.8360056877136,26.439252853393555,,26.35195541381836,0.09
214,MetaDrive-td3combine-expt_with_safe_fix_again,130,191.6788648418491,215441,402,1656.9687206745148,28.404571533203125,-28.978038787841797,49.823177337646484,0.11
215,MetaDrive-td3combine-expt_with_safe_fix_again,129,189.0473752705832,216102,404,1662.5824673175812,32.62653732299805,,25.723915100097656,0.11
216,MetaDrive-td3combine-expt_with_safe_fix_again,130,191.80363313175957,217593,406,1673.6736538410187,25.27261734008789,-27.198217391967773,22.7774715423584,0.12
217,MetaDrive-td3combine-expt_with_safe_fix_again,130,188.9480025635583,218985,408,1683.7625195980072,27.464309692382812,-29.4056453704834,24.939746856689453,0.12
218,MetaDrive-td3combine-expt_with_safe_fix_again,130,188.24365874764572,219986,409,1691.1723430156708,23.527973175048828,,15.8785400390625,0.12
219,MetaDrive-td3combine-expt_with_safe_fix_again,130,187.93943044556752,220987,410,1698.8962166309357,34.74212646484375,-35.38184356689453,13.357608795166016,0.12
220,MetaDrive-td3combine-expt_with_safe_fix_again,130,189.07383859993087,221988,411,1706.130446434021,32.66840362548828,,22.3265323638916,0.12
221,MetaDrive-td3combine-expt_with_safe_fix_again,130,191.4505221382141,222376,412,1710.0998120307922,14.852256774902344,,25.916378021240234,0.12
222,MetaDrive-td3combine-expt_with_safe_fix_again,129,191.88767790009217,223069,414,1716.1545011997223,26.84418296813965,-26.77071762084961,14.961767196655273,0.13
223,MetaDrive-td3combine-expt_with_safe_fix_again,129,191.05065832504542,224070,415,1723.7991983890533,23.918611526489258,,24.97020149230957,0.13
224,MetaDrive-td3combine-expt_with_safe_fix_again,130,190.4298355182795,225071,416,1731.044830083847,20.1964054107666,-20.783021926879883,34.006431579589844,0.13
225,MetaDrive-td3combine-expt_with_safe_fix_again,129,189.97159081848648,226708,419,1744.2344870567322,22.45831298828125,,23.383869171142578,0.13
226,MetaDrive-td3combine-expt_with_safe_fix_again,129,191.97669997154742,227158,420,1747.7882282733917,25.210012435913086,,23.118919372558594,0.13
227,MetaDrive-td3combine-expt_with_safe_fix_again,129,192.94932217343546,228636,423,1759.6681306362152,16.458948135375977,,21.960617065429688,0.13
228,MetaDrive-td3combine-expt_with_safe_fix_again,129,190.84252211032523,229820,425,1768.2751915454865,22.877126693725586,,21.240676879882812,0.13
229,MetaDrive-td3combine-expt_with_safe_fix_again,129,191.01771986008632,230821,426,1776.5314564704895,24.34123992919922,-25.184215545654297,21.74747085571289,0.13
230,MetaDrive-td3combine-expt_with_safe_fix_again,129,190.87279274068086,231822,427,1783.9046342372894,20.287199020385742,,30.00827407836914,0.13
231,MetaDrive-td3combine-expt_with_safe_fix_again,129,192.54713080260936,232166,428,1787.177363395691,26.173622131347656,,30.661510467529297,0.13
232,MetaDrive-td3combine-expt_with_safe_fix_again,129,191.45731955004666,233387,432,1796.8015723228455,24.769187927246094,-25.665767669677734,13.277715682983398,0.13
233,MetaDrive-td3combine-expt_with_safe_fix_again,129,193.77956989785054,234483,434,1805.2031381130219,16.50185203552246,-17.87813949584961,40.00817108154297,0.14
234,MetaDrive-td3combine-expt_with_safe_fix_again,129,196.70839806738383,235165,436,1810.412721157074,25.400922775268555,-24.970216751098633,155.6894989013672,0.15
235,MetaDrive-td3combine-expt_with_safe_fix_again,129,192.87848138918798,236856,440,1822.792729139328,44.38533020019531,,19.966720581054688,0.14
236,MetaDrive-td3combine-expt_with_safe_fix_again,129,193.53021908603958,237071,441,1824.4900419712067,20.910512924194336,-21.028709411621094,18.845966339111328,0.14
237,MetaDrive-td3combine-expt_with_safe_fix_again,129,196.33778816248375,238082,444,1832.7209477424622,16.425979614257812,,21.269203186035156,0.15
238,MetaDrive-td3combine-expt_with_safe_fix_again,129,194.89157341597186,239811,448,1845.9952437877655,20.441822052001953,-21.411863327026367,13.613269805908203,0.16
239,MetaDrive-td3combine-expt_with_safe_fix_again,129,196.06073145060418,240058,449,1848.1366567611694,25.840492248535156,,32.14029312133789,0.16
240,MetaDrive-td3combine-expt_with_safe_fix_again,129,196.28282113112206,241137,453,1856.0694670677185,17.744953155517578,-17.074182510375977,42.711666107177734,0.17
241,MetaDrive-td3combine-expt_with_safe_fix_again,129,197.6004294734251,242138,454,1863.6381554603577,31.03162384033203,,22.381078720092773,0.17
242,MetaDrive-td3combine-expt_with_safe_fix_again,129,199.54617419782286,243139,455,1871.3600351810455,22.440105438232422,-23.464519500732422,33.143577575683594,0.17
243,MetaDrive-td3combine-expt_with_safe_fix_again,129,199.7976411841784,244724,457,1883.7669398784637,27.411558151245117,,8.717975616455078,0.17
244,MetaDrive-td3combine-expt_with_safe_fix_again,129,199.72879509545885,245911,459,1892.2911591529846,22.227882385253906,-23.046932220458984,16.395742416381836,0.17
245,MetaDrive-td3combine-expt_with_safe_fix_again,129,200.72827403138942,246492,460,1897.220707654953,13.88523006439209,,17.050376892089844,0.17
246,MetaDrive-td3combine-expt_with_safe_fix_again,129,204.15131884436673,247134,462,1902.079770565033,26.64889907836914,,17.125469207763672,0.17
247,MetaDrive-td3combine-expt_with_safe_fix_again,129,206.68204232406111,248159,464,1910.3134784698486,23.76931381225586,-24.415584564208984,7.722670078277588,0.18
248,MetaDrive-td3combine-expt_with_safe_fix_again,129,208.37436901821727,249156,467,1918.1736073493958,30.245403289794922,,32.03832244873047,0.19
249,MetaDrive-td3combine-expt_with_safe_fix_again,129,203.0172572236493,250180,469,1926.9447865486145,24.107406616210938,,9.526914596557617,0.19
250,MetaDrive-td3combine-expt_with_safe_fix_again,129,201.25341203372523,251181,470,1933.8716704845428,23.360000610351562,-23.85215950012207,25.064815521240234,0.19
251,MetaDrive-td3combine-expt_with_safe_fix_again,129,202.8974653733022,252973,473,1947.4470796585083,22.822521209716797,-23.34621238708496,24.22248077392578,0.19
252,MetaDrive-td3combine-expt_with_safe_fix_again,129,202.62875826929942,253974,474,1954.3739094734192,32.95812225341797,,27.948959350585938,0.19
253,MetaDrive-td3combine-expt_with_safe_fix_again,129,203.4025614813411,254365,475,1957.3857893943787,29.864883422851562,-29.686885833740234,21.350122451782227,0.2
254,MetaDrive-td3combine-expt_with_safe_fix_again,129,200.95662730084885,255910,478,1969.0077664852142,20.046138763427734,,8.638568878173828,0.19
255,MetaDrive-td3combine-expt_with_safe_fix_again,129,198.1261768075725,256005,479,1969.968667268753,25.84646224975586,-25.945375442504883,8.458174705505371,0.18
256,MetaDrive-td3combine-expt_with_safe_fix_again,129,195.17617636578646,257605,483,1982.1648161411285,25.497760772705078,-25.622154235839844,23.43698501586914,0.17
257,MetaDrive-td3combine-expt_with_safe_fix_again,129,192.93020733634958,258772,485,1991.0369277000427,37.56780242919922,,63.190704345703125,0.17
258,MetaDrive-td3combine-expt_with_safe_fix_again,130,189.2157081736077,259773,486,1998.2106976509094,26.81993865966797,-28.89452362060547,70.59616088867188,0.17
259,MetaDrive-td3combine-expt_with_safe_fix_again,129,191.2115795840362,260251,487,2002.4568600654602,19.588842391967773,-19.512413024902344,27.328052520751953,0.17
260,MetaDrive-td3combine-expt_with_safe_fix_again,129,192.4053959975779,261252,488,2010.186543226242,24.35892105102539,,29.109159469604492,0.17
261,MetaDrive-td3combine-expt_with_safe_fix_again,129,193.56524292479645,262538,490,2020.8247303962708,28.12765121459961,,24.342845916748047,0.17
262,MetaDrive-td3combine-expt_with_safe_fix_again,129,192.97782679087402,263539,491,2028.5442140102386,22.157270431518555,-22.21065902709961,16.00442886352539,0.17
263,MetaDrive-td3combine-expt_with_safe_fix_again,129,195.0523517066405,264110,492,2033.2491190433502,23.678489685058594,,6.93679141998291,0.17
264,MetaDrive-td3combine-expt_with_safe_fix_again,129,191.8609116577014,265269,494,2041.8017756938934,24.745365142822266,-25.77631378173828,84.3321304321289,0.16
265,MetaDrive-td3combine-expt_with_safe_fix_again,129,196.05325566923534,266166,496,2048.3594386577606,17.271867752075195,,15.904508590698242,0.18
266,MetaDrive-td3combine-expt_with_safe_fix_again,129,196.7622502902559,267033,497,2054.8874554634094,23.152175903320312,-24.205284118652344,10.935199737548828,0.18
267,MetaDrive-td3combine-expt_with_safe_fix_again,129,197.3355975857372,268034,498,2062.160715341568,35.535606384277344,,32.338966369628906,0.18
268,MetaDrive-td3combine-expt_with_safe_fix_again,130,195.9146624293532,269035,499,2069.333048582077,22.466983795166016,-22.346946716308594,43.20093536376953,0.18
269,MetaDrive-td3combine-expt_with_safe_fix_again,129,196.7702447561165,270036,500,2077.32160449028,22.092456817626953,,19.396862030029297,0.18
270,MetaDrive-td3combine-expt_with_safe_fix_again,129,198.10894551525988,271666,502,2089.7455010414124,19.37828254699707,,32.499244689941406,0.16
271,MetaDrive-td3combine-expt_with_safe_fix_again,130,200.5625070324665,272116,503,2093.0542085170746,29.706676483154297,,25.10128402709961,0.16
272,MetaDrive-td3combine-expt_with_safe_fix_again,130,198.3226044697236,273377,505,2102.309642791748,22.385629653930664,-23.0252742767334,21.624141693115234,0.15
273,MetaDrive-td3combine-expt_with_safe_fix_again,130,199.3927987728558,274378,506,2109.8225317001343,29.845443725585938,,20.057861328125,0.15
274,MetaDrive-td3combine-expt_with_safe_fix_again,130,197.70100166010292,275645,508,2119.060091972351,26.60289764404297,-26.035114288330078,15.320070266723633,0.15
275,MetaDrive-td3combine-expt_with_safe_fix_again,130,199.27194379178366,276114,510,2122.9251985549927,26.883342742919922,,15.970579147338867,0.15
276,MetaDrive-td3combine-expt_with_safe_fix_again,130,198.42832329332333,277115,511,2130.1418890953064,19.79749298095703,-21.18511390686035,52.49630355834961,0.15
277,MetaDrive-td3combine-expt_with_safe_fix_again,130,197.57607738895462,278116,512,2138.185346364975,25.436546325683594,,29.302085876464844,0.15
278,MetaDrive-td3combine-expt_with_safe_fix_again,130,196.6267914780822,279117,513,2145.7147114276886,20.375715255737305,-21.51788902282715,10.805977821350098,0.15
279,MetaDrive-td3combine-expt_with_safe_fix_again,130,196.25254105711932,280540,515,2157.1286256313324,21.565834045410156,,15.83216381072998,0.15
280,MetaDrive-td3combine-expt_with_safe_fix_again,130,198.09995909918075,281541,516,2164.1763846874237,23.063478469848633,-25.451414108276367,17.593109130859375,0.15
281,MetaDrive-td3combine-expt_with_safe_fix_again,130,194.41760219490558,282161,519,2169.2900891304016,24.60696029663086,-24.3019962310791,14.411253929138184,0.15
282,MetaDrive-td3combine-expt_with_safe_fix_again,130,192.98354526334595,283162,520,2177.1677792072296,20.907703399658203,,82.6844482421875,0.15
283,MetaDrive-td3combine-expt_with_safe_fix_again,130,192.85908279609845,284839,522,2189.9801738262177,28.89641571044922,-29.077136993408203,9.371910095214844,0.15
284,MetaDrive-td3combine-expt_with_safe_fix_again,130,193.80525048427808,285840,523,2197.295867204666,28.011598587036133,,27.53561782836914,0.15
285,MetaDrive-td3combine-expt_with_safe_fix_again,130,194.8824663160649,286607,524,2203.934410095215,23.656240463256836,-23.07815170288086,20.69645118713379,0.15
286,MetaDrive-td3combine-expt_with_safe_fix_again,130,195.45543370565414,287063,525,2207.4591739177704,20.058395385742188,-21.463180541992188,31.177391052246094,0.15
287,MetaDrive-td3combine-expt_with_safe_fix_again,130,196.0624186623058,288320,527,2216.9018564224243,27.11394691467285,,25.699920654296875,0.15
288,MetaDrive-td3combine-expt_with_safe_fix_again,130,193.20397908515548,289735,530,2227.0546429157257,13.3797607421875,-15.229235649108887,20.256162643432617,0.15
289,MetaDrive-td3combine-expt_with_safe_fix_again,130,189.92769207021453,290987,533,2236.9181575775146,28.3880558013916,-28.896379470825195,12.6864013671875,0.14
290,MetaDrive-td3combine-expt_with_safe_fix_again,130,192.79857464641555,291546,534,2241.1607711315155,29.326244354248047,,25.46097755432129,0.14
291,MetaDrive-td3combine-expt_with_safe_fix_again,130,194.23252113387008,292547,535,2248.511139154434,21.325946807861328,-20.30419158935547,13.917871475219727,0.14
292,MetaDrive-td3combine-expt_with_safe_fix_again,130,196.08302267127664,293445,537,2255.8085396289825,21.790328979492188,-22.083221435546875,11.803926467895508,0.14
293,MetaDrive-td3combine-expt_with_safe_fix_again,130,197.97914469962674,294446,538,2263.784764289856,24.721988677978516,,13.039533615112305,0.14
294,MetaDrive-td3combine-expt_with_safe_fix_again,130,199.78039640671014,295328,541,2271.306257724762,34.128562927246094,,23.111066818237305,0.14
295,MetaDrive-td3combine-expt_with_safe_fix_again,130,196.89432153618395,296715,544,2282.3233649730682,20.437118530273438,-22.151866912841797,17.143543243408203,0.13
296,MetaDrive-td3combine-expt_with_safe_fix_again,130,194.9715003980714,297233,546,2286.1378712654114,29.59282684326172,-30.508644104003906,27.825838088989258,0.12
297,MetaDrive-td3combine-expt_with_safe_fix_again,130,197.85639330451744,298141,548,2292.889544248581,25.064586639404297,-25.161273956298828,7.425002574920654,0.12
298,MetaDrive-td3combine-expt_with_safe_fix_again,130,199.32551182649595,299142,549,2300.068281650543,29.710979461669922,,25.869674682617188,0.12
299,MetaDrive-td3combine-expt_with_safe_fix_again,130,198.1059271391778,300839,553,2314.1262567043304,28.707983016967773,-29.200103759765625,18.380779266357422,0.11
300,MetaDrive-td3combine-expt_with_safe_fix_again,129,197.51268825716178,301840,554,2322.0856890678406,20.206218719482422,,26.01900291442871,0.11
301,MetaDrive-td3combine-expt_with_safe_fix_again,129,195.50296747925356,302028,555,2323.6592757701874,23.76028060913086,,25.92035675048828,0.11
302,MetaDrive-td3combine-expt_with_safe_fix_again,129,197.85091922761833,303332,559,2333.7717847824097,23.246137619018555,,7.6748223304748535,0.12
303,MetaDrive-td3combine-expt_with_safe_fix_again,129,195.25541743787372,304333,560,2341.3493468761444,26.890254974365234,-27.549301147460938,21.7982177734375,0.11
304,MetaDrive-td3combine-expt_with_safe_fix_again,130,193.23988736096194,305334,561,2348.2506704330444,27.713592529296875,,16.033287048339844,0.11
305,MetaDrive-td3combine-expt_with_safe_fix_again,130,192.58329283547903,306518,563,2357.6561784744263,18.672441482543945,,12.711418151855469,0.11
306,MetaDrive-td3combine-expt_with_safe_fix_again,129,192.18280944443205,307245,565,2363.4779658317566,27.320960998535156,-27.7246036529541,21.911760330200195,0.11
307,MetaDrive-td3combine-expt_with_safe_fix_again,129,189.4112838458369,308001,569,2369.529016494751,23.69182014465332,-25.502885818481445,24.051471710205078,0.11
308,MetaDrive-td3combine-expt_with_safe_fix_again,130,185.24026501296586,309269,571,2378.6423258781433,39.760032653808594,-40.226749420166016,22.941925048828125,0.1
309,MetaDrive-td3combine-expt_with_safe_fix_again,129,190.91076162737966,310300,573,2386.9885289669037,23.55182647705078,,67.63863372802734,0.12
310,MetaDrive-td3combine-expt_with_safe_fix_again,130,190.13337488355393,311177,574,2393.2719933986664,24.505252838134766,-25.070510864257812,26.942943572998047,0.12
311,MetaDrive-td3combine-expt_with_safe_fix_again,129,187.8668626138329,312169,576,2401.8034946918488,18.152740478515625,-16.92777442932129,9.523653030395508,0.11
312,MetaDrive-td3combine-expt_with_safe_fix_again,130,189.91978727918698,313679,578,2412.9078788757324,36.64107131958008,-36.36703872680664,12.779029846191406,0.12
313,MetaDrive-td3combine-expt_with_safe_fix_again,130,190.45267950500954,314680,579,2419.747913837433,23.949050903320312,,16.879409790039062,0.12
314,MetaDrive-td3combine-expt_with_safe_fix_again,130,191.7096633502936,315681,580,2427.1045949459076,21.397480010986328,-21.511474609375,45.189186096191406,0.12
315,MetaDrive-td3combine-expt_with_safe_fix_again,130,194.21800632992984,316091,581,2430.526727437973,24.01382064819336,-23.753923416137695,19.22307014465332,0.13
316,MetaDrive-td3combine-expt_with_safe_fix_again,130,193.35615330105986,317250,583,2439.0069737434387,24.57475471496582,,23.359216690063477,0.13
317,MetaDrive-td3combine-expt_with_safe_fix_again,130,193.40672475990817,318873,585,2451.022959947586,29.2869930267334,-30.0830078125,17.84311294555664,0.13
318,MetaDrive-td3combine-expt_with_safe_fix_again,130,194.2348687570151,319032,586,2452.374992609024,30.13345718383789,,41.683937072753906,0.13
319,MetaDrive-td3combine-expt_with_safe_fix_again,130,194.97879300406854,320710,589,2465.0425226688385,38.7893180847168,,31.414642333984375,0.14
320,MetaDrive-td3combine-expt_with_safe_fix_again,130,193.80136447563748,321711,590,2472.3921387195587,24.182628631591797,-24.13655662536621,16.79029083251953,0.14
321,MetaDrive-td3combine-expt_with_safe_fix_again,130,192.90676381159903,322433,592,2477.7028806209564,19.836030960083008,-21.148405075073242,7.628838062286377,0.14
322,MetaDrive-td3combine-expt_with_safe_fix_again,130,195.61856689014712,323434,593,2485.174988746643,13.22900390625,,8.730611801147461,0.14
323,MetaDrive-td3combine-expt_with_safe_fix_again,130,190.72889656742075,324702,596,2495.8482654094696,20.895984649658203,,14.443931579589844,0.12
324,MetaDrive-td3combine-expt_with_safe_fix_again,130,189.09312864891217,325364,598,2500.803465604782,24.30504608154297,,9.516891479492188,0.12
325,MetaDrive-td3combine-expt_with_safe_fix_again,130,185.2255155751462,326795,601,2511.9819498062134,16.9113826751709,-18.031200408935547,19.877620697021484,0.12
326,MetaDrive-td3combine-expt_with_safe_fix_again,130,184.84929795736477,327323,602,2516.033777475357,26.382091522216797,-26.476642608642578,38.335601806640625,0.13
327,MetaDrive-td3combine-expt_with_safe_fix_again,130,183.33565133787116,328476,604,2524.7455656528473,20.620887756347656,,18.638790130615234,0.13
328,MetaDrive-td3combine-expt_with_safe_fix_again,130,182.8358637187045,329477,605,2532.06587600708,33.948638916015625,-34.178749084472656,13.615484237670898,0.13
329,MetaDrive-td3combine-expt_with_safe_fix_again,130,181.59293164454795,330635,607,2540.652270555496,21.625442504882812,-21.790470123291016,29.806121826171875,0.13
330,MetaDrive-td3combine-expt_with_safe_fix_again,130,185.28262130098796,331171,608,2544.856404542923,26.152006149291992,-27.103702545166016,23.612836837768555,0.14
331,MetaDrive-td3combine-expt_with_safe_fix_again,130,186.11364159122098,332679,611,2557.5029966831207,21.08665657043457,-22.54038429260254,77.44367980957031,0.14
332,MetaDrive-td3combine-expt_with_safe_fix_again,130,187.93304764369026,333680,612,2565.6517074108124,26.179521560668945,,7.711421012878418,0.14
333,MetaDrive-td3combine-expt_with_safe_fix_again,130,188.30379325402413,334681,613,2572.89147400856,21.348712921142578,-20.803218841552734,18.741615295410156,0.14
334,MetaDrive-td3combine-expt_with_safe_fix_again,130,187.76660156776933,335682,614,2580.2648055553436,23.67339324951172,,21.461383819580078,0.13
335,MetaDrive-td3combine-expt_with_safe_fix_again,130,185.80125055641759,336840,616,2589.055565595627,27.257251739501953,,71.59635925292969,0.13
336,MetaDrive-td3combine-expt_with_safe_fix_again,130,187.14770844068846,337841,617,2596.382571220398,26.405860900878906,-25.306270599365234,32.85063934326172,0.13
337,MetaDrive-td3combine-expt_with_safe_fix_again,130,187.82839498623014,338842,618,2604.3457701206207,32.00669860839844,,30.4729061126709,0.13
338,MetaDrive-td3combine-expt_with_safe_fix_again,130,187.26000608948948,339016,619,2605.6464002132416,33.96055603027344,,38.29694366455078,0.13
339,MetaDrive-td3combine-expt_with_safe_fix_again,130,185.56744482833253,340144,624,2614.300709247589,17.363849639892578,,12.360429763793945,0.13
340,MetaDrive-td3combine-expt_with_safe_fix_again,130,185.6922430575061,341145,625,2621.310173511505,32.82677459716797,-34.548545837402344,15.40871524810791,0.13
341,MetaDrive-td3combine-expt_with_safe_fix_again,130,186.066217132676,342320,627,2629.733893632889,24.995285034179688,,13.288818359375,0.13
342,MetaDrive-td3combine-expt_with_safe_fix_again,130,186.3305127469353,343958,631,2641.88539147377,23.704347610473633,,8.473477363586426,0.13
343,MetaDrive-td3combine-expt_with_safe_fix_again,130,188.76442857474026,344516,632,2646.47106051445,15.386100769042969,,8.33390998840332,0.14
344,MetaDrive-td3combine-expt_with_safe_fix_again,130,189.10002176201112,345517,633,2654.3217556476593,19.363811492919922,-19.63405418395996,14.506526947021484,0.14
345,MetaDrive-td3combine-expt_with_safe_fix_again,130,187.06072542038973,346518,634,2662.281747817993,25.757484436035156,,14.5012788772583,0.14
346,MetaDrive-td3combine-expt_with_safe_fix_again,130,185.04211883245185,347074,636,2667.2258820533752,23.139514923095703,,18.3380069732666,0.14
347,MetaDrive-td3combine-expt_with_safe_fix_again,130,183.87784633419744,348005,639,2674.8995366096497,31.180423736572266,-31.997589111328125,11.940192222595215,0.14
348,MetaDrive-td3combine-expt_with_safe_fix_again,130,185.03333729701768,349959,644,2690.0399713516235,34.870201110839844,-34.25873947143555,19.217578887939453,0.13
349,MetaDrive-td3combine-expt_with_safe_fix_again,130,185.05146683833937,350103,645,2691.5511639118195,17.61434555053711,-17.718101501464844,23.468534469604492,0.13
350,MetaDrive-td3combine-expt_with_safe_fix_again,130,188.35191346060975,351104,646,2699.7304356098175,23.136497497558594,,34.04004669189453,0.13
351,MetaDrive-td3combine-expt_with_safe_fix_again,130,187.29164787030396,352137,649,2708.4726786613464,24.933349609375,-26.951194763183594,18.87792205810547,0.14
352,MetaDrive-td3combine-expt_with_safe_fix_again,129,188.93776672145626,353958,653,2723.058007001877,34.055423736572266,,107.01937103271484,0.15
353,MetaDrive-td3combine-expt_with_safe_fix_again,129,187.91172343347327,354959,654,2730.5438673496246,24.960956573486328,-25.513275146484375,46.71946334838867,0.15
354,MetaDrive-td3combine-expt_with_safe_fix_again,130,187.90122117077019,355960,655,2737.5874059200287,24.27336311340332,,19.566387176513672,0.15
355,MetaDrive-td3combine-expt_with_safe_fix_again,130,188.4971586074127,356430,656,2741.144197702408,34.26975631713867,,7.1806230545043945,0.16
356,MetaDrive-td3combine-expt_with_safe_fix_again,130,193.31559941344958,357314,658,2747.76118016243,23.72238540649414,,18.740772247314453,0.17
357,MetaDrive-td3combine-expt_with_safe_fix_again,130,190.9360936567142,358036,661,2753.6535832881927,34.42826461791992,,13.95947265625,0.17
358,MetaDrive-td3combine-expt_with_safe_fix_again,130,190.44140594360542,359077,665,2761.9568095207214,20.008441925048828,-19.952213287353516,19.733211517333984,0.17
359,MetaDrive-td3combine-expt_with_safe_fix_again,129,195.50797898739793,360078,666,2769.923154115677,21.239383697509766,,43.71417999267578,0.17
360,MetaDrive-td3combine-expt_with_safe_fix_again,130,194.4269526761096,361079,667,2777.291965484619,16.871360778808594,-16.982980728149414,6.84320068359375,0.16
361,MetaDrive-td3combine-expt_with_safe_fix_again,129,198.66587842061287,362082,670,2786.0784809589386,35.24430847167969,,20.311962127685547,0.17
362,MetaDrive-td3combine-expt_with_safe_fix_again,129,193.1084906440562,363557,673,2797.5178821086884,34.475341796875,-34.2918701171875,30.759090423583984,0.15
363,MetaDrive-td3combine-expt_with_safe_fix_again,129,196.25257077591115,364106,674,2802.1297590732574,35.499000549316406,,16.082765579223633,0.16
364,MetaDrive-td3combine-expt_with_safe_fix_again,129,197.22508062783245,365353,676,2811.2000374794006,23.0291748046875,-25.919647216796875,22.687480926513672,0.16
365,MetaDrive-td3combine-expt_with_safe_fix_again,129,197.6867998821016,366396,679,2819.2367911338806,19.358814239501953,,11.117143630981445,0.15
366,MetaDrive-td3combine-expt_with_safe_fix_again,129,196.9942500246291,367801,681,2829.4595272541046,15.349152565002441,-15.039331436157227,8.837339401245117,0.15
367,MetaDrive-td3combine-expt_with_safe_fix_again,129,197.47645529197152,368045,682,2831.511251449585,36.00318908691406,-35.08880615234375,37.01611328125,0.15
368,MetaDrive-td3combine-expt_with_safe_fix_again,129,199.29548043981495,369381,687,2841.7215774059296,19.057592391967773,-18.976621627807617,26.86031723022461,0.16
369,MetaDrive-td3combine-expt_with_safe_fix_again,130,196.07496320295132,370382,688,2848.9594407081604,25.74298095703125,,26.361557006835938,0.15
370,MetaDrive-td3combine-expt_with_safe_fix_again,130,195.31681353921974,371383,689,2856.285992860794,24.26810073852539,-24.955425262451172,19.95322608947754,0.15
371,MetaDrive-td3combine-expt_with_safe_fix_again,130,195.43404571226773,372384,690,2863.652418613434,24.306062698364258,,31.478759765625,0.15
372,MetaDrive-td3combine-expt_with_safe_fix_again,130,191.6964426053111,373580,692,2872.1558468341827,20.050403594970703,,21.304405212402344,0.14
373,MetaDrive-td3combine-expt_with_safe_fix_again,130,192.29123990152172,374915,694,2883.2705221176147,24.966384887695312,-24.546630859375,24.62169075012207,0.14
374,MetaDrive-td3combine-expt_with_safe_fix_again,130,192.64609225680758,375153,695,2885.170008659363,31.080703735351562,-31.727428436279297,22.958892822265625,0.14
375,MetaDrive-td3combine-expt_with_safe_fix_again,129,195.0497886510322,376297,698,2895.141048669815,23.26959991455078,-24.162078857421875,26.80315399169922,0.15
376,MetaDrive-td3combine-expt_with_safe_fix_again,129,198.4589498678064,377321,701,2903.363604068756,22.257478713989258,-23.729829788208008,35.54656219482422,0.15
377,MetaDrive-td3combine-expt_with_safe_fix_again,129,195.86674321580284,378426,703,2911.4949078559875,24.298492431640625,,14.34282398223877,0.14
378,MetaDrive-td3combine-expt_with_safe_fix_again,129,195.4497695277653,379654,705,2921.2381212711334,21.873964309692383,,15.217599868774414,0.14
379,MetaDrive-td3combine-expt_with_safe_fix_again,129,191.9952223786379,380077,708,2925.306824207306,36.55747985839844,-36.96110153198242,80.40509033203125,0.13
380,MetaDrive-td3combine-expt_with_safe_fix_again,129,192.8441008332512,381078,709,2933.400128364563,19.34286880493164,,70.62625122070312,0.13
381,MetaDrive-td3combine-expt_with_safe_fix_again,129,190.59678471780109,382212,711,2942.791021347046,25.84923553466797,,46.970115661621094,0.13
382,MetaDrive-td3combine-expt_with_safe_fix_again,129,189.75421254853293,383213,712,2949.8430981636047,30.035612106323242,-28.78883171081543,55.28465270996094,0.13
383,MetaDrive-td3combine-expt_with_safe_fix_again,129,192.39078600110693,384039,714,2955.9819951057434,42.48753356933594,-43.119468688964844,22.597702026367188,0.15
384,MetaDrive-td3combine-expt_with_safe_fix_again,129,195.93616815174218,385051,716,2963.8378937244415,25.177734375,-24.952180862426758,5.022655487060547,0.15
385,MetaDrive-td3combine-expt_with_safe_fix_again,129,199.74290328289655,386304,719,2973.4994502067566,28.542606353759766,,24.76358985900879,0.16
386,MetaDrive-td3combine-expt_with_safe_fix_again,129,201.65738126662524,387110,721,2979.8801882267,29.848217010498047,,36.93307113647461,0.16
387,MetaDrive-td3combine-expt_with_safe_fix_again,129,202.10374391723323,388213,723,2988.856407403946,18.09368896484375,-19.512685775756836,12.937652587890625,0.16
388,MetaDrive-td3combine-expt_with_safe_fix_again,129,202.16819742586048,389086,725,2996.270878314972,28.28512191772461,,22.04903793334961,0.16
389,MetaDrive-td3combine-expt_with_safe_fix_again,129,202.1405900415996,390087,726,3004.41290807724,26.207416534423828,-25.36103630065918,22.52847671508789,0.16
390,MetaDrive-td3combine-expt_with_safe_fix_again,129,200.02540119347964,391088,727,3011.844545841217,25.49801254272461,,8.993246078491211,0.16
391,MetaDrive-td3combine-expt_with_safe_fix_again,129,201.01794663477256,392089,728,3019.3129229545593,29.86749839782715,-31.831253051757812,36.328041076660156,0.16
392,MetaDrive-td3combine-expt_with_safe_fix_again,129,202.08028797431842,393482,731,3030.218404531479,22.72532081604004,,15.203573226928711,0.16
393,MetaDrive-td3combine-expt_with_safe_fix_again,129,199.19139892014425,394120,734,3035.2267990112305,31.54806900024414,,27.803417205810547,0.16
394,MetaDrive-td3combine-expt_with_safe_fix_again,129,197.99296829224758,395121,735,3042.7085390090942,29.343212127685547,-29.689414978027344,16.424196243286133,0.16
395,MetaDrive-td3combine-expt_with_safe_fix_again,129,197.656895021885,396531,738,3053.6853365898132,35.72500228881836,-35.58170700073242,18.881515502929688,0.16
396,MetaDrive-td3combine-expt_with_safe_fix_again,129,200.23690296562577,397318,741,3059.699934244156,13.834718704223633,,13.1549072265625,0.17
397,MetaDrive-td3combine-expt_with_safe_fix_again,129,197.59961361987982,398436,744,3069.017476081848,37.824249267578125,,27.55997085571289,0.17
398,MetaDrive-td3combine-expt_with_safe_fix_again,129,196.17294180070908,399008,746,3073.567244052887,32.02897644042969,,18.652130126953125,0.17
