TanmayH/CS269-RL-project-code/MetaDrive-test-dropout_both/td3/progress.csv
,log_dir,frame_per_second,episode_reward,total_steps,total_episodes,total_time,target_q,actor_loss,critic_loss,success_rate
0,MetaDrive-test-dropout_both,784,3.753724323789676,1450,2,1.8473620414733887,,,,0.0
1,MetaDrive-test-dropout_both,518,5.808213228314199,2451,3,4.726702928543091,,,,0.0
2,MetaDrive-test-dropout_both,573,5.616208501728922,4000,5,6.9804511070251465,,,,0.0
3,MetaDrive-test-dropout_both,606,6.809868648257336,5001,6,8.24890422821045,-0.07718825340270996,0.0044358866289258,0.8441482782363892,0.0
4,MetaDrive-test-dropout_both,261,-1.5504421027489894,6014,48,22.994039058685303,-0.05278884619474411,,0.0036261207424104214,0.0
5,MetaDrive-test-dropout_both,188,-1.882011792147481,7838,61,41.56186485290527,-0.06772391498088837,,0.011594420298933983,0.0
6,MetaDrive-test-dropout_both,172,-1.893130961936469,8839,62,51.26326894760132,-0.13456036150455475,0.06275860965251923,0.7684475183486938,0.0
7,MetaDrive-test-dropout_both,165,-1.9515067826752637,9481,63,57.41624999046326,-0.11611689627170563,0.042387768626213074,0.6779078245162964,0.0
8,MetaDrive-test-dropout_both,158,-1.9998026929049622,10236,64,64.58667516708374,-0.033148303627967834,,0.030940206721425056,0.0
9,MetaDrive-test-dropout_both,149,-1.9847557771642794,11756,66,78.85626482963562,-0.03203917294740677,,0.0023145689629018307,0.0
10,MetaDrive-test-dropout_both,142,-1.485075850801221,12757,67,89.28380680084229,-0.010104304179549217,0.00353600992821157,0.009415030479431152,0.0
11,MetaDrive-test-dropout_both,141,-1.3866754258833993,13019,69,92.0351049900055,-0.01839645579457283,0.06881831586360931,0.06974789500236511,0.0
12,MetaDrive-test-dropout_both,137,-1.2532381346658534,14005,76,101.83308410644531,0.03871196508407593,-0.02593129128217697,0.017071207985281944,0.0
13,MetaDrive-test-dropout_both,132,-1.2548123981997623,15041,89,113.41545391082764,0.04598085954785347,-0.046534664928913116,0.003044238081201911,0.0
14,MetaDrive-test-dropout_both,128,0.29648627468416877,16107,100,124.99691200256348,0.07657133042812347,-0.08123883605003357,0.006704654078930616,0.0
15,MetaDrive-test-dropout_both,125,1.3448295309145926,17001,117,135.9009850025177,0.11991217732429504,-0.13019397854804993,0.023486772552132607,0.0
16,MetaDrive-test-dropout_both,121,3.625674470079169,18025,138,148.61725306510925,0.13958176970481873,-0.21612034738063812,0.8127880692481995,0.0
17,MetaDrive-test-dropout_both,117,5.095436207219709,19035,164,161.72345685958862,0.2525802254676819,-0.28941625356674194,0.9454489946365356,0.0
18,MetaDrive-test-dropout_both,114,5.645939109759192,20003,191,174.6510808467865,0.21524441242218018,-0.4046880900859833,1.8326671123504639,0.0
19,MetaDrive-test-dropout_both,112,2.7633221580014498,21017,221,187.34135603904724,0.3875647485256195,-0.47748494148254395,0.9146472811698914,0.0
20,MetaDrive-test-dropout_both,110,3.86052143844709,22013,241,199.24314904212952,0.5141658186912537,-0.5899775624275208,1.0280647277832031,0.0
21,MetaDrive-test-dropout_both,108,4.779743439446391,23003,265,211.825621843338,0.7458362579345703,-0.6843640208244324,0.07377977669239044,0.0
22,MetaDrive-test-dropout_both,107,6.416254666479894,24030,286,224.44497919082642,0.7687221765518188,,1.1610515117645264,0.0
23,MetaDrive-test-dropout_both,105,7.972335910811453,25029,309,236.779639005661,0.9352173805236816,-1.0097156763076782,0.09686841815710068,0.0
24,MetaDrive-test-dropout_both,104,8.441465094360153,26018,332,249.19784688949585,1.07346510887146,,0.05844174325466156,0.0
25,MetaDrive-test-dropout_both,103,8.859261784025025,27038,357,261.72767210006714,1.1241557598114014,,0.7616090774536133,0.0
26,MetaDrive-test-dropout_both,102,9.233723788468392,28068,378,273.47088599205017,1.327300786972046,,1.3298492431640625,0.0
27,MetaDrive-test-dropout_both,101,11.187599996909405,29035,395,285.2498211860657,1.4375500679016113,-1.6992496252059937,2.5626630783081055,0.0
28,MetaDrive-test-dropout_both,101,13.489999791170597,30018,415,295.8104519844055,1.71529221534729,,0.1412145495414734,0.0
29,MetaDrive-test-dropout_both,101,15.642885231346812,31037,432,307.05147218704224,1.92610502243042,-1.9396227598190308,0.3448077440261841,0.0
30,MetaDrive-test-dropout_both,100,18.051377270095767,32012,448,318.1356599330902,2.1599903106689453,,0.22594304382801056,0.0
31,MetaDrive-test-dropout_both,100,20.56682383611582,33025,464,329.7211320400238,2.406851291656494,-2.3944928646087646,0.2542911171913147,0.0
32,MetaDrive-test-dropout_both,99,21.23070581692492,34023,483,341.52872014045715,2.4897570610046387,-2.570128917694092,0.25598543882369995,0.0
33,MetaDrive-test-dropout_both,99,24.861942459258703,35074,495,352.95881605148315,2.735426664352417,,0.34005045890808105,0.0
34,MetaDrive-test-dropout_both,98,27.43511570664154,36221,511,366.7092242240906,3.023902177810669,-3.1208157539367676,1.9584755897521973,0.0
35,MetaDrive-test-dropout_both,98,30.37201252881956,37029,521,376.41441202163696,2.8289098739624023,-3.3057913780212402,6.428440093994141,0.0
36,MetaDrive-test-dropout_both,97,34.69686962961453,38034,531,388.3765649795532,3.742522954940796,,0.4616295099258423,0.0
37,MetaDrive-test-dropout_both,97,38.50421281870786,39006,539,398.6778790950775,3.868685483932495,,1.8652851581573486,0.0
38,MetaDrive-test-dropout_both,97,43.27375578326668,40054,549,410.37895607948303,3.8365073204040527,,2.5333337783813477,0.0
39,MetaDrive-test-dropout_both,97,46.022720136947825,41007,558,421.43286895751953,4.118242263793945,-4.385427474975586,5.533879280090332,0.0
40,MetaDrive-test-dropout_both,96,52.320235982982005,42145,566,434.70242404937744,4.6158576011657715,-4.730897426605225,5.294492721557617,0.01
41,MetaDrive-test-dropout_both,96,58.29136311384992,43194,573,446.4620180130005,4.609548091888428,,5.357517719268799,0.02
42,MetaDrive-test-dropout_both,96,61.54834117010404,44182,580,457.84604501724243,5.173859596252441,,1.1066480875015259,0.02
43,MetaDrive-test-dropout_both,96,65.03740848756055,45114,587,467.6211738586426,6.011704921722412,,1.3818590641021729,0.02
44,MetaDrive-test-dropout_both,96,68.57455226331183,46024,591,477.61065101623535,5.680679798126221,,3.8607263565063477,0.02
45,MetaDrive-test-dropout_both,96,75.40230479359195,47406,595,492.3884479999542,5.989247798919678,,4.462528705596924,0.04
46,MetaDrive-test-dropout_both,96,77.2925931290253,48098,600,499.0099549293518,5.554632663726807,,3.8741955757141113,0.04
47,MetaDrive-test-dropout_both,96,82.0163034332438,49058,605,510.3155062198639,6.1937055587768555,,2.9310073852539062,0.04
48,MetaDrive-test-dropout_both,95,86.98470938681335,50021,610,522.127678155899,6.178455352783203,-6.2898359298706055,9.074023246765137,0.04
49,MetaDrive-test-dropout_both,95,88.18301968835462,51116,616,533.0610499382019,7.044492721557617,,6.581175327301025,0.04
50,MetaDrive-test-dropout_both,95,93.64590312421907,52054,620,544.4328689575195,7.092780590057373,,2.101947784423828,0.04
51,MetaDrive-test-dropout_both,95,98.44770308967723,53007,624,555.0391778945923,6.753443241119385,-6.696037292480469,1.9584012031555176,0.05
52,MetaDrive-test-dropout_both,95,99.16025600091824,54043,629,565.9533200263977,7.707522869110107,-7.699521541595459,4.980619430541992,0.06
53,MetaDrive-test-dropout_both,95,101.45055808891267,55051,634,576.2611789703369,7.059349060058594,-7.200954437255859,1.4295382499694824,0.06
54,MetaDrive-test-dropout_both,95,104.81158120998991,56061,638,588.1569771766663,7.903109550476074,-7.927061080932617,1.8739182949066162,0.06
55,MetaDrive-test-dropout_both,95,106.18251026024014,57110,643,599.6691060066223,7.970822334289551,,2.4737043380737305,0.06
56,MetaDrive-test-dropout_both,95,109.06816304765962,58033,647,608.9699041843414,8.018355369567871,-8.031839370727539,8.892431259155273,0.07
57,MetaDrive-test-dropout_both,95,114.60710522539308,59261,651,622.1413180828094,7.8965163230896,-8.583806991577148,7.867162227630615,0.09
58,MetaDrive-test-dropout_both,95,119.77641895390803,60289,654,632.7174608707428,7.968905448913574,-8.348395347595215,2.413717746734619,0.1
59,MetaDrive-test-dropout_both,95,123.6508864778676,61411,657,645.1717848777771,7.855634689331055,-8.31096076965332,6.606006622314453,0.11
60,MetaDrive-test-dropout_both,95,125.98462463508426,62298,660,655.2208020687103,8.723264694213867,,2.589060068130493,0.12
61,MetaDrive-test-dropout_both,94,126.5739829748742,63025,662,664.2929141521454,8.73599910736084,-8.567756652832031,2.8244833946228027,0.11
62,MetaDrive-test-dropout_both,94,132.1715303641599,64056,665,675.0311331748962,8.496498107910156,,18.301145553588867,0.12
63,MetaDrive-test-dropout_both,94,134.98372014892632,65422,670,690.5464351177216,8.140291213989258,,25.292095184326172,0.12
64,MetaDrive-test-dropout_both,94,135.21797864063427,66015,674,696.554986000061,9.558460235595703,-9.871996879577637,2.829133987426758,0.12
65,MetaDrive-test-dropout_both,94,138.2163054282235,67024,677,707.405158996582,8.861693382263184,,8.722434997558594,0.13
66,MetaDrive-test-dropout_both,94,139.35251764090464,68187,681,719.106055021286,8.890589714050293,-9.196557998657227,5.647553443908691,0.14
67,MetaDrive-test-dropout_both,94,139.28246700771152,69016,686,728.9292640686035,8.449390411376953,,2.821610927581787,0.14
68,MetaDrive-test-dropout_both,94,137.10461467711465,70058,691,740.1587460041046,9.38064193725586,,1.797076940536499,0.14
69,MetaDrive-test-dropout_both,94,134.04752814707552,71235,695,752.0651769638062,9.52013874053955,-9.768014907836914,2.6600592136383057,0.13
70,MetaDrive-test-dropout_both,94,137.72030337577894,72078,696,761.056401014328,9.761653900146484,,3.916031837463379,0.14
71,MetaDrive-test-dropout_both,94,140.38038639856435,73199,699,774.2612462043762,9.935585021972656,-10.10266399383545,3.7951102256774902,0.14
72,MetaDrive-test-dropout_both,94,141.19042885178087,74023,702,783.3455650806427,8.738700866699219,-8.686699867248535,14.902698516845703,0.14
73,MetaDrive-test-dropout_both,94,140.7399212051107,75044,707,794.9685649871826,8.636004447937012,,5.867206573486328,0.14
74,MetaDrive-test-dropout_both,94,141.6753827922838,76177,710,807.4033961296082,9.566604614257812,-9.84886360168457,4.007670879364014,0.15
75,MetaDrive-test-dropout_both,94,144.2667323463504,77368,713,821.1621260643005,10.248950004577637,,5.633185386657715,0.16
76,MetaDrive-test-dropout_both,94,147.82388188193005,78233,714,831.8660500049591,10.2083101272583,-10.541119575500488,10.860027313232422,0.17
77,MetaDrive-test-dropout_both,94,147.24608330931162,79338,718,843.677088022232,9.331202507019043,,27.75126838684082,0.18
78,MetaDrive-test-dropout_both,94,145.7729806087746,80120,721,852.1977388858795,9.637003898620605,,2.5974009037017822,0.18
79,MetaDrive-test-dropout_both,93,145.35073578489028,81035,724,863.132294178009,10.888137817382812,-11.19655990600586,2.121720552444458,0.17
80,MetaDrive-test-dropout_both,93,147.26527621495717,82173,727,874.6395449638367,10.391463279724121,-10.305665016174316,3.42319655418396,0.18
81,MetaDrive-test-dropout_both,93,148.13599246545377,83332,730,889.0136649608612,10.378714561462402,,3.328554153442383,0.17
82,MetaDrive-test-dropout_both,93,154.26466153032644,84424,732,900.4538009166718,10.712881088256836,,2.311556100845337,0.18
83,MetaDrive-test-dropout_both,93,155.9574340949046,85331,734,910.8477318286896,10.609938621520996,-10.67055892944336,2.8866164684295654,0.19
84,MetaDrive-test-dropout_both,93,158.11675618485253,86523,736,923.9272470474243,10.243003845214844,-10.208370208740234,2.482863664627075,0.2
85,MetaDrive-test-dropout_both,93,156.61885341037078,87120,738,930.3609368801117,9.909218788146973,,2.0811386108398438,0.2
86,MetaDrive-test-dropout_both,93,161.91306964718817,88579,741,945.4984891414642,9.978212356567383,-10.323315620422363,6.098276138305664,0.22
87,MetaDrive-test-dropout_both,93,162.70467115556912,89580,742,957.5749821662903,10.700007438659668,,6.682370185852051,0.22
88,MetaDrive-test-dropout_both,93,162.47265133831993,90033,744,962.2962779998779,10.652552604675293,-10.80247688293457,2.234238386154175,0.22
89,MetaDrive-test-dropout_both,93,161.26879474151548,91387,748,979.1469600200653,10.322386741638184,-10.306015014648438,1.588935375213623,0.2
90,MetaDrive-test-dropout_both,93,163.30958803101782,92164,750,987.0212168693542,10.66260814666748,,2.6609439849853516,0.21
91,MetaDrive-test-dropout_both,93,157.59101614637422,93107,754,997.1661670207977,10.296093940734863,-10.991657257080078,4.723055839538574,0.19
92,MetaDrive-test-dropout_both,93,153.95548568073,94145,758,1008.0980200767517,9.527640342712402,-9.457000732421875,4.203082084655762,0.17
93,MetaDrive-test-dropout_both,93,156.7331112887646,95175,760,1019.0005631446838,10.207117080688477,-10.785284996032715,5.505758762359619,0.18
94,MetaDrive-test-dropout_both,93,155.28343665867385,96210,763,1030.586699962616,10.093061447143555,,4.359045028686523,0.18
95,MetaDrive-test-dropout_both,93,156.0383485085555,97061,765,1039.6886539459229,10.245634078979492,-10.391566276550293,4.286105632781982,0.19
96,MetaDrive-test-dropout_both,93,156.01566411428553,98022,769,1050.1942598819733,9.295804977416992,,2.1847152709960938,0.19
97,MetaDrive-test-dropout_both,93,153.06946082096104,99172,775,1063.243614912033,10.464058876037598,,2.844374179840088,0.18
98,MetaDrive-test-dropout_both,93,153.54978502275335,100291,780,1075.0214598178864,10.581107139587402,-10.603475570678711,1.8303203582763672,0.17
99,MetaDrive-test-dropout_both,93,154.6980085462294,101095,782,1086.3083810806274,9.544428825378418,-9.669817924499512,3.7401647567749023,0.17
100,MetaDrive-test-dropout_both,93,156.88650289596865,102144,789,1098.0983309745789,10.789812088012695,,1.9872779846191406,0.17
101,MetaDrive-test-dropout_both,92,154.37286530263034,103034,795,1108.11230802536,10.726570129394531,,1.7821640968322754,0.16
102,MetaDrive-test-dropout_both,92,155.20525600712907,104046,798,1119.2072591781616,10.169424057006836,,9.015613555908203,0.16
103,MetaDrive-test-dropout_both,92,158.4263915255362,105355,802,1135.0361351966858,11.241872787475586,-11.204553604125977,2.5655133724212646,0.17
104,MetaDrive-test-dropout_both,92,159.54972774816287,106043,806,1143.1754200458527,10.409088134765625,-10.603424072265625,2.1750097274780273,0.17
105,MetaDrive-test-dropout_both,92,152.4777730150319,107506,814,1161.6119830608368,10.533899307250977,,3.5669589042663574,0.15
106,MetaDrive-test-dropout_both,92,152.1583228687201,108127,818,1168.1021611690521,10.180290222167969,-10.699840545654297,9.490243911743164,0.14
107,MetaDrive-test-dropout_both,92,148.02029040844548,109108,826,1179.209167957306,11.094528198242188,,2.9598331451416016,0.13
108,MetaDrive-test-dropout_both,92,142.01957138609495,110188,832,1191.3447489738464,10.449707984924316,,3.273090362548828,0.12
109,MetaDrive-test-dropout_both,92,137.1166281856553,111144,838,1202.2674520015717,10.89198112487793,,2.4438323974609375,0.1
110,MetaDrive-test-dropout_both,92,132.69535855023534,112080,844,1213.296513080597,10.544035911560059,,4.774617671966553,0.08
111,MetaDrive-test-dropout_both,92,128.8667142410597,113061,851,1224.5371308326721,11.12320327758789,-11.226276397705078,6.6391096115112305,0.07
112,MetaDrive-test-dropout_both,92,124.44723005629106,114067,859,1235.8111679553986,11.500959396362305,-11.523111343383789,2.690955638885498,0.06
113,MetaDrive-test-dropout_both,92,120.20857454374416,115088,866,1247.79306101799,10.738399505615234,,1.8659201860427856,0.04
114,MetaDrive-test-dropout_both,92,117.70981305024932,116003,874,1257.845299243927,10.71759033203125,-11.059768676757812,4.912295341491699,0.04
115,MetaDrive-test-dropout_both,92,112.38528487206929,117021,883,1269.2767679691315,11.866390228271484,-12.106513023376465,2.1738922595977783,0.03
116,MetaDrive-test-dropout_both,92,113.91066708096787,118246,892,1283.448569059372,10.832765579223633,,3.2757062911987305,0.03
117,MetaDrive-test-dropout_both,92,109.47566084237478,119051,898,1292.2209730148315,10.854674339294434,-10.931256294250488,3.635899305343628,0.02
118,MetaDrive-test-dropout_both,92,102.56323353155074,120018,906,1302.9543390274048,12.4874906539917,,3.063114881515503,0.01
119,MetaDrive-test-dropout_both,92,100.29960054868023,121081,915,1314.519159078598,12.5537748336792,-12.434752464294434,3.5601768493652344,0.0
120,MetaDrive-test-dropout_both,92,100.38343701381628,122024,922,1325.6644880771637,11.221318244934082,,3.3278415203094482,0.0
121,MetaDrive-test-dropout_both,92,100.53612913210053,123081,931,1337.3369250297546,11.838373184204102,-12.007614135742188,7.900460243225098,0.0
122,MetaDrive-test-dropout_both,92,96.93999066639326,124136,940,1348.6890769004822,12.378599166870117,,2.4484548568725586,0.0
123,MetaDrive-test-dropout_both,92,97.11140867364743,125055,946,1357.6069412231445,11.042177200317383,-11.381879806518555,2.9645185470581055,0.0
124,MetaDrive-test-dropout_both,92,95.86464615498693,126010,954,1368.1856560707092,11.574371337890625,,4.381966590881348,0.0
125,MetaDrive-test-dropout_both,92,96.12348213629286,127081,962,1380.2289261817932,12.077218055725098,-12.148210525512695,2.3838415145874023,0.01
126,MetaDrive-test-dropout_both,91,95.5005747626038,128059,970,1392.3501679897308,10.802520751953125,-11.154337882995605,3.1186821460723877,0.01
127,MetaDrive-test-dropout_both,91,96.29102004820216,129026,979,1403.1064109802246,12.637822151184082,,6.2855401039123535,0.01
128,MetaDrive-test-dropout_both,91,93.30329624832186,130064,989,1414.393214225769,12.22422981262207,,2.6128745079040527,0.01
129,MetaDrive-test-dropout_both,91,91.03456164837276,131256,1000,1427.892961025238,11.276470184326172,,2.7170379161834717,0.01
130,MetaDrive-test-dropout_both,91,89.1893735698269,132053,1008,1436.6061952114105,11.580158233642578,-12.182567596435547,24.005970001220703,0.01
131,MetaDrive-test-dropout_both,91,90.72209295865139,133227,1016,1450.514906167984,12.787546157836914,-12.993325233459473,3.236560344696045,0.02
132,MetaDrive-test-dropout_both,91,92.92295010698626,134035,1021,1459.1782059669495,11.659479141235352,-11.579093933105469,5.554800033569336,0.02
133,MetaDrive-test-dropout_both,91,94.81617533199447,135150,1029,1470.82413315773,11.241178512573242,,4.151047706604004,0.02
134,MetaDrive-test-dropout_both,91,95.42573255223603,136304,1037,1483.2542099952698,11.800756454467773,,7.442075729370117,0.03
135,MetaDrive-test-dropout_both,91,96.88367280734104,137039,1041,1492.0903270244598,12.317584037780762,-12.689144134521484,3.8304920196533203,0.04
136,MetaDrive-test-dropout_both,91,91.92088009459862,138044,1052,1503.1345598697662,12.764237403869629,,6.184988975524902,0.04
137,MetaDrive-test-dropout_both,91,92.00748837770794,139032,1058,1515.005385875702,13.202617645263672,,3.381371021270752,0.03
138,MetaDrive-test-dropout_both,91,95.81284127842305,140235,1066,1528.0099380016327,12.05941390991211,-12.459827423095703,22.13262176513672,0.04
139,MetaDrive-test-dropout_both,91,96.79492838618046,141085,1072,1536.3392281532288,11.711200714111328,-12.25894832611084,19.197120666503906,0.05
140,MetaDrive-test-dropout_both,91,99.29740500008366,142001,1078,1546.676332950592,12.455796241760254,-12.633626937866211,7.843699932098389,0.05
141,MetaDrive-test-dropout_both,91,103.38478871286873,143071,1085,1559.1282751560211,12.078064918518066,-12.429829597473145,4.2938127517700195,0.05
142,MetaDrive-test-dropout_both,91,104.5909048641991,144014,1093,1569.2825331687927,12.74311637878418,,14.501389503479004,0.05
143,MetaDrive-test-dropout_both,91,106.44715718456195,145165,1101,1582.001019001007,12.582704544067383,-12.568267822265625,11.710264205932617,0.05
144,MetaDrive-test-dropout_both,91,106.32619079637497,146109,1110,1591.7967069149017,13.236720085144043,-13.42091178894043,4.227169990539551,0.05
145,MetaDrive-test-dropout_both,91,108.46272826368359,147027,1115,1601.6296989917755,12.305225372314453,-12.516986846923828,5.484393119812012,0.06
146,MetaDrive-test-dropout_both,91,102.28598808941487,148008,1124,1612.324940919876,13.062231063842773,,6.05000114440918,0.05
147,MetaDrive-test-dropout_both,91,102.22708644003131,149205,1133,1625.7157580852509,13.267447471618652,-13.97214412689209,3.4437742233276367,0.06
148,MetaDrive-test-dropout_both,91,99.19863249378355,150036,1140,1634.3987259864807,13.420855522155762,,3.964169979095459,0.04
149,MetaDrive-test-dropout_both,91,101.90515924228633,151124,1149,1647.1738758087158,12.510948181152344,,3.3208343982696533,0.04
150,MetaDrive-test-dropout_both,91,99.60427945268717,152104,1157,1657.7163910865784,12.019609451293945,,5.774584770202637,0.04
151,MetaDrive-test-dropout_both,91,97.47581863800417,153087,1166,1667.8324739933014,13.385724067687988,-14.062148094177246,3.320955991744995,0.03
152,MetaDrive-test-dropout_both,91,99.52876515376234,154067,1171,1678.4213960170746,11.233619689941406,-11.132452011108398,3.6610631942749023,0.03
153,MetaDrive-test-dropout_both,91,99.20568445577845,155068,1178,1690.4110560417175,12.98349380493164,,5.081197738647461,0.03
154,MetaDrive-test-dropout_both,91,97.36751902898857,156005,1186,1701.008399963379,12.026365280151367,-12.38597297668457,5.391312122344971,0.03
155,MetaDrive-test-dropout_both,91,101.66387152310784,157574,1194,1718.4883670806885,11.272336959838867,,11.988261222839355,0.04
156,MetaDrive-test-dropout_both,91,100.71573194440654,158073,1197,1723.7357339859009,11.966521263122559,-12.256288528442383,3.8111021518707275,0.05
157,MetaDrive-test-dropout_both,91,101.7998032360713,159170,1204,1735.886372089386,13.029869079589844,,6.747779369354248,0.05
158,MetaDrive-test-dropout_both,91,106.15176003555983,160080,1209,1746.103127002716,11.537294387817383,,4.797020435333252,0.06
159,MetaDrive-test-dropout_both,91,102.35476106535941,161051,1219,1757.3600580692291,12.129883766174316,-12.321903228759766,3.218275785446167,0.05
160,MetaDrive-test-dropout_both,91,105.77003151988882,162121,1227,1769.0547189712524,13.918567657470703,-13.966493606567383,4.020233631134033,0.06
161,MetaDrive-test-dropout_both,91,107.418959690165,163449,1234,1783.8004660606384,13.074097633361816,-13.208795547485352,7.594766616821289,0.05
162,MetaDrive-test-dropout_both,91,108.79441697624505,164015,1238,1789.6216309070587,14.357220649719238,-14.63650131225586,12.674786567687988,0.05
163,MetaDrive-test-dropout_both,91,110.0498037022279,165068,1246,1801.9084389209747,14.697752952575684,,6.142326354980469,0.05
164,MetaDrive-test-dropout_both,91,110.88455815175801,166031,1253,1813.3946950435638,13.83917236328125,-14.32932186126709,11.748940467834473,0.06
165,MetaDrive-test-dropout_both,91,115.70790648964942,167208,1260,1826.6749250888824,12.556879043579102,,7.520488739013672,0.06
166,MetaDrive-test-dropout_both,91,115.06169883348605,168179,1267,1837.0871798992157,13.521286010742188,-13.691417694091797,4.9635467529296875,0.06
167,MetaDrive-test-dropout_both,91,111.54772421682016,169090,1274,1847.0030419826508,14.820354461669922,,5.2079973220825195,0.05
168,MetaDrive-test-dropout_both,91,111.18706547319856,170060,1281,1857.5629391670227,12.658661842346191,,5.810004234313965,0.05
169,MetaDrive-test-dropout_both,91,109.91873765631675,171038,1290,1868.9596631526947,14.513943672180176,,6.903940677642822,0.05
170,MetaDrive-test-dropout_both,91,108.70469022341176,172059,1296,1880.8813390731812,11.89783763885498,-11.621255874633789,10.378240585327148,0.04
171,MetaDrive-test-dropout_both,91,103.05878836579676,173220,1306,1893.0701580047607,15.060705184936523,,5.03043270111084,0.02
172,MetaDrive-test-dropout_both,91,103.21114103761903,174013,1311,1901.5487430095673,12.036078453063965,-12.090375900268555,7.820864677429199,0.02
173,MetaDrive-test-dropout_both,91,105.79201898891188,175074,1319,1912.6441600322723,11.642068862915039,,5.89857292175293,0.02
174,MetaDrive-test-dropout_both,91,105.88465423415377,176045,1324,1925.2923481464386,14.74936580657959,-14.827035903930664,6.5959906578063965,0.01
175,MetaDrive-test-dropout_both,91,108.16002795890283,177083,1330,1936.9597811698914,10.885223388671875,-11.497259140014648,18.47492218017578,0.02
176,MetaDrive-test-dropout_both,91,105.08127505019748,178114,1337,1948.5789999961853,12.805234909057617,,4.228255271911621,0.02
177,MetaDrive-test-dropout_both,91,107.15229133958096,179388,1345,1962.1029858589172,11.563346862792969,,14.519944190979004,0.02
178,MetaDrive-test-dropout_both,91,107.12657573742678,180128,1350,1969.836511850357,12.49716854095459,,5.369442939758301,0.01
179,MetaDrive-test-dropout_both,91,105.19533900301207,181160,1358,1982.3104839324951,13.63050365447998,,5.224493980407715,0.01
180,MetaDrive-test-dropout_both,91,103.91763810326178,182069,1365,1991.2427928447723,14.476852416992188,-15.044478416442871,5.706584930419922,0.01
181,MetaDrive-test-dropout_both,91,104.67392648917067,183108,1371,2003.2004039287567,14.172039985656738,,18.376495361328125,0.02
182,MetaDrive-test-dropout_both,91,104.65539411738085,184051,1379,2013.02081990242,12.986374855041504,-12.976503372192383,8.523733139038086,0.02
183,MetaDrive-test-dropout_both,91,110.32151433894285,185420,1386,2028.584664106369,13.301713943481445,,8.450650215148926,0.02
184,MetaDrive-test-dropout_both,91,109.26038544950514,186052,1391,2035.5915040969849,13.435782432556152,,15.968250274658203,0.02
185,MetaDrive-test-dropout_both,91,108.91746758324753,187072,1400,2047.2964498996735,14.411776542663574,,5.9934611320495605,0.02
186,MetaDrive-test-dropout_both,91,113.82343861392941,188104,1404,2057.806751012802,12.549394607543945,,6.890211582183838,0.04
187,MetaDrive-test-dropout_both,91,110.37686647473335,189139,1413,2069.167876958847,13.294574737548828,-13.783395767211914,25.147430419921875,0.04
188,MetaDrive-test-dropout_both,91,112.82673879453651,190150,1419,2080.022611141205,12.5474271774292,,21.903202056884766,0.05
189,MetaDrive-test-dropout_both,91,108.1573067086211,191059,1427,2089.2236001491547,11.108116149902344,-11.16746711730957,4.899700164794922,0.04
190,MetaDrive-test-dropout_both,91,108.35482511741371,192135,1435,2101.4522511959076,11.859487533569336,-12.067842483520508,19.507740020751953,0.04
191,MetaDrive-test-dropout_both,91,104.54615216194463,193107,1444,2113.0925171375275,11.429969787597656,-12.239240646362305,9.929540634155273,0.04
192,MetaDrive-test-dropout_both,91,101.77243897479569,194009,1452,2122.890079021454,12.707843780517578,-12.517276763916016,5.913782119750977,0.04
193,MetaDrive-test-dropout_both,91,101.89179127543407,195060,1459,2133.909031152725,12.989762306213379,,16.42943000793457,0.04
194,MetaDrive-test-dropout_both,91,101.63555426185947,196067,1469,2144.4140660762787,11.705828666687012,-11.844260215759277,9.221059799194336,0.04
195,MetaDrive-test-dropout_both,91,98.83269687954959,197060,1476,2155.364466190338,10.0965576171875,,15.115480422973633,0.03
196,MetaDrive-test-dropout_both,91,100.09677808392034,198102,1483,2167.038274049759,12.508919715881348,,7.6959614753723145,0.04
197,MetaDrive-test-dropout_both,91,96.20244418645592,199024,1490,2177.6172258853912,10.650346755981445,,7.613002777099609,0.04
198,MetaDrive-test-dropout_both,91,96.19144757793352,200010,1499,2187.938339948654,12.503960609436035,,26.776012420654297,0.04
199,MetaDrive-test-dropout_both,91,92.08111037977284,201101,1510,2198.9116761684418,12.48182201385498,-12.111682891845703,7.886758804321289,0.02
200,MetaDrive-test-dropout_both,91,90.88803236471519,202146,1517,2209.5722789764404,11.456783294677734,,25.374311447143555,0.03
201,MetaDrive-test-dropout_both,91,90.83227630638497,203020,1523,2219.7634360790253,12.257270812988281,,7.076330184936523,0.03
202,MetaDrive-test-dropout_both,91,90.42504208064457,204025,1533,2230.2467691898346,11.660872459411621,-11.550732612609863,13.721334457397461,0.03
203,MetaDrive-test-dropout_both,91,90.8875371221117,205128,1541,2241.729406118393,12.787939071655273,,6.989051342010498,0.03
204,MetaDrive-test-dropout_both,91,89.39088407145283,206011,1549,2251.2169020175934,10.959580421447754,-11.200738906860352,16.03488540649414,0.03
205,MetaDrive-test-dropout_both,91,86.63070652223509,207078,1558,2262.4592180252075,14.251289367675781,,9.653732299804688,0.03
206,MetaDrive-test-dropout_both,91,88.69472521180609,208087,1565,2273.8531970977783,11.661067962646484,-12.183115005493164,17.01757049560547,0.03
207,MetaDrive-test-dropout_both,91,89.71688488980972,209229,1573,2287.221309185028,10.238823890686035,-11.598709106445312,12.330970764160156,0.03
208,MetaDrive-test-dropout_both,91,90.98909244600851,210130,1580,2297.00576710701,12.995779991149902,,12.801216125488281,0.03
209,MetaDrive-test-dropout_both,91,88.68583823466606,211123,1588,2307.6608669757843,11.025091171264648,-11.209634780883789,17.515798568725586,0.02
210,MetaDrive-test-dropout_both,91,90.4649421143451,212007,1594,2317.436112165451,11.5162353515625,-11.9888916015625,12.41978645324707,0.03
211,MetaDrive-test-dropout_both,91,93.7442797185529,213160,1602,2329.210916996002,14.742290496826172,,8.197038650512695,0.04
212,MetaDrive-test-dropout_both,91,94.00131583478411,214137,1611,2339.0692489147186,9.841171264648438,-10.700920104980469,12.651443481445312,0.05
213,MetaDrive-test-dropout_both,91,91.13797163499319,215135,1619,2351.035642147064,10.135519027709961,-9.914052963256836,28.000995635986328,0.04
214,MetaDrive-test-dropout_both,91,92.81671664539408,216087,1623,2361.7537808418274,11.406722068786621,-11.154468536376953,8.243913650512695,0.04
215,MetaDrive-test-dropout_both,91,92.66556355893401,217068,1632,2372.1405730247498,12.921586990356445,,9.368490219116211,0.04
216,MetaDrive-test-dropout_both,91,94.00151967296866,218012,1639,2381.9210448265076,14.444269180297852,,7.070754528045654,0.04
217,MetaDrive-test-dropout_both,91,94.83396286124903,219074,1647,2393.641417980194,10.898577690124512,,9.427331924438477,0.04
218,MetaDrive-test-dropout_both,91,95.2310651257464,220040,1655,2403.3603031635284,14.021087646484375,,10.473668098449707,0.05
219,MetaDrive-test-dropout_both,91,98.68280084652133,221170,1661,2417.147022008896,14.22779369354248,,8.227320671081543,0.05
220,MetaDrive-test-dropout_both,91,98.84028812544113,222134,1669,2427.6227848529816,13.031803131103516,,19.526063919067383,0.05
221,MetaDrive-test-dropout_both,91,94.44036134277802,223111,1679,2438.161872148514,7.538437843322754,-7.569252014160156,41.84528350830078,0.05
222,MetaDrive-test-dropout_both,91,95.30215307292586,224281,1687,2450.78555893898,12.220792770385742,-12.14907455444336,13.677818298339844,0.05
223,MetaDrive-test-dropout_both,91,92.77429179150806,225007,1693,2459.1322309970856,11.33800220489502,-12.365486145019531,16.543102264404297,0.04
224,MetaDrive-test-dropout_both,91,93.35266597300591,226060,1699,2470.995505094528,11.82111930847168,,10.450823783874512,0.03
225,MetaDrive-test-dropout_both,91,96.11684624106547,227111,1706,2483.5832390785217,10.250905990600586,-10.203322410583496,25.308837890625,0.03
226,MetaDrive-test-dropout_both,91,97.92513830985543,228157,1711,2495.4218389987946,12.51445198059082,-12.405856132507324,7.017806053161621,0.02
227,MetaDrive-test-dropout_both,91,96.8194634163308,229008,1720,2505.2935972213745,12.384282112121582,,9.190848350524902,0.02
228,MetaDrive-test-dropout_both,91,93.22881886802152,230007,1729,2516.523204088211,9.017460823059082,-10.476337432861328,33.009796142578125,0.01
229,MetaDrive-test-dropout_both,91,91.34669312131929,231114,1738,2528.374747991562,12.852595329284668,,8.12609577178955,0.02
230,MetaDrive-test-dropout_both,91,89.74200276074461,232132,1747,2538.862963914871,11.25791072845459,,40.741756439208984,0.02
231,MetaDrive-test-dropout_both,91,90.87616630692288,233167,1755,2549.447649002075,12.691671371459961,-12.79146957397461,12.637651443481445,0.01
232,MetaDrive-test-dropout_both,91,86.59833678010745,234015,1763,2558.6320848464966,11.909518241882324,-11.94148063659668,11.702350616455078,0.01
233,MetaDrive-test-dropout_both,91,86.74892480724866,235128,1772,2571.2206449508667,12.348068237304688,,21.746376037597656,0.01
234,MetaDrive-test-dropout_both,91,89.10629990745196,236026,1779,2581.1868500709534,12.741484642028809,,7.9426751136779785,0.01
235,MetaDrive-test-dropout_both,91,86.11637273854771,237121,1788,2594.29638504982,8.166973114013672,-9.628324508666992,28.34993553161621,0.01
236,MetaDrive-test-dropout_both,91,84.65082748476225,238046,1797,2603.9168648719788,9.731971740722656,,23.900890350341797,0.01
237,MetaDrive-test-dropout_both,91,83.2073625762158,239054,1806,2614.474459171295,9.314205169677734,,48.562042236328125,0.01
238,MetaDrive-test-dropout_both,91,85.18419826745668,240003,1810,2624.884754180908,5.6098713874816895,-5.895513534545898,55.95753860473633,0.03
239,MetaDrive-test-dropout_both,91,87.0763186633815,241143,1820,2637.052391052246,12.7984619140625,-13.304917335510254,8.555888175964355,0.03
240,MetaDrive-test-dropout_both,91,88.55585837291387,242262,1828,2650.946376800537,8.527321815490723,,46.95939636230469,0.03
241,MetaDrive-test-dropout_both,91,88.26744879965699,243049,1836,2659.985843896866,7.6942644119262695,-8.206830024719238,22.847557067871094,0.02
242,MetaDrive-test-dropout_both,91,88.50554742744353,244007,1844,2670.5164699554443,13.389754295349121,-13.916104316711426,10.023988723754883,0.02
243,MetaDrive-test-dropout_both,91,90.042220233748,245046,1851,2682.363485097885,13.641904830932617,,9.501293182373047,0.02
244,MetaDrive-test-dropout_both,91,92.71357078338113,246022,1857,2693.0311012268066,11.873818397521973,,9.729990005493164,0.02
245,MetaDrive-test-dropout_both,91,91.435522813989,247017,1867,2704.0369210243225,7.508434295654297,-7.861170768737793,24.028926849365234,0.02
246,MetaDrive-test-dropout_both,91,92.54262377306232,248055,1874,2714.912770986557,7.600763320922852,-9.051355361938477,37.630611419677734,0.03
247,MetaDrive-test-dropout_both,91,91.80702971566836,249010,1883,2724.4863889217377,9.478067398071289,,49.107112884521484,0.03
248,MetaDrive-test-dropout_both,91,89.21476087315051,250174,1894,2737.7260761260986,9.596443176269531,,12.255456924438477,0.03
249,MetaDrive-test-dropout_both,91,89.70572854406807,251111,1901,2747.8432738780975,11.58085823059082,-11.720279693603516,8.733214378356934,0.03
250,MetaDrive-test-dropout_both,91,83.2815415072295,252031,1910,2757.91695189476,11.590267181396484,-11.440322875976562,8.798829078674316,0.01
251,MetaDrive-test-dropout_both,91,84.54558784325951,253133,1918,2770.0820038318634,10.113219261169434,-10.702412605285645,15.863330841064453,0.02
252,MetaDrive-test-dropout_both,91,86.81608075951416,254198,1925,2782.3084840774536,11.747705459594727,,10.424505233764648,0.02
253,MetaDrive-test-dropout_both,91,83.51063785381824,255027,1934,2790.87317609787,10.046144485473633,-9.974004745483398,25.45913314819336,0.02
254,MetaDrive-test-dropout_both,91,85.8042630333837,256088,1940,2802.1839179992676,12.164068222045898,,14.765548706054688,0.02
255,MetaDrive-test-dropout_both,91,85.28999297817887,257003,1948,2812.6662290096283,11.421834945678711,-11.200735092163086,9.626373291015625,0.02
256,MetaDrive-test-dropout_both,91,79.3059353485891,258050,1959,2823.786985874176,8.286226272583008,,62.294551849365234,0.02
257,MetaDrive-test-dropout_both,91,79.30128544644768,259030,1968,2835.2184088230133,10.809825897216797,,14.913643836975098,0.02
258,MetaDrive-test-dropout_both,91,72.14722341946822,260004,1980,2845.6846029758453,11.9815092086792,,20.218624114990234,0.01
259,MetaDrive-test-dropout_both,91,74.97050401694143,261154,1988,2858.0031411647797,11.470014572143555,,16.004350662231445,0.02
260,MetaDrive-test-dropout_both,91,74.95109229996196,262059,1996,2867.8750109672546,10.268755912780762,-10.51309871673584,29.228412628173828,0.02
261,MetaDrive-test-dropout_both,91,77.2753006660595,263011,2003,2879.3835592269897,11.280797004699707,-11.220271110534668,13.244966506958008,0.02
262,MetaDrive-test-dropout_both,91,69.31752544773175,264025,2018,2890.086613893509,13.126124382019043,-13.853771209716797,7.175713539123535,0.01
263,MetaDrive-test-dropout_both,91,66.67353388284556,265127,2029,2901.982355117798,8.853867530822754,-9.36052131652832,44.43293380737305,0.01
264,MetaDrive-test-dropout_both,91,66.71497945667588,266023,2036,2911.8928949832916,6.770495414733887,-7.9580793380737305,56.80327606201172,0.01
265,MetaDrive-test-dropout_both,91,66.74204252139563,267041,2045,2922.4077520370483,10.529318809509277,-11.048317909240723,43.232879638671875,0.01
266,MetaDrive-test-dropout_both,91,66.91441426536932,268123,2052,2934.412922143936,12.323572158813477,-12.017645835876465,11.325908660888672,0.01
267,MetaDrive-test-dropout_both,91,68.64060553858201,269017,2060,2944.03866481781,11.060386657714844,-10.978900909423828,13.456594467163086,0.01
268,MetaDrive-test-dropout_both,91,70.32512972167672,270060,2067,2955.8121910095215,7.792726993560791,,18.79721450805664,0.01
269,MetaDrive-test-dropout_both,91,71.88128491873971,271084,2077,2966.33514213562,13.49855899810791,,7.509390830993652,0.02
270,MetaDrive-test-dropout_both,91,68.98888587982327,272011,2088,2975.8870129585266,11.720442771911621,-12.0801420211792,12.502435684204102,0.01
271,MetaDrive-test-dropout_both,91,65.97287670590283,273049,2099,2987.078024148941,5.618350505828857,-6.384395122528076,71.65449523925781,0.01
272,MetaDrive-test-dropout_both,91,64.776754572119,274003,2108,2996.7568860054016,5.7689361572265625,-6.459239482879639,25.59694480895996,0.01
273,MetaDrive-test-dropout_both,91,71.610587188565,275053,2115,3009.0459339618683,10.654303550720215,-11.128216743469238,15.633237838745117,0.01
274,MetaDrive-test-dropout_both,91,77.73194722837178,276099,2120,3020.963282108307,12.789920806884766,-12.540841102600098,29.583925247192383,0.02
275,MetaDrive-test-dropout_both,91,81.64183396502217,277266,2127,3033.8129551410675,12.281824111938477,,9.501453399658203,0.03
276,MetaDrive-test-dropout_both,91,73.9986640243279,278018,2138,3042.1991720199585,8.966667175292969,,24.138830184936523,0.03
277,MetaDrive-test-dropout_both,91,73.05730555746077,279049,2147,3052.8328721523285,12.919692993164062,-12.578222274780273,14.073036193847656,0.03
278,MetaDrive-test-dropout_both,91,72.52363874706867,280136,2155,3064.259980916977,9.402770042419434,,14.0180082321167,0.03
279,MetaDrive-test-dropout_both,91,72.05582681818956,281010,2163,3074.2629449367523,11.237841606140137,,13.466856956481934,0.03
280,MetaDrive-test-dropout_both,91,73.72180258718613,282056,2171,3085.8932530879974,8.295551300048828,,17.058551788330078,0.03
281,MetaDrive-test-dropout_both,91,72.53392551171359,283048,2180,3096.8524651527405,11.424524307250977,,19.395837783813477,0.02
282,MetaDrive-test-dropout_both,91,74.15809804446666,284074,2190,3107.9773020744324,10.170809745788574,,25.328083038330078,0.02
283,MetaDrive-test-dropout_both,91,75.11266216720281,285121,2199,3120.733419895172,12.127817153930664,-12.575875282287598,8.401336669921875,0.02
284,MetaDrive-test-dropout_both,91,76.76078535972127,286031,2205,3130.9532568454742,12.993135452270508,-12.629947662353516,9.274567604064941,0.02
285,MetaDrive-test-dropout_both,91,73.722612592439,287051,2216,3142.5107560157776,9.49942398071289,-9.708203315734863,18.849681854248047,0.02
286,MetaDrive-test-dropout_both,91,72.73008943110318,288018,2221,3153.4071979522705,7.070321559906006,,17.839706420898438,0.01
287,MetaDrive-test-dropout_both,91,71.34534974546946,289034,2230,3164.834676027298,2.5366177558898926,,91.07019805908203,0.0
288,MetaDrive-test-dropout_both,91,75.08824187364539,290077,2239,3175.746703147888,8.161233901977539,-9.048396110534668,18.554365158081055,0.0
289,MetaDrive-test-dropout_both,91,77.46161330025141,291064,2245,3187.8455510139465,10.638367652893066,,11.200786590576172,0.01
290,MetaDrive-test-dropout_both,91,74.96517412603694,292046,2255,3198.365355014801,10.580900192260742,,11.03618049621582,0.01
291,MetaDrive-test-dropout_both,91,77.0582344848638,293146,2263,3210.7471101284027,11.371994018554688,,10.887191772460938,0.01
292,MetaDrive-test-dropout_both,91,74.0125766804771,294261,2273,3222.8843281269073,10.465971946716309,-10.678169250488281,14.979752540588379,0.01
293,MetaDrive-test-dropout_both,91,77.58161249853508,295240,2278,3233.7730820178986,10.479021072387695,,15.101390838623047,0.02
294,MetaDrive-test-dropout_both,91,77.20823594208555,296062,2286,3242.7394609451294,12.182479858398438,,23.3941593170166,0.02
295,MetaDrive-test-dropout_both,91,76.1894575153602,297005,2293,3254.577983856201,11.059537887573242,-10.534408569335938,28.965923309326172,0.02
296,MetaDrive-test-dropout_both,91,70.7342276971256,298040,2306,3265.027666091919,9.881963729858398,,22.792619705200195,0.03
297,MetaDrive-test-dropout_both,91,61.78309368612956,299004,2325,3276.383334159851,9.782421112060547,,16.608108520507812,0.03
298,MetaDrive-test-dropout_both,91,58.493641220391325,300081,2335,3288.614759206772,7.829348564147949,-8.041945457458496,20.992599487304688,0.03
299,MetaDrive-test-dropout_both,91,49.15695723012393,301020,2350,3299.478504896164,13.48408031463623,,16.839523315429688,0.02
300,MetaDrive-test-dropout_both,91,53.76688839889106,302016,2354,3310.164829969406,12.795080184936523,,29.95212173461914,0.03
301,MetaDrive-test-dropout_both,91,49.75015447014477,303045,2366,3321.4107320308685,8.817252159118652,-9.033161163330078,20.70814323425293,0.03
302,MetaDrive-test-dropout_both,91,52.1327982093036,304199,2372,3333.328598022461,8.290316581726074,-8.390399932861328,12.38833999633789,0.03
303,MetaDrive-test-dropout_both,91,49.39788845386277,305140,2379,3343.292293071747,12.370577812194824,,35.3499870300293,0.02
304,MetaDrive-test-dropout_both,91,48.125519988340756,306111,2389,3353.921674013138,7.485401630401611,-7.464627265930176,127.37364196777344,0.02
305,MetaDrive-test-dropout_both,91,48.11778787719471,307140,2399,3364.973137140274,11.11174201965332,,12.107651710510254,0.02
306,MetaDrive-test-dropout_both,91,50.69798485694223,308055,2404,3375.7345740795135,7.258670806884766,-7.498026371002197,27.10799217224121,0.01
307,MetaDrive-test-dropout_both,91,56.93663669766466,309147,2412,3387.159877061844,9.774782180786133,-9.999579429626465,63.23998260498047,0.02
308,MetaDrive-test-dropout_both,91,60.46556957880779,310184,2423,3398.393224954605,12.089251518249512,,5.339707374572754,0.02
309,MetaDrive-test-dropout_both,91,57.1483756173634,311054,2436,3408.123869895935,5.8171539306640625,,20.243459701538086,0.02
310,MetaDrive-test-dropout_both,91,63.65894153441484,312545,2446,3424.7682530879974,9.833484649658203,-10.192384719848633,15.59366226196289,0.03
311,MetaDrive-test-dropout_both,91,62.71806599490657,313228,2451,3431.9537250995636,8.920365333557129,,17.846477508544922,0.03
312,MetaDrive-test-dropout_both,91,62.92937158403821,314035,2459,3440.7165310382843,4.083173751831055,-4.054666996002197,97.91299438476562,0.03
313,MetaDrive-test-dropout_both,91,65.68079911072695,315139,2466,3452.2136130332947,11.52588939666748,-12.920523643493652,24.232210159301758,0.04
314,MetaDrive-test-dropout_both,91,65.11085942597612,316079,2472,3461.956046104431,7.090246200561523,-7.718663215637207,91.72290802001953,0.04
315,MetaDrive-test-dropout_both,91,68.74307554390805,317190,2477,3474.5439019203186,10.076434135437012,,42.25307846069336,0.06
316,MetaDrive-test-dropout_both,91,68.58194439299525,318255,2488,3486.077423095703,12.578646659851074,-12.817405700683594,24.451248168945312,0.06
317,MetaDrive-test-dropout_both,91,64.03527509317624,319169,2501,3496.9957790374756,9.335784912109375,-9.759359359741211,37.96754837036133,0.06
318,MetaDrive-test-dropout_both,91,64.64203606729025,320053,2505,3506.5797250270844,8.9769926071167,-9.640024185180664,20.267127990722656,0.07
319,MetaDrive-test-dropout_both,91,57.503939752742,321033,2522,3516.9742498397827,3.2179746627807617,-4.063483238220215,213.79794311523438,0.06
320,MetaDrive-test-dropout_both,91,55.90382175224076,322028,2536,3528.891247987747,9.487204551696777,,33.389366149902344,0.06
321,MetaDrive-test-dropout_both,91,52.08537152443682,323086,2546,3541.2573091983795,6.389317512512207,,36.61089324951172,0.05
322,MetaDrive-test-dropout_both,91,50.79685038924084,324163,2557,3552.5855231285095,9.28185749053955,-9.643854141235352,50.118194580078125,0.04
323,MetaDrive-test-dropout_both,91,48.77910788360733,325118,2565,3562.4530940055847,10.363419532775879,,22.149967193603516,0.04
324,MetaDrive-test-dropout_both,91,48.968897600672356,326193,2571,3573.9228808879852,1.750928282737732,-2.815692901611328,64.21223449707031,0.03
325,MetaDrive-test-dropout_both,91,43.4344100267717,327141,2578,3585.1272139549255,10.91476058959961,-11.200742721557617,30.786638259887695,0.01
326,MetaDrive-test-dropout_both,91,42.44710231912785,328015,2588,3594.207547187805,11.43349838256836,-11.672788619995117,15.811318397521973,0.02
327,MetaDrive-test-dropout_both,91,46.21224805621419,329101,2597,3605.8094120025635,7.954869747161865,-8.969606399536133,149.9370574951172,0.02
328,MetaDrive-test-dropout_both,91,42.019696053299874,330214,2612,3618.4828000068665,8.554515838623047,,43.743709564208984,0.01
329,MetaDrive-test-dropout_both,91,44.31800328624266,331140,2623,3628.244959831238,12.14107608795166,,10.930566787719727,0.01
330,MetaDrive-test-dropout_both,91,45.5207457181379,332047,2634,3638.1371619701385,10.154613494873047,-11.000611305236816,13.99400520324707,0.01
331,MetaDrive-test-dropout_both,91,42.45877168440065,333353,2653,3651.7623920440674,6.922033309936523,-7.5303521156311035,28.73989486694336,0.01
332,MetaDrive-test-dropout_both,91,44.95827444518537,334270,2657,3661.8767380714417,2.3041679859161377,,182.89268493652344,0.01
333,MetaDrive-test-dropout_both,91,46.42165177516629,335005,2662,3670.294376850128,10.385011672973633,-10.657709121704102,19.082592010498047,0.02
334,MetaDrive-test-dropout_both,91,48.72621619900067,336148,2668,3682.333713054657,9.140185356140137,,14.547657012939453,0.02
335,MetaDrive-test-dropout_both,91,48.76681318015114,337089,2675,3692.7365679740906,10.206408500671387,-9.277665138244629,42.2147102355957,0.02
336,MetaDrive-test-dropout_both,91,44.77062683898507,338007,2686,3703.306363105774,4.270003318786621,-4.595941543579102,20.37432098388672,0.01
337,MetaDrive-test-dropout_both,91,47.52859564322379,339136,2692,3714.900125980377,2.641895294189453,,96.81387329101562,0.01
338,MetaDrive-test-dropout_both,91,47.919065198115895,340162,2703,3725.9716629981995,11.921281814575195,,20.21741485595703,0.01
339,MetaDrive-test-dropout_both,91,48.65659746705092,341007,2712,3735.1248359680176,9.063660621643066,-9.134915351867676,24.962995529174805,0.01
340,MetaDrive-test-dropout_both,91,48.266693136506916,342003,2723,3745.966395139694,0.04992783069610596,-2.8766849040985107,801.5765991210938,0.01
341,MetaDrive-test-dropout_both,91,50.018539499266254,343004,2731,3756.852299928665,9.432841300964355,,27.9818115234375,0.01
342,MetaDrive-test-dropout_both,91,52.837367257580574,344064,2740,3768.1564888954163,8.462377548217773,,11.379819869995117,0.01
343,MetaDrive-test-dropout_both,91,56.23552453465831,345123,2746,3780.961184024811,0.909441351890564,-1.8947722911834717,78.95931243896484,0.01
344,MetaDrive-test-dropout_both,91,59.39254404207902,346023,2751,3790.7613768577576,9.336715698242188,-10.55207347869873,23.861221313476562,0.01
345,MetaDrive-test-dropout_both,91,57.73641631681428,347213,2757,3803.6319761276245,11.51304817199707,-11.303465843200684,7.0742645263671875,0.01
346,MetaDrive-test-dropout_both,91,61.03094158638559,348045,2761,3813.346762895584,9.691923141479492,-10.17041015625,10.259500503540039,0.01
347,MetaDrive-test-dropout_both,91,56.77002857688167,349283,2768,3827.02370095253,5.084056377410889,-6.572333335876465,45.48399353027344,0.0
348,MetaDrive-test-dropout_both,91,56.08765378165293,350090,2775,3835.792096853256,8.614500045776367,,16.409181594848633,0.0
349,MetaDrive-test-dropout_both,91,60.04077814169714,351131,2782,3847.2976911067963,9.756246566772461,-10.688343048095703,30.23615264892578,0.01
350,MetaDrive-test-dropout_both,91,54.436377909554956,352037,2793,3857.065595149994,9.467218399047852,-9.995491027832031,34.38926315307617,0.01
351,MetaDrive-test-dropout_both,91,53.38906414508547,353054,2805,3868.001930952072,9.549837112426758,,19.189306259155273,0.01
352,MetaDrive-test-dropout_both,91,56.88486312712874,354114,2811,3879.2044060230255,9.56436538696289,,23.863317489624023,0.01
353,MetaDrive-test-dropout_both,91,61.05011200102545,355057,2817,3889.759668827057,11.348062515258789,-11.669903755187988,14.626514434814453,0.01
354,MetaDrive-test-dropout_both,91,62.14039164713995,356022,2825,3899.997748851776,11.960004806518555,,7.800824165344238,0.01
355,MetaDrive-test-dropout_both,91,62.654347734692976,357010,2833,3911.655547142029,10.290712356567383,,26.222551345825195,0.01
356,MetaDrive-test-dropout_both,91,60.98797414031852,358125,2842,3924.15811085701,8.555341720581055,-9.418437004089355,62.45698547363281,0.01
357,MetaDrive-test-dropout_both,91,59.28362097923435,359002,2849,3933.6865561008453,5.6282877922058105,,16.576160430908203,0.01
358,MetaDrive-test-dropout_both,91,53.5837616676063,360228,2859,3947.451984167099,0.6722773909568787,,209.28378295898438,0.01
359,MetaDrive-test-dropout_both,91,50.65150913711123,361042,2866,3955.702500104904,8.295766830444336,,14.175359725952148,0.01
360,MetaDrive-test-dropout_both,91,52.91191770090986,362330,2872,3970.1567480564117,8.45619010925293,,32.94279479980469,0.01
361,MetaDrive-test-dropout_both,91,48.8433688556448,363159,2881,3979.6488449573517,9.946945190429688,-10.376052856445312,12.987771987915039,0.0
362,MetaDrive-test-dropout_both,91,49.08005213853286,364007,2888,3989.3381731510162,8.446338653564453,-9.368980407714844,19.879150390625,0.0
363,MetaDrive-test-dropout_both,91,53.50335030230212,365102,2896,4000.7676560878754,8.385204315185547,,16.445220947265625,0.0
364,MetaDrive-test-dropout_both,91,56.41230794278803,366106,2901,4011.7511970996857,-0.7372450828552246,,228.65216064453125,0.0
365,MetaDrive-test-dropout_both,91,50.570801876556686,367347,2913,4025.0036249160767,7.827625751495361,-7.963655471801758,32.80924987792969,0.0
366,MetaDrive-test-dropout_both,91,49.54512220171994,368183,2920,4033.900136947632,8.339019775390625,-9.562891006469727,38.038291931152344,0.0
367,MetaDrive-test-dropout_both,91,51.71613187613068,369168,2925,4044.4775021076202,-2.5873868465423584,,69.69828033447266,0.0
368,MetaDrive-test-dropout_both,91,49.85162093569738,370001,2933,4053.714520931244,8.102072715759277,-8.746729850769043,20.77679443359375,0.0
369,MetaDrive-test-dropout_both,91,52.620731795838154,371242,2939,4067.0233471393585,9.701801300048828,,19.67593002319336,0.0
370,MetaDrive-test-dropout_both,91,55.57993174362695,372072,2943,4075.6926050186157,10.28640079498291,,12.728970527648926,0.0
371,MetaDrive-test-dropout_both,91,58.18807013593343,373093,2948,4087.893166065216,8.255986213684082,-8.49121379852295,45.68293762207031,0.0
372,MetaDrive-test-dropout_both,91,57.56082639954024,374019,2957,4097.225944042206,5.815422058105469,-4.834726810455322,41.508277893066406,0.0
373,MetaDrive-test-dropout_both,91,56.34380986446532,375072,2967,4108.153263092041,8.528081893920898,,35.36224365234375,0.0
374,MetaDrive-test-dropout_both,91,55.49004051851764,376200,2976,4120.858332157135,8.432849884033203,,22.44564437866211,0.0
375,MetaDrive-test-dropout_both,91,60.22473169037637,377064,2979,4129.739547014236,9.957419395446777,,15.664958953857422,0.01
376,MetaDrive-test-dropout_both,91,62.26476901359811,378066,2983,4140.434075117111,9.839906692504883,,19.599609375,0.02
377,MetaDrive-test-dropout_both,91,64.57565153461091,379008,2989,4150.839226961136,8.180852890014648,,27.92529296875,0.02
378,MetaDrive-test-dropout_both,91,59.67509755964247,380250,3001,4164.341305971146,10.278398513793945,,15.820899963378906,0.02
379,MetaDrive-test-dropout_both,91,56.79531707130106,381030,3015,4172.753765106201,7.839807987213135,,19.13434600830078,0.02
380,MetaDrive-test-dropout_both,91,51.22921059954363,382242,3028,4186.200553894043,6.3909831047058105,,48.644004821777344,0.02
381,MetaDrive-test-dropout_both,91,53.1056873840022,383173,3032,4196.839166879654,6.450550556182861,-7.551236629486084,25.874828338623047,0.02
382,MetaDrive-test-dropout_both,91,44.62027294410872,384176,3045,4208.0855531692505,-0.5709702968597412,,486.2672119140625,0.02
383,MetaDrive-test-dropout_both,91,42.9893321662473,385129,3050,4219.234272003174,10.825141906738281,-12.030987739562988,14.027856826782227,0.02
384,MetaDrive-test-dropout_both,91,45.87407424112598,386001,3052,4229.5120968818665,7.295504570007324,-7.618758678436279,21.318790435791016,0.02
385,MetaDrive-test-dropout_both,91,50.33601778816153,387369,3059,4242.733245134354,8.104474067687988,-9.518271446228027,27.58612823486328,0.03
386,MetaDrive-test-dropout_both,91,51.83222428365652,388294,3066,4253.0282480716705,7.995328426361084,,59.43726348876953,0.03
387,MetaDrive-test-dropout_both,91,48.133365684290155,389158,3077,4262.852046012878,-24.625459671020508,,989.7020874023438,0.03
388,MetaDrive-test-dropout_both,91,38.22237187274447,390147,3088,4273.54243183136,7.94497537612915,-7.365420341491699,17.844036102294922,0.01
389,MetaDrive-test-dropout_both,91,39.952505396939166,391024,3095,4282.6842222213745,8.476295471191406,,16.985836029052734,0.01
390,MetaDrive-test-dropout_both,91,39.80275664894973,392059,3105,4293.878963947296,4.518387794494629,-4.5190958976745605,22.26103973388672,0.01
391,MetaDrive-test-dropout_both,91,42.53584926407273,393004,3113,4304.594548940659,5.948585033416748,,22.265209197998047,0.01
392,MetaDrive-test-dropout_both,91,46.03161471810029,394037,3119,4315.54644203186,7.342849254608154,-7.878733158111572,39.242149353027344,0.01
393,MetaDrive-test-dropout_both,91,46.58154060584698,395133,3128,4327.8250160217285,8.173431396484375,-7.607893466949463,19.416872024536133,0.01
394,MetaDrive-test-dropout_both,91,48.06444724428376,396442,3133,4340.865031003952,-5.286408424377441,,1218.44775390625,0.01
395,MetaDrive-test-dropout_both,91,50.257666494275156,397072,3138,4347.775307893753,2.1126930713653564,,143.675537109375,0.01
396,MetaDrive-test-dropout_both,91,53.06117201626894,398011,3144,4356.975320100784,8.157586097717285,-8.863260269165039,10.070100784301758,0.01
397,MetaDrive-test-dropout_both,91,49.45277416270119,399615,3153,4375.186122894287,2.978919506072998,-3.9174208641052246,41.16788864135742,0.01
398,MetaDrive-test-dropout_both,91,51.982817975136406,400160,3155,4381.431208848953,0.7288354635238647,,362.9132080078125,0.01
399,MetaDrive-test-dropout_both,91,48.09004107481915,401016,3162,4391.202744960785,4.13163423538208,,38.45901107788086,0.0
400,MetaDrive-test-dropout_both,91,49.80934650153499,402271,3170,4404.278225183487,4.71580696105957,-5.735640525817871,27.50424575805664,0.0
401,MetaDrive-test-dropout_both,91,52.5636689287087,403122,3174,4413.734034061432,9.49240493774414,,14.067740440368652,0.0
402,MetaDrive-test-dropout_both,91,56.10046948616909,404097,3177,4423.897977113724,4.083141803741455,-5.2012939453125,20.074373245239258,0.0
403,MetaDrive-test-dropout_both,91,59.56082603602909,405021,3183,4434.258911848068,3.703756093978882,-4.722522258758545,28.11563491821289,0.0
404,MetaDrive-test-dropout_both,91,63.16851851936239,406606,3187,4452.239907979965,6.515369892120361,,150.41281127929688,0.0
405,MetaDrive-test-dropout_both,91,62.08855767246461,407014,3190,4456.583005189896,-4.99613094329834,,562.5657348632812,0.0
406,MetaDrive-test-dropout_both,91,66.35937829743094,408586,3195,4472.976258993149,4.638007164001465,,47.60185241699219,0.01
407,MetaDrive-test-dropout_both,91,68.68392884769595,409028,3196,4478.473832130432,3.970933675765991,,1617.3974609375,0.01
408,MetaDrive-test-dropout_both,91,68.19877530089865,410340,3207,4493.499198913574,1.9778735637664795,,62.99114227294922,0.01
409,MetaDrive-test-dropout_both,91,65.30619792696376,411043,3216,4501.507894039154,5.2743048667907715,-6.70206356048584,29.173477172851562,0.01
410,MetaDrive-test-dropout_both,91,64.44912088780862,412329,3224,4515.650921821594,5.975534439086914,-5.664351463317871,44.517669677734375,0.01
411,MetaDrive-test-dropout_both,91,66.12404848454426,413041,3227,4523.364898920059,-7.410245895385742,6.659428119659424,128.80665588378906,0.01
412,MetaDrive-test-dropout_both,91,58.88950016092843,414085,3240,4534.452548027039,7.184465408325195,-7.81654691696167,21.371295928955078,0.01
413,MetaDrive-test-dropout_both,91,61.48270941568384,415084,3246,4545.39347910881,6.308207988739014,,27.58739471435547,0.01
414,MetaDrive-test-dropout_both,91,62.40632309231612,416049,3252,4556.07634305954,-3.8984527587890625,2.349738121032715,169.29043579101562,0.01
415,MetaDrive-test-dropout_both,91,61.85362431419552,417078,3255,4566.917815923691,2.225609064102173,,119.41578674316406,0.02
416,MetaDrive-test-dropout_both,91,61.781787465182425,418061,3263,4576.872905015945,4.595826625823975,-4.814003944396973,36.89486312866211,0.02
417,MetaDrive-test-dropout_both,91,58.14095168109702,419226,3273,4589.7651381492615,7.8826584815979,,20.815532684326172,0.02
418,MetaDrive-test-dropout_both,91,51.898371642181566,420056,3280,4598.362446069717,9.426878929138184,,14.378262519836426,0.02
419,MetaDrive-test-dropout_both,91,46.072161789539734,421460,3291,4612.2683482170105,-16.866701126098633,,769.66845703125,0.03
420,MetaDrive-test-dropout_both,91,44.99907389706459,422531,3295,4623.7691061496735,7.314217567443848,-7.667242527008057,17.437301635742188,0.02
421,MetaDrive-test-dropout_both,91,43.02765110295207,423207,3300,4630.300364017487,-13.715994834899902,12.729759216308594,625.4641723632812,0.02
422,MetaDrive-test-dropout_both,91,46.83438862918472,424612,3304,4645.722372055054,2.8493804931640625,,47.683563232421875,0.02
423,MetaDrive-test-dropout_both,91,46.09188358060142,425033,3308,4650.934690952301,6.823832035064697,-6.572790145874023,77.23112487792969,0.02
424,MetaDrive-test-dropout_both,91,50.53388262668657,426101,3312,4662.151944160461,7.8915324211120605,-7.624355316162109,16.843204498291016,0.02
425,MetaDrive-test-dropout_both,91,53.15344609759631,427024,3316,4673.487548112869,2.770557165145874,,1215.447509765625,0.02
426,MetaDrive-test-dropout_both,91,56.30137302655709,428198,3323,4688.28227186203,2.492464542388916,,30.573591232299805,0.03
427,MetaDrive-test-dropout_both,91,54.92809010566852,429009,3328,4697.243155241013,7.815849781036377,-8.079965591430664,21.174375534057617,0.03
428,MetaDrive-test-dropout_both,91,57.89683511034273,430010,3334,4707.870620012283,2.3963582515716553,,56.90184020996094,0.03
429,MetaDrive-test-dropout_both,91,55.79431595374149,431259,3347,4721.372552156448,5.779260635375977,-6.687903881072998,14.715034484863281,0.03
430,MetaDrive-test-dropout_both,91,51.592957015983814,432013,3354,4729.900082111359,5.99846076965332,-7.087211608886719,63.388763427734375,0.03
431,MetaDrive-test-dropout_both,91,52.5060396088748,433256,3357,4745.1090750694275,-9.308438301086426,,280.7356262207031,0.02
432,MetaDrive-test-dropout_both,91,55.91248868546394,434205,3358,4754.223994016647,7.315550804138184,-7.835640907287598,185.03907775878906,0.03
433,MetaDrive-test-dropout_both,91,56.81880036697031,435233,3362,4766.070198059082,5.336743354797363,-5.592696189880371,14.07738971710205,0.03
434,MetaDrive-test-dropout_both,91,57.40944223839315,436021,3368,4773.838020086288,-19.557777404785156,19.009761810302734,365.30560302734375,0.03
435,MetaDrive-test-dropout_both,91,56.32076800358223,437012,3380,4784.497491836548,-7.514470100402832,,347.4187316894531,0.03
436,MetaDrive-test-dropout_both,91,61.07042029434837,438208,3382,4796.891237974167,4.60379695892334,,31.82354736328125,0.04
437,MetaDrive-test-dropout_both,91,64.60981600128196,439318,3384,4807.48393201828,6.751955986022949,,20.477231979370117,0.05
438,MetaDrive-test-dropout_both,91,65.6290316266285,440139,3388,4815.731848239899,-10.53471851348877,10.104737281799316,827.65283203125,0.05
439,MetaDrive-test-dropout_both,91,67.53981499840387,441338,3391,4828.7178790569305,-9.748185157775879,,187.35426330566406,0.04
440,MetaDrive-test-dropout_both,91,68.5829818638306,442073,3394,4836.586241006851,2.3070785999298096,-3.118886947631836,29.746334075927734,0.04
441,MetaDrive-test-dropout_both,91,70.21406000568264,443243,3398,4850.128937005997,5.335963249206543,-5.747093200683594,9.18143081665039,0.04
442,MetaDrive-test-dropout_both,91,72.3051781688705,444087,3402,4859.165278911591,6.870604515075684,-8.318995475769043,21.702892303466797,0.04
443,MetaDrive-test-dropout_both,91,67.51252158269601,445147,3409,4870.984361886978,7.090839862823486,-7.960865020751953,23.080081939697266,0.04
444,MetaDrive-test-dropout_both,91,69.06137603348456,446127,3412,4881.058248996735,-24.09772491455078,23.788700103759766,1232.927734375,0.04
445,MetaDrive-test-dropout_both,91,67.84205075847676,447220,3417,4892.180769920349,5.053797721862793,,35.17085266113281,0.05
446,MetaDrive-test-dropout_both,91,62.153328833916646,448036,3428,4900.787090063095,6.241164207458496,,27.494247436523438,0.04
447,MetaDrive-test-dropout_both,91,59.07315149971071,449082,3438,4912.650888204575,3.651960849761963,,51.59391784667969,0.04
448,MetaDrive-test-dropout_both,91,61.133641336134005,450299,3445,4927.513643980026,7.161050319671631,-7.8454389572143555,27.698837280273438,0.04
449,MetaDrive-test-dropout_both,91,63.26019168991004,451305,3449,4937.45943403244,10.013137817382812,-9.682038307189941,18.385387420654297,0.04
450,MetaDrive-test-dropout_both,91,62.27086401472493,452290,3456,4950.461493968964,9.187877655029297,,26.140201568603516,0.04
451,MetaDrive-test-dropout_both,91,54.849125138838325,453471,3467,4963.321079969406,10.805907249450684,-10.907302856445312,6.520656585693359,0.03
452,MetaDrive-test-dropout_both,91,43.73142779752314,454006,3483,4969.139245033264,7.688765048980713,,25.808069229125977,0.01
453,MetaDrive-test-dropout_both,91,35.89599453426127,455140,3495,4980.772924184799,6.332810878753662,,10.717428207397461,0.01
454,MetaDrive-test-dropout_both,91,31.75752378617335,456032,3501,4990.0843958854675,6.451794624328613,,25.99929428100586,0.01
455,MetaDrive-test-dropout_both,91,31.33474070828796,457149,3510,5002.68465924263,6.23264741897583,-6.82348108291626,18.073040008544922,0.01
456,MetaDrive-test-dropout_both,91,29.824885907950897,458026,3514,5011.435812950134,5.832042217254639,,45.07918930053711,0.01
457,MetaDrive-test-dropout_both,91,29.88951277070687,459207,3519,5023.391638994217,6.796006679534912,-6.56541633605957,29.93592071533203,0.0
458,MetaDrive-test-dropout_both,91,30.10634856199853,460068,3527,5032.32969212532,5.259536266326904,,108.90951538085938,0.0
459,MetaDrive-test-dropout_both,91,28.165234313757246,461118,3541,5043.716392040253,4.754932403564453,,19.9111328125,0.0
460,MetaDrive-test-dropout_both,91,28.997675298914558,462068,3547,5053.395648956299,5.200531959533691,,20.313411712646484,0.0
461,MetaDrive-test-dropout_both,91,29.48573796535538,463145,3554,5064.1612021923065,6.891592502593994,-7.285305023193359,12.459628105163574,0.01
462,MetaDrive-test-dropout_both,91,25.928231518395748,464111,3569,5074.6567442417145,6.085509777069092,-5.716560363769531,24.052331924438477,0.01
463,MetaDrive-test-dropout_both,91,29.879642162849283,465472,3574,5087.532379150391,-9.511932373046875,,769.9734497070312,0.02
464,MetaDrive-test-dropout_both,91,31.6454277759971,466240,3580,5095.691476821899,1.8028144836425781,,71.74296569824219,0.02
465,MetaDrive-test-dropout_both,91,35.2962201640871,467175,3582,5104.659508943558,4.2134222984313965,-5.344507694244385,32.07084274291992,0.02
466,MetaDrive-test-dropout_both,91,36.69073043723052,468016,3589,5113.669163942337,3.5792975425720215,,38.59419250488281,0.02
467,MetaDrive-test-dropout_both,91,37.26068485762151,469089,3598,5124.951179981232,2.2122201919555664,-4.15997314453125,375.6468505859375,0.02
468,MetaDrive-test-dropout_both,91,35.584856788913626,470201,3607,5136.939525127411,3.9620473384857178,-5.149826526641846,32.515419006347656,0.02
469,MetaDrive-test-dropout_both,91,35.51102334491059,471131,3612,5146.7199420928955,2.529879570007324,-2.3116536140441895,157.47537231445312,0.02
470,MetaDrive-test-dropout_both,91,35.909203661265316,472272,3618,5159.200598955154,6.099411964416504,,108.90437316894531,0.02
471,MetaDrive-test-dropout_both,91,34.53585766175901,473252,3624,5169.5482449531555,5.65371561050415,,23.29798698425293,0.02
472,MetaDrive-test-dropout_both,91,36.11974029279287,474163,3630,5179.215790987015,2.8071117401123047,-5.593282222747803,97.38510131835938,0.02
473,MetaDrive-test-dropout_both,91,39.60953396541465,475085,3633,5189.030256986618,5.718714714050293,-6.497570514678955,13.058308601379395,0.02
474,MetaDrive-test-dropout_both,91,42.95584067797335,476389,3640,5202.964666128159,-17.519041061401367,13.349536895751953,1997.3016357421875,0.02
475,MetaDrive-test-dropout_both,91,43.267080516163645,477336,3645,5213.215886116028,4.6777825355529785,,32.618751525878906,0.02
476,MetaDrive-test-dropout_both,91,45.07952645344026,478750,3651,5226.89547419548,6.246696472167969,,12.272443771362305,0.02
477,MetaDrive-test-dropout_both,91,43.19971542688803,479457,3652,5234.9873588085175,5.597721099853516,-5.893596649169922,29.375503540039062,0.01
478,MetaDrive-test-dropout_both,91,44.215245099233314,480337,3656,5244.964635133743,5.25510835647583,-6.067595481872559,19.687036514282227,0.01
479,MetaDrive-test-dropout_both,91,47.14797690469198,481455,3659,5257.142133951187,4.024099826812744,-4.548081874847412,22.757015228271484,0.01
480,MetaDrive-test-dropout_both,91,47.855232841224385,482107,3666,5263.680064916611,4.139976978302002,-4.748885154724121,40.35706329345703,0.01
481,MetaDrive-test-dropout_both,91,49.27708938802854,483187,3671,5274.231225013733,7.295715808868408,-7.450422286987305,15.293985366821289,0.01
482,MetaDrive-test-dropout_both,91,42.63896945871722,484131,3681,5284.167859077454,4.931519985198975,-4.937556743621826,17.59647560119629,0.0
483,MetaDrive-test-dropout_both,91,41.691272287414925,485362,3687,5297.639887094498,7.262335777282715,,22.01612091064453,0.0
484,MetaDrive-test-dropout_both,91,42.628735512487125,486372,3692,5309.371104001999,3.522923469543457,,59.4488639831543,0.0
485,MetaDrive-test-dropout_both,91,41.96791189471221,487150,3697,5318.646208047867,1.2108248472213745,,58.3131103515625,0.0
486,MetaDrive-test-dropout_both,91,44.26418054342854,488427,3701,5332.382932901382,2.281947135925293,-2.2771573066711426,28.083873748779297,0.0
487,MetaDrive-test-dropout_both,91,42.703017863955125,489071,3708,5339.820930957794,3.0739903450012207,-2.746948003768921,52.239662170410156,0.0
488,MetaDrive-test-dropout_both,91,43.646620181080316,490441,3715,5355.230867862701,-24.707536697387695,23.232723236083984,2558.613525390625,0.0
489,MetaDrive-test-dropout_both,91,44.01588014414826,491649,3719,5366.479408025742,3.807223320007324,-4.170199394226074,15.939559936523438,0.0
490,MetaDrive-test-dropout_both,91,45.682125715933786,492330,3720,5373.469155073166,-21.863882064819336,,1292.18359375,0.0
491,MetaDrive-test-dropout_both,91,48.46766318259988,493332,3722,5386.018010139465,3.7846903800964355,,34.826881408691406,0.0
492,MetaDrive-test-dropout_both,91,46.50465663383028,494090,3729,5393.27375793457,-12.186942100524902,,105.39997863769531,0.0
493,MetaDrive-test-dropout_both,91,44.03384501564529,495181,3734,5404.661221981049,4.907621383666992,-3.723066568374634,33.140708923339844,0.0
494,MetaDrive-test-dropout_both,91,41.62448055897095,496045,3742,5413.291095018387,2.5978777408599854,-2.628544569015503,83.9586410522461,0.0
495,MetaDrive-test-dropout_both,91,41.799283739194586,497013,3749,5423.801725149155,6.050778388977051,-7.020949363708496,14.562200546264648,0.0
496,MetaDrive-test-dropout_both,91,31.140955011220367,498019,3779,5435.374686956406,3.871419668197632,-4.493193626403809,15.777158737182617,0.0
497,MetaDrive-test-dropout_both,91,22.4956099415965,499022,3801,5446.104171037674,4.115557670593262,,23.110239028930664,0.0
