TanmayH/CS269-RL-project-code/MetaDrive-test-no-noise-td3/td3/progress.csv
,log_dir,frame_per_second,episode_reward,total_steps,total_episodes,total_time,target_q,actor_loss,critic_loss,success_rate
0,MetaDrive-test-no-noise-td3,591,11.864621991051834,2001,2,3.3854589462280273,,,,0.0
1,MetaDrive-test-no-noise-td3,555,11.576552397775144,3002,3,5.405419826507568,,,,0.0
2,MetaDrive-test-no-noise-td3,451,10.524393302386324,4999,5,11.077156782150269,,,,0.0
3,MetaDrive-test-no-noise-td3,425,8.406913058016242,5043,6,11.848910808563232,0.012807417660951614,-0.01113017275929451,0.001058162422850728,0.0
4,MetaDrive-test-no-noise-td3,207,-1.4620041949149643,6021,50,28.98720383644104,-0.03256739675998688,0.03353840112686157,0.7819910049438477,0.0
5,MetaDrive-test-no-noise-td3,174,-1.599203990738194,7179,54,41.18461060523987,0.07354285567998886,-0.07227791100740433,0.009163705632090569,0.0
6,MetaDrive-test-no-noise-td3,153,-1.737766955771808,8650,57,56.378108739852905,0.0868435725569725,,0.03454127907752991,0.0
7,MetaDrive-test-no-noise-td3,141,-1.6778205830950341,9651,58,68.2936499118805,0.07034611701965332,-0.07336054742336273,0.0242000725120306,0.0
8,MetaDrive-test-no-noise-td3,137,-1.809199198028687,10003,61,72.99868083000183,0.06313300132751465,-0.0663541927933693,0.011974587105214596,0.0
9,MetaDrive-test-no-noise-td3,124,-1.8513523746595035,11388,68,91.25853180885315,0.06880850344896317,,0.01060350239276886,0.0
10,MetaDrive-test-no-noise-td3,120,-1.8026733205278447,12389,69,102.92472171783447,0.0747666209936142,-0.04876982048153877,0.02313460409641266,0.0
11,MetaDrive-test-no-noise-td3,115,-1.7557813897263688,13485,71,116.71331572532654,0.12441594153642654,-0.11767186969518661,0.04360333830118179,0.0
12,MetaDrive-test-no-noise-td3,113,-1.7019562472837977,14091,73,124.48087072372437,0.15555357933044434,-0.1682838499546051,0.007855355739593506,0.0
13,MetaDrive-test-no-noise-td3,108,-1.3966501247404488,15502,82,143.30059790611267,0.1844814270734787,,0.015433969907462597,0.0
14,MetaDrive-test-no-noise-td3,106,-1.2611065317464456,16084,90,151.58303689956665,0.20740583539009094,,0.005245314445346594,0.0
15,MetaDrive-test-no-noise-td3,103,-1.0280163846686707,17003,97,163.92154479026794,0.24775353074073792,-0.2625160217285156,0.0049826717004179955,0.0
16,MetaDrive-test-no-noise-td3,100,-0.851297588230653,18058,111,179.76002192497253,0.23890464007854462,,0.6263183355331421,0.0
17,MetaDrive-test-no-noise-td3,98,1.1940914138486982,19060,126,193.822988986969,0.4282686710357666,,0.04318760335445404,0.0
18,MetaDrive-test-no-noise-td3,96,3.3139797506315496,20031,145,208.28248500823975,0.5270195603370667,-0.5317776203155518,0.015548375435173512,0.0
19,MetaDrive-test-no-noise-td3,94,5.264378204583168,21011,167,221.82826972007751,0.7015941143035889,-0.6780010461807251,0.08969780802726746,0.0
20,MetaDrive-test-no-noise-td3,92,6.5105716312115804,22013,188,237.62026286125183,0.8765488266944885,-0.8602839112281799,0.0662441998720169,0.0
21,MetaDrive-test-no-noise-td3,90,7.884724839265466,23012,209,254.15909385681152,0.9881988763809204,,1.1276849508285522,0.0
22,MetaDrive-test-no-noise-td3,89,8.500431150530002,24039,228,270.0294358730316,1.3782925605773926,-1.4790239334106445,0.049895331263542175,0.0
23,MetaDrive-test-no-noise-td3,87,11.359127979396478,25013,239,284.91942501068115,1.6229662895202637,-1.6620231866836548,1.3999719619750977,0.0
24,MetaDrive-test-no-noise-td3,86,15.337373375280295,26037,248,301.0788428783417,1.8954448699951172,-2.1468470096588135,2.6714212894439697,0.0
25,MetaDrive-test-no-noise-td3,85,19.020804525920106,27033,255,315.7804069519043,2.476062059402466,-2.581143379211426,1.2298378944396973,0.0
26,MetaDrive-test-no-noise-td3,84,24.1949952000905,28088,260,330.54079270362854,3.126624822616577,,0.07983818650245667,0.01
27,MetaDrive-test-no-noise-td3,84,29.705410060539993,29046,263,344.20690298080444,3.611994743347168,,0.10512520372867584,0.02
28,MetaDrive-test-no-noise-td3,83,35.42463894888836,30309,272,361.9933907985687,4.424777030944824,-4.534481525421143,0.25018540024757385,0.02
29,MetaDrive-test-no-noise-td3,83,39.63205166452409,31143,277,374.5781047344208,5.2058820724487305,-5.418344497680664,0.1432933509349823,0.02
30,MetaDrive-test-no-noise-td3,82,43.515659086710755,32069,284,387.2334768772125,5.375948429107666,-5.780043601989746,8.233345985412598,0.02
31,MetaDrive-test-no-noise-td3,82,49.78167342129648,33240,288,402.2623538970947,6.528407573699951,,4.268336296081543,0.03
32,MetaDrive-test-no-noise-td3,82,53.83794853648682,34135,291,414.6812307834625,7.2520365715026855,-7.249459743499756,0.46549779176712036,0.03
33,MetaDrive-test-no-noise-td3,82,58.34683161030894,35022,295,426.2709138393402,7.941829681396484,,0.3017650246620178,0.03
34,MetaDrive-test-no-noise-td3,81,63.300631590235504,36208,300,442.98157000541687,8.977365493774414,,2.6104204654693604,0.03
35,MetaDrive-test-no-noise-td3,81,68.77976832356711,37356,302,459.1985447406769,10.106656074523926,,0.34914812445640564,0.05
36,MetaDrive-test-no-noise-td3,81,72.47829298007233,38121,305,469.6629617214203,10.901131629943848,-11.086629867553711,5.958426475524902,0.06
37,MetaDrive-test-no-noise-td3,80,77.4161665376111,39280,307,485.0006248950958,11.327391624450684,,23.703258514404297,0.07
38,MetaDrive-test-no-noise-td3,80,80.78390813032071,40119,309,496.22480368614197,12.432751655578613,-12.67136001586914,0.9660190939903259,0.07
39,MetaDrive-test-no-noise-td3,80,85.14986400893511,41001,310,509.7299418449402,13.170682907104492,-13.371196746826172,12.1690673828125,0.08
40,MetaDrive-test-no-noise-td3,80,90.28090636646878,42024,315,522.5055968761444,13.338068962097168,,0.6975052356719971,0.09
41,MetaDrive-test-no-noise-td3,80,93.67668986772807,43038,317,537.497252702713,14.544540405273438,,12.398906707763672,0.09
42,MetaDrive-test-no-noise-td3,79,99.05135931548934,44089,319,552.0120089054108,15.979925155639648,-16.20699691772461,0.5190415978431702,0.1
43,MetaDrive-test-no-noise-td3,79,103.9644928132152,45120,322,564.8964049816132,16.59368896484375,,0.7122905254364014,0.11
44,MetaDrive-test-no-noise-td3,79,109.46230655687823,46224,324,580.0319018363953,17.326208114624023,,1.4376740455627441,0.13
45,MetaDrive-test-no-noise-td3,79,113.83415555749552,47164,326,592.3554286956787,16.580312728881836,,1.8989297151565552,0.14
46,MetaDrive-test-no-noise-td3,79,120.87285236187128,48602,328,611.5249087810516,19.04754066467285,,2.1048974990844727,0.16
47,MetaDrive-test-no-noise-td3,78,124.83325049636915,49842,331,631.7411468029022,19.080602645874023,,1.8814704418182373,0.16
48,MetaDrive-test-no-noise-td3,78,127.90651915460248,50767,333,645.0257380008698,20.946626663208008,-21.03124237060547,1.7822279930114746,0.17
49,MetaDrive-test-no-noise-td3,78,130.83414283966104,51399,334,653.3547728061676,21.346324920654297,-21.466407775878906,0.8284827470779419,0.18
50,MetaDrive-test-no-noise-td3,78,136.90292149049912,52822,337,672.7572178840637,22.860170364379883,,1.1651365756988525,0.2
51,MetaDrive-test-no-noise-td3,78,137.88200338761808,53164,338,677.746367931366,21.684289932250977,,0.9373189210891724,0.2
52,MetaDrive-test-no-noise-td3,78,142.52335704622897,54073,340,690.041574716568,22.44893455505371,-22.36709976196289,3.9880404472351074,0.21
53,MetaDrive-test-no-noise-td3,78,147.56477056035638,55171,344,707.1417169570923,24.505996704101562,-24.955062866210938,0.9914462566375732,0.21
54,MetaDrive-test-no-noise-td3,78,150.11621475646882,56057,347,718.2098276615143,25.489948272705078,-25.479595184326172,1.372383713722229,0.22
55,MetaDrive-test-no-noise-td3,78,152.66326338970347,57023,349,730.8430788516998,23.545379638671875,-23.73103904724121,2.015937089920044,0.23
56,MetaDrive-test-no-noise-td3,77,157.91960165920088,58377,352,750.5624258518219,26.058595657348633,-26.749711990356445,1.5788493156433105,0.24
57,MetaDrive-test-no-noise-td3,77,160.91209557641594,59398,354,763.7910709381104,25.801334381103516,,1.4627008438110352,0.26
58,MetaDrive-test-no-noise-td3,77,164.37891744903868,60501,357,779.3930087089539,27.491628646850586,-27.63196563720703,27.568641662597656,0.27
59,MetaDrive-test-no-noise-td3,77,164.46692117523355,61039,360,787.7605538368225,24.802560806274414,-25.250247955322266,1.9700806140899658,0.26
60,MetaDrive-test-no-noise-td3,77,164.1030897605366,62128,363,802.1701858043671,28.626367568969727,,1.4969345331192017,0.26
61,MetaDrive-test-no-noise-td3,77,168.2445927958465,63413,366,820.2338166236877,24.98878288269043,-26.146793365478516,72.90618896484375,0.27
62,MetaDrive-test-no-noise-td3,77,172.1630524697108,64317,367,833.9943239688873,27.951641082763672,-28.335948944091797,66.16667175292969,0.28
63,MetaDrive-test-no-noise-td3,76,176.7169079816172,65289,369,848.2943937778473,28.34744644165039,-28.79843521118164,2.282775402069092,0.29
64,MetaDrive-test-no-noise-td3,76,178.90682813827502,66302,373,862.9404819011688,30.480003356933594,,39.80903625488281,0.3
65,MetaDrive-test-no-noise-td3,76,183.47822667039395,67303,374,881.4991669654846,27.680137634277344,-28.065183639526367,36.14198303222656,0.3
66,MetaDrive-test-no-noise-td3,76,184.60238857354426,68215,377,895.0909538269043,32.70927047729492,-33.5702018737793,4.471338272094727,0.3
67,MetaDrive-test-no-noise-td3,76,188.1073149492392,69254,380,910.5902128219604,31.01886749267578,,34.582576751708984,0.31
68,MetaDrive-test-no-noise-td3,75,188.91401366825605,70079,383,923.7802460193634,31.149280548095703,-32.4959602355957,69.16707611083984,0.31
69,MetaDrive-test-no-noise-td3,75,189.01180583401248,71665,387,946.7042360305786,32.93210220336914,-32.867584228515625,4.327171325683594,0.3
70,MetaDrive-test-no-noise-td3,75,190.1445584881459,72354,389,956.8286957740784,33.29819869995117,,2.4988064765930176,0.31
71,MetaDrive-test-no-noise-td3,75,192.23608170873453,73234,390,971.01433801651,34.0773811340332,,2.7857413291931152,0.32
72,MetaDrive-test-no-noise-td3,75,195.60612285774081,74670,392,993.760715007782,32.27479553222656,,4.008796215057373,0.33
73,MetaDrive-test-no-noise-td3,75,197.3517002707569,75255,393,1001.4837880134583,33.596431732177734,-33.38259506225586,8.272640228271484,0.34
74,MetaDrive-test-no-noise-td3,75,200.8118409195453,76296,395,1014.879026889801,36.73782730102539,,3.1273117065429688,0.36
75,MetaDrive-test-no-noise-td3,75,202.7785234310928,77192,398,1026.5086138248444,34.86819839477539,,136.55438232421875,0.37
76,MetaDrive-test-no-noise-td3,75,204.7563762479292,78539,401,1045.5109477043152,36.97230529785156,-36.906864166259766,3.735485792160034,0.38
77,MetaDrive-test-no-noise-td3,75,204.96471373187484,79217,402,1055.0860118865967,35.874107360839844,-36.06842041015625,5.219168186187744,0.38
78,MetaDrive-test-no-noise-td3,74,207.47494111321765,80046,404,1067.835070848465,37.025272369384766,,36.870849609375,0.39
79,MetaDrive-test-no-noise-td3,74,207.54700059926378,81292,406,1086.6153090000153,39.04895782470703,,3.174513339996338,0.38
80,MetaDrive-test-no-noise-td3,74,208.84375350877355,82065,408,1097.0562617778778,40.02710723876953,-39.4661865234375,5.650907516479492,0.39
81,MetaDrive-test-no-noise-td3,74,207.21101727735092,83192,411,1113.4991617202759,36.84988021850586,,3.8281595706939697,0.4
82,MetaDrive-test-no-noise-td3,74,208.80073081066868,84520,414,1136.126303911209,37.394264221191406,,25.317333221435547,0.39
83,MetaDrive-test-no-noise-td3,74,211.35205259574738,85484,415,1149.0073039531708,38.52604293823242,,4.418710231781006,0.4
84,MetaDrive-test-no-noise-td3,74,212.73222857186659,86762,417,1165.5973358154297,37.197906494140625,,49.92955780029297,0.41
85,MetaDrive-test-no-noise-td3,74,210.59274218294635,87731,419,1178.8279738426208,40.94232177734375,-40.90359115600586,5.657808303833008,0.41
86,MetaDrive-test-no-noise-td3,74,212.6322748345015,88662,421,1191.3796648979187,40.23331069946289,,4.088549613952637,0.42
87,MetaDrive-test-no-noise-td3,74,213.22630658321825,89358,422,1201.6744456291199,39.14349365234375,,4.256233215332031,0.42
88,MetaDrive-test-no-noise-td3,74,208.47812976854945,90436,426,1215.9494316577911,39.963775634765625,,5.052896499633789,0.41
89,MetaDrive-test-no-noise-td3,74,208.03423197594734,91219,427,1226.9176387786865,45.69373321533203,-45.942501068115234,3.4655094146728516,0.41
90,MetaDrive-test-no-noise-td3,74,208.88419477804226,92107,429,1238.3456177711487,38.15489196777344,-38.279781341552734,6.831191062927246,0.42
91,MetaDrive-test-no-noise-td3,74,211.15268144684177,93947,432,1264.334665775299,44.59245300292969,-45.17266082763672,2.2910799980163574,0.43
92,MetaDrive-test-no-noise-td3,74,208.08532139819414,94079,433,1266.5717046260834,38.64509963989258,-38.08134460449219,50.66249084472656,0.42
93,MetaDrive-test-no-noise-td3,74,207.27862722188286,95106,435,1281.331848859787,40.8612174987793,,51.48770523071289,0.41
94,MetaDrive-test-no-noise-td3,74,205.69566511905086,96109,438,1296.6347210407257,45.67524719238281,-45.80881881713867,3.2185301780700684,0.41
95,MetaDrive-test-no-noise-td3,74,206.0814179538115,97646,440,1319.273009777069,38.77864074707031,,3.2394027709960938,0.41
96,MetaDrive-test-no-noise-td3,73,208.83725060032032,98498,441,1331.1401557922363,40.992469787597656,,70.50616455078125,0.42
97,MetaDrive-test-no-noise-td3,73,210.55810562751765,99499,442,1348.223154783249,42.18332290649414,-43.026092529296875,7.8837127685546875,0.42
98,MetaDrive-test-no-noise-td3,73,210.32464169220978,100015,443,1354.7281830310822,41.25360870361328,-42.13963317871094,4.4895405769348145,0.43
99,MetaDrive-test-no-noise-td3,73,211.5609536861066,101129,445,1370.4146628379822,43.80612564086914,-44.165443420410156,4.241052627563477,0.44
100,MetaDrive-test-no-noise-td3,73,215.62342773808115,102299,447,1386.7671308517456,36.57054901123047,-36.96803283691406,70.89338684082031,0.45
101,MetaDrive-test-no-noise-td3,73,216.1906162710676,103191,448,1401.2465147972107,44.42934036254883,-44.786582946777344,3.6200785636901855,0.45
102,MetaDrive-test-no-noise-td3,73,220.17117714933227,104884,450,1425.2960567474365,43.84435272216797,,5.782416343688965,0.47
103,MetaDrive-test-no-noise-td3,73,221.3480974242506,105518,451,1434.421809911728,44.226627349853516,,4.044585227966309,0.48
104,MetaDrive-test-no-noise-td3,73,219.778663297837,106384,453,1446.3725109100342,41.91997146606445,,9.279895782470703,0.47
105,MetaDrive-test-no-noise-td3,73,219.59393988977746,107435,455,1462.4084458351135,43.98741912841797,-44.421546936035156,3.9194133281707764,0.47
106,MetaDrive-test-no-noise-td3,73,222.20874342332547,108148,456,1472.937532901764,44.284122467041016,,6.605576038360596,0.48
107,MetaDrive-test-no-noise-td3,73,222.30129840841883,109015,457,1486.2652397155762,44.19767761230469,-45.0222282409668,6.250332832336426,0.48
108,MetaDrive-test-no-noise-td3,73,226.06777609995376,110557,459,1509.4277849197388,45.76375961303711,-46.03123092651367,3.7455239295959473,0.49
109,MetaDrive-test-no-noise-td3,73,227.09007227188474,111268,461,1518.4150829315186,39.38997268676758,,3.906360149383545,0.5
110,MetaDrive-test-no-noise-td3,73,227.2066538741532,112284,463,1533.8336277008057,43.822776794433594,,7.092231750488281,0.5
111,MetaDrive-test-no-noise-td3,73,228.2041145093999,113180,465,1547.363550901413,42.44140625,,5.967362403869629,0.51
112,MetaDrive-test-no-noise-td3,73,224.86365387399124,114085,467,1560.3914806842804,47.386722564697266,-48.305274963378906,70.43052673339844,0.5
113,MetaDrive-test-no-noise-td3,72,227.24930463839962,115816,469,1586.582862854004,44.66460418701172,,111.98005676269531,0.5
114,MetaDrive-test-no-noise-td3,72,230.63997742443658,116587,470,1599.3639967441559,47.76512908935547,-48.321983337402344,4.478839874267578,0.51
115,MetaDrive-test-no-noise-td3,72,230.50815785384782,117031,471,1605.4466688632965,47.486602783203125,-47.5647087097168,4.802780628204346,0.51
116,MetaDrive-test-no-noise-td3,72,228.19470774223083,118591,475,1629.3310108184814,45.32219314575195,-45.92428207397461,4.953582286834717,0.51
117,MetaDrive-test-no-noise-td3,72,230.14371448285547,119274,476,1638.1096477508545,45.20448303222656,,43.992164611816406,0.52
118,MetaDrive-test-no-noise-td3,72,230.2279094143323,120526,479,1656.6476998329163,46.8527717590332,,6.553258895874023,0.52
119,MetaDrive-test-no-noise-td3,72,227.1800207034469,121659,481,1672.970044851303,45.705650329589844,-46.14703369140625,62.85519790649414,0.51
120,MetaDrive-test-no-noise-td3,72,228.65074602034633,122193,482,1680.2606718540192,47.78273010253906,-48.30036544799805,2.964959144592285,0.51
121,MetaDrive-test-no-noise-td3,72,229.94008350984717,123023,484,1692.6629476547241,42.21347427368164,-43.10726547241211,4.956208229064941,0.52
122,MetaDrive-test-no-noise-td3,72,231.52417925432175,124043,486,1709.3252658843994,46.050148010253906,-46.918277740478516,78.23103332519531,0.52
123,MetaDrive-test-no-noise-td3,72,233.6706738729801,125807,489,1739.630066871643,43.521202087402344,-43.20293426513672,52.50499725341797,0.52
124,MetaDrive-test-no-noise-td3,72,232.5355129598694,126457,490,1748.3170506954193,47.32289123535156,-47.606414794921875,3.1489977836608887,0.52
125,MetaDrive-test-no-noise-td3,72,230.9109953865932,127574,492,1763.5420999526978,43.28558349609375,,7.471388339996338,0.52
126,MetaDrive-test-no-noise-td3,72,230.96633929351646,128575,493,1777.5887396335602,49.058712005615234,-49.334163665771484,1.7328506708145142,0.51
127,MetaDrive-test-no-noise-td3,72,229.14396612631913,129445,495,1789.658460855484,44.33836364746094,-43.98054504394531,16.479169845581055,0.5
128,MetaDrive-test-no-noise-td3,72,227.6666125207105,130332,498,1803.0002238750458,46.34513473510742,,6.429443836212158,0.49
129,MetaDrive-test-no-noise-td3,72,228.09072123135292,131304,499,1816.116301059723,43.1119270324707,,4.654541015625,0.48
130,MetaDrive-test-no-noise-td3,72,229.47137657114763,132136,500,1828.471159696579,45.67470169067383,,71.72461700439453,0.49
131,MetaDrive-test-no-noise-td3,72,226.6875368963661,133021,502,1840.5285818576813,45.26690673828125,-45.301631927490234,9.47390079498291,0.48
132,MetaDrive-test-no-noise-td3,72,226.73323680352652,134161,504,1859.9782447814941,48.170372009277344,-48.3564567565918,4.834539413452148,0.47
133,MetaDrive-test-no-noise-td3,72,224.68036514035884,135529,507,1878.9657278060913,48.28493118286133,-48.266357421875,2.902906894683838,0.47
134,MetaDrive-test-no-noise-td3,72,226.72636728696773,136141,508,1887.7717218399048,44.48779296875,-44.784847259521484,2.682551383972168,0.48
135,MetaDrive-test-no-noise-td3,72,227.98805495768752,137142,509,1902.1695506572723,48.066429138183594,,3.126579999923706,0.47
136,MetaDrive-test-no-noise-td3,72,227.1993870250865,138438,511,1919.5588946342468,46.71381759643555,,38.8402099609375,0.47
137,MetaDrive-test-no-noise-td3,72,228.42366904370058,139597,513,1937.5741448402405,44.532100677490234,-44.260009765625,5.056009292602539,0.47
138,MetaDrive-test-no-noise-td3,72,228.66108998948945,140386,514,1949.650019645691,45.76561737060547,,5.310268402099609,0.48
139,MetaDrive-test-no-noise-td3,71,227.19447097283256,141180,516,1961.29328083992,48.715171813964844,,29.240882873535156,0.48
140,MetaDrive-test-no-noise-td3,71,226.84302799795026,142167,518,1976.5362429618835,47.53413391113281,-47.96784210205078,4.277532577514648,0.48
141,MetaDrive-test-no-noise-td3,71,227.71965683819425,143595,520,1998.986662864685,46.5085563659668,-47.047950744628906,5.803808689117432,0.48
142,MetaDrive-test-no-noise-td3,71,226.7614335426401,144418,521,2012.2496588230133,47.46820831298828,,3.2098169326782227,0.48
143,MetaDrive-test-no-noise-td3,71,227.91261130680078,145402,522,2028.8057987689972,46.13779067993164,,7.092316627502441,0.48
144,MetaDrive-test-no-noise-td3,71,230.59846925843263,146488,524,2047.0149607658386,47.34377670288086,,3.3926315307617188,0.48
145,MetaDrive-test-no-noise-td3,71,231.61194381840258,147489,525,2062.3844499588013,45.45115280151367,-45.96210479736328,6.126221656799316,0.48
146,MetaDrive-test-no-noise-td3,71,232.3968721505199,148173,526,2072.976637840271,45.454322814941406,-45.58366012573242,4.771097183227539,0.48
147,MetaDrive-test-no-noise-td3,71,230.47652785088948,149746,528,2097.5495386123657,47.385440826416016,,4.215878009796143,0.46
148,MetaDrive-test-no-noise-td3,71,228.9800104590545,150186,529,2104.3429577350616,47.395851135253906,,30.494428634643555,0.45
149,MetaDrive-test-no-noise-td3,71,228.73805519581828,151820,532,2128.938645839691,47.1921501159668,,51.88231658935547,0.44
150,MetaDrive-test-no-noise-td3,71,231.15048875359756,152421,533,2138.617684841156,45.508426666259766,-44.327152252197266,8.448033332824707,0.45
151,MetaDrive-test-no-noise-td3,71,233.6141860840644,153320,534,2152.1823060512543,46.8084831237793,,4.637101650238037,0.46
152,MetaDrive-test-no-noise-td3,71,232.11121257697658,154321,535,2168.753544807434,44.63375473022461,-44.712711334228516,2.7815895080566406,0.45
153,MetaDrive-test-no-noise-td3,71,233.75457630395343,155520,538,2187.1582148075104,46.652801513671875,,4.70520544052124,0.45
154,MetaDrive-test-no-noise-td3,71,230.67270148219407,156108,540,2196.5544817447662,42.263004302978516,,5.508498191833496,0.44
155,MetaDrive-test-no-noise-td3,70,230.15650396671887,157315,542,2216.671727657318,44.72214126586914,-44.61058807373047,10.715747833251953,0.44
156,MetaDrive-test-no-noise-td3,70,230.64901866240675,158106,543,2229.7222468852997,48.183773040771484,,9.113829612731934,0.44
157,MetaDrive-test-no-noise-td3,70,228.4075142728406,159527,546,2253.7184858322144,44.976314544677734,-45.13042068481445,4.588268280029297,0.42
158,MetaDrive-test-no-noise-td3,70,229.0456716439726,160277,547,2265.9098138809204,47.150115966796875,-46.67629623413086,4.81663703918457,0.42
159,MetaDrive-test-no-noise-td3,70,230.43377887668353,161165,548,2280.76962184906,47.65822219848633,-48.057762145996094,2.63504958152771,0.42
160,MetaDrive-test-no-noise-td3,70,230.76446910860284,162606,550,2303.2899038791656,43.23349380493164,,11.980284690856934,0.42
161,MetaDrive-test-no-noise-td3,70,231.06958235326238,163607,551,2322.851718902588,41.46965026855469,-41.41642761230469,4.909897804260254,0.41
162,MetaDrive-test-no-noise-td3,70,234.51175094468482,164503,552,2335.885081768036,43.80876922607422,-44.25070571899414,23.731449127197266,0.42
163,MetaDrive-test-no-noise-td3,70,234.1683068355468,165504,553,2354.155327796936,44.19693374633789,,9.489660263061523,0.41
164,MetaDrive-test-no-noise-td3,70,233.26479744516197,166189,555,2366.505420923233,43.72965621948242,-42.96635437011719,9.799924850463867,0.4
165,MetaDrive-test-no-noise-td3,70,231.45708063697435,167570,557,2385.7559838294983,45.094058990478516,,4.662152290344238,0.39
166,MetaDrive-test-no-noise-td3,70,232.1006441715991,168414,558,2399.1319699287415,44.78074645996094,,5.111589431762695,0.39
167,MetaDrive-test-no-noise-td3,70,233.28470797651045,169190,559,2411.9990599155426,41.48512268066406,,5.782995223999023,0.4
168,MetaDrive-test-no-noise-td3,70,234.43231480910373,170149,561,2424.9416859149933,46.02250289916992,-46.151954650878906,11.54458236694336,0.4
169,MetaDrive-test-no-noise-td3,70,234.68968111579724,171399,563,2446.19246673584,41.71445846557617,-42.650634765625,81.44297790527344,0.4
170,MetaDrive-test-no-noise-td3,70,232.1955759832526,172491,566,2463.0871317386627,43.28814697265625,-43.28036880493164,3.115016460418701,0.39
171,MetaDrive-test-no-noise-td3,70,232.91734038224607,173313,568,2475.6819739341736,44.643348693847656,-44.86294174194336,6.051884174346924,0.39
172,MetaDrive-test-no-noise-td3,69,231.03419513444777,174052,569,2490.62420296669,46.76816940307617,,5.11340856552124,0.39
173,MetaDrive-test-no-noise-td3,69,231.4587620323609,175050,570,2508.9306139945984,42.68403244018555,,5.626066207885742,0.39
174,MetaDrive-test-no-noise-td3,69,234.00540854046045,176415,572,2533.2411398887634,46.07194900512695,-46.374671936035156,3.7750205993652344,0.4
175,MetaDrive-test-no-noise-td3,69,235.78048216179806,177903,574,2558.9818737506866,46.275489807128906,-46.08858871459961,27.72080421447754,0.4
176,MetaDrive-test-no-noise-td3,69,237.11823927061727,178854,575,2574.017429828644,44.92798614501953,,10.01656723022461,0.4
177,MetaDrive-test-no-noise-td3,69,237.33414476703783,179671,576,2588.707525730133,44.62660598754883,-44.33582305908203,4.326470375061035,0.39
178,MetaDrive-test-no-noise-td3,69,240.0689952883421,180332,577,2599.476437807083,45.21066665649414,,17.62706184387207,0.4
179,MetaDrive-test-no-noise-td3,69,243.43486219004356,181333,578,2617.714252948761,44.19102096557617,-44.27208709716797,6.692689895629883,0.41
180,MetaDrive-test-no-noise-td3,69,242.41922237347163,182386,581,2636.7471158504486,41.601051330566406,,5.578535079956055,0.41
181,MetaDrive-test-no-noise-td3,69,240.56363893027756,183382,583,2653.2964186668396,46.82158279418945,,12.001448631286621,0.4
182,MetaDrive-test-no-noise-td3,68,244.67338637180376,184690,585,2677.9591727256775,42.33452224731445,,8.474064826965332,0.41
183,MetaDrive-test-no-noise-td3,68,245.4290871757664,185323,587,2688.7773129940033,43.45494079589844,-43.55731964111328,6.652631759643555,0.41
184,MetaDrive-test-no-noise-td3,68,245.17711205318366,186071,588,2702.6700999736786,44.133724212646484,-43.57756423950195,6.868289947509766,0.41
185,MetaDrive-test-no-noise-td3,68,243.30595707343423,187806,590,2734.0179970264435,46.291114807128906,,3.6878654956817627,0.41
186,MetaDrive-test-no-noise-td3,68,245.18615441220342,188671,591,2746.8953478336334,48.48088073730469,-49.66533279418945,4.254251956939697,0.42
187,MetaDrive-test-no-noise-td3,68,244.21366927369868,189183,592,2755.154789686203,46.77415466308594,-46.692840576171875,38.836151123046875,0.42
188,MetaDrive-test-no-noise-td3,68,247.52937935045304,190627,594,2781.272340774536,47.10826110839844,-47.17350387573242,4.569080352783203,0.44
189,MetaDrive-test-no-noise-td3,68,248.3902983672146,191359,595,2796.2580647468567,45.44618225097656,-46.147735595703125,5.403715133666992,0.44
190,MetaDrive-test-no-noise-td3,68,253.71725125590314,192599,597,2817.3729038238525,45.98992919921875,-45.52406311035156,30.536184310913086,0.46
191,MetaDrive-test-no-noise-td3,68,254.6593371574474,193600,598,2838.679745912552,45.56480407714844,,4.511040687561035,0.46
192,MetaDrive-test-no-noise-td3,68,255.31377323632475,194601,599,2855.987429857254,40.34712600708008,-40.825172424316406,4.403842926025391,0.46
193,MetaDrive-test-no-noise-td3,68,254.34061263756757,195453,600,2872.7206568717957,40.336116790771484,-40.1314811706543,3.335940361022949,0.45
194,MetaDrive-test-no-noise-td3,67,257.3660369514075,196328,601,2888.816074848175,41.06647491455078,,5.2494707107543945,0.46
195,MetaDrive-test-no-noise-td3,67,257.6748196765904,197072,602,2901.3328597545624,41.47959518432617,,4.467748165130615,0.46
196,MetaDrive-test-no-noise-td3,67,257.22191072767214,198073,603,2918.9593946933746,44.44646072387695,-45.35844802856445,9.900701522827148,0.46
197,MetaDrive-test-no-noise-td3,67,258.01870157762056,199074,604,2938.4550898075104,42.70745086669922,,10.785682678222656,0.46
198,MetaDrive-test-no-noise-td3,67,260.88137777119994,200259,606,2957.13928771019,43.49495315551758,-43.358001708984375,4.281394958496094,0.47
199,MetaDrive-test-no-noise-td3,67,260.6664837057931,201777,608,2981.9963998794556,45.43761444091797,-46.502113342285156,17.104454040527344,0.47
200,MetaDrive-test-no-noise-td3,67,260.14255257207464,202345,609,2991.7927277088165,42.655967712402344,-42.584110260009766,8.3932466506958,0.48
201,MetaDrive-test-no-noise-td3,67,264.56139040500426,203917,611,3021.8216648101807,39.972476959228516,-39.85297393798828,4.809028625488281,0.49
202,MetaDrive-test-no-noise-td3,67,267.50781897793746,204870,612,3036.7374799251556,43.736331939697266,,9.127518653869629,0.5
203,MetaDrive-test-no-noise-td3,67,268.57223203217075,205800,613,3053.620228767395,42.96717071533203,,6.028836250305176,0.51
204,MetaDrive-test-no-noise-td3,67,265.93235047398525,206801,614,3072.6684379577637,43.28661346435547,-43.321903228759766,10.137439727783203,0.5
205,MetaDrive-test-no-noise-td3,67,269.86713397434016,207802,615,3093.859727859497,40.20182800292969,,11.050651550292969,0.5
206,MetaDrive-test-no-noise-td3,67,270.67552904134106,208631,616,3109.5923199653625,44.60900115966797,-45.54902648925781,3.3575243949890137,0.5
207,MetaDrive-test-no-noise-td3,67,273.4248012060343,209385,617,3122.029168844223,39.15257263183594,-41.1392822265625,7.253664970397949,0.51
208,MetaDrive-test-no-noise-td3,67,275.38817383139417,210602,619,3142.872011899948,40.59531784057617,,3.550567388534546,0.52
209,MetaDrive-test-no-noise-td3,66,276.043781636046,211511,620,3160.474045753479,43.20469665527344,-43.31702423095703,4.464704513549805,0.52
210,MetaDrive-test-no-noise-td3,66,275.6013273133338,212934,622,3187.329410791397,40.743568420410156,,7.991306304931641,0.52
211,MetaDrive-test-no-noise-td3,66,275.82568566782766,213588,623,3196.8280098438263,41.73307418823242,,10.051095962524414,0.53
212,MetaDrive-test-no-noise-td3,66,274.79768553756674,214589,624,3214.934572696686,40.95109558105469,-41.16398620605469,5.894545555114746,0.52
213,MetaDrive-test-no-noise-td3,66,275.90486459400995,215096,625,3223.3238949775696,38.01066589355469,,5.294826507568359,0.53
214,MetaDrive-test-no-noise-td3,66,275.87688210122116,216452,628,3245.578950881958,41.428558349609375,,7.240994453430176,0.54
215,MetaDrive-test-no-noise-td3,66,277.16293007905534,217429,630,3261.0759160518646,39.19002914428711,-39.71019744873047,7.272418975830078,0.56
216,MetaDrive-test-no-noise-td3,66,280.4814025122752,218146,631,3273.4152886867523,42.270118713378906,,7.404715538024902,0.56
217,MetaDrive-test-no-noise-td3,66,279.20734964064695,219319,633,3293.054204940796,40.31376647949219,-40.937252044677734,7.089183330535889,0.57
218,MetaDrive-test-no-noise-td3,66,280.4559021223738,220320,634,3314.8570759296417,39.75334548950195,,3.946564197540283,0.56
219,MetaDrive-test-no-noise-td3,66,280.7056670406207,221213,636,3331.147880792618,42.82001876831055,-43.28839111328125,4.857619762420654,0.57
220,MetaDrive-test-no-noise-td3,66,284.16472841411456,222013,637,3344.6101036071777,42.22713088989258,-43.63704299926758,10.722305297851562,0.58
221,MetaDrive-test-no-noise-td3,66,282.4291686093338,223014,638,3362.1410937309265,39.356666564941406,,16.66362762451172,0.57
222,MetaDrive-test-no-noise-td3,66,285.96812709883676,224150,640,3386.333842754364,44.42526626586914,,5.470825672149658,0.58
223,MetaDrive-test-no-noise-td3,66,287.8419536904554,225119,641,3404.863614797592,44.97024154663086,-45.720211029052734,6.910403251647949,0.59
224,MetaDrive-test-no-noise-td3,66,289.0125798047404,226043,642,3422.71773481369,36.15010070800781,-36.525123596191406,23.161136627197266,0.59
225,MetaDrive-test-no-noise-td3,65,289.72843089669925,227044,643,3440.6217017173767,45.445552825927734,,3.5313000679016113,0.58
226,MetaDrive-test-no-noise-td3,65,284.0873733179001,228100,647,3460.4196178913116,46.02482223510742,,31.73235511779785,0.57
227,MetaDrive-test-no-noise-td3,65,280.46866701122195,229983,650,3492.1711218357086,37.241966247558594,-36.8974609375,7.744823455810547,0.55
228,MetaDrive-test-no-noise-td3,65,277.8131451830259,230106,651,3494.220726966858,41.09990692138672,,6.2205915451049805,0.55
229,MetaDrive-test-no-noise-td3,65,276.28859298815604,231107,652,3512.735244035721,37.66664123535156,-37.97576904296875,4.923766136169434,0.54
230,MetaDrive-test-no-noise-td3,65,276.947483489189,232108,653,3531.5673158168793,38.017425537109375,,37.91339874267578,0.54
231,MetaDrive-test-no-noise-td3,65,277.7835837660339,233038,655,3547.289824962616,42.20486831665039,,6.689080715179443,0.55
232,MetaDrive-test-no-noise-td3,65,278.6708269062419,234388,657,3572.526347875595,39.95641326904297,,6.280989170074463,0.55
233,MetaDrive-test-no-noise-td3,65,279.648915972538,235389,658,3594.717418909073,43.680511474609375,-44.31946563720703,8.86092758178711,0.54
234,MetaDrive-test-no-noise-td3,65,277.82088044463603,236164,660,3607.998750925064,40.03433609008789,,3.5391550064086914,0.54
235,MetaDrive-test-no-noise-td3,65,279.44908746550556,237364,662,3629.5520198345184,36.339874267578125,,8.830816268920898,0.54
236,MetaDrive-test-no-noise-td3,65,282.06072169024924,238368,664,3646.180003643036,41.270111083984375,,6.002750396728516,0.56
237,MetaDrive-test-no-noise-td3,65,284.66211777300975,239263,665,3661.365644931793,39.27263259887695,-39.491539001464844,3.433716297149658,0.57
238,MetaDrive-test-no-noise-td3,65,285.2940650378773,240602,667,3685.5059609413147,41.71827697753906,,12.718209266662598,0.57
239,MetaDrive-test-no-noise-td3,65,286.11475581449554,241114,668,3694.5925908088684,38.47555923461914,,18.29617691040039,0.57
240,MetaDrive-test-no-noise-td3,65,285.89281132961753,242115,669,3713.309865951538,35.066097259521484,-34.85784149169922,22.170278549194336,0.57
241,MetaDrive-test-no-noise-td3,65,282.159423477269,243875,671,3745.459741830826,41.1041259765625,-41.32758331298828,55.44532012939453,0.56
242,MetaDrive-test-no-noise-td3,65,280.71218145997335,244032,672,3748.268534898758,39.93668746948242,,3.158829689025879,0.56
243,MetaDrive-test-no-noise-td3,64,281.08435527241767,245052,674,3771.389637708664,39.06386184692383,,6.709137439727783,0.56
244,MetaDrive-test-no-noise-td3,64,278.53288674590056,246787,677,3803.4133796691895,40.42742156982422,-40.48733901977539,4.5971879959106445,0.56
245,MetaDrive-test-no-noise-td3,64,276.10321316191227,247091,678,3808.962686777115,43.330902099609375,-43.531978607177734,4.117531776428223,0.55
246,MetaDrive-test-no-noise-td3,64,278.6218568729745,248232,680,3828.0521688461304,37.97040939331055,,4.488800525665283,0.57
247,MetaDrive-test-no-noise-td3,64,281.0756661541655,249169,681,3847.29944396019,43.38667678833008,-43.46806716918945,4.034603118896484,0.58
248,MetaDrive-test-no-noise-td3,64,277.9628527408888,250896,685,3882.082794904709,41.373905181884766,,3.345150947570801,0.58
249,MetaDrive-test-no-noise-td3,64,280.47531322488805,251733,686,3898.917051792145,42.11339569091797,-41.59117126464844,22.723974227905273,0.59
250,MetaDrive-test-no-noise-td3,64,282.7376433958799,252669,687,3917.5769069194794,41.93070983886719,-41.86042404174805,12.833162307739258,0.6
251,MetaDrive-test-no-noise-td3,64,282.6310326679765,253304,688,3928.8563299179077,42.55961608886719,,5.921814918518066,0.6
252,MetaDrive-test-no-noise-td3,64,284.6988698944844,254402,690,3947.294739961624,40.80514907836914,,7.519198894500732,0.61
253,MetaDrive-test-no-noise-td3,64,282.0789479987259,255380,692,3965.640820980072,37.3665657043457,,7.701830863952637,0.6
254,MetaDrive-test-no-noise-td3,64,282.0986459163556,256381,693,3986.3601398468018,39.08528137207031,-39.360015869140625,3.286411762237549,0.59
255,MetaDrive-test-no-noise-td3,64,281.9343738368116,257207,694,4001.8468449115753,42.68894577026367,-42.834354400634766,12.854812622070312,0.59
256,MetaDrive-test-no-noise-td3,64,280.57556723109786,258252,696,4024.388697862625,42.276123046875,,4.841100215911865,0.58
257,MetaDrive-test-no-noise-td3,64,281.2979480248022,259541,698,4049.380730867386,43.493934631347656,-43.04371643066406,8.23434066772461,0.59
258,MetaDrive-test-no-noise-td3,64,280.35810813022,260043,699,4057.6373817920685,43.53970718383789,-42.621925354003906,6.491028785705566,0.6
259,MetaDrive-test-no-noise-td3,64,281.2793120034986,261479,701,4084.3658537864685,40.691490173339844,-41.6859130859375,7.541747093200684,0.61
260,MetaDrive-test-no-noise-td3,63,281.41773636819374,262413,703,4101.4354927539825,41.764427185058594,-42.546630859375,5.708586692810059,0.61
261,MetaDrive-test-no-noise-td3,63,283.27151749195616,263414,704,4121.247874736786,39.40965270996094,,6.971635818481445,0.61
262,MetaDrive-test-no-noise-td3,63,282.63319366188057,264919,706,4148.514658689499,43.538543701171875,-43.83351516723633,8.902819633483887,0.6
263,MetaDrive-test-no-noise-td3,63,280.0222058276584,265013,707,4150.623405694962,37.38262939453125,-37.58565139770508,12.143354415893555,0.59
264,MetaDrive-test-no-noise-td3,63,280.8308822877273,266527,709,4177.580837726593,41.64359664916992,-41.99718475341797,16.332059860229492,0.58
265,MetaDrive-test-no-noise-td3,63,276.44832294656595,267001,711,4186.317715883255,38.46670150756836,-38.1650276184082,11.180143356323242,0.56
266,MetaDrive-test-no-noise-td3,63,275.78340834846193,268275,713,4209.393602609634,47.992454528808594,-47.84701919555664,9.260904312133789,0.56
267,MetaDrive-test-no-noise-td3,63,275.7340244529689,269483,715,4230.320148944855,38.410560607910156,-37.96282196044922,5.515076637268066,0.57
268,MetaDrive-test-no-noise-td3,63,269.9217627849529,270611,718,4249.931283950806,39.90699005126953,-39.907039642333984,6.9234442710876465,0.55
269,MetaDrive-test-no-noise-td3,63,269.83374585764955,271326,719,4260.856472730637,41.95952224731445,,5.681777477264404,0.55
270,MetaDrive-test-no-noise-td3,63,269.72361610004003,272215,720,4277.448972940445,40.65633773803711,-40.70659255981445,14.996139526367188,0.55
271,MetaDrive-test-no-noise-td3,63,268.0096429285204,273322,722,4298.112491846085,40.406551361083984,,9.395377159118652,0.53
272,MetaDrive-test-no-noise-td3,63,269.6293622311516,274015,723,4311.478104829788,42.521751403808594,-42.53590393066406,7.762241363525391,0.53
273,MetaDrive-test-no-noise-td3,63,270.7108027258785,275128,725,4329.992342948914,42.748836517333984,,3.4860169887542725,0.54
274,MetaDrive-test-no-noise-td3,63,273.5170336621063,276065,726,4348.2482669353485,44.152992248535156,-44.56466293334961,4.714347839355469,0.55
275,MetaDrive-test-no-noise-td3,63,273.0650802443521,277066,727,4367.9635508060455,40.92833709716797,,5.0620927810668945,0.54
276,MetaDrive-test-no-noise-td3,63,274.5749267460296,278227,729,4386.694007635117,40.502864837646484,-40.69642639160156,9.898300170898438,0.54
277,MetaDrive-test-no-noise-td3,63,274.32585836391706,279353,731,4406.557325839996,46.243106842041016,-46.479530334472656,5.523136138916016,0.55
278,MetaDrive-test-no-noise-td3,63,271.89010349807137,280077,733,4420.3375108242035,44.042118072509766,-44.861305236816406,8.212023735046387,0.54
279,MetaDrive-test-no-noise-td3,63,271.55992677521544,281078,734,4439.928378820419,40.6955680847168,,3.540961265563965,0.54
280,MetaDrive-test-no-noise-td3,63,272.9476457952883,282483,736,4463.013662815094,42.32310104370117,-42.5526123046875,6.487303256988525,0.55
281,MetaDrive-test-no-noise-td3,63,272.6906214225536,283433,737,4480.7856776714325,40.954010009765625,-40.85055160522461,6.387104034423828,0.55
282,MetaDrive-test-no-noise-td3,63,276.15341022761544,284471,739,4498.054746866226,42.26201248168945,-42.74726867675781,3.9376699924468994,0.57
283,MetaDrive-test-no-noise-td3,63,274.4637992791177,285293,740,4513.0836889743805,41.991764068603516,-42.63986587524414,7.592375755310059,0.57
284,MetaDrive-test-no-noise-td3,63,272.8698522386865,286647,742,4536.113778829575,41.73759460449219,-42.45143127441406,7.25373649597168,0.57
285,MetaDrive-test-no-noise-td3,63,271.6200172027067,287208,743,4545.5882477760315,40.49028396606445,,5.324501991271973,0.58
286,MetaDrive-test-no-noise-td3,63,275.26387395320967,288635,747,4569.075158834457,45.264312744140625,-45.03276824951172,3.088679790496826,0.6
287,MetaDrive-test-no-noise-td3,63,276.5509758508307,289597,748,4584.649646759033,39.475608825683594,-39.482444763183594,4.548635005950928,0.61
288,MetaDrive-test-no-noise-td3,63,277.0640508155825,290178,749,4594.900768995285,42.75434875488281,,4.005271911621094,0.61
289,MetaDrive-test-no-noise-td3,63,277.91078109257796,291054,750,4611.482375860214,41.269798278808594,,55.45426940917969,0.62
290,MetaDrive-test-no-noise-td3,63,280.795615421865,292235,752,4630.743396759033,43.963401794433594,-44.63383483886719,4.871828556060791,0.64
291,MetaDrive-test-no-noise-td3,63,280.5274707693719,293560,754,4652.791464805603,47.42546081542969,,5.524405479431152,0.65
292,MetaDrive-test-no-noise-td3,63,277.72721879871153,294676,756,4671.858594655991,44.00811767578125,,21.367450714111328,0.65
293,MetaDrive-test-no-noise-td3,63,277.7403751929446,295125,757,4679.35387802124,42.29652404785156,-42.285491943359375,3.8222458362579346,0.65
294,MetaDrive-test-no-noise-td3,63,281.5995084511627,296958,759,4710.6304666996,39.743045806884766,,3.0572705268859863,0.67
295,MetaDrive-test-no-noise-td3,63,278.7639993310059,297055,760,4712.365553855896,39.713836669921875,-40.72240447998047,117.34001159667969,0.66
296,MetaDrive-test-no-noise-td3,63,276.18618019720225,298459,763,4734.911377906799,36.71810531616211,-37.24360656738281,6.643599987030029,0.65
297,MetaDrive-test-no-noise-td3,63,276.00096388891467,299250,764,4749.031114816666,39.24789810180664,,4.348020553588867,0.64
298,MetaDrive-test-no-noise-td3,62,273.5700303485763,300510,766,4773.446722745895,45.4934196472168,,2.577176570892334,0.62
299,MetaDrive-test-no-noise-td3,62,274.706193420767,301133,767,4784.164247751236,46.679927825927734,-47.882144927978516,7.797340393066406,0.63
300,MetaDrive-test-no-noise-td3,62,276.0292148420055,302525,769,4807.523282766342,43.66935729980469,-43.394535064697266,14.481292724609375,0.64
301,MetaDrive-test-no-noise-td3,62,275.1373347036107,303499,771,4824.729146718979,45.70840835571289,-45.683509826660156,6.361479759216309,0.64
302,MetaDrive-test-no-noise-td3,62,277.1579609139461,304089,772,4834.451509952545,45.54680633544922,-45.77368927001953,21.1229305267334,0.65
303,MetaDrive-test-no-noise-td3,62,279.19262287588293,305749,774,4865.298271894455,44.42349624633789,-45.73666763305664,11.652887344360352,0.66
304,MetaDrive-test-no-noise-td3,62,280.3460414382643,306750,775,4886.784337759018,41.11222457885742,,18.625606536865234,0.65
305,MetaDrive-test-no-noise-td3,62,283.0029165956593,307295,776,4896.189848661423,42.07384490966797,-42.29001998901367,4.8733720779418945,0.65
306,MetaDrive-test-no-noise-td3,62,282.22687340974716,308141,777,4910.857629776001,41.31745910644531,-42.10178756713867,6.552518844604492,0.65
307,MetaDrive-test-no-noise-td3,62,279.98853427485204,309927,781,4943.560869693756,46.54444122314453,-47.099510192871094,2.373220920562744,0.63
308,MetaDrive-test-no-noise-td3,62,279.9621339887541,310928,782,4965.784432888031,39.009002685546875,,5.670235633850098,0.62
309,MetaDrive-test-no-noise-td3,62,284.0270375641666,311929,783,4984.949047803879,42.947059631347656,-43.39354705810547,13.019584655761719,0.62
310,MetaDrive-test-no-noise-td3,62,286.4603104157815,312592,784,4996.607465982437,39.595184326171875,,10.394004821777344,0.63
311,MetaDrive-test-no-noise-td3,62,286.8568218773316,313374,785,5010.669364929199,43.30016326904297,,171.55868530273438,0.63
312,MetaDrive-test-no-noise-td3,62,281.08908794198925,314558,788,5034.288138866425,40.729461669921875,,59.779701232910156,0.61
313,MetaDrive-test-no-noise-td3,62,282.14646707053777,315371,789,5049.482054710388,41.62451171875,-42.48215103149414,6.884408950805664,0.61
314,MetaDrive-test-no-noise-td3,62,283.9932228838457,316905,791,5076.364935874939,46.874488830566406,-47.06139373779297,16.624277114868164,0.61
315,MetaDrive-test-no-noise-td3,62,282.303248052397,317083,792,5079.414242744446,42.09552001953125,-41.747318267822266,15.556503295898438,0.6
316,MetaDrive-test-no-noise-td3,62,283.5643731898101,318054,793,5095.062985897064,40.613651275634766,,8.003227233886719,0.61
317,MetaDrive-test-no-noise-td3,62,283.69715583529734,319320,795,5116.750201702118,47.381622314453125,,3.487821102142334,0.61
318,MetaDrive-test-no-noise-td3,62,278.6941013564711,320087,797,5129.900966882706,42.81895446777344,-43.648521423339844,5.597800254821777,0.6
319,MetaDrive-test-no-noise-td3,62,278.849609725669,321762,799,5160.896835803986,42.48516845703125,,10.023588180541992,0.59
320,MetaDrive-test-no-noise-td3,62,277.54177354270183,322763,800,5180.9855427742,39.276580810546875,-39.619720458984375,9.41680908203125,0.58
321,MetaDrive-test-no-noise-td3,62,278.152292737667,323502,801,5194.802412748337,42.58406448364258,,4.172356605529785,0.58
322,MetaDrive-test-no-noise-td3,62,280.97380046876447,324133,802,5206.390098810196,39.744590759277344,-39.215301513671875,21.8103084564209,0.59
323,MetaDrive-test-no-noise-td3,62,278.48638795802225,325255,804,5225.420066833496,43.78807830810547,-44.002235412597656,4.686304092407227,0.6
324,MetaDrive-test-no-noise-td3,62,280.8273812618136,326020,805,5238.271645784378,39.34430694580078,,44.41850280761719,0.61
325,MetaDrive-test-no-noise-td3,62,283.2217388283226,327604,807,5265.157026052475,39.396156311035156,,4.9910197257995605,0.62
326,MetaDrive-test-no-noise-td3,62,284.67797129461434,328605,808,5286.386346817017,40.411033630371094,-40.85064697265625,9.692643165588379,0.62
327,MetaDrive-test-no-noise-td3,62,282.9413900471668,329365,809,5301.658403635025,43.31546401977539,-42.76323318481445,5.856851577758789,0.61
328,MetaDrive-test-no-noise-td3,62,284.44066542231496,330366,810,5319.270775794983,38.86615753173828,,9.567667007446289,0.61
329,MetaDrive-test-no-noise-td3,62,284.1551295656259,331043,812,5331.931114912033,43.32366180419922,-43.5169677734375,12.343241691589355,0.61
330,MetaDrive-test-no-noise-td3,62,283.0129023950375,332468,815,5357.463371992111,45.717071533203125,,11.898760795593262,0.61
331,MetaDrive-test-no-noise-td3,62,285.41153606618866,333308,816,5372.810887813568,41.150245666503906,,5.235400199890137,0.62
332,MetaDrive-test-no-noise-td3,62,288.77181088047274,334213,817,5388.675716876984,39.65443801879883,-40.24068069458008,14.901972770690918,0.63
333,MetaDrive-test-no-noise-td3,61,289.46459971904585,335515,819,5412.6946058273315,39.263980865478516,-39.98326110839844,5.3819475173950195,0.63
334,MetaDrive-test-no-noise-td3,61,289.21705133567843,336038,820,5422.323274850845,43.250423431396484,,8.400646209716797,0.63
335,MetaDrive-test-no-noise-td3,61,290.79908368332434,337355,822,5444.589845895767,40.903221130371094,-41.277225494384766,5.7503743171691895,0.65
336,MetaDrive-test-no-noise-td3,61,287.5259326165431,338170,824,5459.21733880043,45.68240737915039,,5.597776412963867,0.64
337,MetaDrive-test-no-noise-td3,61,288.20426678098863,339171,825,5478.448366641998,42.512489318847656,-44.02650451660156,21.473953247070312,0.63
338,MetaDrive-test-no-noise-td3,61,288.0117462880935,340172,826,5496.630999803543,43.39734649658203,,6.683168411254883,0.62
339,MetaDrive-test-no-noise-td3,61,287.747568710723,341920,829,5529.292499780655,40.72791290283203,,5.40111780166626,0.62
340,MetaDrive-test-no-noise-td3,61,288.5980024773207,342921,830,5550.072201967239,41.06801986694336,-41.25391387939453,5.752987861633301,0.61
341,MetaDrive-test-no-noise-td3,61,289.5173632243607,343720,831,5563.794834852219,43.05801773071289,,8.014275550842285,0.61
342,MetaDrive-test-no-noise-td3,61,292.14737303904565,344310,832,5574.920022010803,40.86555480957031,,34.71881866455078,0.62
343,MetaDrive-test-no-noise-td3,61,290.85052048157866,345599,834,5597.456835746765,42.51254653930664,-44.176326751708984,57.665000915527344,0.62
344,MetaDrive-test-no-noise-td3,61,289.2216616779822,346600,835,5618.231714725494,40.85594177246094,,36.96028137207031,0.61
345,MetaDrive-test-no-noise-td3,61,286.1007158336068,347244,837,5630.049790859222,39.45207977294922,,7.239283084869385,0.59
346,MetaDrive-test-no-noise-td3,61,285.7311937533441,348245,838,5648.889288902283,42.430198669433594,-42.96651077270508,4.906251907348633,0.58
347,MetaDrive-test-no-noise-td3,61,278.3938214735452,349325,842,5666.8710787296295,44.418861389160156,-44.84859085083008,18.88796615600586,0.55
348,MetaDrive-test-no-noise-td3,61,282.6287470930306,350814,844,5693.834724664688,39.212459564208984,,23.750873565673828,0.56
349,MetaDrive-test-no-noise-td3,61,283.32050066165664,351815,845,5714.043183803558,42.35347366333008,-42.34893798828125,14.629524230957031,0.55
350,MetaDrive-test-no-noise-td3,61,286.2720617613425,352643,846,5729.75897693634,39.29227828979492,-39.52444839477539,4.92275333404541,0.56
351,MetaDrive-test-no-noise-td3,61,285.37633444615807,353210,847,5739.415370941162,39.27241516113281,,11.216329574584961,0.56
352,MetaDrive-test-no-noise-td3,61,285.63723794351955,354446,849,5761.867491722107,40.51608657836914,,4.225837707519531,0.56
353,MetaDrive-test-no-noise-td3,61,285.1919072655843,355131,850,5773.796133756638,43.66268539428711,-43.787315368652344,7.186173915863037,0.56
354,MetaDrive-test-no-noise-td3,61,287.6698782731869,356640,852,5802.773276805878,44.57109451293945,,3.6438193321228027,0.56
355,MetaDrive-test-no-noise-td3,61,289.3253007806293,357379,853,5814.830193758011,39.80743408203125,-40.265323638916016,81.27801513671875,0.57
356,MetaDrive-test-no-noise-td3,61,290.6558036290508,358568,855,5835.758929729462,40.27667236328125,,10.942840576171875,0.57
357,MetaDrive-test-no-noise-td3,61,292.7073945448181,359414,856,5850.642961740494,43.98203659057617,,13.62391471862793,0.57
358,MetaDrive-test-no-noise-td3,61,292.4362957853556,360060,857,5862.008051872253,41.4305534362793,,11.268774032592773,0.57
359,MetaDrive-test-no-noise-td3,61,289.1545520675383,361508,859,5886.70587182045,43.24700927734375,,9.511618614196777,0.57
360,MetaDrive-test-no-noise-td3,61,292.66940446594873,362491,860,5905.08056974411,40.92086410522461,-40.89882278442383,6.480927467346191,0.58
361,MetaDrive-test-no-noise-td3,61,291.7202898297093,363065,861,5915.0145609378815,40.97466278076172,-41.385406494140625,5.46047306060791,0.58
362,MetaDrive-test-no-noise-td3,61,294.77715071553274,364018,862,5932.168053865433,42.90952682495117,,2.4218223094940186,0.59
363,MetaDrive-test-no-noise-td3,61,296.73538311800775,365257,864,5953.612945795059,43.95716857910156,-45.02936553955078,10.598111152648926,0.6
364,MetaDrive-test-no-noise-td3,61,297.1301311926733,366130,866,5969.059942722321,41.446815490722656,,6.2870893478393555,0.61
365,MetaDrive-test-no-noise-td3,61,297.01630272351804,367488,868,5992.943615913391,43.870697021484375,,3.1446640491485596,0.6
366,MetaDrive-test-no-noise-td3,61,295.7456694786515,368185,870,6004.2933349609375,44.11988067626953,-43.47074508666992,7.490414619445801,0.6
367,MetaDrive-test-no-noise-td3,61,297.5145961500744,369515,872,6029.128861904144,38.71137619018555,-39.42800521850586,2.632113456726074,0.6
368,MetaDrive-test-no-noise-td3,61,296.45406092575865,370004,873,6037.9886956214905,41.05029296875,,7.272578239440918,0.59
369,MetaDrive-test-no-noise-td3,61,294.3566581702419,371065,875,6058.462455034256,39.73916244506836,-39.50285339355469,7.109475612640381,0.6
370,MetaDrive-test-no-noise-td3,61,296.0705920437378,372019,876,6078.329991817474,43.747154235839844,-44.585052490234375,6.404691219329834,0.61
371,MetaDrive-test-no-noise-td3,61,296.182190646015,373532,879,6106.812095880508,39.30851745605469,,4.668022155761719,0.61
372,MetaDrive-test-no-noise-td3,61,300.3098573463376,374448,880,6122.968055009842,42.587825775146484,,4.420623302459717,0.62
373,MetaDrive-test-no-noise-td3,61,298.3820413359194,375301,882,6139.248548746109,41.64314651489258,-41.93501281738281,6.771210193634033,0.63
374,MetaDrive-test-no-noise-td3,61,295.9303776550431,376302,883,6158.225651979446,39.89906692504883,,7.8546366691589355,0.63
375,MetaDrive-test-no-noise-td3,61,297.43409867588383,377003,884,6170.424724817276,44.331268310546875,-45.0849609375,7.849912643432617,0.63
376,MetaDrive-test-no-noise-td3,61,301.40099911113,378510,886,6199.839673757553,40.03917694091797,,7.305502891540527,0.65
377,MetaDrive-test-no-noise-td3,61,304.02116277660735,379238,887,6212.318947792053,44.637939453125,,8.252278327941895,0.66
378,MetaDrive-test-no-noise-td3,61,301.2308455738109,380330,889,6229.946913957596,41.4267692565918,,6.986866474151611,0.66
379,MetaDrive-test-no-noise-td3,61,301.7780079387332,381042,890,6243.503499984741,45.144195556640625,,5.399521827697754,0.66
380,MetaDrive-test-no-noise-td3,61,306.3429382588275,382623,892,6271.568708658218,43.308319091796875,-43.80280685424805,5.72929573059082,0.68
381,MetaDrive-test-no-noise-td3,60,306.01052754248246,383298,893,6285.066157817841,43.597259521484375,,47.552650451660156,0.68
382,MetaDrive-test-no-noise-td3,60,305.43864390574663,384034,895,6298.946972846985,46.00319290161133,,7.316461086273193,0.68
383,MetaDrive-test-no-noise-td3,60,309.54739528767635,385529,897,6330.990385770798,44.82146453857422,-45.2688102722168,2.5087220668792725,0.69
384,MetaDrive-test-no-noise-td3,60,305.9975918910883,386393,900,6346.762002944946,39.29181671142578,-39.440467834472656,8.56056022644043,0.69
385,MetaDrive-test-no-noise-td3,60,306.1528885978916,387117,901,6361.310768842697,47.01448059082031,-48.43222427368164,6.985360145568848,0.69
386,MetaDrive-test-no-noise-td3,60,302.07395685605036,388237,904,6384.4798719882965,39.1708984375,-38.87208938598633,7.275514602661133,0.67
387,MetaDrive-test-no-noise-td3,60,298.8389018092697,389005,906,6399.682933807373,40.013858795166016,-40.63298797607422,71.51085662841797,0.66
388,MetaDrive-test-no-noise-td3,60,297.18766092883476,390071,908,6419.385239601135,42.081695556640625,-42.28993225097656,9.360544204711914,0.66
389,MetaDrive-test-no-noise-td3,60,298.2458331880396,391010,909,6436.39488196373,46.19709396362305,,12.351686477661133,0.67
390,MetaDrive-test-no-noise-td3,60,297.8704180842942,392378,912,6460.880362987518,47.047080993652344,,13.081339836120605,0.68
391,MetaDrive-test-no-noise-td3,60,299.5925084361393,393006,913,6472.6558158397675,48.10668182373047,,14.987808227539062,0.69
392,MetaDrive-test-no-noise-td3,60,300.20314197864553,394263,915,6496.962839603424,43.63343811035156,-43.3635368347168,12.911636352539062,0.69
393,MetaDrive-test-no-noise-td3,60,295.17844271464867,395309,918,6517.138116836548,44.04155731201172,-43.135498046875,13.591163635253906,0.66
394,MetaDrive-test-no-noise-td3,60,294.07159364941896,396310,919,6537.245995998383,41.81208038330078,,23.09591293334961,0.65
395,MetaDrive-test-no-noise-td3,60,292.7894621843735,397411,921,6560.625437736511,40.90562438964844,-41.25579071044922,29.166357040405273,0.64
396,MetaDrive-test-no-noise-td3,60,290.78347010076345,398412,922,6580.913065910339,41.69797897338867,,6.1594367027282715,0.63
397,MetaDrive-test-no-noise-td3,60,292.3188700673182,399278,923,6598.049586772919,46.13416290283203,,9.882434844970703,0.62
398,MetaDrive-test-no-noise-td3,60,293.7776610170124,400279,924,6620.701341867447,43.842803955078125,-43.89241027832031,6.244734764099121,0.62
399,MetaDrive-test-no-noise-td3,60,291.60935963641913,401174,926,6637.073178768158,44.179283142089844,,6.994246006011963,0.63
400,MetaDrive-test-no-noise-td3,60,292.7907134434847,402156,928,6653.9621958732605,44.62989807128906,,3.3331961631774902,0.64
401,MetaDrive-test-no-noise-td3,60,292.36822545582345,403047,929,6671.425240755081,39.540218353271484,-39.53107833862305,9.45761489868164,0.64
402,MetaDrive-test-no-noise-td3,60,289.65313996118607,404184,931,6689.769856929779,43.80131149291992,,6.033334732055664,0.64
403,MetaDrive-test-no-noise-td3,60,291.0880840040492,405498,933,6710.8993268013,43.66343688964844,,6.865093231201172,0.64
404,MetaDrive-test-no-noise-td3,60,290.1064019279962,406290,934,6723.136735916138,40.89691162109375,,7.690164566040039,0.64
405,MetaDrive-test-no-noise-td3,60,289.3963802799039,407117,937,6736.154443025589,45.88799285888672,-46.4689826965332,92.25926208496094,0.65
406,MetaDrive-test-no-noise-td3,60,293.7375752364881,408718,939,6762.46895980835,39.2813835144043,,8.542591094970703,0.66
407,MetaDrive-test-no-noise-td3,60,295.6751006175859,409440,941,6774.378305912018,44.130950927734375,,6.964378833770752,0.66
408,MetaDrive-test-no-noise-td3,60,295.3302856187228,410810,943,6797.030707836151,44.55350112915039,,12.799617767333984,0.65
409,MetaDrive-test-no-noise-td3,60,294.46762012809086,411417,944,6806.616386651993,42.906455993652344,-43.48690414428711,20.598596572875977,0.65
410,MetaDrive-test-no-noise-td3,60,291.0637124286059,412158,946,6818.36111164093,42.748443603515625,,6.480687141418457,0.65
411,MetaDrive-test-no-noise-td3,60,292.8493304880774,413122,947,6836.329079627991,42.075801849365234,,7.289175987243652,0.65
412,MetaDrive-test-no-noise-td3,60,292.7708870565363,414123,948,6856.059478998184,40.20793914794922,-40.8551139831543,8.126977920532227,0.64
413,MetaDrive-test-no-noise-td3,60,292.19428205456876,415141,950,6872.7679708004,43.474273681640625,-43.634395599365234,6.791323661804199,0.63
414,MetaDrive-test-no-noise-td3,60,290.62231375277173,416515,952,6893.95970082283,40.91499328613281,-41.34830093383789,6.539137363433838,0.61
415,MetaDrive-test-no-noise-td3,60,291.30550655184066,417333,953,6905.6842648983,42.1798210144043,-41.589759826660156,5.584746837615967,0.61
416,MetaDrive-test-no-noise-td3,60,292.3889380185587,418253,954,6920.666276693344,43.20606994628906,-41.97986602783203,14.068333625793457,0.62
417,MetaDrive-test-no-noise-td3,60,288.5080938251282,419491,957,6940.999040842056,41.039268493652344,-41.96290588378906,6.950641632080078,0.6
418,MetaDrive-test-no-noise-td3,60,287.7505977782475,420492,958,6956.166717767715,43.06192398071289,,7.054527282714844,0.59
419,MetaDrive-test-no-noise-td3,60,288.16224992948764,421214,959,6967.232038736343,41.1763916015625,,5.015073299407959,0.59
420,MetaDrive-test-no-noise-td3,60,286.9351064421473,422444,961,6984.547887802124,42.965576171875,,11.761117935180664,0.58
421,MetaDrive-test-no-noise-td3,60,286.6885940579219,423158,962,6996.640114784241,38.403141021728516,,8.506338119506836,0.58
422,MetaDrive-test-no-noise-td3,60,283.9893994847787,424011,964,7010.887550830841,38.88739013671875,-39.26953125,135.425537109375,0.57
423,MetaDrive-test-no-noise-td3,60,281.81872121572445,425403,967,7032.709199666977,41.46110153198242,-42.30352020263672,14.197429656982422,0.56
424,MetaDrive-test-no-noise-td3,60,281.85118294559436,426088,968,7042.243010044098,44.12175369262695,,7.643994331359863,0.57
425,MetaDrive-test-no-noise-td3,60,279.37894150831505,427085,971,7057.302924871445,47.032596588134766,-48.12565612792969,9.81733512878418,0.56
426,MetaDrive-test-no-noise-td3,60,278.815396916034,428408,973,7078.427327871323,44.773223876953125,,15.170297622680664,0.56
427,MetaDrive-test-no-noise-td3,60,274.14970611702324,429609,976,7096.844588756561,45.40006637573242,-46.35832977294922,11.13298225402832,0.55
428,MetaDrive-test-no-noise-td3,60,274.2693566809756,430213,977,7105.008323669434,40.98543930053711,-41.84138488769531,12.045417785644531,0.55
429,MetaDrive-test-no-noise-td3,60,275.06829343086685,431252,979,7122.058099985123,46.63265609741211,,5.4635009765625,0.55
430,MetaDrive-test-no-noise-td3,60,269.71510288819786,432155,982,7135.743592977524,45.80365753173828,-46.63032913208008,7.00002384185791,0.53
431,MetaDrive-test-no-noise-td3,60,266.42422317076364,433454,984,7157.370713710785,40.20587921142578,,13.090335845947266,0.52
432,MetaDrive-test-no-noise-td3,60,265.59498317521326,434108,985,7168.473579883575,39.61641311645508,,14.559406280517578,0.52
433,MetaDrive-test-no-noise-td3,60,263.00449414275477,435093,987,7185.024443864822,41.38075256347656,-41.21751403808594,13.62197494506836,0.51
434,MetaDrive-test-no-noise-td3,60,263.2340648561596,436265,989,7202.952724933624,47.436588287353516,-48.02884292602539,7.897918701171875,0.51
435,MetaDrive-test-no-noise-td3,60,263.11250526419127,437799,991,7228.648501873016,41.0676383972168,-41.566558837890625,21.433147430419922,0.51
436,MetaDrive-test-no-noise-td3,60,262.14357784782726,438545,992,7240.84560585022,44.8021125793457,-45.08897018432617,8.054789543151855,0.5
437,MetaDrive-test-no-noise-td3,60,260.9049002201725,439036,993,7248.931327819824,38.827178955078125,,9.01719856262207,0.49
438,MetaDrive-test-no-noise-td3,60,260.4588802408002,440620,996,7273.342576742172,42.905426025390625,,12.625696182250977,0.48
439,MetaDrive-test-no-noise-td3,60,257.74469553114795,441307,998,7283.484961986542,48.32101821899414,-48.194557189941406,8.451343536376953,0.48
440,MetaDrive-test-no-noise-td3,60,256.7478041261612,442646,1001,7305.253289937973,39.88190460205078,,29.73569107055664,0.48
441,MetaDrive-test-no-noise-td3,60,258.91485330463007,443548,1003,7320.620623826981,42.11780548095703,,4.90407657623291,0.49
442,MetaDrive-test-no-noise-td3,60,259.797281003518,444549,1004,7339.160871744156,46.532005310058594,-47.013206481933594,29.14521026611328,0.48
443,MetaDrive-test-no-noise-td3,60,263.07180719946194,445446,1005,7352.383545875549,40.64076614379883,,4.913420677185059,0.49
444,MetaDrive-test-no-noise-td3,60,261.71618041700077,446178,1006,7363.296461820602,42.45363998413086,,4.351024627685547,0.49
445,MetaDrive-test-no-noise-td3,60,263.9910953984028,447179,1007,7380.87655878067,38.81885528564453,-38.45273208618164,4.992435455322266,0.49
446,MetaDrive-test-no-noise-td3,60,262.43148213185907,448763,1009,7407.266466617584,46.77559280395508,-46.97105407714844,4.908897399902344,0.49
447,MetaDrive-test-no-noise-td3,60,264.99557174784763,449513,1010,7418.500542879105,43.07685089111328,-43.25006103515625,9.197263717651367,0.5
448,MetaDrive-test-no-noise-td3,60,264.7305790087286,450232,1011,7429.260125875473,42.088157653808594,,5.829346179962158,0.5
449,MetaDrive-test-no-noise-td3,60,259.0551887573175,451089,1014,7444.357330799103,39.77128601074219,-40.61688232421875,8.130633354187012,0.47
450,MetaDrive-test-no-noise-td3,60,257.8730085339537,452036,1015,7462.523047924042,41.066993713378906,,4.133890151977539,0.46
451,MetaDrive-test-no-noise-td3,60,258.3358113569528,453026,1016,7480.852960824966,45.943504333496094,,6.88666296005249,0.46
452,MetaDrive-test-no-noise-td3,60,257.06581469551935,454025,1019,7496.501271009445,42.61687469482422,-44.39320755004883,13.578492164611816,0.47
453,MetaDrive-test-no-noise-td3,60,257.2285891625608,455432,1022,7518.824207782745,41.888343811035156,,12.232498168945312,0.47
454,MetaDrive-test-no-noise-td3,60,256.1904156824836,456684,1024,7538.360691785812,44.5144157409668,,6.355184555053711,0.49
455,MetaDrive-test-no-noise-td3,60,257.85639216942,457685,1025,7556.537986755371,42.418819427490234,-43.2197265625,5.063650608062744,0.49
456,MetaDrive-test-no-noise-td3,60,254.98900858391687,458545,1027,7571.506412744522,42.09341812133789,-42.24392318725586,61.318668365478516,0.47
457,MetaDrive-test-no-noise-td3,60,252.4516063222231,459973,1029,7593.84868979454,42.21369171142578,-42.50432205200195,12.272872924804688,0.46
458,MetaDrive-test-no-noise-td3,60,253.2301761912614,460676,1030,7606.048561811447,41.369903564453125,,99.22821044921875,0.45
459,MetaDrive-test-no-noise-td3,60,251.29806584512164,461832,1032,7623.693709611893,45.23847579956055,,19.46627426147461,0.45
460,MetaDrive-test-no-noise-td3,60,249.93617870770333,462149,1033,7628.826004981995,44.06149673461914,-44.800655364990234,10.744729995727539,0.44
461,MetaDrive-test-no-noise-td3,60,248.16944144105454,463150,1034,7645.047070980072,46.23100280761719,,5.718927383422852,0.43
462,MetaDrive-test-no-noise-td3,60,249.9385013708474,464110,1036,7660.05632686615,41.504215240478516,,36.53553771972656,0.43
463,MetaDrive-test-no-noise-td3,60,253.44614961622975,465094,1037,7678.784780025482,41.39724349975586,,10.764554977416992,0.44
464,MetaDrive-test-no-noise-td3,60,252.84269729113387,466373,1039,7699.335409879684,41.628509521484375,-42.02833938598633,5.326018810272217,0.44
465,MetaDrive-test-no-noise-td3,60,253.25879458292897,467213,1041,7712.444104909897,43.47532653808594,-43.43699264526367,8.597738265991211,0.45
466,MetaDrive-test-no-noise-td3,60,254.15871851257995,468008,1042,7725.328913927078,46.38951873779297,,4.214476585388184,0.46
467,MetaDrive-test-no-noise-td3,60,253.50599835079126,469190,1044,7743.040171861649,41.17091751098633,,20.72400665283203,0.46
468,MetaDrive-test-no-noise-td3,60,254.60945380739568,470250,1046,7759.266718864441,47.82801818847656,,4.105254173278809,0.46
469,MetaDrive-test-no-noise-td3,60,251.08916810274167,471033,1048,7772.368396997452,46.503726959228516,-45.635337829589844,6.180152893066406,0.46
470,MetaDrive-test-no-noise-td3,60,249.37894527059737,472818,1051,7800.164554834366,44.97468185424805,,8.263276100158691,0.45
471,MetaDrive-test-no-noise-td3,60,248.6210667360833,473749,1052,7812.996654748917,43.068058013916016,-43.05747604370117,4.826159477233887,0.46
472,MetaDrive-test-no-noise-td3,60,245.94786442018588,474749,1054,7825.515217781067,47.959957122802734,-48.79381561279297,3.6985113620758057,0.45
473,MetaDrive-test-no-noise-td3,60,246.98516727277732,475805,1056,7839.01322388649,45.03180694580078,-45.251651763916016,9.581062316894531,0.46
474,MetaDrive-test-no-noise-td3,60,244.2595042037562,476411,1058,7845.734024763107,40.900550842285156,-41.205753326416016,5.356655120849609,0.46
475,MetaDrive-test-no-noise-td3,60,242.70234277507717,477167,1060,7853.295872926712,44.98005676269531,-45.35442352294922,7.118386268615723,0.45
476,MetaDrive-test-no-noise-td3,60,243.2904085665632,478060,1061,7863.190586805344,42.474830627441406,,7.340331077575684,0.45
477,MetaDrive-test-no-noise-td3,60,240.62989987245285,479428,1064,7878.608269691467,43.639427185058594,,5.151361465454102,0.44
478,MetaDrive-test-no-noise-td3,60,242.1517533078933,480022,1065,7884.610277891159,40.69865798950195,,7.405059814453125,0.45
479,MetaDrive-test-no-noise-td3,60,245.2298804219018,481878,1067,7906.354760885239,42.309329986572266,,5.388327598571777,0.45
480,MetaDrive-test-no-noise-td3,60,244.7535713714694,482462,1068,7911.908022880554,42.11239242553711,,5.214244842529297,0.45
481,MetaDrive-test-no-noise-td3,61,248.27295382440957,483595,1070,7925.176812648773,43.21030807495117,-44.448974609375,11.080114364624023,0.45
482,MetaDrive-test-no-noise-td3,61,248.37289365440245,484596,1071,7936.36835193634,43.70488739013672,,11.970538139343262,0.44
483,MetaDrive-test-no-noise-td3,61,249.182379845535,485547,1072,7946.80668592453,41.88579177856445,-42.021907806396484,13.631295204162598,0.44
484,MetaDrive-test-no-noise-td3,61,250.3781266279715,486337,1073,7954.745342969894,44.11928939819336,-44.62152099609375,8.883447647094727,0.45
485,MetaDrive-test-no-noise-td3,61,252.47748905470152,487296,1075,7964.358022928238,44.354862213134766,,23.373048782348633,0.46
486,MetaDrive-test-no-noise-td3,61,252.84294334365129,488190,1076,7973.163081884384,43.7677001953125,,5.538944244384766,0.46
487,MetaDrive-test-no-noise-td3,61,253.50198068003817,489649,1078,7989.382952928543,41.5820426940918,-42.05913162231445,29.292762756347656,0.46
488,MetaDrive-test-no-noise-td3,61,253.49839850387667,490390,1080,7996.659617900848,45.417667388916016,,10.557111740112305,0.47
489,MetaDrive-test-no-noise-td3,61,253.31537194556492,491391,1081,8008.648862838745,38.09086227416992,-38.26743698120117,3.454047679901123,0.47
490,MetaDrive-test-no-noise-td3,61,255.69862330066906,492148,1082,8017.215046882629,42.61016082763672,,6.399801254272461,0.48
491,MetaDrive-test-no-noise-td3,61,259.0764065964251,493465,1084,8031.282965898514,43.5629997253418,-43.46745681762695,3.4146523475646973,0.5
492,MetaDrive-test-no-noise-td3,61,258.898870048082,494300,1086,8040.598023891449,44.265716552734375,,14.460432052612305,0.49
493,MetaDrive-test-no-noise-td3,61,258.39724859900736,495498,1088,8056.114128828049,40.615901947021484,,8.751137733459473,0.48
494,MetaDrive-test-no-noise-td3,61,259.3641843912852,496332,1089,8065.157552719116,43.58734893798828,,35.518409729003906,0.48
495,MetaDrive-test-no-noise-td3,61,260.3465149047107,497164,1090,8074.954001903534,39.91720962524414,,5.529305934906006,0.48
496,MetaDrive-test-no-noise-td3,61,258.4459080884584,498495,1093,8089.800995826721,44.99134063720703,-45.96268844604492,5.7557525634765625,0.49
497,MetaDrive-test-no-noise-td3,61,260.2099885357965,499029,1094,8095.053087949753,41.94120788574219,-41.876766204833984,10.620368957519531,0.5
