TanmayH/CS269-RL-project-code/MetaDrive-testbn3/td3/progress.csv
,log_dir,frame_per_second,episode_reward,total_steps,total_episodes,total_time,actor_loss,critic_loss,target_q,success_rate
0,MetaDrive-testbn3,220,7.547267296806719,1075,2,4.86565899848938,0.07772064208984375,0.0016206058207899332,-0.08266076445579529,0.0
1,MetaDrive-testbn3,130,-1.4649270356661914,2476,19,18.90516996383667,,0.008849352598190308,-0.05854148417711258,0.0
2,MetaDrive-testbn3,125,-1.2097373412252739,3477,20,27.606744527816772,0.062221623957157135,0.00837467610836029,-0.0707680806517601,0.0
3,MetaDrive-testbn3,125,-1.2447433241665227,4478,21,35.585156202316284,,0.008879508823156357,-0.050469037145376205,0.0
4,MetaDrive-testbn3,122,-1.2447471709933053,5479,22,44.58881998062134,0.08125007897615433,0.016468020156025887,-0.052055977284908295,0.0
5,MetaDrive-testbn3,115,-1.2684184877674332,6791,24,58.71693468093872,0.06577299535274506,0.006883879192173481,-0.06143338978290558,0.0
6,MetaDrive-testbn3,115,-1.0707721406192017,7792,25,67.49343037605286,,0.001237332122400403,-0.061435725539922714,0.0
7,MetaDrive-testbn3,115,-0.8882294935522541,8793,26,76.33084177970886,0.09319815039634705,0.005223305895924568,-0.0728423148393631,0.0
8,MetaDrive-testbn3,114,-0.7183023383765733,9794,27,85.54273176193237,,0.005880922079086304,-0.07283477485179901,0.0
9,MetaDrive-testbn3,114,-0.7544640939035074,10795,28,94.33061647415161,0.06075770780444145,0.5661084055900574,-0.14366500079631805,0.0
10,MetaDrive-testbn3,114,-0.6058945919062863,11796,29,102.70891761779785,,0.016081277281045914,-0.0678175538778305,0.0
11,MetaDrive-testbn3,114,-0.927779341197832,12573,31,109.9331681728363,0.039444699883461,0.015902388840913773,-0.0781174898147583,0.0
12,MetaDrive-testbn3,113,-0.9622492612067035,13574,32,119.63518929481506,,0.004183229990303516,-0.05859652906656265,0.0
13,MetaDrive-testbn3,113,-1.2421632714743127,14369,34,126.61185121536255,0.032926708459854126,0.00506793474778533,-0.07162004709243774,0.0
14,MetaDrive-testbn3,113,-1.10335682092076,15370,35,135.3293857574463,,0.004639848135411739,-0.07946326583623886,0.0
15,MetaDrive-testbn3,113,-1.122728215120537,16371,36,144.18200063705444,0.076244056224823,0.012622270733118057,-0.07555188238620758,0.0
16,MetaDrive-testbn3,113,-1.2189003825346352,17236,37,151.2003629207611,,0.005493380129337311,-0.07621964067220688,0.0
17,MetaDrive-testbn3,113,-1.2397750200156625,18237,38,160.4848771095276,0.07898657768964767,0.00041663413867354393,-0.08308075368404388,0.0
18,MetaDrive-testbn3,113,-1.257973079723646,19238,39,169.5290801525116,,0.00049305718857795,-0.08920974284410477,0.0
19,MetaDrive-testbn3,114,-1.1351055184628849,20239,40,177.2067847251892,0.08645091205835342,0.0030384038109332323,-0.08005613088607788,0.0
20,MetaDrive-testbn3,114,-1.160300137379712,21240,41,185.61330270767212,,0.00040737539529800415,-0.08811014890670776,0.0
21,MetaDrive-testbn3,113,-1.5317597334530206,22537,45,198.10269117355347,0.07917384058237076,0.00022976400214247406,-0.0894661396741867,0.0
22,MetaDrive-testbn3,113,-1.4482167661166514,23538,46,208.05156135559082,,0.000742135220207274,-0.10176596790552139,0.0
23,MetaDrive-testbn3,113,-1.604435087535736,24776,49,218.9181501865387,,0.0005464966525323689,-0.09725514054298401,0.0
24,MetaDrive-testbn3,113,-1.7576168220736679,25356,51,224.25699853897095,,7.305237522814423e-05,-0.10899163782596588,0.0
25,MetaDrive-testbn3,113,-1.6532684456598223,26357,52,232.71240186691284,0.11517336219549179,0.007000976242125034,-0.11029143631458282,0.0
26,MetaDrive-testbn3,113,-1.5513248297045035,27358,53,241.3358929157257,,8.528579928679392e-05,-0.11445823311805725,0.0
27,MetaDrive-testbn3,112,-1.7756151822082544,28007,61,248.05626559257507,0.11030896753072739,0.000640019541606307,-0.11987653374671936,0.0
28,MetaDrive-testbn3,110,-2.187082630828727,29003,94,262.0316119194031,0.08367685973644257,0.012923339381814003,-0.09909273684024811,0.0
29,MetaDrive-testbn3,110,-2.153115141807237,30227,96,273.7643463611603,0.07028268277645111,0.018112577497959137,-0.06612098962068558,0.0
30,MetaDrive-testbn3,110,-1.6737352045656202,31008,99,281.53239154815674,,0.019513709470629692,-0.06295215338468552,0.0
31,MetaDrive-testbn3,110,-1.7889655958809982,32151,101,291.47863364219666,0.021969277411699295,0.01604010909795761,-0.023478901013731956,0.0
32,MetaDrive-testbn3,110,-1.804892656990245,33152,102,300.6236433982849,,0.008050077594816685,0.020540442317724228,0.0
33,MetaDrive-testbn3,110,-1.7662242642944972,34153,103,309.1693892478943,-0.013366378843784332,0.04346221685409546,0.024496877565979958,0.0
34,MetaDrive-testbn3,110,-1.863827046495433,35121,113,319.1166865825653,-0.09012210369110107,0.0014719335595145822,0.06949291378259659,0.0
35,MetaDrive-testbn3,109,-1.5702820373842854,36015,123,328.0806496143341,-0.1540716290473938,0.0021297321654856205,0.10412178933620453,0.0
36,MetaDrive-testbn3,109,-1.17517833014819,37066,139,339.04702377319336,,0.0788082480430603,0.10292550176382065,0.0
37,MetaDrive-testbn3,108,-0.8491446213688789,38043,159,351.47295212745667,-0.16787369549274445,0.0021206848323345184,0.15933623909950256,0.0
38,MetaDrive-testbn3,107,-0.7814481952349048,39252,169,363.56092953681946,,0.005546167492866516,0.19506017863750458,0.0
39,MetaDrive-testbn3,107,-0.7762069164211401,40406,171,377.03733587265015,,0.8206545114517212,0.08900323510169983,0.0
40,MetaDrive-testbn3,107,-0.8003563317426942,41131,173,383.73242473602295,-0.1556534469127655,0.010526048019528389,0.1660313904285431,0.0
41,MetaDrive-testbn3,107,-0.7439938092484613,42132,174,392.2868444919586,,0.007236746605485678,0.10046519339084625,0.0
42,MetaDrive-testbn3,107,-0.6847797513472876,43133,175,400.5836515426636,-0.06493977457284927,0.33734971284866333,0.05774875357747078,0.0
43,MetaDrive-testbn3,107,-0.6301720287161855,44134,176,409.28346133232117,,0.015799975022673607,0.11789316684007645,0.0
44,MetaDrive-testbn3,108,-0.5697812138379609,45135,177,416.85582423210144,-0.07299237698316574,0.01000778004527092,0.08149964362382889,0.0
45,MetaDrive-testbn3,108,-0.4914783521205168,46136,178,424.91047191619873,,0.006068177986890078,0.0904088169336319,0.0
46,MetaDrive-testbn3,108,-0.4785458882489593,47137,179,433.26300144195557,-0.0691567212343216,0.0038539301604032516,0.06967830657958984,0.0
47,MetaDrive-testbn3,109,-0.47516746771971563,48138,180,441.63303303718567,,0.020905066281557083,0.07327014952898026,0.0
48,MetaDrive-testbn3,109,-0.499437208787988,49265,182,451.39311599731445,-0.05102737993001938,0.7826513051986694,-0.02894187532365322,0.0
49,MetaDrive-testbn3,109,-0.42151912158224564,50266,183,459.38983845710754,,0.2583792805671692,-0.022288769483566284,0.0
50,MetaDrive-testbn3,109,-0.4321552072899806,51378,185,469.3630292415619,,1.2752717733383179,-0.12197018414735794,0.0
51,MetaDrive-testbn3,109,-0.37463994445174054,52379,186,478.01567578315735,-0.033573687076568604,0.000648774323053658,0.03185948729515076,0.0
52,MetaDrive-testbn3,109,-0.35942026887547834,53207,187,485.7757511138916,-0.009292522445321083,0.003870332380756736,0.02511805295944214,0.0
53,MetaDrive-testbn3,109,-0.3390504668886251,54029,189,492.87550473213196,-0.013159404508769512,0.0007356592686846852,0.013291272334754467,0.0
54,MetaDrive-testbn3,109,-0.7733469618843958,55053,201,503.70103669166565,0.009384622797369957,0.05334489420056343,0.0008902400732040405,0.0
55,MetaDrive-testbn3,108,-0.8777859150640086,56138,215,515.0998175144196,,0.01827712543308735,0.058802373707294464,0.0
56,MetaDrive-testbn3,108,-1.0313070680176892,57585,224,530.6718757152557,-0.015283137559890747,0.004396508447825909,0.03999121114611626,0.0
57,MetaDrive-testbn3,108,-0.9688932219746511,58842,228,543.4916586875916,,0.0039648981764912605,0.03691764920949936,0.0
58,MetaDrive-testbn3,108,-1.0258281364187527,59278,229,547.0774331092834,,0.0021563093177974224,0.03712280094623566,0.0
59,MetaDrive-testbn3,108,-1.389766222646914,60009,234,554.071754693985,-0.06741765886545181,0.002207095269113779,0.03406137228012085,0.0
60,MetaDrive-testbn3,108,-1.4230188780446362,61050,237,564.1632654666901,,0.015772690996527672,-0.008130095899105072,0.0
61,MetaDrive-testbn3,107,-1.350727947411083,62073,260,578.1293513774872,-0.07617990672588348,0.008075478486716747,0.057328078895807266,0.0
62,MetaDrive-testbn3,107,-1.0792109940673311,63232,265,589.8364653587341,,0.18277180194854736,-0.0021866150200366974,0.0
63,MetaDrive-testbn3,107,-0.21720217932926653,64028,275,598.0562129020691,,0.005280880257487297,0.1186160147190094,0.0
64,MetaDrive-testbn3,106,1.2276300355426573,65039,288,609.5425763130188,-0.19589902460575104,0.0030687355902045965,0.15199773013591766,0.0
65,MetaDrive-testbn3,106,2.1680685659122436,66018,307,621.12682056427,,0.0038696303963661194,0.2119387835264206,0.0
66,MetaDrive-testbn3,106,3.237748113262429,67016,317,631.387460231781,,1.5182514190673828,0.1524413824081421,0.0
67,MetaDrive-testbn3,105,4.738010223598834,68009,329,642.3123290538788,-0.4484986364841461,0.8516249656677246,0.3136705160140991,0.0
68,MetaDrive-testbn3,105,6.695083851419789,69170,339,655.5435492992401,,0.033096812665462494,0.5299139022827148,0.0
69,MetaDrive-testbn3,105,8.721534668165326,70034,347,666.0075006484985,,0.9313506484031677,0.5437729358673096,0.0
70,MetaDrive-testbn3,104,12.340661120567763,71100,359,677.1550636291504,,0.02411520853638649,0.8423383235931396,0.0
71,MetaDrive-testbn3,104,15.002146864674728,72084,369,690.1409449577332,,0.8089836835861206,0.982304573059082,0.0
72,MetaDrive-testbn3,104,18.506018270397927,73250,377,702.1487355232239,,0.03722897917032242,1.311898112297058,0.01
73,MetaDrive-testbn3,104,20.591692766926432,74041,381,710.612708568573,-1.5893774032592773,0.1378702074289322,1.4789830446243286,0.01
74,MetaDrive-testbn3,103,22.783952627628775,75021,389,721.4587273597717,-1.9774413108825684,0.03122766502201557,1.7949485778808594,0.01
75,MetaDrive-testbn3,103,26.845063537006354,76080,396,734.9552330970764,,0.0996045470237732,2.2189249992370605,0.01
76,MetaDrive-testbn3,103,31.919483403671258,77345,401,749.0079233646393,-2.8334858417510986,0.03529199957847595,2.5910613536834717,0.02
77,MetaDrive-testbn3,103,35.477052955976724,78249,406,758.7693462371826,-3.1952552795410156,1.9479683637619019,2.8790442943573,0.02
78,MetaDrive-testbn3,102,38.72242246911975,79143,415,769.454827785492,-3.5426557064056396,1.9992530345916748,3.2289021015167236,0.02
79,MetaDrive-testbn3,102,42.95131401917212,80351,421,783.7931282520294,-4.058658599853516,0.05466792732477188,3.864218235015869,0.02
80,MetaDrive-testbn3,102,45.73382389241333,81017,425,792.3149878978729,-4.292144775390625,0.13909339904785156,4.1714067459106445,0.02
81,MetaDrive-testbn3,101,50.81224273670353,82208,428,807.6988229751587,,2.1858506202697754,4.538675785064697,0.02
82,MetaDrive-testbn3,101,56.953554723031345,83566,430,820.7184972763062,,0.07045885920524597,4.8461103439331055,0.04
83,MetaDrive-testbn3,101,59.38655910968832,84071,433,826.504638671875,-5.685517311096191,0.19410274922847748,5.426939964294434,0.04
84,MetaDrive-testbn3,101,63.97982719390314,85030,436,837.8162908554077,,2.4119744300842285,5.978351593017578,0.05
85,MetaDrive-testbn3,101,69.84144340460232,86400,443,854.8457052707672,,0.30133575201034546,6.7640228271484375,0.06
86,MetaDrive-testbn3,100,73.43110288986261,87128,445,862.9213786125183,,3.2820992469787598,6.874118804931641,0.06
