TanmayH/CS269-RL-project-code/MetaDrive-td3combine-expt_with_safe-leaky-adamw-in-q-weighted-corrected-diff-env/MetaDrive-Alt-Next-v0/td3/progress.csv
,log_dir,frame_per_second,episode_reward,total_steps,total_episodes,total_time,actor_loss,critic_loss,target_q,success_rate
0,MetaDrive-td3combine-expt_with_safe-leaky-adamw-in-q-weighted-corrected-diff-env,756,7.196305588463989,1063,2,1.405362844467163,-0.04726259410381317,0.004268357064574957,0.07337922602891922,0.0
1,MetaDrive-td3combine-expt_with_safe-leaky-adamw-in-q-weighted-corrected-diff-env,113,-1.8655298665661033,3699,26,32.4930579662323,-0.05834238976240158,0.6446015238761902,-0.02426806651055813,0.0
2,MetaDrive-td3combine-expt_with_safe-leaky-adamw-in-q-weighted-corrected-diff-env,108,-1.9415833609377775,4650,27,42.819716930389404,,2.098663806915283,-0.17107520997524261,0.0
3,MetaDrive-td3combine-expt_with_safe-leaky-adamw-in-q-weighted-corrected-diff-env,105,-2.0481849974537294,5167,30,48.75626802444458,-0.046719156205654144,0.017193503677845,0.07150204479694366,0.0
4,MetaDrive-td3combine-expt_with_safe-leaky-adamw-in-q-weighted-corrected-diff-env,103,-2.1722651099087398,6119,33,59.02394700050354,0.03226519003510475,0.8461891412734985,-0.022799339145421982,0.0
5,MetaDrive-td3combine-expt_with_safe-leaky-adamw-in-q-weighted-corrected-diff-env,101,-2.0938423972876876,7015,37,68.81736183166504,-0.06115083023905754,0.006794534623622894,0.06838953495025635,0.0
6,MetaDrive-td3combine-expt_with_safe-leaky-adamw-in-q-weighted-corrected-diff-env,99,-0.9862877645702083,8009,48,80.76427102088928,-0.18257290124893188,0.015971392393112183,0.1276261806488037,0.0
7,MetaDrive-td3combine-expt_with_safe-leaky-adamw-in-q-weighted-corrected-diff-env,95,1.0219059437205726,9013,66,94.0308427810669,-0.2413610816001892,0.03376719728112221,0.18065409362316132,0.0
8,MetaDrive-td3combine-expt_with_safe-leaky-adamw-in-q-weighted-corrected-diff-env,94,2.0073294427887154,10038,86,106.59471487998962,,0.8498188257217407,0.2142517864704132,0.0
9,MetaDrive-td3combine-expt_with_safe-leaky-adamw-in-q-weighted-corrected-diff-env,92,2.9433346721380813,11048,105,119.06416583061218,,0.4004848897457123,0.5030120611190796,0.0
10,MetaDrive-td3combine-expt_with_safe-leaky-adamw-in-q-weighted-corrected-diff-env,92,5.743441442196623,12024,119,130.47217798233032,,1.3616665601730347,0.5223955512046814,0.0
11,MetaDrive-td3combine-expt_with_safe-leaky-adamw-in-q-weighted-corrected-diff-env,91,8.517201648363892,13078,135,142.84629774093628,,2.4606099128723145,0.8888081312179565,0.0
12,MetaDrive-td3combine-expt_with_safe-leaky-adamw-in-q-weighted-corrected-diff-env,90,11.279928537553873,14272,153,157.17776107788086,,0.15549230575561523,1.4618444442749023,0.0
13,MetaDrive-td3combine-expt_with_safe-leaky-adamw-in-q-weighted-corrected-diff-env,90,12.16188334392286,15039,164,166.6461808681488,-1.99575936794281,1.6157748699188232,1.7900720834732056,0.0
14,MetaDrive-td3combine-expt_with_safe-leaky-adamw-in-q-weighted-corrected-diff-env,90,15.200183935735419,16228,174,179.96580696105957,,0.07307622581720352,2.332167387008667,0.0
15,MetaDrive-td3combine-expt_with_safe-leaky-adamw-in-q-weighted-corrected-diff-env,90,18.000794353344126,17101,177,189.45268392562866,-2.8954527378082275,0.08156175166368484,2.6995270252227783,0.01
16,MetaDrive-td3combine-expt_with_safe-leaky-adamw-in-q-weighted-corrected-diff-env,90,21.717773510191147,18061,186,200.28658199310303,-3.504518985748291,0.09231120347976685,3.3322932720184326,0.02
17,MetaDrive-td3combine-expt_with_safe-leaky-adamw-in-q-weighted-corrected-diff-env,90,28.15768564262493,19316,190,214.11184310913086,,0.23862463235855103,4.184898853302002,0.03
18,MetaDrive-td3combine-expt_with_safe-leaky-adamw-in-q-weighted-corrected-diff-env,90,31.9463265278938,20050,195,222.0675699710846,,0.22931629419326782,4.721567153930664,0.03
19,MetaDrive-td3combine-expt_with_safe-leaky-adamw-in-q-weighted-corrected-diff-env,90,36.24331178229741,21067,204,233.822762966156,-5.660320281982422,3.808838129043579,5.270331382751465,0.03
20,MetaDrive-td3combine-expt_with_safe-leaky-adamw-in-q-weighted-corrected-diff-env,90,39.08974777840823,22055,210,244.59940195083618,-6.014476776123047,7.7299394607543945,5.806343078613281,0.04
21,MetaDrive-td3combine-expt_with_safe-leaky-adamw-in-q-weighted-corrected-diff-env,89,42.66761872295354,23215,218,258.2296257019043,-7.113130569458008,5.600183486938477,6.802477836608887,0.04
22,MetaDrive-td3combine-expt_with_safe-leaky-adamw-in-q-weighted-corrected-diff-env,89,45.47617770053251,24046,226,268.2833709716797,,10.672467231750488,7.283468246459961,0.04
23,MetaDrive-td3combine-expt_with_safe-leaky-adamw-in-q-weighted-corrected-diff-env,89,48.413352952996995,25404,241,284.4210538864136,,6.428607940673828,8.670587539672852,0.04
24,MetaDrive-td3combine-expt_with_safe-leaky-adamw-in-q-weighted-corrected-diff-env,89,52.106207357072925,26091,247,292.3699378967285,-9.627096176147461,0.7753727436065674,9.352593421936035,0.04
25,MetaDrive-td3combine-expt_with_safe-leaky-adamw-in-q-weighted-corrected-diff-env,89,59.2956052238,27251,252,305.27484011650085,-11.024474143981934,0.47159239649772644,10.865781784057617,0.06
26,MetaDrive-td3combine-expt_with_safe-leaky-adamw-in-q-weighted-corrected-diff-env,89,60.20905975368621,28057,260,314.2873430252075,-11.941641807556152,0.9007169008255005,11.610215187072754,0.06
27,MetaDrive-td3combine-expt_with_safe-leaky-adamw-in-q-weighted-corrected-diff-env,89,63.226202969402436,29021,266,325.2357108592987,-12.241446495056152,9.782691955566406,11.997905731201172,0.07
28,MetaDrive-td3combine-expt_with_safe-leaky-adamw-in-q-weighted-corrected-diff-env,89,63.27403060471304,30038,276,337.15797185897827,,5.141134262084961,13.234476089477539,0.06
29,MetaDrive-td3combine-expt_with_safe-leaky-adamw-in-q-weighted-corrected-diff-env,89,66.77284125972474,31120,283,348.8307330608368,,0.5812650918960571,14.231298446655273,0.06
30,MetaDrive-td3combine-expt_with_safe-leaky-adamw-in-q-weighted-corrected-diff-env,89,67.66011305021468,32078,289,359.7779278755188,,1.1757614612579346,14.683172225952148,0.05
31,MetaDrive-td3combine-expt_with_safe-leaky-adamw-in-q-weighted-corrected-diff-env,89,66.16652892854708,33065,296,370.6709508895874,-15.643905639648438,28.553264617919922,14.710844039916992,0.05
32,MetaDrive-td3combine-expt_with_safe-leaky-adamw-in-q-weighted-corrected-diff-env,89,68.4602946147526,34035,304,381.5634927749634,-17.49776840209961,14.318588256835938,16.446388244628906,0.05
33,MetaDrive-td3combine-expt_with_safe-leaky-adamw-in-q-weighted-corrected-diff-env,89,70.15630096613614,35016,312,392.1562719345093,,3.1927943229675293,17.694801330566406,0.04
34,MetaDrive-td3combine-expt_with_safe-leaky-adamw-in-q-weighted-corrected-diff-env,89,72.67561628995128,36138,321,404.62010502815247,,17.09690284729004,18.208290100097656,0.04
35,MetaDrive-td3combine-expt_with_safe-leaky-adamw-in-q-weighted-corrected-diff-env,89,75.36639473375091,37035,329,414.71277689933777,-19.124258041381836,15.092016220092773,18.732315063476562,0.04
36,MetaDrive-td3combine-expt_with_safe-leaky-adamw-in-q-weighted-corrected-diff-env,89,79.042379326598,38035,336,425.98650074005127,-19.721954345703125,1.218022108078003,19.888063430786133,0.04
37,MetaDrive-td3combine-expt_with_safe-leaky-adamw-in-q-weighted-corrected-diff-env,89,81.16325152514985,39039,342,437.3899908065796,-21.35369873046875,22.981260299682617,20.14769172668457,0.04
38,MetaDrive-td3combine-expt_with_safe-leaky-adamw-in-q-weighted-corrected-diff-env,89,78.19580726072749,40153,349,449.6276648044586,-22.31258201599121,1.3490657806396484,21.842039108276367,0.03
39,MetaDrive-td3combine-expt_with_safe-leaky-adamw-in-q-weighted-corrected-diff-env,89,78.50365804012354,41039,357,459.44992780685425,-21.176292419433594,21.375743865966797,21.05319595336914,0.02
40,MetaDrive-td3combine-expt_with_safe-leaky-adamw-in-q-weighted-corrected-diff-env,89,76.80158857813065,42001,366,470.402863740921,-22.8448429107666,2.819545269012451,22.330249786376953,0.01
41,MetaDrive-td3combine-expt_with_safe-leaky-adamw-in-q-weighted-corrected-diff-env,89,75.57503820971887,43078,378,482.6365399360657,,18.571714401245117,22.752389907836914,0.01
42,MetaDrive-td3combine-expt_with_safe-leaky-adamw-in-q-weighted-corrected-diff-env,89,72.7252007681814,44054,387,493.787437915802,,4.527134895324707,22.917417526245117,0.0
43,MetaDrive-td3combine-expt_with_safe-leaky-adamw-in-q-weighted-corrected-diff-env,89,69.38008626483187,45126,397,505.6842198371887,,3.5149729251861572,24.05158805847168,0.0
44,MetaDrive-td3combine-expt_with_safe-leaky-adamw-in-q-weighted-corrected-diff-env,89,68.28485263550942,46034,406,515.8743958473206,,45.077293395996094,23.560100555419922,0.0
45,MetaDrive-td3combine-expt_with_safe-leaky-adamw-in-q-weighted-corrected-diff-env,89,66.97379868115813,47001,414,526.9409048557281,-23.04022789001465,2.726573944091797,22.808570861816406,0.0
46,MetaDrive-td3combine-expt_with_safe-leaky-adamw-in-q-weighted-corrected-diff-env,89,63.6525268534153,48064,426,538.6332349777222,,8.537117004394531,25.750102996826172,0.0
47,MetaDrive-td3combine-expt_with_safe-leaky-adamw-in-q-weighted-corrected-diff-env,89,60.522310597254666,49060,436,549.6511359214783,,22.180408477783203,24.16122817993164,0.0
48,MetaDrive-td3combine-expt_with_safe-leaky-adamw-in-q-weighted-corrected-diff-env,89,57.30050185193063,51902,446,580.8638017177582,,1.7247347831726074,27.55259132385254,0.0
49,MetaDrive-td3combine-expt_with_safe-leaky-adamw-in-q-weighted-corrected-diff-env,89,57.44059126398598,52088,448,582.8406949043274,,27.96166229248047,27.870410919189453,0.0
50,MetaDrive-td3combine-expt_with_safe-leaky-adamw-in-q-weighted-corrected-diff-env,89,56.54124293353934,53039,456,593.7109348773956,-26.428565979003906,3.2869513034820557,26.666784286499023,0.0
51,MetaDrive-td3combine-expt_with_safe-leaky-adamw-in-q-weighted-corrected-diff-env,89,57.0515858023328,54093,466,605.2938828468323,-27.006267547607422,7.1097517013549805,27.022781372070312,0.0
52,MetaDrive-td3combine-expt_with_safe-leaky-adamw-in-q-weighted-corrected-diff-env,89,57.80682163753032,55001,475,615.6073400974274,-27.25579071044922,5.40706729888916,27.39041519165039,0.0
53,MetaDrive-td3combine-expt_with_safe-leaky-adamw-in-q-weighted-corrected-diff-env,89,60.261899514481,56014,483,626.4202039241791,,2.6907033920288086,27.548240661621094,0.0
54,MetaDrive-td3combine-expt_with_safe-leaky-adamw-in-q-weighted-corrected-diff-env,89,58.33905905613242,57041,492,637.9182918071747,-28.077863693237305,6.490214824676514,29.04121971130371,0.0
55,MetaDrive-td3combine-expt_with_safe-leaky-adamw-in-q-weighted-corrected-diff-env,89,59.42282938856918,58063,498,649.8084359169006,-28.0415096282959,6.8474040031433105,27.738262176513672,0.0
56,MetaDrive-td3combine-expt_with_safe-leaky-adamw-in-q-weighted-corrected-diff-env,89,61.99062706281191,59111,506,661.3169288635254,-28.95711326599121,2.5873892307281494,29.187767028808594,0.0
57,MetaDrive-td3combine-expt_with_safe-leaky-adamw-in-q-weighted-corrected-diff-env,89,62.8080393722227,60010,512,671.3760769367218,,7.2843732833862305,28.14934539794922,0.0
58,MetaDrive-td3combine-expt_with_safe-leaky-adamw-in-q-weighted-corrected-diff-env,89,64.31550691748134,62399,514,695.8598871231079,-30.948226928710938,2.955631732940674,30.05461311340332,0.0
59,MetaDrive-td3combine-expt_with_safe-leaky-adamw-in-q-weighted-corrected-diff-env,89,65.59854831098022,63575,517,708.612725019455,-31.437755584716797,27.170156478881836,31.134830474853516,0.0
60,MetaDrive-td3combine-expt_with_safe-leaky-adamw-in-q-weighted-corrected-diff-env,89,66.01196864256059,64628,518,719.4839627742767,,30.767658233642578,28.818973541259766,0.0
61,MetaDrive-td3combine-expt_with_safe-leaky-adamw-in-q-weighted-corrected-diff-env,89,65.99118997804692,65467,520,728.5010848045349,-32.02617263793945,5.296415328979492,31.993091583251953,0.0
62,MetaDrive-td3combine-expt_with_safe-leaky-adamw-in-q-weighted-corrected-diff-env,89,69.12537966531895,66452,521,739.1582598686218,,35.442588806152344,28.530635833740234,0.01
63,MetaDrive-td3combine-expt_with_safe-leaky-adamw-in-q-weighted-corrected-diff-env,90,70.78226034163924,68293,522,758.2993619441986,-31.390073776245117,4.431478023529053,30.90851402282715,0.01
64,MetaDrive-td3combine-expt_with_safe-leaky-adamw-in-q-weighted-corrected-diff-env,90,75.44870443662832,69418,525,770.5634529590607,,44.2638053894043,31.123680114746094,0.02
65,MetaDrive-td3combine-expt_with_safe-leaky-adamw-in-q-weighted-corrected-diff-env,90,77.03892174426173,70055,526,777.4564437866211,-32.648929595947266,5.0633625984191895,31.637758255004883,0.03
66,MetaDrive-td3combine-expt_with_safe-leaky-adamw-in-q-weighted-corrected-diff-env,90,78.10547403330669,72138,528,799.6413588523865,,23.218509674072266,31.787141799926758,0.03
67,MetaDrive-td3combine-expt_with_safe-leaky-adamw-in-q-weighted-corrected-diff-env,90,81.08355678822824,74621,531,826.5884537696838,-31.216978073120117,52.53440475463867,29.910511016845703,0.04
68,MetaDrive-td3combine-expt_with_safe-leaky-adamw-in-q-weighted-corrected-diff-env,90,84.36358528796265,76940,533,850.5867550373077,,43.0466423034668,28.84180450439453,0.04
69,MetaDrive-td3combine-expt_with_safe-leaky-adamw-in-q-weighted-corrected-diff-env,90,84.2607839946334,77030,534,851.608039855957,,4.797056198120117,29.192781448364258,0.04
70,MetaDrive-td3combine-expt_with_safe-leaky-adamw-in-q-weighted-corrected-diff-env,90,86.53654574304448,78591,535,869.2813980579376,-29.649173736572266,51.992958068847656,29.825708389282227,0.04
71,MetaDrive-td3combine-expt_with_safe-leaky-adamw-in-q-weighted-corrected-diff-env,90,88.38052270643946,80592,536,891.9019520282745,,24.389541625976562,27.956100463867188,0.04
72,MetaDrive-td3combine-expt_with_safe-leaky-adamw-in-q-weighted-corrected-diff-env,90,89.20829496660436,82700,538,914.129860162735,,5.693478584289551,32.75797653198242,0.04
73,MetaDrive-td3combine-expt_with_safe-leaky-adamw-in-q-weighted-corrected-diff-env,90,91.1711928031087,83260,539,920.2156889438629,,9.955562591552734,30.002635955810547,0.05
74,MetaDrive-td3combine-expt_with_safe-leaky-adamw-in-q-weighted-corrected-diff-env,90,91.27154519606674,85261,540,940.9683430194855,-32.89361572265625,5.215244293212891,31.695314407348633,0.05
75,MetaDrive-td3combine-expt_with_safe-leaky-adamw-in-q-weighted-corrected-diff-env,90,91.72323203479282,87262,541,961.4748139381409,,21.45720672607422,27.03986167907715,0.05
76,MetaDrive-td3combine-expt_with_safe-leaky-adamw-in-q-weighted-corrected-diff-env,90,95.15460920330365,88582,544,975.4122438430786,,45.45899963378906,27.964012145996094,0.07
77,MetaDrive-td3combine-expt_with_safe-leaky-adamw-in-q-weighted-corrected-diff-env,90,94.81072910056152,90679,546,997.1105411052704,-28.88233184814453,5.717617988586426,28.762306213378906,0.07
78,MetaDrive-td3combine-expt_with_safe-leaky-adamw-in-q-weighted-corrected-diff-env,90,96.87074506950212,91041,548,1001.0850670337677,-28.186399459838867,4.993978977203369,26.738948822021484,0.08
79,MetaDrive-td3combine-expt_with_safe-leaky-adamw-in-q-weighted-corrected-diff-env,90,99.0540201273073,93771,552,1031.1060149669647,-31.859235763549805,6.053687572479248,31.19809913635254,0.09
80,MetaDrive-td3combine-expt_with_safe-leaky-adamw-in-q-weighted-corrected-diff-env,90,99.59845884150482,94067,554,1034.4096779823303,-32.88850402832031,10.265311241149902,32.81126022338867,0.09
81,MetaDrive-td3combine-expt_with_safe-leaky-adamw-in-q-weighted-corrected-diff-env,91,100.72968734061084,96448,559,1059.6755199432373,,7.6800127029418945,29.435630798339844,0.09
82,MetaDrive-td3combine-expt_with_safe-leaky-adamw-in-q-weighted-corrected-diff-env,91,100.8536068874519,98449,560,1081.1554050445557,-35.918861389160156,33.17631912231445,34.85292434692383,0.09
83,MetaDrive-td3combine-expt_with_safe-leaky-adamw-in-q-weighted-corrected-diff-env,90,104.01933747067734,99141,561,1089.4647319316864,-32.32436752319336,11.561769485473633,33.03601837158203,0.09
84,MetaDrive-td3combine-expt_with_safe-leaky-adamw-in-q-weighted-corrected-diff-env,91,105.20409811296932,100067,564,1099.364362001419,-35.54645919799805,24.730209350585938,35.60261535644531,0.1
85,MetaDrive-td3combine-expt_with_safe-leaky-adamw-in-q-weighted-corrected-diff-env,91,107.14542537296134,102529,569,1126.523559808731,-32.30146026611328,42.53887939453125,31.885814666748047,0.1
86,MetaDrive-td3combine-expt_with_safe-leaky-adamw-in-q-weighted-corrected-diff-env,90,110.63464028557371,103251,570,1134.6902329921722,-34.74729537963867,9.812649726867676,33.59612274169922,0.11
87,MetaDrive-td3combine-expt_with_safe-leaky-adamw-in-q-weighted-corrected-diff-env,91,115.24278641286315,105729,572,1160.8182001113892,-35.521121978759766,5.461607933044434,35.107093811035156,0.12
88,MetaDrive-td3combine-expt_with_safe-leaky-adamw-in-q-weighted-corrected-diff-env,91,117.51383745863335,106372,573,1167.94566988945,,11.559301376342773,28.948572158813477,0.13
89,MetaDrive-td3combine-expt_with_safe-leaky-adamw-in-q-weighted-corrected-diff-env,91,122.14441138045214,108820,575,1194.0167779922485,,18.86453628540039,29.084720611572266,0.14
90,MetaDrive-td3combine-expt_with_safe-leaky-adamw-in-q-weighted-corrected-diff-env,91,122.83515240177292,110821,576,1215.0596208572388,-32.511749267578125,9.393465995788574,32.92229080200195,0.14
91,MetaDrive-td3combine-expt_with_safe-leaky-adamw-in-q-weighted-corrected-diff-env,91,126.05138211362281,111571,577,1223.7807638645172,-34.42589569091797,11.708995819091797,32.8422737121582,0.15
92,MetaDrive-td3combine-expt_with_safe-leaky-adamw-in-q-weighted-corrected-diff-env,91,125.5284700817411,113337,578,1243.0140688419342,-28.981924057006836,21.76544189453125,28.73963165283203,0.15
93,MetaDrive-td3combine-expt_with_safe-leaky-adamw-in-q-weighted-corrected-diff-env,91,126.92269730856607,114566,581,1255.8055727481842,,7.884557247161865,29.750669479370117,0.17
94,MetaDrive-td3combine-expt_with_safe-leaky-adamw-in-q-weighted-corrected-diff-env,91,128.6628033153747,116567,582,1277.7238137722015,-23.269046783447266,12.542539596557617,24.4189395904541,0.17
95,MetaDrive-td3combine-expt_with_safe-leaky-adamw-in-q-weighted-corrected-diff-env,91,129.83506055970375,118656,584,1299.2908730506897,,40.55743408203125,26.362829208374023,0.17
96,MetaDrive-td3combine-expt_with_safe-leaky-adamw-in-q-weighted-corrected-diff-env,91,128.987751106935,120753,586,1322.0506219863892,-28.295650482177734,8.762072563171387,27.75568199157715,0.17
97,MetaDrive-td3combine-expt_with_safe-leaky-adamw-in-q-weighted-corrected-diff-env,91,129.2306306154046,122381,588,1339.6645050048828,-21.86983299255371,11.426600456237793,21.720693588256836,0.17
98,MetaDrive-td3combine-expt_with_safe-leaky-adamw-in-q-weighted-corrected-diff-env,91,131.64195423419724,123112,590,1347.635419845581,,7.33147668838501,32.26799011230469,0.18
99,MetaDrive-td3combine-expt_with_safe-leaky-adamw-in-q-weighted-corrected-diff-env,91,132.25715605525477,124182,591,1358.6320807933807,,8.319686889648438,24.229633331298828,0.18
100,MetaDrive-td3combine-expt_with_safe-leaky-adamw-in-q-weighted-corrected-diff-env,91,132.42613407590986,125828,592,1375.997948884964,,5.8537750244140625,29.3592529296875,0.18
101,MetaDrive-td3combine-expt_with_safe-leaky-adamw-in-q-weighted-corrected-diff-env,91,132.61808816239434,127917,594,1397.785609960556,-25.599365234375,13.824007034301758,25.25782585144043,0.18
102,MetaDrive-td3combine-expt_with_safe-leaky-adamw-in-q-weighted-corrected-diff-env,91,132.86773476760533,128769,595,1406.3179330825806,-23.959280014038086,37.5881462097168,23.634708404541016,0.19
103,MetaDrive-td3combine-expt_with_safe-leaky-adamw-in-q-weighted-corrected-diff-env,91,134.08913169599822,130770,596,1427.796404838562,,10.337579727172852,16.058853149414062,0.19
104,MetaDrive-td3combine-expt_with_safe-leaky-adamw-in-q-weighted-corrected-diff-env,91,133.98019710968737,132771,597,1447.9963219165802,-26.858299255371094,18.512454986572266,26.26163101196289,0.19
105,MetaDrive-td3combine-expt_with_safe-leaky-adamw-in-q-weighted-corrected-diff-env,91,135.14054639431376,134867,599,1470.5752477645874,-21.57470703125,58.91441345214844,20.705747604370117,0.19
106,MetaDrive-td3combine-expt_with_safe-leaky-adamw-in-q-weighted-corrected-diff-env,91,137.1678373060551,135226,600,1474.5434980392456,,7.5038371086120605,24.324161529541016,0.2
107,MetaDrive-td3combine-expt_with_safe-leaky-adamw-in-q-weighted-corrected-diff-env,91,138.93805710644764,137156,601,1494.8611807823181,,10.095708847045898,21.264680862426758,0.21
108,MetaDrive-td3combine-expt_with_safe-leaky-adamw-in-q-weighted-corrected-diff-env,91,138.68412803231894,138844,605,1513.408205986023,,6.396413326263428,26.79050636291504,0.21
109,MetaDrive-td3combine-expt_with_safe-leaky-adamw-in-q-weighted-corrected-diff-env,91,139.65282817688407,139222,606,1517.4051949977875,,10.106895446777344,23.566539764404297,0.21
110,MetaDrive-td3combine-expt_with_safe-leaky-adamw-in-q-weighted-corrected-diff-env,91,145.061360900181,140312,609,1529.2625849246979,,7.219932556152344,18.455745697021484,0.23
111,MetaDrive-td3combine-expt_with_safe-leaky-adamw-in-q-weighted-corrected-diff-env,91,144.74691328864287,142929,613,1557.2450160980225,-18.033653259277344,9.147098541259766,17.78702163696289,0.24
112,MetaDrive-td3combine-expt_with_safe-leaky-adamw-in-q-weighted-corrected-diff-env,91,143.00469645786322,143035,614,1558.4139499664307,-28.09841537475586,94.51565551757812,26.90229034423828,0.24
113,MetaDrive-td3combine-expt_with_safe-leaky-adamw-in-q-weighted-corrected-diff-env,91,143.63945085738155,145125,616,1581.1244490146637,-23.99056053161621,8.985176086425781,23.666427612304688,0.24
114,MetaDrive-td3combine-expt_with_safe-leaky-adamw-in-q-weighted-corrected-diff-env,91,145.12348186604504,147225,618,1603.6836409568787,-28.177602767944336,10.199308395385742,27.535076141357422,0.24
115,MetaDrive-td3combine-expt_with_safe-leaky-adamw-in-q-weighted-corrected-diff-env,91,145.25370910621163,149318,620,1625.7429947853088,,6.316859245300293,21.155885696411133,0.24
116,MetaDrive-td3combine-expt_with_safe-leaky-adamw-in-q-weighted-corrected-diff-env,91,143.65780322833083,151319,621,1646.4173698425293,-27.778472900390625,5.583555698394775,26.78173065185547,0.23
117,MetaDrive-td3combine-expt_with_safe-leaky-adamw-in-q-weighted-corrected-diff-env,91,143.45644057907168,152534,622,1659.4447610378265,,23.88857650756836,21.864620208740234,0.24
118,MetaDrive-td3combine-expt_with_safe-leaky-adamw-in-q-weighted-corrected-diff-env,91,141.57984103133936,154535,623,1679.991183757782,-23.021650314331055,6.174474716186523,22.182493209838867,0.23
119,MetaDrive-td3combine-expt_with_safe-leaky-adamw-in-q-weighted-corrected-diff-env,91,143.31617973812246,156536,624,1701.9657249450684,,43.52025604248047,25.072683334350586,0.23
120,MetaDrive-td3combine-expt_with_safe-leaky-adamw-in-q-weighted-corrected-diff-env,92,140.83872729426605,157977,626,1716.7178318500519,-20.031837463378906,69.40669250488281,19.48409652709961,0.22
121,MetaDrive-td3combine-expt_with_safe-leaky-adamw-in-q-weighted-corrected-diff-env,92,140.5801639318989,158141,627,1718.6042819023132,-16.426908493041992,9.572752952575684,16.129722595214844,0.22
122,MetaDrive-td3combine-expt_with_safe-leaky-adamw-in-q-weighted-corrected-diff-env,92,137.17613440077992,160482,630,1742.6614000797272,,51.56934356689453,21.939804077148438,0.21
123,MetaDrive-td3combine-expt_with_safe-leaky-adamw-in-q-weighted-corrected-diff-env,92,137.3339033733411,162981,632,1768.9145829677582,-11.570088386535645,13.713268280029297,11.887303352355957,0.21
124,MetaDrive-td3combine-expt_with_safe-leaky-adamw-in-q-weighted-corrected-diff-env,92,134.10829057732974,163087,633,1770.0633399486542,-16.818828582763672,8.478878021240234,16.440311431884766,0.21
125,MetaDrive-td3combine-expt_with_safe-leaky-adamw-in-q-weighted-corrected-diff-env,92,135.67579056260738,165088,634,1790.739823102951,,5.5330915451049805,18.770538330078125,0.21
126,MetaDrive-td3combine-expt_with_safe-leaky-adamw-in-q-weighted-corrected-diff-env,92,136.44449129096037,167801,636,1820.3655610084534,-19.907438278198242,8.348892211914062,18.877159118652344,0.22
127,MetaDrive-td3combine-expt_with_safe-leaky-adamw-in-q-weighted-corrected-diff-env,92,137.6021274159921,168592,638,1828.9569690227509,,7.337723255157471,16.000324249267578,0.23
128,MetaDrive-td3combine-expt_with_safe-leaky-adamw-in-q-weighted-corrected-diff-env,92,134.67444806589248,169422,639,1837.6601359844208,,9.966806411743164,11.775816917419434,0.22
129,MetaDrive-td3combine-expt_with_safe-leaky-adamw-in-q-weighted-corrected-diff-env,92,135.48236742016954,171098,641,1855.3792839050293,,5.975089073181152,17.554607391357422,0.22
130,MetaDrive-td3combine-expt_with_safe-leaky-adamw-in-q-weighted-corrected-diff-env,92,135.54869365153294,172295,642,1868.0949440002441,-15.802175521850586,10.711104393005371,15.988058090209961,0.22
131,MetaDrive-td3combine-expt_with_safe-leaky-adamw-in-q-weighted-corrected-diff-env,92,134.910567980702,173807,645,1883.898048877716,-15.353958129882812,7.451714515686035,14.941211700439453,0.21
132,MetaDrive-td3combine-expt_with_safe-leaky-adamw-in-q-weighted-corrected-diff-env,92,136.46487174891183,175808,646,1905.627275943756,,10.285408020019531,20.226898193359375,0.21
133,MetaDrive-td3combine-expt_with_safe-leaky-adamw-in-q-weighted-corrected-diff-env,92,139.07582580120896,176386,647,1911.8801338672638,,6.40391731262207,20.84737205505371,0.22
134,MetaDrive-td3combine-expt_with_safe-leaky-adamw-in-q-weighted-corrected-diff-env,92,140.03453582742443,177104,648,1919.8395500183105,,6.953047752380371,21.775737762451172,0.22
135,MetaDrive-td3combine-expt_with_safe-leaky-adamw-in-q-weighted-corrected-diff-env,92,140.31082076924204,179786,650,1948.705337047577,,12.386205673217773,16.948938369750977,0.22
136,MetaDrive-td3combine-expt_with_safe-leaky-adamw-in-q-weighted-corrected-diff-env,92,141.7111715179075,181787,651,1970.1389141082764,-13.99901008605957,5.146214485168457,14.170053482055664,0.22
137,MetaDrive-td3combine-expt_with_safe-leaky-adamw-in-q-weighted-corrected-diff-env,92,142.52956844377158,183462,652,1987.7092349529266,,7.541026592254639,18.767871856689453,0.22
138,MetaDrive-td3combine-expt_with_safe-leaky-adamw-in-q-weighted-corrected-diff-env,92,143.1016058481046,185648,654,2010.3811330795288,,6.587937355041504,16.6077938079834,0.22
139,MetaDrive-td3combine-expt_with_safe-leaky-adamw-in-q-weighted-corrected-diff-env,92,144.36708360382482,187741,656,2034.1999490261078,-22.175395965576172,2.6293587684631348,21.831928253173828,0.22
140,MetaDrive-td3combine-expt_with_safe-leaky-adamw-in-q-weighted-corrected-diff-env,92,147.27124810118855,189742,657,2055.637711763382,,7.665862083435059,14.851433753967285,0.22
141,MetaDrive-td3combine-expt_with_safe-leaky-adamw-in-q-weighted-corrected-diff-env,92,147.57351308697034,191035,658,2069.868036031723,-19.15328025817871,16.356721878051758,18.708263397216797,0.22
142,MetaDrive-td3combine-expt_with_safe-leaky-adamw-in-q-weighted-corrected-diff-env,92,150.2323704415095,192806,661,2088.711217880249,,4.534435272216797,11.45961856842041,0.25
143,MetaDrive-td3combine-expt_with_safe-leaky-adamw-in-q-weighted-corrected-diff-env,92,149.42512215359983,193094,663,2091.9119029045105,,7.563942909240723,14.274372100830078,0.24
144,MetaDrive-td3combine-expt_with_safe-leaky-adamw-in-q-weighted-corrected-diff-env,92,150.84899002883114,195422,665,2116.3444118499756,,9.445924758911133,9.454913139343262,0.24
145,MetaDrive-td3combine-expt_with_safe-leaky-adamw-in-q-weighted-corrected-diff-env,92,154.1959458916579,197463,667,2138.3312890529633,-16.13639259338379,5.123272895812988,16.165212631225586,0.25
146,MetaDrive-td3combine-expt_with_safe-leaky-adamw-in-q-weighted-corrected-diff-env,92,157.7867016937066,198173,668,2146.2313878536224,-18.08683204650879,5.511676788330078,17.245203018188477,0.26
147,MetaDrive-td3combine-expt_with_safe-leaky-adamw-in-q-weighted-corrected-diff-env,92,153.61274192441502,200523,670,2170.9932947158813,-16.352352142333984,7.248981475830078,15.365509033203125,0.26
148,MetaDrive-td3combine-expt_with_safe-leaky-adamw-in-q-weighted-corrected-diff-env,92,154.83625875333723,201159,671,2178.1431798934937,-13.70931339263916,2.994323253631592,12.625011444091797,0.26
149,MetaDrive-td3combine-expt_with_safe-leaky-adamw-in-q-weighted-corrected-diff-env,92,151.1388767556254,202323,672,2191.216762781143,-12.474061965942383,8.084930419921875,11.76258659362793,0.26
150,MetaDrive-td3combine-expt_with_safe-leaky-adamw-in-q-weighted-corrected-diff-env,92,155.2911518937225,204996,674,2220.2414667606354,,10.271965026855469,12.129417419433594,0.25
151,MetaDrive-td3combine-expt_with_safe-leaky-adamw-in-q-weighted-corrected-diff-env,92,154.3248259696843,205252,675,2223.096120119095,,36.50518035888672,15.470541000366211,0.25
152,MetaDrive-td3combine-expt_with_safe-leaky-adamw-in-q-weighted-corrected-diff-env,92,156.18257692700902,207080,676,2242.442272901535,,11.458688735961914,10.869688034057617,0.26
153,MetaDrive-td3combine-expt_with_safe-leaky-adamw-in-q-weighted-corrected-diff-env,92,155.45298529825243,209323,678,2266.2439501285553,-12.146387100219727,9.175411224365234,10.901750564575195,0.26
154,MetaDrive-td3combine-expt_with_safe-leaky-adamw-in-q-weighted-corrected-diff-env,92,158.3862466036758,211324,679,2287.5726590156555,,13.643295288085938,5.243218421936035,0.26
155,MetaDrive-td3combine-expt_with_safe-leaky-adamw-in-q-weighted-corrected-diff-env,92,160.07864223362253,213325,680,2308.691370010376,-11.457290649414062,4.517904281616211,11.459633827209473,0.25
156,MetaDrive-td3combine-expt_with_safe-leaky-adamw-in-q-weighted-corrected-diff-env,92,156.4921368566809,214589,682,2321.988868713379,-12.275093078613281,9.885124206542969,12.996368408203125,0.24
157,MetaDrive-td3combine-expt_with_safe-leaky-adamw-in-q-weighted-corrected-diff-env,92,156.62247672705504,216590,683,2342.9075310230255,,7.610150337219238,11.860553741455078,0.24
158,MetaDrive-td3combine-expt_with_safe-leaky-adamw-in-q-weighted-corrected-diff-env,92,157.16198669937577,218591,684,2363.6988999843597,-18.59982681274414,2.733224391937256,18.974815368652344,0.24
159,MetaDrive-td3combine-expt_with_safe-leaky-adamw-in-q-weighted-corrected-diff-env,92,159.50342674676043,220479,685,2383.034143924713,-9.381020545959473,5.095510005950928,9.168100357055664,0.25
160,MetaDrive-td3combine-expt_with_safe-leaky-adamw-in-q-weighted-corrected-diff-env,92,161.98622804016296,221757,688,2396.4154098033905,-20.261877059936523,10.329938888549805,20.733373641967773,0.26
161,MetaDrive-td3combine-expt_with_safe-leaky-adamw-in-q-weighted-corrected-diff-env,92,163.82858489297755,222322,689,2402.3099689483643,,10.218500137329102,6.437319755554199,0.26
162,MetaDrive-td3combine-expt_with_safe-leaky-adamw-in-q-weighted-corrected-diff-env,92,160.9627858299149,223283,691,2412.4084310531616,-11.592966079711914,13.234153747558594,12.369325637817383,0.25
163,MetaDrive-td3combine-expt_with_safe-leaky-adamw-in-q-weighted-corrected-diff-env,92,162.6923800917673,225284,692,2433.6795959472656,,62.414955139160156,12.228821754455566,0.25
164,MetaDrive-td3combine-expt_with_safe-leaky-adamw-in-q-weighted-corrected-diff-env,92,168.1004578367823,226144,694,2443.3835809230804,,3.2978315353393555,11.477338790893555,0.26
165,MetaDrive-td3combine-expt_with_safe-leaky-adamw-in-q-weighted-corrected-diff-env,92,166.97963591501153,227445,695,2456.939769744873,-14.979656219482422,8.729947090148926,15.157571792602539,0.25
166,MetaDrive-td3combine-expt_with_safe-leaky-adamw-in-q-weighted-corrected-diff-env,92,164.2889657160415,229443,697,2477.394535779953,-9.049162864685059,11.42646598815918,9.188755989074707,0.25
167,MetaDrive-td3combine-expt_with_safe-leaky-adamw-in-q-weighted-corrected-diff-env,92,167.34665460220182,231178,698,2496.5144000053406,,63.21632385253906,12.173572540283203,0.26
168,MetaDrive-td3combine-expt_with_safe-leaky-adamw-in-q-weighted-corrected-diff-env,92,168.18401458037758,232235,699,2507.893522977829,-13.929046630859375,7.447629928588867,12.474512100219727,0.27
169,MetaDrive-td3combine-expt_with_safe-leaky-adamw-in-q-weighted-corrected-diff-env,92,166.86072944729128,234058,700,2527.3411247730255,,10.90243911743164,15.169082641601562,0.26
170,MetaDrive-td3combine-expt_with_safe-leaky-adamw-in-q-weighted-corrected-diff-env,92,165.19627332150566,236059,701,2548.2355859279633,-8.949779510498047,10.272553443908691,9.637045860290527,0.25
171,MetaDrive-td3combine-expt_with_safe-leaky-adamw-in-q-weighted-corrected-diff-env,92,167.49258407058073,237054,703,2559.6841928958893,,6.079513072967529,11.633440017700195,0.26
172,MetaDrive-td3combine-expt_with_safe-leaky-adamw-in-q-weighted-corrected-diff-env,92,171.69049072428825,238307,705,2572.966295003891,-11.689285278320312,8.307398796081543,11.169795036315918,0.28
173,MetaDrive-td3combine-expt_with_safe-leaky-adamw-in-q-weighted-corrected-diff-env,92,172.03498939744443,240308,706,2594.18656206131,,12.223246574401855,8.213459014892578,0.28
174,MetaDrive-td3combine-expt_with_safe-leaky-adamw-in-q-weighted-corrected-diff-env,92,169.06536290237818,242555,709,2618.0128440856934,-18.511962890625,6.419620037078857,18.57527732849121,0.26
175,MetaDrive-td3combine-expt_with_safe-leaky-adamw-in-q-weighted-corrected-diff-env,92,170.85164255583607,244556,710,2638.4731788635254,,7.321047782897949,16.68921661376953,0.26
176,MetaDrive-td3combine-expt_with_safe-leaky-adamw-in-q-weighted-corrected-diff-env,92,172.11889750944755,245033,711,2643.860405921936,-18.462173461914062,6.590488433837891,16.711606979370117,0.26
177,MetaDrive-td3combine-expt_with_safe-leaky-adamw-in-q-weighted-corrected-diff-env,92,175.07776601887602,246256,712,2657.059958934784,,6.414621353149414,15.695554733276367,0.27
178,MetaDrive-td3combine-expt_with_safe-leaky-adamw-in-q-weighted-corrected-diff-env,92,174.33935264936537,248257,713,2678.9729998111725,-17.621030807495117,5.459717750549316,17.311927795410156,0.27
179,MetaDrive-td3combine-expt_with_safe-leaky-adamw-in-q-weighted-corrected-diff-env,92,174.22535413706515,249470,714,2691.8224267959595,,7.009533882141113,13.618462562561035,0.27
180,MetaDrive-td3combine-expt_with_safe-leaky-adamw-in-q-weighted-corrected-diff-env,92,176.09769727812997,251471,715,2712.988753795624,-12.346485137939453,4.528836250305176,12.32748031616211,0.27
181,MetaDrive-td3combine-expt_with_safe-leaky-adamw-in-q-weighted-corrected-diff-env,92,174.06115612264267,253472,716,2734.1930480003357,,7.23642635345459,13.537150382995605,0.27
182,MetaDrive-td3combine-expt_with_safe-leaky-adamw-in-q-weighted-corrected-diff-env,92,175.87355836866533,255473,717,2754.73534488678,-12.288779258728027,36.85637664794922,12.03531265258789,0.27
183,MetaDrive-td3combine-expt_with_safe-leaky-adamw-in-q-weighted-corrected-diff-env,92,177.8738135912911,256012,718,2760.7361347675323,,7.212693691253662,15.123916625976562,0.28
184,MetaDrive-td3combine-expt_with_safe-leaky-adamw-in-q-weighted-corrected-diff-env,92,179.16115175524885,257107,719,2772.6440839767456,-15.804021835327148,7.3465471267700195,14.966776847839355,0.28
185,MetaDrive-td3combine-expt_with_safe-leaky-adamw-in-q-weighted-corrected-diff-env,92,180.84843660904502,259108,720,2794.6074538230896,,12.723363876342773,22.288936614990234,0.28
186,MetaDrive-td3combine-expt_with_safe-leaky-adamw-in-q-weighted-corrected-diff-env,92,180.69882082499652,261207,722,2816.5951159000397,-16.565195083618164,8.211955070495605,15.583749771118164,0.28
187,MetaDrive-td3combine-expt_with_safe-leaky-adamw-in-q-weighted-corrected-diff-env,92,177.8239681778502,262102,724,2826.427657842636,,9.952932357788086,11.058828353881836,0.28
188,MetaDrive-td3combine-expt_with_safe-leaky-adamw-in-q-weighted-corrected-diff-env,92,177.78118393980108,264103,725,2848.2840189933777,-11.317509651184082,9.644954681396484,11.481934547424316,0.28
189,MetaDrive-td3combine-expt_with_safe-leaky-adamw-in-q-weighted-corrected-diff-env,92,178.96934588469855,266267,727,2871.4193007946014,-14.140417098999023,11.349079132080078,14.25576114654541,0.28
190,MetaDrive-td3combine-expt_with_safe-leaky-adamw-in-q-weighted-corrected-diff-env,92,182.1874653703931,267413,729,2884.129729986191,-7.461859226226807,13.507789611816406,8.314212799072266,0.29
191,MetaDrive-td3combine-expt_with_safe-leaky-adamw-in-q-weighted-corrected-diff-env,92,187.4192346166153,269835,731,2910.581675052643,-16.05484962463379,7.884598255157471,15.592182159423828,0.3
192,MetaDrive-td3combine-expt_with_safe-leaky-adamw-in-q-weighted-corrected-diff-env,92,187.540403524803,271836,732,2931.2771730422974,,6.118242263793945,9.224815368652344,0.3
193,MetaDrive-td3combine-expt_with_safe-leaky-adamw-in-q-weighted-corrected-diff-env,92,188.00876773182256,273229,733,2946.5309858322144,-12.726009368896484,7.017739772796631,13.943506240844727,0.3
194,MetaDrive-td3combine-expt_with_safe-leaky-adamw-in-q-weighted-corrected-diff-env,92,186.8410751538905,275230,734,2967.6521468162537,,84.88108825683594,11.772393226623535,0.3
195,MetaDrive-td3combine-expt_with_safe-leaky-adamw-in-q-weighted-corrected-diff-env,92,186.47756933751705,276700,735,2983.468281030655,,6.285099506378174,19.15129280090332,0.3
196,MetaDrive-td3combine-expt_with_safe-leaky-adamw-in-q-weighted-corrected-diff-env,92,185.4748228418343,277513,736,2992.143434047699,-14.860794067382812,5.218316078186035,14.935730934143066,0.3
197,MetaDrive-td3combine-expt_with_safe-leaky-adamw-in-q-weighted-corrected-diff-env,92,186.42279259511167,279514,737,3013.586095094681,,5.8390960693359375,11.197067260742188,0.3
198,MetaDrive-td3combine-expt_with_safe-leaky-adamw-in-q-weighted-corrected-diff-env,92,186.44653111825755,280416,738,3023.469198703766,,46.10696029663086,5.790359973907471,0.3
199,MetaDrive-td3combine-expt_with_safe-leaky-adamw-in-q-weighted-corrected-diff-env,92,188.21593979905833,281238,739,3032.92293715477,,5.873114585876465,14.604046821594238,0.31
200,MetaDrive-td3combine-expt_with_safe-leaky-adamw-in-q-weighted-corrected-diff-env,92,189.35511954632125,283239,740,3054.4096188545227,-16.64652442932129,10.644746780395508,15.80398178100586,0.31
201,MetaDrive-td3combine-expt_with_safe-leaky-adamw-in-q-weighted-corrected-diff-env,92,188.1444636222727,285026,741,3073.795264005661,,9.988388061523438,13.18080997467041,0.31
202,MetaDrive-td3combine-expt_with_safe-leaky-adamw-in-q-weighted-corrected-diff-env,92,188.56694599619385,286126,742,3086.039127111435,,3.7597482204437256,8.48504638671875,0.31
203,MetaDrive-td3combine-expt_with_safe-leaky-adamw-in-q-weighted-corrected-diff-env,92,189.4990502508533,288801,744,3114.983722925186,-10.95763111114502,13.61640739440918,10.221672058105469,0.31
204,MetaDrive-td3combine-expt_with_safe-leaky-adamw-in-q-weighted-corrected-diff-env,92,192.14513960344718,289129,745,3118.7436900138855,-13.636283874511719,6.608222961425781,13.692607879638672,0.32
205,MetaDrive-td3combine-expt_with_safe-leaky-adamw-in-q-weighted-corrected-diff-env,92,191.7787595248867,291687,747,3146.183511018753,-11.72757625579834,6.951661109924316,10.546136856079102,0.32
206,MetaDrive-td3combine-expt_with_safe-leaky-adamw-in-q-weighted-corrected-diff-env,92,186.20582050032775,292846,749,3158.6200907230377,,15.69843864440918,6.5895771980285645,0.3
207,MetaDrive-td3combine-expt_with_safe-leaky-adamw-in-q-weighted-corrected-diff-env,92,190.25439860343414,293462,750,3165.8607280254364,,7.16234016418457,12.691743850708008,0.31
208,MetaDrive-td3combine-expt_with_safe-leaky-adamw-in-q-weighted-corrected-diff-env,92,191.1824205107667,295671,752,3189.6215867996216,-10.669147491455078,9.908832550048828,9.718198776245117,0.31
209,MetaDrive-td3combine-expt_with_safe-leaky-adamw-in-q-weighted-corrected-diff-env,92,192.06630991948632,297672,753,3211.5614058971405,,8.650880813598633,19.046369552612305,0.31
210,MetaDrive-td3combine-expt_with_safe-leaky-adamw-in-q-weighted-corrected-diff-env,92,193.7526720170267,298905,754,3225.5108449459076,-7.685171127319336,13.773523330688477,8.714285850524902,0.32
211,MetaDrive-td3combine-expt_with_safe-leaky-adamw-in-q-weighted-corrected-diff-env,92,195.40078797957398,300906,755,3247.2408130168915,,11.156999588012695,12.17204475402832,0.32
212,MetaDrive-td3combine-expt_with_safe-leaky-adamw-in-q-weighted-corrected-diff-env,92,196.77435069006052,302907,756,3270.9778859615326,-17.342546463012695,7.708330154418945,17.713966369628906,0.32
213,MetaDrive-td3combine-expt_with_safe-leaky-adamw-in-q-weighted-corrected-diff-env,92,196.77026043302226,303465,757,3277.6546909809113,-12.859819412231445,6.370007514953613,12.89576530456543,0.33
214,MetaDrive-td3combine-expt_with_safe-leaky-adamw-in-q-weighted-corrected-diff-env,92,199.1890299489426,304062,758,3284.6114270687103,,2.7446162700653076,8.610553741455078,0.33
215,MetaDrive-td3combine-expt_with_safe-leaky-adamw-in-q-weighted-corrected-diff-env,92,199.262730709792,305037,759,3295.3397359848022,-1.2667044401168823,4.1871418952941895,1.4537893533706665,0.33
216,MetaDrive-td3combine-expt_with_safe-leaky-adamw-in-q-weighted-corrected-diff-env,92,197.89478098285767,307513,761,3321.999522924423,-7.241943359375,53.331424713134766,7.686760902404785,0.32
217,MetaDrive-td3combine-expt_with_safe-leaky-adamw-in-q-weighted-corrected-diff-env,92,197.90209493759937,309556,764,3345.229474067688,,10.15701961517334,9.831140518188477,0.32
218,MetaDrive-td3combine-expt_with_safe-leaky-adamw-in-q-weighted-corrected-diff-env,92,200.86085024980213,310034,765,3350.971780061722,,7.216610908508301,12.08693790435791,0.33
219,MetaDrive-td3combine-expt_with_safe-leaky-adamw-in-q-weighted-corrected-diff-env,92,201.4670661745326,311479,767,3367.0197608470917,-13.053275108337402,10.579011917114258,13.548307418823242,0.33
220,MetaDrive-td3combine-expt_with_safe-leaky-adamw-in-q-weighted-corrected-diff-env,92,200.97486385537022,313242,768,3386.0113389492035,,4.803768634796143,9.621752738952637,0.33
221,MetaDrive-td3combine-expt_with_safe-leaky-adamw-in-q-weighted-corrected-diff-env,92,198.92838760500948,314957,769,3405.3327758312225,-9.673985481262207,12.410598754882812,9.785457611083984,0.32
222,MetaDrive-td3combine-expt_with_safe-leaky-adamw-in-q-weighted-corrected-diff-env,92,199.63115557016764,315141,770,3407.4271528720856,-11.880912780761719,12.524105072021484,11.477399826049805,0.32
223,MetaDrive-td3combine-expt_with_safe-leaky-adamw-in-q-weighted-corrected-diff-env,92,199.17039303127487,316291,772,3420.5659997463226,-13.838766098022461,9.003171920776367,13.084547996520996,0.31
224,MetaDrive-td3combine-expt_with_safe-leaky-adamw-in-q-weighted-corrected-diff-env,92,196.10145216993,318292,773,3442.185626745224,,7.0971903800964355,14.665127754211426,0.3
225,MetaDrive-td3combine-expt_with_safe-leaky-adamw-in-q-weighted-corrected-diff-env,92,193.6782849017071,320638,775,3468.263016939163,,186.71023559570312,14.189031600952148,0.3
226,MetaDrive-td3combine-expt_with_safe-leaky-adamw-in-q-weighted-corrected-diff-env,92,192.98446186989085,321305,777,3476.0410418510437,-15.514684677124023,11.126679420471191,14.679511070251465,0.29
227,MetaDrive-td3combine-expt_with_safe-leaky-adamw-in-q-weighted-corrected-diff-env,92,195.30810267126054,323740,779,3502.4990718364716,,4.546716690063477,7.686585426330566,0.3
228,MetaDrive-td3combine-expt_with_safe-leaky-adamw-in-q-weighted-corrected-diff-env,92,193.14063010499686,324150,781,3507.2314999103546,,21.196062088012695,13.960328102111816,0.3
229,MetaDrive-td3combine-expt_with_safe-leaky-adamw-in-q-weighted-corrected-diff-env,92,196.4801490432862,325074,784,3517.689701795578,,15.548799514770508,4.377216815948486,0.32
230,MetaDrive-td3combine-expt_with_safe-leaky-adamw-in-q-weighted-corrected-diff-env,92,198.7175919217626,326894,787,3537.8140189647675,,12.554271697998047,12.709576606750488,0.32
231,MetaDrive-td3combine-expt_with_safe-leaky-adamw-in-q-weighted-corrected-diff-env,92,198.1444048446564,327169,788,3541.045092821121,-14.495552062988281,6.271429061889648,14.775792121887207,0.31
232,MetaDrive-td3combine-expt_with_safe-leaky-adamw-in-q-weighted-corrected-diff-env,92,197.31907245207276,329170,789,3563.646857023239,,7.549286365509033,7.7333269119262695,0.31
233,MetaDrive-td3combine-expt_with_safe-leaky-adamw-in-q-weighted-corrected-diff-env,92,200.81791846241526,330004,790,3574.0428829193115,,36.67570495605469,9.83847427368164,0.32
234,MetaDrive-td3combine-expt_with_safe-leaky-adamw-in-q-weighted-corrected-diff-env,92,200.1714843463352,332005,791,3596.70841383934,-14.949590682983398,7.705255508422852,14.192896842956543,0.32
235,MetaDrive-td3combine-expt_with_safe-leaky-adamw-in-q-weighted-corrected-diff-env,92,198.73634873179108,334006,792,3618.4563689231873,,2.563693046569824,13.848112106323242,0.32
236,MetaDrive-td3combine-expt_with_safe-leaky-adamw-in-q-weighted-corrected-diff-env,92,196.53080394951098,336820,795,3650.5939979553223,,10.709044456481934,7.445648193359375,0.31
237,MetaDrive-td3combine-expt_with_safe-leaky-adamw-in-q-weighted-corrected-diff-env,92,196.51531434561664,337016,796,3652.9160010814667,,8.163705825805664,8.802620887756348,0.31
238,MetaDrive-td3combine-expt_with_safe-leaky-adamw-in-q-weighted-corrected-diff-env,92,196.4713609430899,338259,797,3666.7108478546143,-19.667905807495117,5.466028213500977,20.377052307128906,0.31
239,MetaDrive-td3combine-expt_with_safe-leaky-adamw-in-q-weighted-corrected-diff-env,92,192.89241873557404,339092,799,3676.0797910690308,,21.95235824584961,15.85525894165039,0.29
240,MetaDrive-td3combine-expt_with_safe-leaky-adamw-in-q-weighted-corrected-diff-env,92,194.9523817280445,341093,800,3698.123682975769,-14.004270553588867,5.592473030090332,13.385879516601562,0.29
241,MetaDrive-td3combine-expt_with_safe-leaky-adamw-in-q-weighted-corrected-diff-env,92,194.71766983144437,343874,803,3729.572774887085,,8.62503433227539,18.14680290222168,0.29
242,MetaDrive-td3combine-expt_with_safe-leaky-adamw-in-q-weighted-corrected-diff-env,92,194.49198158037004,344414,804,3735.488505125046,,7.535980701446533,14.332225799560547,0.29
243,MetaDrive-td3combine-expt_with_safe-leaky-adamw-in-q-weighted-corrected-diff-env,92,193.05982409808882,346648,806,3760.593827009201,,15.656085014343262,12.129749298095703,0.28
244,MetaDrive-td3combine-expt_with_safe-leaky-adamw-in-q-weighted-corrected-diff-env,92,194.89082850622773,348649,807,3783.4298601150513,-14.437431335449219,7.889482021331787,13.686195373535156,0.28
245,MetaDrive-td3combine-expt_with_safe-leaky-adamw-in-q-weighted-corrected-diff-env,92,195.6014337330797,350650,808,3804.826315879822,,7.664118766784668,14.021638870239258,0.28
246,MetaDrive-td3combine-expt_with_safe-leaky-adamw-in-q-weighted-corrected-diff-env,92,195.72328558195485,351854,809,3818.4387719631195,,11.204974174499512,13.70082950592041,0.28
247,MetaDrive-td3combine-expt_with_safe-leaky-adamw-in-q-weighted-corrected-diff-env,92,196.7742868120104,352422,810,3825.1453878879547,,2.193040132522583,11.663596153259277,0.29
248,MetaDrive-td3combine-expt_with_safe-leaky-adamw-in-q-weighted-corrected-diff-env,92,193.89827543050052,354423,811,3847.9233889579773,-17.46865463256836,3.1018450260162354,17.040008544921875,0.28
249,MetaDrive-td3combine-expt_with_safe-leaky-adamw-in-q-weighted-corrected-diff-env,92,191.2845637290136,355475,812,3859.5290060043335,-14.393494606018066,11.539070129394531,13.808090209960938,0.27
250,MetaDrive-td3combine-expt_with_safe-leaky-adamw-in-q-weighted-corrected-diff-env,92,190.60509925435483,356054,813,3867.1878719329834,,9.891471862792969,15.175683975219727,0.27
251,MetaDrive-td3combine-expt_with_safe-leaky-adamw-in-q-weighted-corrected-diff-env,92,193.68507208498787,358507,815,3894.5044548511505,-19.470184326171875,16.531204223632812,18.79481315612793,0.28
252,MetaDrive-td3combine-expt_with_safe-leaky-adamw-in-q-weighted-corrected-diff-env,92,195.6282345643649,359124,816,3901.6253859996796,,68.56472778320312,14.041651725769043,0.29
253,MetaDrive-td3combine-expt_with_safe-leaky-adamw-in-q-weighted-corrected-diff-env,92,194.32399242115676,361125,817,3923.3882250785828,-7.835739612579346,3.6195170879364014,7.402265548706055,0.29
254,MetaDrive-td3combine-expt_with_safe-leaky-adamw-in-q-weighted-corrected-diff-env,92,191.55832005560399,363126,818,3945.061641931534,,12.589155197143555,11.89168930053711,0.28
255,MetaDrive-td3combine-expt_with_safe-leaky-adamw-in-q-weighted-corrected-diff-env,92,191.32765116512357,365127,819,3967.700558900833,-13.793871879577637,12.721969604492188,13.161263465881348,0.28
256,MetaDrive-td3combine-expt_with_safe-leaky-adamw-in-q-weighted-corrected-diff-env,92,187.65888120626903,367668,821,3995.299160003662,,26.344188690185547,16.016386032104492,0.27
257,MetaDrive-td3combine-expt_with_safe-leaky-adamw-in-q-weighted-corrected-diff-env,92,190.41803420432058,368453,822,4003.8980720043182,-21.074193954467773,9.318775177001953,21.499595642089844,0.28
258,MetaDrive-td3combine-expt_with_safe-leaky-adamw-in-q-weighted-corrected-diff-env,92,192.14871070632023,369058,823,4010.6686639785767,,6.371781349182129,15.876773834228516,0.29
259,MetaDrive-td3combine-expt_with_safe-leaky-adamw-in-q-weighted-corrected-diff-env,91,194.75352285476475,371162,825,4035.1027879714966,,4.816235542297363,14.738598823547363,0.29
260,MetaDrive-td3combine-expt_with_safe-leaky-adamw-in-q-weighted-corrected-diff-env,91,194.44233345112497,373163,826,4057.4802207946777,-12.037775039672852,9.75086784362793,11.361027717590332,0.29
261,MetaDrive-td3combine-expt_with_safe-leaky-adamw-in-q-weighted-corrected-diff-env,91,195.0951940326073,375164,827,4079.90439081192,,7.686372756958008,17.108762741088867,0.29
262,MetaDrive-td3combine-expt_with_safe-leaky-adamw-in-q-weighted-corrected-diff-env,91,194.29176630716069,376545,828,4095.5144040584564,-20.782716751098633,3.1191165447235107,20.716522216796875,0.29
263,MetaDrive-td3combine-expt_with_safe-leaky-adamw-in-q-weighted-corrected-diff-env,91,188.94375440753868,378666,830,4119.216727018356,,11.125285148620605,17.436931610107422,0.27
264,MetaDrive-td3combine-expt_with_safe-leaky-adamw-in-q-weighted-corrected-diff-env,91,188.32615782441633,380667,831,4141.578446149826,-12.746145248413086,5.8613810539245605,12.992206573486328,0.27
265,MetaDrive-td3combine-expt_with_safe-leaky-adamw-in-q-weighted-corrected-diff-env,91,188.4968670322905,381499,833,4150.970821857452,-17.678421020507812,3.6553173065185547,17.113948822021484,0.28
266,MetaDrive-td3combine-expt_with_safe-leaky-adamw-in-q-weighted-corrected-diff-env,91,186.89595827977743,382943,835,4166.839998006821,-7.608304023742676,4.929256439208984,6.267560958862305,0.27
267,MetaDrive-td3combine-expt_with_safe-leaky-adamw-in-q-weighted-corrected-diff-env,91,188.00183947449648,383756,836,4176.364140987396,,81.8929443359375,20.986661911010742,0.28
268,MetaDrive-td3combine-expt_with_safe-leaky-adamw-in-q-weighted-corrected-diff-env,91,188.72510702456458,385757,837,4198.643749952316,-16.677955627441406,5.816115379333496,15.500702857971191,0.28
269,MetaDrive-td3combine-expt_with_safe-leaky-adamw-in-q-weighted-corrected-diff-env,91,188.01190275037825,387758,838,4220.818290948868,,14.354303359985352,13.9257230758667,0.27
270,MetaDrive-td3combine-expt_with_safe-leaky-adamw-in-q-weighted-corrected-diff-env,91,186.7482805369712,388854,839,4232.750655889511,,31.48611068725586,17.55280303955078,0.26
271,MetaDrive-td3combine-expt_with_safe-leaky-adamw-in-q-weighted-corrected-diff-env,91,186.55793600090342,389256,840,4237.510653972626,,6.0796918869018555,13.131538391113281,0.26
272,MetaDrive-td3combine-expt_with_safe-leaky-adamw-in-q-weighted-corrected-diff-env,91,190.93536173702495,391694,842,4264.724712848663,,5.588038444519043,17.410539627075195,0.27
273,MetaDrive-td3combine-expt_with_safe-leaky-adamw-in-q-weighted-corrected-diff-env,91,191.42289210653655,392848,843,4278.611624002457,,10.662651062011719,12.382570266723633,0.27
274,MetaDrive-td3combine-expt_with_safe-leaky-adamw-in-q-weighted-corrected-diff-env,91,193.3127712128734,394849,844,4301.384004831314,-18.488452911376953,5.154189109802246,16.776020050048828,0.27
275,MetaDrive-td3combine-expt_with_safe-leaky-adamw-in-q-weighted-corrected-diff-env,91,190.73583151004541,395111,845,4304.6332948207855,-21.817325592041016,14.482324600219727,22.40143585205078,0.26
276,MetaDrive-td3combine-expt_with_safe-leaky-adamw-in-q-weighted-corrected-diff-env,91,191.2478798641318,396154,846,4316.344696998596,,6.246727466583252,10.81652545928955,0.26
277,MetaDrive-td3combine-expt_with_safe-leaky-adamw-in-q-weighted-corrected-diff-env,91,190.98175810583328,398057,847,4337.245347976685,-14.513906478881836,12.640122413635254,14.753621101379395,0.26
