TanmayH/CS269-RL-project-code/MetaDrive-gen-step3/td3/progress.csv
,log_dir,frame_per_second,episode_reward,total_steps,total_episodes,total_time,actor_loss,critic_loss,target_q,success_rate
0,MetaDrive-gen-step3,143,313.2903888252152,1155,3,8.026475429534912,-31.184749603271484,5.6220927238464355,31.306394577026367,0.6666666666666666
1,MetaDrive-gen-step3,105,370.61195645922834,2259,5,21.413616180419922,-34.578067779541016,1.7444274425506592,34.42160415649414,0.6
2,MetaDrive-gen-step3,102,380.772867385467,3330,7,32.34956407546997,,4.380285263061523,37.241519927978516,0.42857142857142855
3,MetaDrive-gen-step3,104,251.5489764032724,4123,13,39.55231070518494,-38.4716911315918,7.167305946350098,37.8905143737793,0.23076923076923078
4,MetaDrive-gen-step3,108,252.33402695206004,5386,15,49.48137307167053,,2.4096903800964355,35.7774658203125,0.2
5,MetaDrive-gen-step3,113,253.45213531961224,6262,16,55.405176877975464,,33.74479675292969,30.495880126953125,0.1875
6,MetaDrive-gen-step3,116,259.16731465222506,7656,18,65.638507604599,,2.139298915863037,34.641239166259766,0.16666666666666666
7,MetaDrive-gen-step3,118,261.4372117659895,8507,19,71.90833449363708,-34.92526626586914,2.6115777492523193,34.54454040527344,0.15789473684210525
8,MetaDrive-gen-step3,120,250.6679645796006,10124,21,84.21586394309998,,1.6564288139343262,32.48651123046875,0.14285714285714285
9,MetaDrive-gen-step3,119,261.62351202217,11292,24,94.26589822769165,,2.38907527923584,33.52692413330078,0.125
10,MetaDrive-gen-step3,119,270.05100282703967,12243,26,102.54259848594666,-33.00031280517578,5.378844738006592,32.10920715332031,0.15384615384615385
11,MetaDrive-gen-step3,118,263.74293707325,13032,29,109.98499155044556,,1.4739270210266113,28.701616287231445,0.1724137931034483
12,MetaDrive-gen-step3,117,255.97580859433683,14254,33,121.2732949256897,,2.4445877075195312,30.26216697692871,0.18181818181818182
13,MetaDrive-gen-step3,117,258.6137460992233,15081,35,128.080632686615,-35.71104049682617,5.318110466003418,36.35560607910156,0.2
14,MetaDrive-gen-step3,116,257.66116177038435,16079,38,138.03696250915527,-37.44032287597656,2.726811170578003,37.4996223449707,0.21052631578947367
15,MetaDrive-gen-step3,116,250.13224742980833,17079,42,146.71585369110107,-38.620635986328125,2.5350494384765625,38.75822448730469,0.19047619047619047
16,MetaDrive-gen-step3,116,252.367176400652,18161,45,155.62527704238892,-35.420982360839844,2.22133731842041,35.461830139160156,0.2
17,MetaDrive-gen-step3,116,258.18824405767776,19271,47,165.54859113693237,-40.029518127441406,2.8551461696624756,39.328609466552734,0.2127659574468085
18,MetaDrive-gen-step3,115,264.6684421521974,20381,49,175.86952829360962,-38.326690673828125,2.5007357597351074,38.17843246459961,0.22448979591836735
19,MetaDrive-gen-step3,115,271.29802564100186,21041,50,182.39091849327087,-38.23218536376953,2.462495803833008,37.347023010253906,0.24
20,MetaDrive-gen-step3,115,265.5317415999549,22463,55,194.68904829025269,-42.77418518066406,4.0578765869140625,42.86067199707031,0.23636363636363636
21,MetaDrive-gen-step3,115,264.22903233078443,23226,57,200.95112681388855,,4.153582572937012,41.15578842163086,0.24561403508771928
22,MetaDrive-gen-step3,115,262.8362989998066,24227,60,209.35333371162415,-41.951927185058594,6.186819076538086,41.352447509765625,0.23333333333333334
23,MetaDrive-gen-step3,115,267.95327270721265,25291,62,218.70268964767456,-39.661834716796875,3.008847236633301,39.58355712890625,0.24193548387096775
24,MetaDrive-gen-step3,115,268.0288246875633,26265,65,227.26269245147705,-42.40015411376953,2.5522384643554688,42.217315673828125,0.24615384615384617
25,MetaDrive-gen-step3,115,272.86487096502907,27577,68,238.50950694084167,-43.974205017089844,3.597477912902832,43.67314529418945,0.2647058823529412
26,MetaDrive-gen-step3,115,273.67914817339795,28018,69,242.51206588745117,,19.24612808227539,42.01166534423828,0.2753623188405797
27,MetaDrive-gen-step3,115,274.95102785081076,29189,72,252.40235900878906,-42.70477294921875,1.7156760692596436,42.43376159667969,0.2916666666666667
28,MetaDrive-gen-step3,115,280.6196693110497,30621,75,265.9086241722107,-46.70033264160156,4.755643367767334,45.96055603027344,0.30666666666666664
29,MetaDrive-gen-step3,114,280.51089910132424,31277,77,271.9868242740631,-42.19828796386719,7.6597580909729,42.070560455322266,0.3116883116883117
30,MetaDrive-gen-step3,113,281.7661226219011,32790,81,287.6328558921814,,3.477696180343628,46.3863410949707,0.30864197530864196
31,MetaDrive-gen-step3,114,280.0720755057963,33016,82,289.5200865268707,,117.17272186279297,43.40696716308594,0.3048780487804878
32,MetaDrive-gen-step3,113,280.9750143749151,34183,86,299.85823369026184,-41.16202926635742,4.3314690589904785,41.146385192871094,0.313953488372093
33,MetaDrive-gen-step3,113,285.2131005301451,35202,88,309.5587697029114,,4.4919915199279785,41.22608184814453,0.3181818181818182
34,MetaDrive-gen-step3,113,286.9806617634128,36032,90,317.73600697517395,,5.573650360107422,43.538917541503906,0.32222222222222224
35,MetaDrive-gen-step3,113,285.23449397771515,37409,95,330.22406697273254,-44.516536712646484,4.19061279296875,44.394752502441406,0.3263157894736842
36,MetaDrive-gen-step3,112,285.56842189934355,38037,97,337.3861484527588,-46.100730895996094,3.2003042697906494,45.50859832763672,0.31958762886597936
37,MetaDrive-gen-step3,112,287.258549752539,39059,100,347.29365825653076,-45.22351837158203,3.246011734008789,44.3488655090332,0.32
38,MetaDrive-gen-step3,111,290.69057010740124,40107,102,358.5267400741577,-46.97294616699219,101.0122299194336,45.3929443359375,0.31
39,MetaDrive-gen-step3,111,281.6364233900586,41330,107,369.1154570579529,,10.37025260925293,44.895450592041016,0.31
40,MetaDrive-gen-step3,111,286.5029182678208,42106,110,376.20227313041687,,6.0158185958862305,43.48271942138672,0.31
41,MetaDrive-gen-step3,111,289.81737936072886,43044,113,385.0071768760681,,10.643896102905273,45.1739501953125,0.32
42,MetaDrive-gen-step3,111,281.42387333967827,44101,119,393.98541831970215,-43.463768005371094,3.6787190437316895,44.13103485107422,0.32
43,MetaDrive-gen-step3,111,272.98988834047975,45086,125,402.9926996231079,,6.4207353591918945,43.01498794555664,0.32
44,MetaDrive-gen-step3,112,274.42259343497955,46338,129,413.61541080474854,,3.3716869354248047,40.60246658325195,0.32
45,MetaDrive-gen-step3,111,276.87055577930295,47250,132,421.91454553604126,,22.815067291259766,45.75495529174805,0.31
46,MetaDrive-gen-step3,112,276.2119794453788,48262,136,430.87459802627563,,7.375333309173584,49.393760681152344,0.3
47,MetaDrive-gen-step3,112,276.8912467313068,49025,138,437.6164643764496,-48.56829833984375,4.500716209411621,48.245025634765625,0.3
48,MetaDrive-gen-step3,112,280.57821399683945,50049,142,446.65599393844604,-47.504188537597656,5.227481365203857,47.044036865234375,0.3
49,MetaDrive-gen-step3,112,282.36269617024215,51041,145,455.0226001739502,-50.40838623046875,4.678348064422607,50.15985107421875,0.3
50,MetaDrive-gen-step3,112,279.73402056408526,52648,149,468.3594388961792,,44.51410675048828,48.009124755859375,0.31
51,MetaDrive-gen-step3,112,274.4304902259561,53088,151,471.9667658805847,,8.531209945678711,47.239036560058594,0.3
52,MetaDrive-gen-step3,112,278.6915251271547,54344,155,483.36165714263916,,5.426925182342529,49.00043487548828,0.3
53,MetaDrive-gen-step3,112,278.81770896989184,55154,158,490.6922791004181,,8.133463859558105,47.97765350341797,0.3
54,MetaDrive-gen-step3,112,276.5298942367615,56180,162,500.0827429294586,,5.785982131958008,50.179527282714844,0.29
55,MetaDrive-gen-step3,112,276.5626302360377,57086,165,508.5460081100464,,7.66529655456543,51.02056884765625,0.29
56,MetaDrive-gen-step3,112,275.06802704109214,58373,169,519.8192927837372,-48.714256286621094,24.26510238647461,49.71173858642578,0.28
57,MetaDrive-gen-step3,112,270.9706610185869,59090,173,526.2542922496796,,13.856361389160156,47.826438903808594,0.26
58,MetaDrive-gen-step3,112,267.8475947732732,60221,176,537.0566606521606,-49.72663497924805,5.237191677093506,49.18470001220703,0.25
59,MetaDrive-gen-step3,112,268.141429830053,61166,180,545.3340029716492,,4.693052291870117,50.37947082519531,0.26
60,MetaDrive-gen-step3,112,270.10031269041167,62237,182,555.190247297287,-52.708778381347656,4.031335830688477,52.004207611083984,0.27
61,MetaDrive-gen-step3,112,269.417715754322,63262,185,564.086968421936,,21.548133850097656,52.005401611328125,0.27
62,MetaDrive-gen-step3,112,264.29606607135554,64125,188,571.2279672622681,-52.046653747558594,145.4833526611328,51.79209518432617,0.27
63,MetaDrive-gen-step3,112,266.9277887244556,65447,191,582.7935712337494,-51.904762268066406,12.190899848937988,52.401485443115234,0.28
64,MetaDrive-gen-step3,112,269.43272640943394,66312,193,591.3019931316376,,11.25150203704834,49.114585876464844,0.28
65,MetaDrive-gen-step3,112,268.6282571169817,67003,195,597.5897901058197,-49.88798522949219,6.1540937423706055,49.953285217285156,0.28
66,MetaDrive-gen-step3,112,266.75186511612714,68006,199,606.0166549682617,,7.15306282043457,49.49645233154297,0.28
67,MetaDrive-gen-step3,112,261.7879940430998,69339,204,618.7606518268585,-52.339752197265625,6.926555633544922,51.56247329711914,0.28
68,MetaDrive-gen-step3,112,261.74205236370034,70331,207,627.6317627429962,-52.871517181396484,4.108233451843262,52.800392150878906,0.28
69,MetaDrive-gen-step3,112,262.8276961500689,71086,210,634.6095831394196,,9.99985408782959,54.4461555480957,0.29
70,MetaDrive-gen-step3,112,261.4272021908122,72023,214,642.9425926208496,-51.724388122558594,8.642334938049316,51.46721649169922,0.29
71,MetaDrive-gen-step3,112,266.73714572414553,73177,218,652.0242300033569,-51.7266960144043,12.872607231140137,51.60559844970703,0.31
72,MetaDrive-gen-step3,111,272.64254511639837,74294,220,663.5250737667084,,25.305320739746094,47.81032180786133,0.33
73,MetaDrive-gen-step3,112,275.60932761681687,75010,222,669.2940812110901,,23.756507873535156,52.00748062133789,0.34
74,MetaDrive-gen-step3,112,275.8430002030712,76039,226,677.8641593456268,-52.395442962646484,4.84867000579834,51.83525085449219,0.34
75,MetaDrive-gen-step3,112,280.6162220648321,77042,228,687.1267530918121,,7.488443374633789,54.031898498535156,0.36
76,MetaDrive-gen-step3,112,280.9319317888891,78374,232,699.461651802063,,7.172698020935059,54.15054702758789,0.35
77,MetaDrive-gen-step3,112,280.8595258825221,79074,235,705.1231515407562,,76.47280883789062,51.1003303527832,0.36
78,MetaDrive-gen-step3,112,282.68904014884856,80187,238,715.5647859573364,-53.604209899902344,6.629168510437012,53.10063934326172,0.36
79,MetaDrive-gen-step3,112,285.161074296713,81583,242,727.8095519542694,-50.901668548583984,8.88138198852539,50.738773345947266,0.38
80,MetaDrive-gen-step3,111,283.7083245099394,82432,244,736.2455148696899,,9.231057167053223,52.586605072021484,0.37
81,MetaDrive-gen-step3,112,285.5963308060149,83307,247,743.235552072525,-50.338478088378906,5.945375442504883,50.414676666259766,0.38
82,MetaDrive-gen-step3,112,285.3984507417683,84189,249,750.5905456542969,-53.784934997558594,8.70273208618164,53.781005859375,0.38
83,MetaDrive-gen-step3,112,290.6889085245688,85142,251,759.5097281932831,,4.396298408508301,56.71053695678711,0.4
84,MetaDrive-gen-step3,112,292.5373700825761,86009,253,766.7722837924957,-55.17463684082031,5.892256736755371,54.276634216308594,0.42
85,MetaDrive-gen-step3,112,293.4684251470223,87141,256,777.8103268146515,-51.080230712890625,7.463082790374756,51.31409454345703,0.43
86,MetaDrive-gen-step3,112,296.4011373013841,88240,259,787.5984823703766,,7.633496284484863,47.31813049316406,0.44
87,MetaDrive-gen-step3,111,298.5652430294598,89267,261,797.090137720108,-55.03443145751953,42.13043975830078,54.61143112182617,0.46
88,MetaDrive-gen-step3,112,300.7457178415608,90485,264,807.6057796478271,-52.48567581176758,5.149106979370117,52.2533073425293,0.47
89,MetaDrive-gen-step3,112,305.93751871520016,91323,266,814.9119448661804,-56.623435974121094,6.548114776611328,56.11749267578125,0.48
90,MetaDrive-gen-step3,112,308.0276036100176,92142,268,821.9194278717041,,4.996912956237793,52.337745666503906,0.49
91,MetaDrive-gen-step3,111,310.07793646915394,93212,270,833.1749541759491,,13.697492599487305,47.776859283447266,0.5
92,MetaDrive-gen-step3,111,315.49710742868365,94122,272,840.8851156234741,,5.846560478210449,55.21028137207031,0.52
93,MetaDrive-gen-step3,111,315.164052497007,95474,276,853.5129573345184,,9.40393352508545,53.13951110839844,0.52
94,MetaDrive-gen-step3,111,319.7786865672767,96401,278,862.0709125995636,-56.2888069152832,4.952526092529297,55.839935302734375,0.54
95,MetaDrive-gen-step3,111,323.0924494196068,97365,280,870.663731098175,-52.68449020385742,7.436119079589844,52.39781951904297,0.55
96,MetaDrive-gen-step3,111,322.99238411959135,98450,282,880.3952031135559,,8.940582275390625,56.3834114074707,0.55
97,MetaDrive-gen-step3,111,327.1010742209714,99152,284,886.1800439357758,,8.083250045776367,51.708587646484375,0.56
98,MetaDrive-gen-step3,111,323.1432033837623,100155,288,895.1570029258728,-51.960487365722656,7.082662105560303,52.84288024902344,0.55
99,MetaDrive-gen-step3,111,323.6188840250949,101419,291,905.8701276779175,-53.29545593261719,30.719058990478516,52.742591857910156,0.56
100,MetaDrive-gen-step3,111,321.38897110931197,102008,293,911.0659377574921,,4.688692092895508,53.80015563964844,0.55
101,MetaDrive-gen-step3,112,321.82814497389825,103217,297,920.8770265579224,-56.25055694580078,5.11993932723999,56.46662139892578,0.56
102,MetaDrive-gen-step3,111,325.1799272727976,104309,299,931.4979486465454,-58.985984802246094,6.931354522705078,59.934898376464844,0.57
103,MetaDrive-gen-step3,112,326.38135336255937,105150,303,938.3972074985504,,12.97927474975586,53.896690368652344,0.59
104,MetaDrive-gen-step3,112,325.59053774872154,106288,306,947.7524416446686,,7.4370551109313965,56.094337463378906,0.6
105,MetaDrive-gen-step3,112,328.2729989336239,107525,309,958.5013689994812,-52.034385681152344,25.65080451965332,52.165313720703125,0.6
106,MetaDrive-gen-step3,112,327.15241033101313,108129,311,964.4738972187042,-52.24905014038086,11.703554153442383,52.52104187011719,0.6
107,MetaDrive-gen-step3,112,333.13132709663347,109126,313,973.5382168292999,,5.644457817077637,54.062522888183594,0.62
108,MetaDrive-gen-step3,112,336.99338440401124,110003,315,980.4688868522644,-49.684288024902344,92.61634063720703,49.38810729980469,0.63
109,MetaDrive-gen-step3,112,340.7721473020205,111349,318,991.7872774600983,-52.15631103515625,7.0744948387146,51.80030822753906,0.64
110,MetaDrive-gen-step3,112,334.7215223302113,112210,321,999.5963714122772,,6.869344711303711,52.658016204833984,0.63
111,MetaDrive-gen-step3,112,334.7137808362133,113106,322,1007.0020716190338,,5.489428520202637,56.14765167236328,0.63
112,MetaDrive-gen-step3,112,338.7882223876303,114530,324,1018.554461479187,,7.768774032592773,56.0244140625,0.64
113,MetaDrive-gen-step3,112,339.3199988724718,115166,325,1023.3856275081635,,5.436099052429199,54.495277404785156,0.64
114,MetaDrive-gen-step3,112,342.956445096398,116250,327,1033.0276987552643,,8.710543632507324,53.697776794433594,0.65
115,MetaDrive-gen-step3,112,345.66446279251,117103,329,1040.8430495262146,-58.129127502441406,4.213702201843262,58.01089096069336,0.65
116,MetaDrive-gen-step3,112,348.35407536439976,118534,332,1053.2462704181671,,5.237175464630127,53.99153137207031,0.67
117,MetaDrive-gen-step3,112,352.1194869493723,119220,333,1059.55872631073,,14.942514419555664,50.856475830078125,0.68
118,MetaDrive-gen-step3,112,355.4774765977965,120268,336,1068.8568897247314,,14.11515998840332,56.836181640625,0.69
119,MetaDrive-gen-step3,112,351.0049443118029,121180,340,1076.9169464111328,,6.742748260498047,56.83777618408203,0.69
120,MetaDrive-gen-step3,112,348.0795539785418,122415,343,1088.2345366477966,-52.97003936767578,19.64251708984375,53.33505630493164,0.69
121,MetaDrive-gen-step3,112,349.86146231138,123333,345,1095.5383265018463,-54.3684196472168,27.96467399597168,53.96965026855469,0.7
122,MetaDrive-gen-step3,112,344.40434078420344,124225,349,1102.8612446784973,-58.591651916503906,4.952724456787109,58.7205696105957,0.69
123,MetaDrive-gen-step3,112,341.31243644587687,125166,352,1111.1547374725342,,8.37848949432373,57.062225341796875,0.68
124,MetaDrive-gen-step3,112,346.1631098051145,126049,354,1118.4762086868286,-55.60873031616211,144.1854705810547,56.097801208496094,0.69
125,MetaDrive-gen-step3,112,341.69921371255083,127529,359,1131.1818978786469,-56.619285583496094,55.68423843383789,56.14301300048828,0.68
126,MetaDrive-gen-step3,112,341.86664103151884,128439,361,1139.136058807373,-57.23765563964844,6.636044979095459,57.50054931640625,0.67
127,MetaDrive-gen-step3,112,346.31686586194667,129590,363,1150.7232029438019,,10.575639724731445,57.76112747192383,0.68
128,MetaDrive-gen-step3,112,346.14095188683086,130429,365,1158.3178343772888,-55.115394592285156,7.896904468536377,55.459354400634766,0.69
129,MetaDrive-gen-step3,112,346.4377791201132,131306,367,1166.715975522995,,4.8324875831604,57.51490783691406,0.69
130,MetaDrive-gen-step3,112,345.0978436136525,132088,369,1173.9699709415436,,23.4074764251709,53.823448181152344,0.69
131,MetaDrive-gen-step3,112,343.35457287103713,133408,372,1187.2863445281982,,13.575057029724121,52.080257415771484,0.67
132,MetaDrive-gen-step3,112,346.0721999852703,134163,374,1193.3772203922272,-55.90313720703125,4.837250232696533,55.98579025268555,0.68
133,MetaDrive-gen-step3,112,344.1375219578617,135128,377,1202.7175323963165,,7.123089790344238,57.9903678894043,0.68
134,MetaDrive-gen-step3,112,345.3829594491528,136269,379,1214.0738668441772,-60.37052917480469,10.400938987731934,59.411930084228516,0.68
135,MetaDrive-gen-step3,112,345.17736917145504,137207,381,1223.2276787757874,-56.15673828125,4.4374895095825195,56.55058670043945,0.68
136,MetaDrive-gen-step3,112,346.29880069372877,138336,383,1234.0162870883942,,12.783003807067871,58.580528259277344,0.68
137,MetaDrive-gen-step3,112,346.4381810372078,139173,386,1240.7873022556305,-55.774803161621094,8.875001907348633,55.43572998046875,0.69
138,MetaDrive-gen-step3,112,351.3104622044346,140032,388,1247.778538942337,,8.075502395629883,55.89400100708008,0.7
139,MetaDrive-gen-step3,112,344.4041282487783,141163,393,1257.5024800300598,-59.111671447753906,4.500452041625977,58.008419036865234,0.68
140,MetaDrive-gen-step3,112,346.1406594055407,142147,395,1267.1207418441772,-53.95660400390625,5.316080093383789,54.035850524902344,0.69
141,MetaDrive-gen-step3,112,349.29823817453894,143033,397,1274.5420293807983,-57.43315124511719,18.00299072265625,56.843048095703125,0.69
142,MetaDrive-gen-step3,112,350.45590001373165,144452,400,1286.7471764087677,,32.7532844543457,62.096900939941406,0.7
143,MetaDrive-gen-step3,112,357.40896773014094,145667,402,1298.931839466095,-58.52477264404297,7.0986104011535645,58.17837142944336,0.71
144,MetaDrive-gen-step3,112,358.69368150168447,146322,404,1305.2331998348236,,16.91674041748047,58.38409423828125,0.71
145,MetaDrive-gen-step3,112,358.34031125467214,147123,406,1312.1943101882935,-62.002628326416016,9.29983139038086,61.71965789794922,0.7
146,MetaDrive-gen-step3,112,363.37613020261267,148349,408,1324.5435633659363,-54.14457702636719,8.333208084106445,54.641143798828125,0.71
147,MetaDrive-gen-step3,111,366.18015569883494,149263,410,1332.9478199481964,-59.466209411621094,7.443404197692871,58.17243194580078,0.71
148,MetaDrive-gen-step3,112,364.4145908976084,150055,412,1339.0966551303864,-60.46766662597656,9.549346923828125,60.320953369140625,0.71
149,MetaDrive-gen-step3,111,365.2767101099762,151049,414,1348.6747097969055,-53.32264709472656,16.881202697753906,53.18743896484375,0.71
150,MetaDrive-gen-step3,112,366.07646438998376,152378,417,1360.2688374519348,,5.524397850036621,54.96193313598633,0.7
151,MetaDrive-gen-step3,112,364.53957771269955,153397,421,1368.5933864116669,-55.200035095214844,12.23141098022461,55.43852233886719,0.7
152,MetaDrive-gen-step3,112,366.374717706173,154305,423,1376.1397154331207,-57.738861083984375,7.115350723266602,57.57905197143555,0.71
153,MetaDrive-gen-step3,112,366.6932356402475,155189,425,1383.7909841537476,-58.116268157958984,7.708949089050293,57.818153381347656,0.71
154,MetaDrive-gen-step3,112,365.2594438146726,156174,427,1393.1816384792328,,6.961481094360352,57.70740509033203,0.71
155,MetaDrive-gen-step3,112,363.61257237154285,157338,430,1403.244749546051,,28.26290512084961,59.07917022705078,0.72
156,MetaDrive-gen-step3,112,362.5581558981716,158166,432,1409.9885001182556,,5.964504718780518,60.760520935058594,0.73
157,MetaDrive-gen-step3,112,365.11083570163,159157,434,1419.0178773403168,-59.85905456542969,5.351933479309082,59.37969207763672,0.74
158,MetaDrive-gen-step3,112,366.92880928689897,160383,436,1430.110350370407,-57.17319869995117,3.546266794204712,56.996337890625,0.74
159,MetaDrive-gen-step3,112,369.7103895723769,161208,438,1436.6272366046906,,7.560257434844971,60.89788055419922,0.74
160,MetaDrive-gen-step3,112,376.0845866636987,162331,440,1448.2960686683655,-60.04784393310547,15.568010330200195,59.11273193359375,0.76
161,MetaDrive-gen-step3,112,377.49499087277144,163279,442,1456.6822757720947,-58.0411262512207,8.612018585205078,58.46453094482422,0.77
162,MetaDrive-gen-step3,112,376.28544606534194,164528,445,1468.0224430561066,,16.210798263549805,62.21262741088867,0.77
163,MetaDrive-gen-step3,111,378.3876792830267,165151,446,1474.7690470218658,-58.39949035644531,8.33673095703125,58.511287689208984,0.77
164,MetaDrive-gen-step3,111,385.96951532518574,166252,448,1485.6843984127045,,8.806053161621094,59.98406982421875,0.79
165,MetaDrive-gen-step3,111,387.9580764679016,167176,451,1493.4316971302032,,3.9070799350738525,57.45245361328125,0.79
166,MetaDrive-gen-step3,111,388.44783723355926,168392,453,1505.572911977768,,19.454360961914062,61.63985061645508,0.79
167,MetaDrive-gen-step3,111,384.3890359270611,169009,455,1510.8678591251373,-56.81810760498047,7.422060966491699,57.23357009887695,0.78
168,MetaDrive-gen-step3,111,391.1297215936931,170386,458,1522.507520198822,,31.130489349365234,60.68840789794922,0.8
169,MetaDrive-gen-step3,111,387.86799418010384,171074,460,1527.9740130901337,,9.566906929016113,56.640830993652344,0.81
170,MetaDrive-gen-step3,111,389.1856772989568,172068,462,1538.120808839798,,34.321739196777344,57.28958511352539,0.8
171,MetaDrive-gen-step3,111,389.3915461446795,173035,464,1547.3175041675568,-59.801883697509766,6.117010116577148,60.67205047607422,0.8
172,MetaDrive-gen-step3,111,390.23710143779675,174269,466,1560.175832748413,-57.620445251464844,12.802984237670898,58.2128791809082,0.79
173,MetaDrive-gen-step3,111,388.79648170960076,175026,468,1566.7089357376099,,24.840805053710938,58.50126647949219,0.79
174,MetaDrive-gen-step3,111,391.46825938754904,176608,471,1582.2800483703613,,5.183707237243652,58.24815368652344,0.8
175,MetaDrive-gen-step3,111,388.98228438630605,177399,473,1588.9960598945618,-56.90913391113281,15.001707077026367,56.60643768310547,0.81
176,MetaDrive-gen-step3,111,387.44459542732534,178297,476,1596.9901912212372,-59.432186126708984,8.748208999633789,59.39134216308594,0.79
177,MetaDrive-gen-step3,111,384.44439942550815,179397,479,1605.9284527301788,-61.70219421386719,3.9706575870513916,61.74211883544922,0.79
178,MetaDrive-gen-step3,111,384.0529406623725,180127,481,1611.7593832015991,-64.78150177001953,7.064324855804443,64.016357421875,0.79
179,MetaDrive-gen-step3,111,381.8154325781776,181143,483,1619.8008677959442,-59.086814880371094,4.269063949584961,59.09669494628906,0.79
180,MetaDrive-gen-step3,111,379.33027769777175,182290,487,1628.9600341320038,,207.89260864257812,51.04603958129883,0.78
181,MetaDrive-gen-step3,111,382.07333487544025,183084,489,1635.987559556961,,5.729829788208008,58.66693115234375,0.79
182,MetaDrive-gen-step3,111,388.3751900984459,184692,492,1651.548602104187,,5.528832912445068,59.788352966308594,0.81
183,MetaDrive-gen-step3,111,390.26651038836377,185095,493,1655.4260399341583,-57.26551818847656,5.045195579528809,57.34912109375,0.82
184,MetaDrive-gen-step3,111,389.05817790044944,186097,496,1663.9622237682343,-58.49211502075195,7.6290483474731445,58.25282287597656,0.8
185,MetaDrive-gen-step3,111,388.5541077113464,187017,498,1672.3180911540985,-50.02187728881836,14.9207763671875,50.08154296875,0.8
186,MetaDrive-gen-step3,111,389.4941439899084,188054,500,1682.1935667991638,,8.469358444213867,59.58888244628906,0.8
187,MetaDrive-gen-step3,111,391.40828217827186,189394,503,1693.7946722507477,,5.868912696838379,59.474632263183594,0.8
188,MetaDrive-gen-step3,111,392.41703060243475,190419,505,1703.247498035431,-56.941524505615234,3.674161434173584,57.11701202392578,0.8
189,MetaDrive-gen-step3,111,390.31216923840003,191219,507,1710.6777877807617,-61.301639556884766,9.780531883239746,60.609954833984375,0.79
190,MetaDrive-gen-step3,111,386.3777978409632,192321,510,1720.1660284996033,-59.564292907714844,22.018823623657227,59.350669860839844,0.78
191,MetaDrive-gen-step3,111,388.7563459827855,193292,512,1728.900071144104,,4.332485198974609,57.234703063964844,0.78
192,MetaDrive-gen-step3,111,387.7656939752867,194177,514,1736.3951284885406,-59.68235778808594,26.62450408935547,59.36838912963867,0.79
193,MetaDrive-gen-step3,111,386.82991491353556,195281,517,1745.8356230258942,-56.338157653808594,12.69172191619873,56.920982360839844,0.79
194,MetaDrive-gen-step3,111,389.0296930608448,196059,520,1753.0468068122864,-58.41131591796875,9.659928321838379,59.142051696777344,0.8
195,MetaDrive-gen-step3,111,387.36597830591376,197268,523,1764.0107204914093,,5.36397647857666,63.58746337890625,0.79
196,MetaDrive-gen-step3,111,383.94486598837045,198228,526,1772.062754869461,,15.640918731689453,55.35028076171875,0.78
197,MetaDrive-gen-step3,111,382.7337340537719,199274,529,1780.6273834705353,,4.620721340179443,58.42198944091797,0.78
198,MetaDrive-gen-step3,111,383.4936602076698,200181,531,1789.0335476398468,-57.119117736816406,5.94844913482666,56.787315368652344,0.78
199,MetaDrive-gen-step3,111,379.2516471499781,201339,534,1799.7452464103699,-57.55329132080078,9.419183731079102,57.78759765625,0.77
200,MetaDrive-gen-step3,111,377.2844729391177,202161,536,1807.9334514141083,-59.24302673339844,15.369962692260742,59.605987548828125,0.76
201,MetaDrive-gen-step3,111,371.4797831785438,203381,540,1817.3659608364105,-56.086456298828125,10.651825904846191,55.6652946472168,0.75
202,MetaDrive-gen-step3,111,371.6414993197141,204374,542,1826.8164563179016,,7.805334091186523,57.71104049682617,0.75
203,MetaDrive-gen-step3,111,372.4399765495154,205188,544,1834.0574371814728,,4.023247718811035,61.59612274169922,0.74
204,MetaDrive-gen-step3,111,367.2979795863186,206323,547,1843.401237487793,-61.0488395690918,10.847112655639648,59.57011413574219,0.74
205,MetaDrive-gen-step3,111,366.0883059294548,207012,549,1849.6346940994263,,16.577207565307617,55.83614730834961,0.73
206,MetaDrive-gen-step3,111,368.6137886390577,208364,552,1861.8466975688934,,8.930797576904297,57.13611602783203,0.73
207,MetaDrive-gen-step3,111,367.5317156774614,209435,555,1870.7940654754639,-60.15074157714844,10.991485595703125,60.61271286010742,0.72
208,MetaDrive-gen-step3,111,366.96471039461414,210202,557,1878.8754858970642,,8.129436492919922,50.85990524291992,0.71
209,MetaDrive-gen-step3,111,370.63355336102956,211470,559,1890.8027272224426,,33.20533752441406,65.8936767578125,0.71
210,MetaDrive-gen-step3,111,372.41280399354497,212520,561,1900.2169444561005,,11.203239440917969,53.17034912109375,0.7
211,MetaDrive-gen-step3,111,372.94560120178255,213196,563,1906.1067287921906,,46.74461364746094,60.6801643371582,0.71
212,MetaDrive-gen-step3,111,367.7700913530752,214062,565,1913.1505093574524,,8.37329387664795,55.67619323730469,0.71
213,MetaDrive-gen-step3,111,369.87996982609934,215241,568,1923.124074459076,-65.37609100341797,23.151121139526367,64.84716796875,0.71
214,MetaDrive-gen-step3,111,370.8074794845543,216152,570,1930.6384274959564,,7.518847465515137,55.45954513549805,0.7
215,MetaDrive-gen-step3,111,367.79818733503475,217048,572,1938.453428030014,,66.16732788085938,61.40911102294922,0.7
216,MetaDrive-gen-step3,111,372.5973097186701,218540,575,1951.8718361854553,,3.514110565185547,57.061195373535156,0.72
217,MetaDrive-gen-step3,111,371.53310574123776,219120,577,1957.1569409370422,,113.44456481933594,55.64384460449219,0.72
218,MetaDrive-gen-step3,111,366.9850340875988,220205,581,1966.8890466690063,-61.270721435546875,15.444210052490234,61.5943489074707,0.7
219,MetaDrive-gen-step3,111,366.26700052748254,221003,583,1973.704448223114,-60.03907012939453,15.591745376586914,60.62868881225586,0.7
220,MetaDrive-gen-step3,111,367.36864802127536,222024,586,1983.2448945045471,,7.214280128479004,54.203060150146484,0.71
221,MetaDrive-gen-step3,111,373.5126312998456,223236,588,1995.659768819809,,30.32872772216797,56.027992248535156,0.71
222,MetaDrive-gen-step3,111,375.046777220359,224272,590,2004.5224361419678,,29.877395629882812,57.7864875793457,0.71
223,MetaDrive-gen-step3,111,362.5972046732326,225337,595,2014.571778535843,-58.547935485839844,11.976225852966309,57.7085075378418,0.69
224,MetaDrive-gen-step3,111,367.08688159864477,226560,597,2027.6080765724182,,4.966902732849121,60.74407196044922,0.7
225,MetaDrive-gen-step3,111,368.6548421934865,227519,599,2036.68239235878,-53.50640106201172,15.582135200500488,53.413917541503906,0.69
226,MetaDrive-gen-step3,111,369.1083785212494,228144,600,2044.2149188518524,,4.894214153289795,59.49366760253906,0.68
227,MetaDrive-gen-step3,111,370.5574047496354,229202,602,2055.2932074069977,,45.53443145751953,59.86779022216797,0.68
228,MetaDrive-gen-step3,111,366.4416227183325,230286,605,2065.650754213333,,5.602825164794922,59.84112548828125,0.68
229,MetaDrive-gen-step3,111,364.3088367431212,231104,608,2072.8233737945557,,29.1937198638916,60.181243896484375,0.68
230,MetaDrive-gen-step3,111,366.4085173112693,232463,611,2084.257382631302,-63.08955001831055,83.93781280517578,62.846736907958984,0.68
231,MetaDrive-gen-step3,111,367.4158829798799,233589,613,2096.227568626404,-58.97111511230469,9.560379981994629,59.16888427734375,0.68
232,MetaDrive-gen-step3,111,367.972860582433,234019,614,2100.2732832431793,-56.58695983886719,6.3091936111450195,56.47100067138672,0.68
233,MetaDrive-gen-step3,111,368.0799936900517,235302,617,2111.0186326503754,,10.37702751159668,56.86418914794922,0.68
234,MetaDrive-gen-step3,111,370.3673171841072,236047,619,2117.4721999168396,-58.043426513671875,16.467632293701172,56.86397933959961,0.68
235,MetaDrive-gen-step3,111,369.62686907777237,237394,623,2128.561410188675,,16.89170265197754,62.339412689208984,0.67
236,MetaDrive-gen-step3,111,374.99407406481134,238658,625,2142.077843427658,,5.8362321853637695,61.756858825683594,0.67
237,MetaDrive-gen-step3,111,376.0164992296118,239377,627,2147.9524075984955,-59.613914489746094,6.250032901763916,58.713233947753906,0.66
238,MetaDrive-gen-step3,111,379.8984464180882,240390,629,2156.9865143299103,,5.627274513244629,56.1978759765625,0.66
239,MetaDrive-gen-step3,111,380.84095516213165,241362,631,2165.375392436981,,31.621349334716797,56.98780059814453,0.65
240,MetaDrive-gen-step3,111,382.76886511392627,242215,633,2173.1668355464935,-60.56328201293945,5.287063121795654,59.68381118774414,0.66
241,MetaDrive-gen-step3,111,380.31301824998394,243335,636,2182.7474434375763,-59.52061462402344,5.1880412101745605,58.9265022277832,0.66
242,MetaDrive-gen-step3,111,379.2635783256512,244589,640,2194.4134805202484,-61.08329772949219,8.732698440551758,60.1751708984375,0.65
243,MetaDrive-gen-step3,111,378.9092099606644,245050,641,2198.1221222877502,,7.450629234313965,58.74169921875,0.65
244,MetaDrive-gen-step3,111,378.6485561816808,246564,645,2211.8119320869446,,8.348906517028809,54.869789123535156,0.65
245,MetaDrive-gen-step3,111,380.07710456330324,247118,646,2216.9995410442352,,20.4169864654541,62.60791015625,0.65
246,MetaDrive-gen-step3,111,383.79368419712694,248537,648,2232.7962172031403,-60.02012252807617,30.271865844726562,59.269798278808594,0.65
247,MetaDrive-gen-step3,111,385.6462609726509,249423,650,2240.2291610240936,-52.252967834472656,34.708961486816406,52.3726921081543,0.67
248,MetaDrive-gen-step3,111,384.2244332872744,250273,652,2247.4738743305206,-53.71158981323242,8.16518497467041,53.41687774658203,0.67
249,MetaDrive-gen-step3,111,390.05421977461606,251463,654,2259.425882101059,-54.53099822998047,22.520618438720703,53.373844146728516,0.69
250,MetaDrive-gen-step3,111,391.47985033850824,252298,656,2265.9346125125885,,6.592053413391113,55.37358093261719,0.7
251,MetaDrive-gen-step3,111,385.27097452737826,253617,659,2278.6278188228607,-60.04161834716797,5.060493469238281,59.988800048828125,0.69
252,MetaDrive-gen-step3,111,383.58940956822727,254027,660,2281.853328704834,-59.17204284667969,12.714776992797852,58.63850784301758,0.7
253,MetaDrive-gen-step3,111,383.3785209610217,255194,663,2291.5213780403137,,10.321714401245117,61.25845718383789,0.7
254,MetaDrive-gen-step3,111,384.5231217381549,256247,665,2301.292387485504,-58.86825180053711,6.192648887634277,57.896331787109375,0.7
255,MetaDrive-gen-step3,111,381.9946598270825,257275,668,2310.2168588638306,-63.06822967529297,3.6112828254699707,62.354984283447266,0.7
256,MetaDrive-gen-step3,111,380.60117573487923,258298,671,2319.0255410671234,,6.447066307067871,55.813087463378906,0.7
257,MetaDrive-gen-step3,111,381.52536119972183,259155,673,2326.1904771327972,-61.57415771484375,2.820927381515503,61.01990509033203,0.7
258,MetaDrive-gen-step3,111,382.16918455986126,260627,676,2339.9309887886047,-58.737850189208984,20.120784759521484,58.97914123535156,0.69
259,MetaDrive-gen-step3,111,383.7264238723918,261068,677,2344.088919401169,,46.53002166748047,59.3725700378418,0.7
260,MetaDrive-gen-step3,111,388.58760115483364,262019,680,2351.867513895035,-58.57951354980469,226.77781677246094,57.321311950683594,0.71
261,MetaDrive-gen-step3,111,387.2500366651747,263101,683,2361.348823785782,-58.213279724121094,13.555243492126465,58.00123596191406,0.7
262,MetaDrive-gen-step3,111,380.9083207722492,264066,687,2368.735937833786,,6.527183532714844,60.09661102294922,0.69
263,MetaDrive-gen-step3,111,381.28409028859664,265270,689,2379.725516319275,,5.462843418121338,60.17906188964844,0.69
264,MetaDrive-gen-step3,111,383.22769654434074,266563,692,2391.6497859954834,-52.68988800048828,20.838062286376953,52.363311767578125,0.71
265,MetaDrive-gen-step3,111,388.3658759233124,267091,693,2396.8474645614624,-56.15328598022461,6.14106559753418,56.18852615356445,0.72
266,MetaDrive-gen-step3,111,392.322912080316,268117,695,2405.5050785541534,-56.743064880371094,60.31804656982422,57.281097412109375,0.73
267,MetaDrive-gen-step3,111,389.30696887053637,269117,697,2414.1219239234924,-57.98412322998047,9.793641090393066,57.98413848876953,0.73
268,MetaDrive-gen-step3,111,379.0772395471117,270144,701,2422.5970027446747,,6.383591651916504,57.90435791015625,0.73
269,MetaDrive-gen-step3,111,380.1943818024563,271188,704,2431.9299552440643,,7.363395690917969,62.830657958984375,0.73
270,MetaDrive-gen-step3,111,383.78490524438735,272470,707,2443.6044449806213,,4.914189338684082,61.61764907836914,0.74
271,MetaDrive-gen-step3,111,380.9969251705744,273040,709,2448.640819311142,,9.304946899414062,57.79598617553711,0.73
272,MetaDrive-gen-step3,111,378.22091023688915,274227,712,2457.983076572418,-53.201148986816406,16.962839126586914,53.224853515625,0.72
273,MetaDrive-gen-step3,111,377.0826392596553,275230,714,2467.361604452133,,10.01027774810791,58.66131591796875,0.72
274,MetaDrive-gen-step3,111,379.0717939480006,276231,716,2476.2118062973022,-58.784423828125,9.833821296691895,58.858489990234375,0.72
275,MetaDrive-gen-step3,111,378.37888644067493,277094,718,2483.1552810668945,,5.210850715637207,54.10997772216797,0.72
276,MetaDrive-gen-step3,111,383.2429686829794,278628,721,2496.847490787506,,16.119476318359375,58.915672302246094,0.74
277,MetaDrive-gen-step3,111,385.8203063990116,279672,723,2507.161891222,,9.846449851989746,59.63129806518555,0.75
278,MetaDrive-gen-step3,111,384.2651676392563,280101,724,2511.1588456630707,-58.96540069580078,9.765571594238281,58.95280838012695,0.74
279,MetaDrive-gen-step3,111,387.1961925174552,281294,726,2522.1434757709503,,143.24798583984375,53.890380859375,0.76
280,MetaDrive-gen-step3,111,380.09753625739415,282170,729,2529.5835132598877,,7.1649065017700195,58.453857421875,0.74
281,MetaDrive-gen-step3,111,375.6455459260522,283099,732,2537.0023992061615,-56.679969787597656,12.282649993896484,56.239376068115234,0.74
282,MetaDrive-gen-step3,111,378.8674571984777,284430,735,2548.682776927948,,9.568059921264648,62.265960693359375,0.75
283,MetaDrive-gen-step3,111,382.2609649614084,285352,737,2556.44984459877,,15.756916046142578,52.18825912475586,0.75
284,MetaDrive-gen-step3,111,390.43299340757665,286483,739,2567.1530594825745,-56.46611785888672,4.868974208831787,56.616249084472656,0.76
285,MetaDrive-gen-step3,111,390.02684236318163,287029,740,2571.7285845279694,-53.860801696777344,9.729103088378906,55.545501708984375,0.76
286,MetaDrive-gen-step3,111,388.898477038709,288081,743,2580.730613231659,-59.80767822265625,5.910698413848877,59.255455017089844,0.73
287,MetaDrive-gen-step3,111,392.32377316271993,289217,745,2590.742100954056,-62.356788635253906,7.4256205558776855,62.02338790893555,0.73
288,MetaDrive-gen-step3,111,386.15538097806996,290330,748,2600.1945168972015,,5.8945512771606445,57.21110153198242,0.72
289,MetaDrive-gen-step3,111,388.2903575276578,291188,749,2608.271804332733,,15.519410133361816,57.75285339355469,0.72
290,MetaDrive-gen-step3,111,390.8277891120235,292206,751,2617.0227155685425,,4.277580261230469,57.81111526489258,0.72
291,MetaDrive-gen-step3,111,391.2591155088321,293275,753,2625.88942360878,-58.82460021972656,57.63421630859375,59.678016662597656,0.72
292,MetaDrive-gen-step3,111,386.9643224742238,294264,756,2634.15349817276,,9.230746269226074,57.227272033691406,0.71
293,MetaDrive-gen-step3,111,385.23818912830393,295366,759,2643.896399974823,,6.031911849975586,60.56794738769531,0.71
294,MetaDrive-gen-step3,111,382.9860733464077,296037,761,2649.976479291916,-63.30419158935547,20.916440963745117,62.63599395751953,0.69
295,MetaDrive-gen-step3,111,379.5182694695486,297165,764,2658.9016098976135,-58.899391174316406,8.797311782836914,59.21409225463867,0.68
296,MetaDrive-gen-step3,111,381.5761114827237,298622,767,2672.43740606308,,9.893194198608398,55.563358306884766,0.68
297,MetaDrive-gen-step3,111,384.2574308755791,299187,768,2677.480524778366,-62.352447509765625,4.724654197692871,61.86751937866211,0.69
298,MetaDrive-gen-step3,111,383.97283704498244,300213,771,2686.3866577148438,-59.33831787109375,5.3099365234375,59.090721130371094,0.69
299,MetaDrive-gen-step3,111,384.20392539664886,301411,774,2697.8569297790527,-63.57558822631836,219.50250244140625,61.38018035888672,0.69
300,MetaDrive-gen-step3,111,383.17789690317636,302285,776,2705.117520570755,-62.967872619628906,9.136697769165039,63.364776611328125,0.69
301,MetaDrive-gen-step3,111,384.98456985426776,303222,778,2713.401681661606,,21.501039505004883,58.02999496459961,0.69
302,MetaDrive-gen-step3,111,386.56331306391644,304115,780,2722.895940065384,-62.10685729980469,5.302977561950684,61.234676361083984,0.69
303,MetaDrive-gen-step3,111,387.35057151952833,305127,782,2732.542266845703,-68.14575958251953,5.232463836669922,67.53108215332031,0.69
304,MetaDrive-gen-step3,111,393.26094158821456,306311,784,2744.2192566394806,-56.89551544189453,7.427265167236328,56.226226806640625,0.7
305,MetaDrive-gen-step3,111,399.5346197866622,307397,787,2752.7440271377563,-54.061248779296875,6.9539337158203125,54.070716857910156,0.71
306,MetaDrive-gen-step3,111,396.08562785724536,308112,789,2759.201557636261,,11.171195983886719,56.32471466064453,0.7
307,MetaDrive-gen-step3,111,395.21988072280305,309261,792,2767.884208202362,-58.60212707519531,10.264389038085938,59.048973083496094,0.7
308,MetaDrive-gen-step3,111,393.88044542316186,310129,794,2775.242758512497,-59.860023498535156,5.866626739501953,59.78234100341797,0.69
309,MetaDrive-gen-step3,111,389.55347386958766,311131,797,2783.4187037944794,-58.969886779785156,9.123786926269531,59.34907150268555,0.67
310,MetaDrive-gen-step3,111,391.9992539343404,312311,800,2793.7249703407288,-58.365821838378906,19.250120162963867,57.918800354003906,0.67
311,MetaDrive-gen-step3,111,394.9595068592363,313376,802,2803.221529483795,,9.979517936706543,56.76859664916992,0.68
312,MetaDrive-gen-step3,111,396.2116839261811,314059,804,2809.459584712982,-50.834022521972656,8.46011734008789,51.37912368774414,0.69
313,MetaDrive-gen-step3,111,397.10101287515846,315447,807,2821.550442457199,-60.872840881347656,10.18056583404541,60.703041076660156,0.7
314,MetaDrive-gen-step3,111,396.70312883021177,316394,810,2829.5488278865814,,5.592931747436523,61.45268630981445,0.71
315,MetaDrive-gen-step3,111,400.10798994455314,317426,812,2838.868764400482,,12.033671379089355,62.60451889038086,0.72
316,MetaDrive-gen-step3,111,396.95219287999606,318481,815,2847.2902257442474,-58.29393005371094,6.870171546936035,58.25518798828125,0.71
317,MetaDrive-gen-step3,111,393.8078127182886,319149,817,2853.404217481613,-62.5256462097168,6.220136642456055,62.36334228515625,0.71
318,MetaDrive-gen-step3,111,397.9910915658292,320532,819,2867.0661656856537,,12.535280227661133,51.59135437011719,0.71
319,MetaDrive-gen-step3,111,401.25923663334805,321380,820,2878.4346511363983,,139.34487915039062,55.62923812866211,0.71
320,MetaDrive-gen-step3,111,401.21109146355093,322292,822,2886.042069196701,,6.847448348999023,55.96550369262695,0.71
321,MetaDrive-gen-step3,111,401.8357306573094,323309,824,2895.77764749527,-58.48166275024414,9.262246131896973,58.165985107421875,0.72
322,MetaDrive-gen-step3,111,398.9460113081436,324039,826,2901.7474019527435,-60.964263916015625,16.908557891845703,61.238502502441406,0.72
323,MetaDrive-gen-step3,111,401.2771851728277,325120,829,2912.52125787735,,37.88581848144531,63.157344818115234,0.73
324,MetaDrive-gen-step3,111,403.97856314500206,326236,832,2922.6141724586487,,7.981707572937012,57.035301208496094,0.73
325,MetaDrive-gen-step3,111,403.3360516103328,327282,834,2932.7495682239532,,5.987183570861816,59.31553649902344,0.73
326,MetaDrive-gen-step3,111,403.06158643345253,328026,836,2938.672096967697,,8.625411987304688,56.382469177246094,0.72
327,MetaDrive-gen-step3,111,397.69074333732453,329018,839,2947.294615507126,,5.705970764160156,58.473304748535156,0.73
328,MetaDrive-gen-step3,111,399.16852552866106,330249,842,2958.8317472934723,-59.412845611572266,8.583927154541016,58.92805480957031,0.74
329,MetaDrive-gen-step3,111,395.91394367335255,331112,844,2967.231687784195,,6.598443031311035,57.9254264831543,0.76
330,MetaDrive-gen-step3,111,396.66733665652725,332015,846,2975.7635159492493,-59.583343505859375,6.389555931091309,58.733734130859375,0.75
331,MetaDrive-gen-step3,111,400.06206264188125,333069,848,2985.2288382053375,-63.27953338623047,5.58845329284668,63.36266326904297,0.76
332,MetaDrive-gen-step3,111,394.6299103515983,334121,851,2994.5414905548096,-61.5654296875,7.1829376220703125,61.47685241699219,0.76
333,MetaDrive-gen-step3,111,394.36052359751227,335022,853,3002.288583278656,,8.528882026672363,59.10050964355469,0.76
334,MetaDrive-gen-step3,111,398.5691358150196,336125,855,3013.0169246196747,-59.04126739501953,6.358058452606201,58.78288650512695,0.77
335,MetaDrive-gen-step3,111,402.34672564794454,337507,858,3027.124740123749,-54.80037307739258,14.196748733520508,53.450782775878906,0.76
336,MetaDrive-gen-step3,111,405.0205911558117,338486,860,3035.6844544410706,,27.585033416748047,56.59043884277344,0.77
337,MetaDrive-gen-step3,111,403.0513874377312,339210,862,3042.690707921982,,4.922324180603027,61.0601692199707,0.77
338,MetaDrive-gen-step3,111,406.9260420126656,340248,864,3052.639703989029,,14.1497802734375,59.33785629272461,0.78
339,MetaDrive-gen-step3,111,408.070786981069,341238,866,3061.3847422599792,,19.0308837890625,59.70433044433594,0.78
340,MetaDrive-gen-step3,111,405.16601408086785,342018,868,3067.9667398929596,,7.0804595947265625,56.04057312011719,0.78
341,MetaDrive-gen-step3,111,404.5765754261884,343043,871,3076.7833065986633,-58.706321716308594,70.90608978271484,58.87699890136719,0.78
342,MetaDrive-gen-step3,111,408.2782990384286,344037,873,3085.4838593006134,-59.64322280883789,6.848066329956055,59.96639633178711,0.79
343,MetaDrive-gen-step3,111,405.8915156291365,345367,876,3097.1507132053375,-59.075435638427734,7.763840675354004,58.87687683105469,0.78
344,MetaDrive-gen-step3,111,407.727064728646,346010,877,3103.010875940323,,5.657928466796875,56.52709197998047,0.77
345,MetaDrive-gen-step3,111,411.23751848786844,347679,880,3119.0516715049744,-63.36073684692383,50.014373779296875,62.20244598388672,0.78
346,MetaDrive-gen-step3,111,405.9707914403918,348146,882,3123.0225973129272,,7.996030330657959,54.005226135253906,0.77
347,MetaDrive-gen-step3,111,402.69961222207365,349002,884,3131.268479824066,,7.882801055908203,56.91468811035156,0.77
348,MetaDrive-gen-step3,111,397.7283236962098,350175,888,3142.0795102119446,-56.43296813964844,7.637998580932617,55.672340393066406,0.75
349,MetaDrive-gen-step3,111,398.7130470286232,351088,890,3150.278397321701,,7.210083961486816,60.26816940307617,0.76
350,MetaDrive-gen-step3,111,403.4056849429383,352219,892,3161.5879549980164,-62.77454376220703,8.96054458618164,62.84013748168945,0.76
351,MetaDrive-gen-step3,111,406.865306845106,353599,895,3173.2821872234344,-60.32883071899414,13.024022102355957,59.1365852355957,0.77
352,MetaDrive-gen-step3,111,410.28044743221125,354298,896,3180.735328435898,,11.628006935119629,54.11588668823242,0.78
353,MetaDrive-gen-step3,111,410.3271510450819,355129,898,3187.90242767334,-62.26042938232422,3.984408140182495,62.57545471191406,0.78
354,MetaDrive-gen-step3,111,413.7519233209348,356170,900,3197.4631481170654,,4.705120086669922,61.0742301940918,0.79
355,MetaDrive-gen-step3,111,411.0748846007048,357007,902,3204.7493135929108,-61.83917236328125,7.380441665649414,62.637107849121094,0.79
356,MetaDrive-gen-step3,111,411.3827547513928,358327,905,3215.8523614406586,-60.46216583251953,12.120058059692383,59.92742156982422,0.8
357,MetaDrive-gen-step3,111,412.0653265384789,359196,907,3223.4375801086426,,6.842672348022461,60.22195053100586,0.8
358,MetaDrive-gen-step3,111,411.04609254303955,360062,910,3230.3771023750305,,13.599743843078613,55.827980041503906,0.79
359,MetaDrive-gen-step3,111,411.29675157131476,361242,912,3242.3807542324066,,5.927276611328125,61.99440002441406,0.79
360,MetaDrive-gen-step3,111,410.0950619169255,362140,915,3250.2078096866608,,4.2186408042907715,59.5140266418457,0.79
361,MetaDrive-gen-step3,111,412.74621363707695,363129,917,3258.8548905849457,-58.75566482543945,5.152353286743164,58.505126953125,0.79
362,MetaDrive-gen-step3,111,410.4058560078852,364182,919,3268.229044675827,,7.539791107177734,57.82724380493164,0.78
363,MetaDrive-gen-step3,111,407.2785625721608,365345,921,3279.0472071170807,-56.865997314453125,38.945499420166016,56.69599151611328,0.78
364,MetaDrive-gen-step3,111,406.53775046300746,366025,923,3285.115285396576,-63.56055450439453,22.599956512451172,62.904632568359375,0.77
365,MetaDrive-gen-step3,111,401.1625090336111,367520,927,3298.885928630829,,8.243009567260742,58.48747253417969,0.76
366,MetaDrive-gen-step3,111,403.43061956445337,368314,929,3305.6406161785126,,11.34092903137207,60.295372009277344,0.76
367,MetaDrive-gen-step3,111,402.5313243269047,369331,932,3313.592356443405,-60.55632019042969,10.33566665649414,60.13160705566406,0.76
368,MetaDrive-gen-step3,111,400.01389099237036,370065,934,3319.9742357730865,-59.43449783325195,5.586861610412598,58.77789306640625,0.75
369,MetaDrive-gen-step3,111,396.88752291974475,371033,937,3328.655825853348,-59.146263122558594,8.04035758972168,59.118133544921875,0.75
370,MetaDrive-gen-step3,111,399.9121202045751,372069,939,3338.070582151413,-66.09117126464844,6.274894714355469,65.86564636230469,0.76
371,MetaDrive-gen-step3,111,398.930618984856,373228,942,3348.4950461387634,,5.0460591316223145,57.339439392089844,0.77
372,MetaDrive-gen-step3,111,400.3989302600689,374139,944,3356.2523663043976,-60.229759216308594,19.061927795410156,59.388145446777344,0.77
373,MetaDrive-gen-step3,111,400.3799934253158,375043,946,3363.7079598903656,-65.3293228149414,8.50447940826416,64.88868713378906,0.78
374,MetaDrive-gen-step3,111,395.8056323549206,376236,950,3374.394694328308,,19.551555633544922,60.3284797668457,0.76
375,MetaDrive-gen-step3,111,397.1773381843028,377195,952,3384.3648521900177,-59.153717041015625,9.84526252746582,58.025630950927734,0.76
376,MetaDrive-gen-step3,111,391.9496148618899,378230,955,3393.084697008133,,15.190750122070312,56.03789520263672,0.75
377,MetaDrive-gen-step3,111,393.6054085122159,379169,957,3402.208705663681,-62.36606216430664,3.4197680950164795,62.33570098876953,0.77
378,MetaDrive-gen-step3,111,389.5504131703336,380290,960,3411.894727706909,,7.05049991607666,54.20552062988281,0.76
379,MetaDrive-gen-step3,111,391.1062537482143,381066,962,3419.0465893745422,,9.18685531616211,57.309654235839844,0.76
380,MetaDrive-gen-step3,111,388.89146989744194,382474,965,3432.234406232834,,6.435460090637207,58.715484619140625,0.76
381,MetaDrive-gen-step3,111,389.71210169841515,383449,967,3441.064851999283,-61.43391799926758,5.584137439727783,61.11611557006836,0.76
382,MetaDrive-gen-step3,111,387.4650934757849,384160,969,3447.001681804657,,6.841775417327881,57.72612380981445,0.76
383,MetaDrive-gen-step3,111,390.2987991830365,385025,971,3454.1373660564423,-61.204193115234375,4.917994976043701,61.67451095581055,0.77
384,MetaDrive-gen-step3,111,388.8825092099286,386202,974,3464.573791742325,,16.008281707763672,55.96173858642578,0.77
385,MetaDrive-gen-step3,111,387.0083482356463,387046,976,3472.6894223690033,,11.376982688903809,65.08636474609375,0.77
386,MetaDrive-gen-step3,111,378.808258141839,388519,980,3484.6519939899445,-56.813011169433594,9.967202186584473,57.108551025390625,0.77
387,MetaDrive-gen-step3,111,381.17723605648615,389266,982,3490.671868801117,,19.89289093017578,61.969757080078125,0.78
388,MetaDrive-gen-step3,111,380.9788822184154,390096,984,3497.7700135707855,,10.281511306762695,60.93631362915039,0.77
389,MetaDrive-gen-step3,111,382.3967684811763,391285,988,3507.0328435897827,-62.25934600830078,64.2943115234375,61.41654968261719,0.79
390,MetaDrive-gen-step3,111,383.7530087683886,392290,990,3517.015740633011,,6.934340000152588,60.81962585449219,0.79
391,MetaDrive-gen-step3,111,379.6978223650643,393181,992,3524.0417199134827,-61.55962371826172,2.9024927616119385,61.587623596191406,0.79
392,MetaDrive-gen-step3,111,376.2278178260939,394831,995,3540.2714083194733,-62.346435546875,10.353759765625,61.104164123535156,0.78
393,MetaDrive-gen-step3,111,372.49040410935396,395163,996,3542.83217048645,-61.35823059082031,6.000365734100342,60.922115325927734,0.78
394,MetaDrive-gen-step3,111,373.1743392559617,396010,998,3549.740530014038,,4.8230156898498535,58.85527038574219,0.78
395,MetaDrive-gen-step3,111,367.42046418404664,397169,1002,3558.8333411216736,-56.48455047607422,5.506865501403809,55.776344299316406,0.76
396,MetaDrive-gen-step3,111,367.15745619024824,398284,1005,3568.4877412319183,,9.395846366882324,58.71247100830078,0.75
397,MetaDrive-gen-step3,111,369.11291845426507,399273,1007,3576.9923593997955,-61.96009826660156,6.983098030090332,62.19466781616211,0.75
398,MetaDrive-gen-step3,111,372.9188174949493,400161,1009,3584.86927318573,-53.226112365722656,10.829277992248535,52.53567123413086,0.77
399,MetaDrive-gen-step3,111,374.2612710192736,401013,1011,3592.210953950882,-60.72327423095703,13.18265151977539,59.806129455566406,0.77
400,MetaDrive-gen-step3,111,371.42303490461586,402052,1014,3600.882632493973,,7.928171634674072,56.70188522338867,0.76
401,MetaDrive-gen-step3,111,364.95904495944075,403265,1018,3610.9952068328857,-58.48209762573242,11.11922550201416,58.35068893432617,0.77
402,MetaDrive-gen-step3,111,364.32875669752315,404050,1020,3617.6526119709015,,25.091426849365234,62.196861267089844,0.77
403,MetaDrive-gen-step3,111,365.8482596494251,405394,1023,3630.010327577591,,4.9261579513549805,61.76122283935547,0.78
404,MetaDrive-gen-step3,111,364.31732353803375,406302,1025,3638.5563790798187,,5.352388381958008,62.774253845214844,0.77
405,MetaDrive-gen-step3,111,364.94537650258013,407310,1028,3646.7957439422607,,15.251153945922852,62.60393524169922,0.77
406,MetaDrive-gen-step3,111,364.5919891426572,408117,1030,3653.8873085975647,-58.506874084472656,16.440765380859375,57.35313415527344,0.78
407,MetaDrive-gen-step3,111,363.5135624047977,409386,1034,3664.827935695648,,4.968874931335449,61.34349822998047,0.79
408,MetaDrive-gen-step3,111,362.5819752582567,410104,1036,3671.0601336956024,,76.47543334960938,57.119842529296875,0.78
409,MetaDrive-gen-step3,111,363.87808630825015,411342,1039,3682.1467843055725,,4.18153715133667,62.466835021972656,0.78
410,MetaDrive-gen-step3,111,365.0282546888374,412073,1041,3688.238564491272,-59.834991455078125,5.9748735427856445,59.73215103149414,0.78
411,MetaDrive-gen-step3,111,363.0061221353992,413268,1044,3698.617803812027,,12.662952423095703,56.84419631958008,0.76
412,MetaDrive-gen-step3,111,363.89062714982884,414161,1046,3706.139149427414,-59.756107330322266,6.328468322753906,59.87762451171875,0.76
413,MetaDrive-gen-step3,111,361.8901088184622,415031,1049,3713.863723039627,-64.7158203125,212.04071044921875,63.45637130737305,0.76
414,MetaDrive-gen-step3,111,365.093687831071,416067,1051,3723.5591592788696,-58.03425598144531,5.923598289489746,58.20408630371094,0.77
415,MetaDrive-gen-step3,111,364.94342539557044,417419,1055,3735.170020341873,-60.68120574951172,10.119484901428223,61.18199920654297,0.77
416,MetaDrive-gen-step3,111,364.97132758707755,418301,1057,3743.253753900528,-62.576107025146484,18.289630889892578,61.94921112060547,0.77
417,MetaDrive-gen-step3,111,368.39443303405284,419177,1059,3750.7464923858643,-60.58643341064453,15.012203216552734,60.63838195800781,0.78
418,MetaDrive-gen-step3,111,367.06424329905917,420238,1062,3760.0517225265503,,4.899666786193848,59.1649055480957,0.78
419,MetaDrive-gen-step3,111,367.1347198255215,421078,1064,3767.9011993408203,,25.652820587158203,61.145381927490234,0.78
420,MetaDrive-gen-step3,111,366.18531755348727,422118,1067,3776.9524030685425,,31.824594497680664,61.21721649169922,0.78
421,MetaDrive-gen-step3,111,364.13693702724623,423085,1070,3784.9591162204742,-59.146263122558594,7.804287910461426,59.0313720703125,0.76
422,MetaDrive-gen-step3,111,362.2143769665524,424216,1073,3795.76331114769,,13.258637428283691,61.275447845458984,0.74
423,MetaDrive-gen-step3,111,367.6628709999256,425498,1075,3811.6505053043365,,9.689886093139648,52.800140380859375,0.75
424,MetaDrive-gen-step3,111,368.94496630836534,426197,1076,3818.5797312259674,-62.4863166809082,6.693129062652588,62.123985290527344,0.74
425,MetaDrive-gen-step3,111,369.0268195154151,427207,1079,3826.870665550232,-55.310462951660156,67.79167175292969,54.94053649902344,0.73
426,MetaDrive-gen-step3,111,369.0464848963843,428104,1081,3835.562379360199,,28.523406982421875,56.94552230834961,0.73
427,MetaDrive-gen-step3,111,372.76012897712155,429106,1083,3844.791515111923,,6.5763092041015625,56.7198600769043,0.73
428,MetaDrive-gen-step3,111,375.648797844822,430423,1086,3856.858634710312,-62.94781494140625,4.863043308258057,62.96269607543945,0.73
429,MetaDrive-gen-step3,111,376.17710793628197,431437,1089,3866.0426626205444,-60.42131042480469,4.598672389984131,60.75762176513672,0.71
430,MetaDrive-gen-step3,111,372.89517070057735,432212,1091,3872.348769903183,,5.311949253082275,58.150569915771484,0.7
431,MetaDrive-gen-step3,111,372.9218250476039,433336,1094,3881.5175585746765,,15.322568893432617,58.40564727783203,0.7
432,MetaDrive-gen-step3,111,373.4139048724636,434143,1096,3888.5378334522247,-63.804691314697266,9.945099830627441,62.97874069213867,0.71
433,MetaDrive-gen-step3,111,373.5019146065032,435414,1099,3899.4213223457336,,152.61448669433594,57.546348571777344,0.7
434,MetaDrive-gen-step3,111,372.93989166002893,436035,1101,3904.7506051063538,-55.7706298828125,13.466869354248047,56.33583068847656,0.7
435,MetaDrive-gen-step3,111,374.27245898644634,437158,1104,3914.351467847824,,6.5559821128845215,62.07966613769531,0.7
436,MetaDrive-gen-step3,111,369.15080056370374,438127,1107,3922.3220756053925,-58.521827697753906,6.502222537994385,58.464508056640625,0.69
437,MetaDrive-gen-step3,111,371.3506918135605,439436,1109,3935.8482847213745,,6.429346084594727,60.55477523803711,0.69
438,MetaDrive-gen-step3,111,368.61075545545003,440068,1111,3941.5223300457,,7.558233261108398,60.68927001953125,0.68
439,MetaDrive-gen-step3,111,372.1370194011954,441284,1114,3951.949695587158,,5.823590278625488,61.57023620605469,0.7
440,MetaDrive-gen-step3,111,374.153764599342,442073,1116,3958.076959848404,-59.44685363769531,8.86218547821045,58.714622497558594,0.7
441,MetaDrive-gen-step3,111,374.34618837758217,443814,1120,3975.774398088455,,6.04647159576416,62.02671813964844,0.69
442,MetaDrive-gen-step3,111,375.3507542751515,444193,1121,3978.805881023407,-62.11296081542969,3.8204267024993896,61.96418380737305,0.69
443,MetaDrive-gen-step3,111,373.33216052574755,445397,1124,3989.0194396972656,-60.95368957519531,21.68043327331543,60.44676971435547,0.7
444,MetaDrive-gen-step3,111,373.9284369613582,446262,1126,3997.583922147751,,6.638951778411865,53.556602478027344,0.7
445,MetaDrive-gen-step3,111,376.5642186455794,447311,1128,4007.867790699005,-56.96751403808594,6.266345024108887,56.32623291015625,0.71
446,MetaDrive-gen-step3,111,377.2830307362154,448225,1130,4016.6322209835052,-63.21385192871094,6.642646789550781,63.669708251953125,0.71
447,MetaDrive-gen-step3,111,381.4544399774209,449291,1132,4027.5406119823456,-58.661888122558594,8.166255950927734,58.251380920410156,0.7
448,MetaDrive-gen-step3,111,385.42536402681185,450256,1134,4035.9719128608704,,10.282970428466797,57.10523223876953,0.71
449,MetaDrive-gen-step3,111,387.9015785965195,451381,1136,4046.0146651268005,-62.94396209716797,143.45199584960938,62.40169143676758,0.71
450,MetaDrive-gen-step3,111,389.88024331012303,452054,1137,4055.631671190262,,4.837404251098633,61.22175598144531,0.7
451,MetaDrive-gen-step3,111,386.12966520595745,453289,1141,4066.7875697612762,-59.962852478027344,6.318910121917725,60.503440856933594,0.69
452,MetaDrive-gen-step3,111,386.639339047902,454388,1144,4075.423727750778,,25.618549346923828,58.99919891357422,0.71
453,MetaDrive-gen-step3,111,384.65158064765797,455163,1146,4081.861068248749,-58.57805633544922,8.705352783203125,57.889930725097656,0.71
454,MetaDrive-gen-step3,111,382.80299920729425,456299,1150,4091.5981369018555,-59.814422607421875,7.21345329284668,59.22289276123047,0.7
455,MetaDrive-gen-step3,111,379.98632264682533,457316,1153,4100.043843984604,,10.011528015136719,61.61966323852539,0.7
456,MetaDrive-gen-step3,111,381.5915387265736,458093,1155,4106.292789697647,-61.57042694091797,6.749208927154541,61.219703674316406,0.71
457,MetaDrive-gen-step3,111,384.6835195605002,459282,1157,4117.049819469452,,6.075122833251953,58.860679626464844,0.71
458,MetaDrive-gen-step3,111,386.0614335914828,460384,1159,4126.721166133881,,29.752695083618164,60.77429962158203,0.71
459,MetaDrive-gen-step3,111,389.68146077728835,461057,1160,4133.686302900314,-60.98173141479492,37.89739990234375,60.58647155761719,0.71
460,MetaDrive-gen-step3,111,388.87370500772994,462082,1163,4141.91175866127,,5.6912031173706055,61.245147705078125,0.72
461,MetaDrive-gen-step3,111,387.6947642028398,463209,1166,4150.633443117142,-63.602577209472656,12.465383529663086,63.34904479980469,0.71
462,MetaDrive-gen-step3,111,385.0875889825187,464109,1169,4157.809619665146,-60.57560729980469,3.1806304454803467,61.19706344604492,0.7
463,MetaDrive-gen-step3,111,387.03515791814795,465012,1171,4166.109335184097,,8.773348808288574,58.99229431152344,0.7
464,MetaDrive-gen-step3,111,388.73344974179753,466266,1174,4177.210155963898,,4.351807594299316,66.26514434814453,0.71
465,MetaDrive-gen-step3,111,381.1065827274883,467030,1177,4183.366564035416,,13.855390548706055,62.75341796875,0.72
466,MetaDrive-gen-step3,111,380.3437063937097,468191,1180,4192.887883424759,-59.48480224609375,12.22784423828125,59.740760803222656,0.71
467,MetaDrive-gen-step3,111,372.3717399695895,469120,1184,4200.648216485977,,5.1897292137146,59.60218811035156,0.71
468,MetaDrive-gen-step3,111,371.94080340319596,470032,1186,4209.0607213974,,22.98724365234375,64.61984252929688,0.71
469,MetaDrive-gen-step3,111,375.89506019974,471729,1189,4225.600473403931,-56.82545471191406,5.716508388519287,57.32792663574219,0.73
470,MetaDrive-gen-step3,111,377.2001554561724,472272,1190,4231.1261348724365,,6.68107795715332,63.106998443603516,0.74
471,MetaDrive-gen-step3,111,379.34513472800427,473325,1192,4240.371757745743,-58.73830032348633,4.336850166320801,58.21312713623047,0.75
472,MetaDrive-gen-step3,111,379.0047542823388,474243,1194,4249.464429140091,-59.28739547729492,6.242891311645508,60.209495544433594,0.74
473,MetaDrive-gen-step3,111,376.1563760233673,475080,1197,4257.083811998367,,6.350332260131836,62.85648727416992,0.73
474,MetaDrive-gen-step3,111,374.1997626421391,476434,1201,4269.382606506348,,15.592449188232422,58.206573486328125,0.73
475,MetaDrive-gen-step3,111,376.32544484587476,477169,1202,4277.816741228104,-59.49393844604492,7.810142517089844,59.46918869018555,0.73
476,MetaDrive-gen-step3,111,377.1572637532271,478016,1204,4285.197026252747,,5.95430850982666,57.67445373535156,0.74
477,MetaDrive-gen-step3,111,373.35544557810385,479267,1208,4296.026981592178,-60.94125747680664,20.28459930419922,61.2508544921875,0.72
478,MetaDrive-gen-step3,111,373.6629630085061,480047,1210,4302.279245138168,-57.18104553222656,8.029598236083984,56.18223190307617,0.73
479,MetaDrive-gen-step3,111,372.9696243028167,481183,1213,4311.766328573227,-57.154537200927734,49.004425048828125,57.05873107910156,0.73
480,MetaDrive-gen-step3,111,375.046400572527,482104,1215,4319.260238170624,,10.362129211425781,60.61968994140625,0.73
481,MetaDrive-gen-step3,111,376.95155364457503,483150,1218,4328.360606908798,,14.011301040649414,54.1563606262207,0.73
482,MetaDrive-gen-step3,111,374.5876085927853,484373,1221,4337.872342348099,-61.836090087890625,8.135963439941406,60.894126892089844,0.73
483,MetaDrive-gen-step3,111,374.1445204097067,485094,1223,4343.3361003398895,,6.75687313079834,64.03480529785156,0.73
484,MetaDrive-gen-step3,111,374.761888792564,486123,1225,4352.25709605217,-65.12315368652344,4.477877616882324,64.98229217529297,0.73
485,MetaDrive-gen-step3,111,378.46668199260654,487117,1227,4361.27371096611,-58.59018325805664,17.808258056640625,58.8944091796875,0.73
486,MetaDrive-gen-step3,111,369.7962386155619,488284,1231,4371.882784605026,,12.059061050415039,56.86473083496094,0.71
487,MetaDrive-gen-step3,111,369.3581905510284,489568,1234,4382.852779150009,,11.136517524719238,58.28660583496094,0.71
488,MetaDrive-gen-step3,111,366.5369375458021,490274,1236,4388.988120794296,,7.032629489898682,57.05994415283203,0.72
489,MetaDrive-gen-step3,111,363.3713036882648,491217,1239,4396.637692451477,-61.191490173339844,9.470197677612305,60.34618377685547,0.73
490,MetaDrive-gen-step3,111,368.6844290975425,492379,1241,4408.156188011169,-66.70283508300781,15.903388977050781,66.52861785888672,0.74
491,MetaDrive-gen-step3,111,369.2408922343191,493188,1243,4415.284800052643,,4.4664082527160645,61.003448486328125,0.73
492,MetaDrive-gen-step3,111,368.77241614554265,494068,1245,4423.568677186966,,8.113452911376953,61.76741027832031,0.72
493,MetaDrive-gen-step3,111,371.7610166055495,495197,1248,4432.46593952179,-64.76860046386719,76.88048553466797,63.9683952331543,0.73
494,MetaDrive-gen-step3,111,375.90289174199904,496227,1250,4442.036564350128,-59.83024597167969,15.995147705078125,60.03165817260742,0.74
495,MetaDrive-gen-step3,111,376.14838609348226,497042,1252,4449.251260995865,,7.202215194702148,54.93733215332031,0.73
496,MetaDrive-gen-step3,111,375.4100093158265,498099,1255,4457.946888446808,-60.896934509277344,4.519963264465332,61.309417724609375,0.73
497,MetaDrive-gen-step3,111,372.2840737214241,499038,1257,4466.882877826691,,8.671777725219727,56.699378967285156,0.73
