TanmayH/CS269-RL-project-code/MetaDrive-test-no-noise-td3-low/td3/progress.csv
,log_dir,frame_per_second,episode_reward,total_steps,total_episodes,total_time,actor_loss,critic_loss,target_q,success_rate
0,MetaDrive-test-no-noise-td3-low,382,12.271187997617734,1069,2,2.797255754470825,-0.049792468547821045,0.00672562513500452,0.025069260969758034,0.0
1,MetaDrive-test-no-noise-td3-low,117,-1.5151797846318256,2007,38,17.056851863861084,-0.07072886824607849,1.6265666484832764,-0.03134927153587341,0.0
2,MetaDrive-test-no-noise-td3-low,103,-2.090103548536551,3701,66,35.91268491744995,0.0048935627564787865,0.6275614500045776,-0.03036266192793846,0.0
3,MetaDrive-test-no-noise-td3-low,103,-2.0047204663324156,4702,67,45.501976013183594,,0.05095518380403519,-0.04457562416791916,0.0
4,MetaDrive-test-no-noise-td3-low,103,-1.9244774100417685,5703,68,55.015424966812134,0.07560352981090546,0.055064380168914795,-0.11929776519536972,0.0
5,MetaDrive-test-no-noise-td3-low,102,-1.8457127961047812,6704,69,65.4645791053772,,1.1411101818084717,-0.3343549370765686,0.0
6,MetaDrive-test-no-noise-td3-low,103,-1.7763112690654599,7705,70,74.52493405342102,0.14512427151203156,0.33548909425735474,-0.25609809160232544,0.0
7,MetaDrive-test-no-noise-td3-low,102,-1.793269350106832,8820,72,85.78964400291443,,0.6509686708450317,-0.20129264891147614,0.0
8,MetaDrive-test-no-noise-td3-low,103,-1.7234410878058548,9821,73,94.80942416191101,0.1303061842918396,0.013243479654192924,-0.1209983304142952,0.0
9,MetaDrive-test-no-noise-td3-low,103,-1.7697048026093956,10005,74,96.85472297668457,0.16409660875797272,0.01949523761868477,-0.19691094756126404,0.0
10,MetaDrive-test-no-noise-td3-low,102,-1.9531270081609693,11758,79,114.89898300170898,,0.5762999057769775,-0.13594046235084534,0.0
11,MetaDrive-test-no-noise-td3-low,101,-1.9544125742923228,12759,80,125.41575598716736,0.1374281644821167,0.015646954998373985,-0.10740403085947037,0.0
12,MetaDrive-test-no-noise-td3-low,101,-2.004005260014837,13251,81,130.4214551448822,0.0057465676218271255,0.017248887568712234,-0.0842551440000534,0.0
13,MetaDrive-test-no-noise-td3-low,101,-1.9372714491055245,14252,82,140.2953178882599,,0.021045807749032974,-0.12864930927753448,0.0
14,MetaDrive-test-no-noise-td3-low,102,-2.0774621759277045,15658,85,153.3814980983734,,0.009857043623924255,-0.0929807797074318,0.0
15,MetaDrive-test-no-noise-td3-low,102,-2.076590001414802,16659,86,163.01686906814575,0.1879943311214447,0.05794006213545799,-0.12099270522594452,0.0
16,MetaDrive-test-no-noise-td3-low,102,-2.077232876896588,17660,87,172.18983006477356,,0.00861971452832222,-0.12110772728919983,0.0
17,MetaDrive-test-no-noise-td3-low,102,-2.0746957996106827,18661,88,181.49215006828308,0.23534810543060303,0.5288565158843994,-0.24231871962547302,0.0
18,MetaDrive-test-no-noise-td3-low,102,-2.15634273598819,19279,90,187.4684510231018,0.22065052390098572,0.02093891240656376,-0.1408902406692505,0.0
19,MetaDrive-test-no-noise-td3-low,102,-2.129811164721387,20100,92,195.287122964859,,0.02562655508518219,-0.1766696721315384,0.0
20,MetaDrive-test-no-noise-td3-low,101,-2.5729250350444044,21064,109,206.53928804397583,,0.016642561182379723,-0.18367107212543488,0.0
21,MetaDrive-test-no-noise-td3-low,100,-0.7126918758087913,22001,130,217.96305775642395,0.12098640203475952,0.5282860398292542,-0.15595300495624542,0.0
22,MetaDrive-test-no-noise-td3-low,100,2.8555727070391943,23006,152,229.82262897491455,,0.5913901329040527,0.03816299885511398,0.0
23,MetaDrive-test-no-noise-td3-low,98,7.2793753947619475,24041,171,242.96209287643433,-0.32450568675994873,0.09797064960002899,0.3859168291091919,0.0
24,MetaDrive-test-no-noise-td3-low,97,11.893070214914117,25040,191,255.73004579544067,,0.09477967768907547,0.9901499152183533,0.0
25,MetaDrive-test-no-noise-td3-low,97,15.258087063888631,26056,213,268.5911810398102,,0.2530505657196045,1.3642382621765137,0.0
26,MetaDrive-test-no-noise-td3-low,96,19.143284853855647,27021,229,280.13226795196533,-1.8048001527786255,0.11719619482755661,1.679599404335022,0.0
27,MetaDrive-test-no-noise-td3-low,96,21.31403333682001,28009,245,291.2272560596466,-2.8115763664245605,2.5256574153900146,2.4752886295318604,0.0
28,MetaDrive-test-no-noise-td3-low,95,25.5412037679641,29076,260,303.749009847641,,0.08263244479894638,3.224475622177124,0.0
29,MetaDrive-test-no-noise-td3-low,95,26.604859778501165,30061,276,315.96724700927734,-4.1045331954956055,0.08528175950050354,3.8705554008483887,0.0
30,MetaDrive-test-no-noise-td3-low,94,29.727187486321778,31082,290,328.0719790458679,,4.48228120803833,4.669689655303955,0.0
31,MetaDrive-test-no-noise-td3-low,94,33.38323855789557,32026,302,339.27183508872986,,2.8704965114593506,5.55601692199707,0.0
32,MetaDrive-test-no-noise-td3-low,94,39.65110822296244,33020,312,350.76006507873535,,0.26164019107818604,6.469686508178711,0.0
33,MetaDrive-test-no-noise-td3-low,93,43.62843815995025,34011,323,362.5536198616028,-7.201605319976807,3.583387851715088,6.706940650939941,0.0
34,MetaDrive-test-no-noise-td3-low,93,46.91542808651424,35038,335,374.3004500865936,,0.765758752822876,8.013304710388184,0.0
35,MetaDrive-test-no-noise-td3-low,93,49.51205737350417,36052,347,386.1685690879822,,21.100666046142578,8.241403579711914,0.0
36,MetaDrive-test-no-noise-td3-low,93,52.08113988905905,37083,358,397.4644548892975,-10.00185489654541,5.903055191040039,9.556072235107422,0.0
37,MetaDrive-test-no-noise-td3-low,93,54.58406875795421,38048,369,408.3353319168091,,26.9539794921875,9.183966636657715,0.0
38,MetaDrive-test-no-noise-td3-low,93,59.3808855352151,39014,378,419.25797390937805,,11.161038398742676,10.230700492858887,0.0
39,MetaDrive-test-no-noise-td3-low,92,60.46934997967298,40033,391,430.5107569694519,-12.226462364196777,14.277963638305664,11.60831356048584,0.0
40,MetaDrive-test-no-noise-td3-low,92,62.89314522610204,41089,402,442.14277505874634,-13.934394836425781,1.7264750003814697,13.606002807617188,0.0
41,MetaDrive-test-no-noise-td3-low,92,62.68279049867277,42019,412,452.3496208190918,-14.447317123413086,22.6611328125,13.588966369628906,0.0
42,MetaDrive-test-no-noise-td3-low,92,63.78339616675365,43066,422,464.380380153656,,23.71592140197754,14.362143516540527,0.0
43,MetaDrive-test-no-noise-td3-low,92,66.71289221734855,44084,432,476.60383677482605,,27.621868133544922,14.071880340576172,0.0
44,MetaDrive-test-no-noise-td3-low,92,66.53239806268037,45053,442,487.6239101886749,-17.26519203186035,15.721476554870605,16.430343627929688,0.0
45,MetaDrive-test-no-noise-td3-low,92,68.57671316818777,46077,453,499.03680086135864,-16.761825561523438,1.646445631980896,16.858760833740234,0.0
46,MetaDrive-test-no-noise-td3-low,92,68.66689882712825,47068,464,510.3707160949707,,35.675865173339844,17.101985931396484,0.0
47,MetaDrive-test-no-noise-td3-low,91,69.28586712127385,48110,474,523.0503158569336,,9.36656379699707,18.637367248535156,0.0
48,MetaDrive-test-no-noise-td3-low,91,71.64459080135843,49003,483,533.4393079280853,-19.40574836730957,1.0209696292877197,19.05253791809082,0.0
49,MetaDrive-test-no-noise-td3-low,91,73.46184299281049,50023,493,545.1112399101257,-22.01201629638672,2.2687928676605225,21.573444366455078,0.0
50,MetaDrive-test-no-noise-td3-low,91,75.34937118127344,51025,503,556.726870059967,-19.085458755493164,41.36415100097656,18.350921630859375,0.0
51,MetaDrive-test-no-noise-td3-low,91,73.82961017565296,52042,514,568.5487649440765,,3.865884304046631,22.280189514160156,0.0
52,MetaDrive-test-no-noise-td3-low,91,71.6669489320436,53006,526,579.2619287967682,,1.013120174407959,22.024944305419922,0.0
53,MetaDrive-test-no-noise-td3-low,91,71.46530711140541,54144,538,592.4757289886475,,6.109872817993164,21.70928955078125,0.0
54,MetaDrive-test-no-noise-td3-low,91,70.28719739521539,55007,548,602.8157060146332,-22.40843963623047,2.069742202758789,21.956663131713867,0.0
55,MetaDrive-test-no-noise-td3-low,91,69.97577439856879,56061,559,614.6249079704285,-24.00259017944336,52.973331451416016,22.610261917114258,0.0
56,MetaDrive-test-no-noise-td3-low,91,72.94669884233598,57008,563,625.7623119354248,,7.2444257736206055,23.372129440307617,0.01
57,MetaDrive-test-no-noise-td3-low,90,77.1049764418826,58144,565,641.8996920585632,,1.3236415386199951,25.399948120117188,0.01
58,MetaDrive-test-no-noise-td3-low,90,78.52841080209201,59032,569,654.2736060619354,,1.444912075996399,25.938352584838867,0.01
59,MetaDrive-test-no-noise-td3-low,89,82.72293365875248,60283,571,673.2789931297302,-27.270938873291016,1.5331192016601562,26.804683685302734,0.01
60,MetaDrive-test-no-noise-td3-low,89,84.53279849877103,61984,576,693.0427350997925,,4.504622459411621,25.399612426757812,0.01
61,MetaDrive-test-no-noise-td3-low,89,84.7957042233446,62104,577,694.4785840511322,,40.33017349243164,26.300464630126953,0.01
62,MetaDrive-test-no-noise-td3-low,89,87.20309719299584,63004,581,704.7497270107269,,8.056777000427246,26.961191177368164,0.02
63,MetaDrive-test-no-noise-td3-low,89,90.90232758612743,64629,585,724.9237790107727,-28.163555145263672,6.484516143798828,27.068302154541016,0.02
64,MetaDrive-test-no-noise-td3-low,89,93.75393354572275,65335,588,733.3397710323334,-30.004100799560547,2.4420385360717773,29.305482864379883,0.03
65,MetaDrive-test-no-noise-td3-low,88,98.74858516386237,66898,592,753.4108519554138,,20.692541122436523,28.365219116210938,0.04
66,MetaDrive-test-no-noise-td3-low,88,98.25679110808478,67010,593,754.6567580699921,,3.012691020965576,28.986055374145508,0.04
67,MetaDrive-test-no-noise-td3-low,88,99.11855075161438,68011,594,766.6709129810333,-27.266950607299805,48.22906494140625,27.288904190063477,0.04
68,MetaDrive-test-no-noise-td3-low,88,104.85096402850499,69509,598,783.6694798469543,-28.43415069580078,26.175212860107422,28.147647857666016,0.06
69,MetaDrive-test-no-noise-td3-low,88,105.6607974226467,70510,599,794.5680420398712,,5.802733898162842,30.17045021057129,0.06
70,MetaDrive-test-no-noise-td3-low,88,105.34491782259119,71153,603,801.5596358776093,-30.600906372070312,20.041179656982422,30.4448299407959,0.06
71,MetaDrive-test-no-noise-td3-low,88,111.29700719595867,72436,607,815.7594611644745,,36.7047119140625,31.131309509277344,0.07
72,MetaDrive-test-no-noise-td3-low,88,112.96478188264444,73031,611,822.2930819988251,-32.90782928466797,2.705066680908203,32.48506164550781,0.07
73,MetaDrive-test-no-noise-td3-low,88,119.80278619990382,74457,617,839.595636844635,-30.007232666015625,7.299445152282715,29.452062606811523,0.08
74,MetaDrive-test-no-noise-td3-low,88,122.43980914045825,75108,619,848.2465908527374,,8.312209129333496,29.935197830200195,0.08
75,MetaDrive-test-no-noise-td3-low,88,127.5540746405453,76031,623,858.631551027298,-30.797626495361328,50.633575439453125,30.351152420043945,0.09
76,MetaDrive-test-no-noise-td3-low,88,129.83550723399088,77030,631,869.7856471538544,,3.5070059299468994,30.67225456237793,0.09
77,MetaDrive-test-no-noise-td3-low,88,133.7352652062502,78140,635,883.0945398807526,,4.484828472137451,31.310270309448242,0.09
78,MetaDrive-test-no-noise-td3-low,88,135.90993418376752,79221,640,895.6761498451233,-33.914039611816406,5.625880241394043,33.94267272949219,0.09
79,MetaDrive-test-no-noise-td3-low,88,138.7437689242095,80136,646,907.475301027298,,4.814082145690918,32.70393753051758,0.09
80,MetaDrive-test-no-noise-td3-low,88,143.46878674044757,81057,651,917.4758670330048,-33.59836959838867,1.7973685264587402,33.10781478881836,0.09
81,MetaDrive-test-no-noise-td3-low,88,147.73182619346954,82060,653,928.6477379798889,,4.044360637664795,35.5719108581543,0.1
82,MetaDrive-test-no-noise-td3-low,88,151.77560375467124,83359,657,944.8578548431396,-35.6652717590332,3.2264368534088135,34.52161407470703,0.1
83,MetaDrive-test-no-noise-td3-low,88,154.9772878779116,84395,660,956.9214799404144,-30.916366577148438,5.801043510437012,31.377782821655273,0.11
84,MetaDrive-test-no-noise-td3-low,88,155.17292198737866,85028,662,964.7501769065857,,5.9764909744262695,35.623504638671875,0.11
85,MetaDrive-test-no-noise-td3-low,87,153.67669441217015,86359,668,981.8457939624786,-38.309776306152344,3.771876335144043,37.37377166748047,0.11
86,MetaDrive-test-no-noise-td3-low,87,151.16297481475883,87864,671,999.0322759151459,,101.88650512695312,37.49867630004883,0.11
87,MetaDrive-test-no-noise-td3-low,87,150.0689649080807,88070,673,1001.2630231380463,,3.846452474594116,35.12112808227539,0.11
88,MetaDrive-test-no-noise-td3-low,87,153.08204905134224,89286,677,1015.8455278873444,,5.1997222900390625,33.81159591674805,0.11
89,MetaDrive-test-no-noise-td3-low,87,152.6503030019256,90055,682,1024.4042720794678,-35.81455612182617,4.190950393676758,35.38025665283203,0.1
90,MetaDrive-test-no-noise-td3-low,87,151.0308441108646,91079,687,1037.4458611011505,-36.59394454956055,11.170130729675293,37.24631881713867,0.11
91,MetaDrive-test-no-noise-td3-low,87,152.3790116949699,92028,690,1047.9952659606934,,2.7290515899658203,36.604522705078125,0.12
92,MetaDrive-test-no-noise-td3-low,87,151.77171010314447,93027,692,1060.2244338989258,-38.29956817626953,4.852046012878418,37.56437683105469,0.11
93,MetaDrive-test-no-noise-td3-low,87,157.16966222430443,94257,695,1075.710391998291,-33.78718566894531,5.7293195724487305,34.15248489379883,0.13
94,MetaDrive-test-no-noise-td3-low,87,154.2229911420363,95078,698,1085.5988988876343,,50.72739791870117,35.63859176635742,0.11
95,MetaDrive-test-no-noise-td3-low,87,158.58386904953898,96210,702,1099.8556699752808,,17.373872756958008,36.0247802734375,0.11
96,MetaDrive-test-no-noise-td3-low,87,162.832035072537,97471,704,1114.6362669467926,-35.114315032958984,3.5198936462402344,35.09406280517578,0.13
97,MetaDrive-test-no-noise-td3-low,87,158.91770253689282,98092,708,1122.0009651184082,,111.54473114013672,36.22943115234375,0.12
98,MetaDrive-test-no-noise-td3-low,87,162.4584747725711,99269,711,1138.316913843155,-34.915916442871094,11.394439697265625,35.250797271728516,0.12
99,MetaDrive-test-no-noise-td3-low,87,161.4301081802075,100060,715,1148.4837999343872,,101.49052429199219,37.948631286621094,0.11
100,MetaDrive-test-no-noise-td3-low,87,158.06768326355626,101080,721,1160.303631067276,,6.428571701049805,39.28693389892578,0.11
101,MetaDrive-test-no-noise-td3-low,87,158.22679750340822,102085,723,1172.8270390033722,-36.71779251098633,9.047048568725586,37.82796859741211,0.11
102,MetaDrive-test-no-noise-td3-low,86,159.51003302755728,103112,729,1185.372657775879,,43.9857063293457,34.641746520996094,0.12
103,MetaDrive-test-no-noise-td3-low,86,162.3750775551828,104071,732,1197.9915461540222,-38.26266098022461,4.857189178466797,37.69017791748047,0.13
104,MetaDrive-test-no-noise-td3-low,86,165.30207658367192,105758,736,1219.0498638153076,,45.45732116699219,39.20901870727539,0.15
105,MetaDrive-test-no-noise-td3-low,86,162.16843594310706,106078,739,1222.7418098449707,,6.040519714355469,43.96232223510742,0.15
106,MetaDrive-test-no-noise-td3-low,86,162.16840563716457,107122,743,1235.8507959842682,,2.9299330711364746,41.20982360839844,0.15
107,MetaDrive-test-no-noise-td3-low,86,166.624016237899,108480,746,1255.572105884552,,151.45339965820312,38.151214599609375,0.15
108,MetaDrive-test-no-noise-td3-low,86,166.56394191915436,109104,750,1262.441691160202,,32.886192321777344,39.27815246582031,0.16
109,MetaDrive-test-no-noise-td3-low,86,164.23313921681617,110369,753,1277.7559101581573,-38.443668365478516,98.7083740234375,38.025306701660156,0.16
110,MetaDrive-test-no-noise-td3-low,86,166.79716406568787,111554,755,1292.5776460170746,,10.686153411865234,38.738563537597656,0.16
111,MetaDrive-test-no-noise-td3-low,86,168.87516162063653,112223,756,1301.2540168762207,-39.29384231567383,5.0535454750061035,39.907962799072266,0.17
112,MetaDrive-test-no-noise-td3-low,86,168.3485978325699,113225,760,1314.6487128734589,-40.865997314453125,5.635339736938477,39.53865432739258,0.16
113,MetaDrive-test-no-noise-td3-low,85,169.90290278504213,114226,761,1328.3572809696198,,5.343256950378418,41.065006256103516,0.16
114,MetaDrive-test-no-noise-td3-low,85,170.2748337701195,115116,764,1339.3372268676758,,79.47926330566406,40.6984748840332,0.15
115,MetaDrive-test-no-noise-td3-low,85,167.69877440765984,116137,769,1350.9791069030762,-35.63193130493164,10.74708080291748,36.33871841430664,0.15
116,MetaDrive-test-no-noise-td3-low,86,167.81510596946336,117138,770,1361.01535987854,,7.472491264343262,40.584136962890625,0.15
117,MetaDrive-test-no-noise-td3-low,85,170.9473956257978,118278,773,1376.0087721347809,,4.403075218200684,41.785736083984375,0.15
118,MetaDrive-test-no-noise-td3-low,85,172.7317897849191,119513,776,1391.5146911144257,-38.50336837768555,14.444587707519531,38.66237258911133,0.16
119,MetaDrive-test-no-noise-td3-low,85,172.98434798607093,120432,777,1402.9501779079437,,46.29050827026367,37.749202728271484,0.16
120,MetaDrive-test-no-noise-td3-low,85,174.93782754508203,121214,779,1412.8690538406372,,8.895395278930664,37.613006591796875,0.17
121,MetaDrive-test-no-noise-td3-low,85,175.71236047743537,122353,785,1428.5076541900635,-41.40863037109375,6.3648762702941895,40.90913009643555,0.16
122,MetaDrive-test-no-noise-td3-low,85,177.27472149811223,123455,787,1443.149118900299,-45.325477600097656,6.485074996948242,45.19298553466797,0.16
123,MetaDrive-test-no-noise-td3-low,85,172.04259757260664,124161,791,1452.9078798294067,-41.99523162841797,5.281583786010742,40.96965408325195,0.14
124,MetaDrive-test-no-noise-td3-low,85,172.89549210055182,125289,793,1469.7092669010162,-45.35825729370117,5.535733222961426,44.829132080078125,0.15
125,MetaDrive-test-no-noise-td3-low,85,166.80913126288993,126326,798,1484.6377341747284,,6.954655647277832,41.16443634033203,0.14
126,MetaDrive-test-no-noise-td3-low,84,166.91179634955301,127261,800,1499.615315914154,-43.43231964111328,20.132247924804688,44.163089752197266,0.15
127,MetaDrive-test-no-noise-td3-low,84,165.68746366699128,128512,803,1523.0623669624329,,6.755512237548828,41.239036560058594,0.15
128,MetaDrive-test-no-noise-td3-low,84,164.56738224724913,129128,807,1531.427146911621,,24.30862045288086,41.70211410522461,0.15
129,MetaDrive-test-no-noise-td3-low,84,159.41464365226327,130164,814,1544.554780960083,,7.589807987213135,41.978309631347656,0.15
130,MetaDrive-test-no-noise-td3-low,84,159.54914888623233,131051,818,1556.24809384346,-43.215736389160156,3.3097848892211914,43.22309494018555,0.15
131,MetaDrive-test-no-noise-td3-low,83,163.67007002940346,132001,819,1572.644907951355,-46.36233901977539,3.115675210952759,46.58649444580078,0.16
132,MetaDrive-test-no-noise-td3-low,83,166.61008126047594,133305,821,1595.2779459953308,-49.62446594238281,3.8910093307495117,49.436344146728516,0.16
133,MetaDrive-test-no-noise-td3-low,83,166.8853819147642,134590,824,1615.2823910713196,,7.096636772155762,41.16444778442383,0.15
134,MetaDrive-test-no-noise-td3-low,83,169.69690526281357,135559,827,1627.9524500370026,-44.15102005004883,5.262264251708984,43.8699951171875,0.16
135,MetaDrive-test-no-noise-td3-low,83,168.76573534587845,136024,829,1635.0575590133667,,8.789859771728516,41.95330047607422,0.15
136,MetaDrive-test-no-noise-td3-low,83,168.11468369879327,137451,832,1654.7736790180206,-44.04623031616211,6.956747531890869,43.542625427246094,0.14
137,MetaDrive-test-no-noise-td3-low,83,172.67662014660908,138238,834,1664.7741010189056,,9.503765106201172,40.943572998046875,0.15
138,MetaDrive-test-no-noise-td3-low,83,169.52508287060624,139189,836,1676.85884475708,-46.72736358642578,5.143514633178711,47.15903091430664,0.13
139,MetaDrive-test-no-noise-td3-low,82,174.1662598486346,140323,838,1693.8278579711914,-45.668975830078125,5.230094909667969,45.59467697143555,0.14
140,MetaDrive-test-no-noise-td3-low,82,175.877650818578,141238,841,1706.2773790359497,,6.850024223327637,43.43062210083008,0.14
141,MetaDrive-test-no-noise-td3-low,82,175.16600040772744,142386,845,1721.5224890708923,,6.409734725952148,44.97740173339844,0.15
142,MetaDrive-test-no-noise-td3-low,82,174.81941745258854,143186,846,1734.345360994339,,50.918609619140625,42.84792709350586,0.15
143,MetaDrive-test-no-noise-td3-low,82,174.83721624898018,144233,848,1748.94460105896,-42.07121658325195,4.192768096923828,41.65571975708008,0.14
144,MetaDrive-test-no-noise-td3-low,82,177.879461142379,145157,849,1761.6608550548553,-43.8391227722168,5.976898193359375,43.611351013183594,0.15
145,MetaDrive-test-no-noise-td3-low,82,183.86199106117527,146314,852,1776.1585719585419,,10.240388870239258,45.48235321044922,0.18
146,MetaDrive-test-no-noise-td3-low,82,180.5686048648201,147207,855,1787.8577551841736,-43.68766403198242,108.8438720703125,42.12481689453125,0.18
147,MetaDrive-test-no-noise-td3-low,82,176.3389097627325,148277,860,1801.5914149284363,-50.0464973449707,9.03032112121582,48.98804473876953,0.17
148,MetaDrive-test-no-noise-td3-low,82,177.09894072483928,149661,863,1822.7520868778229,-46.584476470947266,9.570541381835938,45.83795928955078,0.17
149,MetaDrive-test-no-noise-td3-low,82,176.3315191032795,150008,865,1826.988519191742,,8.945383071899414,41.58123779296875,0.17
150,MetaDrive-test-no-noise-td3-low,81,178.94048885920986,151942,868,1853.5004830360413,,7.94019889831543,46.039119720458984,0.18
151,MetaDrive-test-no-noise-td3-low,81,180.8823529431723,152574,869,1863.0658049583435,,75.93415832519531,43.086299896240234,0.18
152,MetaDrive-test-no-noise-td3-low,81,181.77341134174415,153069,871,1869.323324918747,-45.25372314453125,6.177969932556152,45.95820617675781,0.18
153,MetaDrive-test-no-noise-td3-low,81,182.06421756033825,154163,873,1884.3438410758972,-48.787261962890625,5.714546203613281,49.05265426635742,0.19
154,MetaDrive-test-no-noise-td3-low,81,181.15057677748212,155205,876,1899.0293328762054,-51.47688674926758,2.9585981369018555,51.17835998535156,0.19
155,MetaDrive-test-no-noise-td3-low,81,182.91747955254348,156297,878,1913.2958362102509,-47.65020751953125,3.592435359954834,47.77239227294922,0.2
156,MetaDrive-test-no-noise-td3-low,81,183.23946383920534,157824,881,1934.7308430671692,,9.104034423828125,41.20854568481445,0.2
157,MetaDrive-test-no-noise-td3-low,81,183.6950351051864,158108,882,1938.5809469223022,,6.645481586456299,45.968807220458984,0.2
158,MetaDrive-test-no-noise-td3-low,81,185.93264549007097,159349,884,1956.6296072006226,-46.57892608642578,5.255917549133301,46.88801956176758,0.2
159,MetaDrive-test-no-noise-td3-low,81,186.68467565520726,160065,886,1965.9332509040833,-47.074893951416016,6.833284378051758,46.52556610107422,0.21
160,MetaDrive-test-no-noise-td3-low,81,186.09825387130485,161334,891,1983.1249101161957,,9.607711791992188,45.589393615722656,0.21
161,MetaDrive-test-no-noise-td3-low,81,183.7730620864547,162438,896,1998.1053838729858,,4.263370513916016,46.51317596435547,0.21
162,MetaDrive-test-no-noise-td3-low,81,181.81646460162833,163103,899,2006.165205001831,-50.54949188232422,10.874141693115234,49.28740310668945,0.2
163,MetaDrive-test-no-noise-td3-low,81,183.42641116057942,164320,902,2023.9298589229584,,6.497215270996094,45.38652801513672,0.2
164,MetaDrive-test-no-noise-td3-low,81,184.88557922207252,165281,906,2036.435380935669,-47.41343307495117,11.984882354736328,46.908966064453125,0.19
165,MetaDrive-test-no-noise-td3-low,81,183.9193109160231,166003,910,2045.9598779678345,-46.544158935546875,29.402271270751953,46.09164047241211,0.19
166,MetaDrive-test-no-noise-td3-low,81,186.8005726715796,167047,913,2060.749151945114,-49.43335723876953,27.61296844482422,48.79127883911133,0.19
167,MetaDrive-test-no-noise-td3-low,81,188.88582872061474,168023,915,2073.2531230449677,-47.28567123413086,5.363460540771484,46.75232696533203,0.2
168,MetaDrive-test-no-noise-td3-low,80,185.49067492622257,169215,919,2090.9199719429016,-49.96830749511719,5.341427326202393,50.289588928222656,0.2
169,MetaDrive-test-no-noise-td3-low,80,186.8238981111442,170232,921,2103.6298308372498,,7.732485771179199,45.31278610229492,0.22
170,MetaDrive-test-no-noise-td3-low,80,186.62033599905092,171233,922,2115.8365869522095,-45.82299041748047,12.918289184570312,46.351470947265625,0.22
171,MetaDrive-test-no-noise-td3-low,80,187.1863414579782,172454,925,2132.41388297081,,98.10617065429688,42.22474670410156,0.22
172,MetaDrive-test-no-noise-td3-low,80,188.3222842474558,173412,927,2146.2672729492188,,6.207637786865234,47.21039581298828,0.22
173,MetaDrive-test-no-noise-td3-low,80,188.07727536056177,174009,929,2154.012818813324,-47.461212158203125,112.09944152832031,47.39786148071289,0.23
174,MetaDrive-test-no-noise-td3-low,80,184.96693123088622,175088,933,2169.077329158783,,47.860008239746094,47.524723052978516,0.23
175,MetaDrive-test-no-noise-td3-low,80,185.6951087964415,176143,936,2183.3073949813843,-44.618011474609375,8.639707565307617,44.77911376953125,0.25
176,MetaDrive-test-no-noise-td3-low,80,180.40901229677326,177044,941,2195.1935720443726,,9.55919075012207,48.569732666015625,0.24
177,MetaDrive-test-no-noise-td3-low,80,181.71364096424026,178045,942,2211.142380952835,-47.62830352783203,6.282133102416992,48.12807846069336,0.24
178,MetaDrive-test-no-noise-td3-low,80,186.07721758637388,179526,944,2231.887885093689,,4.238797187805176,48.96678924560547,0.24
179,MetaDrive-test-no-noise-td3-low,80,186.01203893164734,180527,945,2248.0034279823303,-48.68413543701172,8.687668800354004,48.041221618652344,0.24
180,MetaDrive-test-no-noise-td3-low,80,185.1373753411122,181046,947,2254.3447790145874,,10.04444694519043,48.46735763549805,0.24
181,MetaDrive-test-no-noise-td3-low,80,181.21114004337562,182212,950,2271.8693628311157,,9.96759033203125,48.926353454589844,0.23
182,MetaDrive-test-no-noise-td3-low,80,182.98077128262955,183414,952,2290.680587053299,,4.964344024658203,47.93688201904297,0.21
183,MetaDrive-test-no-noise-td3-low,80,182.29566021898634,184011,954,2298.6006309986115,-48.503929138183594,5.2321977615356445,47.80641174316406,0.2
184,MetaDrive-test-no-noise-td3-low,80,183.36232810864135,185579,958,2319.4036111831665,-49.6339111328125,8.035223960876465,49.08146667480469,0.21
185,MetaDrive-test-no-noise-td3-low,79,182.72021148805663,186322,960,2329.5740439891815,,96.78990173339844,49.28677749633789,0.21
186,MetaDrive-test-no-noise-td3-low,79,182.16940993350826,187271,963,2343.5107481479645,-49.05323028564453,7.416609764099121,49.31095504760742,0.22
187,MetaDrive-test-no-noise-td3-low,79,184.77405943359008,188142,965,2354.528797864914,,5.186872959136963,49.579891204833984,0.23
188,MetaDrive-test-no-noise-td3-low,79,184.86118054855447,189034,968,2365.115697145462,,10.757139205932617,51.4556770324707,0.23
189,MetaDrive-test-no-noise-td3-low,79,187.39797292894863,190141,970,2380.1881840229034,-46.476932525634766,18.16763687133789,46.80341720581055,0.25
190,MetaDrive-test-no-noise-td3-low,79,185.72653418904142,191169,974,2393.758987903595,-50.651634216308594,6.860374450683594,49.67988967895508,0.25
191,MetaDrive-test-no-noise-td3-low,79,185.108949258411,192511,977,2413.137820005417,-47.893898010253906,13.23208999633789,47.492401123046875,0.24
192,MetaDrive-test-no-noise-td3-low,79,186.23053986783245,193512,978,2429.678717851639,,8.137577056884766,46.460296630859375,0.23
193,MetaDrive-test-no-noise-td3-low,79,187.39772107096206,194303,979,2441.5436849594116,-48.872581481933594,4.066337585449219,48.47319793701172,0.23
194,MetaDrive-test-no-noise-td3-low,79,190.51820212169423,195404,982,2455.5523200035095,,9.7672700881958,51.20427703857422,0.25
195,MetaDrive-test-no-noise-td3-low,79,193.25504279416228,196696,984,2474.618061065674,,15.49161148071289,50.21288299560547,0.27
196,MetaDrive-test-no-noise-td3-low,79,192.42624003495726,197172,985,2481.5842669010162,,7.176505088806152,50.30229949951172,0.26
197,MetaDrive-test-no-noise-td3-low,79,195.34688971179702,198241,988,2496.9914181232452,-50.954505920410156,11.004283905029297,50.23517608642578,0.26
198,MetaDrive-test-no-noise-td3-low,79,198.92028202559243,199010,990,2508.0367469787598,,133.5965576171875,46.51201629638672,0.27
199,MetaDrive-test-no-noise-td3-low,79,200.86411675466417,200054,993,2523.096041917801,,5.383453369140625,46.55643081665039,0.28
200,MetaDrive-test-no-noise-td3-low,79,201.54367874749187,201169,997,2538.0815348625183,-47.943912506103516,6.710016250610352,47.16320037841797,0.28
201,MetaDrive-test-no-noise-td3-low,79,205.8396887243342,202536,1000,2556.3089928627014,,7.840414047241211,49.515872955322266,0.3
202,MetaDrive-test-no-noise-td3-low,79,205.8146683697209,203119,1001,2564.645873069763,-48.981468200683594,17.684965133666992,49.089046478271484,0.3
203,MetaDrive-test-no-noise-td3-low,79,208.0844662589758,204342,1003,2582.3079040050507,,11.880119323730469,48.78239440917969,0.32
204,MetaDrive-test-no-noise-td3-low,79,207.42015352538468,205048,1006,2591.31813287735,,11.85203742980957,53.26056671142578,0.33
205,MetaDrive-test-no-noise-td3-low,78,208.23632821564607,206049,1007,2609.3026678562164,-44.246761322021484,11.557390213012695,44.491310119628906,0.32
206,MetaDrive-test-no-noise-td3-low,78,213.0314867463208,207237,1010,2626.6597080230713,-50.70343780517578,5.207123756408691,50.447296142578125,0.33
207,MetaDrive-test-no-noise-td3-low,78,212.08480344867476,208071,1013,2637.8110859394073,-49.46198272705078,9.41879940032959,49.93396759033203,0.34
208,MetaDrive-test-no-noise-td3-low,78,211.8841327219309,209072,1014,2654.8694949150085,,84.89773559570312,46.77061080932617,0.33
209,MetaDrive-test-no-noise-td3-low,78,214.98139128648924,210009,1018,2667.255644083023,-51.732322692871094,5.620811462402344,51.521697998046875,0.34
210,MetaDrive-test-no-noise-td3-low,78,213.47390894688687,211530,1021,2688.714579820633,,7.0651044845581055,52.952674865722656,0.34
211,MetaDrive-test-no-noise-td3-low,78,214.4258183542426,212040,1022,2697.143098115921,,6.350484371185303,50.995269775390625,0.34
212,MetaDrive-test-no-noise-td3-low,78,219.0443725608859,213116,1024,2712.193830013275,,11.122117042541504,52.584312438964844,0.36
213,MetaDrive-test-no-noise-td3-low,78,216.67968592016402,214131,1027,2725.637408018112,-49.426753997802734,8.406499862670898,49.25050735473633,0.36
214,MetaDrive-test-no-noise-td3-low,78,217.11181181058754,215358,1030,2742.811122894287,,16.25275421142578,49.86045837402344,0.35
215,MetaDrive-test-no-noise-td3-low,78,215.42200164519505,216027,1033,2751.3219509124756,-49.73332977294922,8.200370788574219,49.10175323486328,0.35
216,MetaDrive-test-no-noise-td3-low,78,217.53911135713705,217069,1035,2765.132951974869,-46.80229187011719,85.24598693847656,45.5754508972168,0.35
217,MetaDrive-test-no-noise-td3-low,78,219.48461986400815,218470,1037,2784.7325069904327,,9.841768264770508,50.279296875,0.36
218,MetaDrive-test-no-noise-td3-low,78,222.70091133102295,219471,1038,2799.544667005539,-50.77159118652344,5.778860092163086,50.18236541748047,0.36
219,MetaDrive-test-no-noise-td3-low,78,228.79127508085276,220876,1040,2817.131597995758,,5.187080383300781,51.31182861328125,0.38
220,MetaDrive-test-no-noise-td3-low,78,231.30636624488744,221625,1041,2826.7121798992157,-54.242919921875,23.393966674804688,53.64176559448242,0.39
221,MetaDrive-test-no-noise-td3-low,78,231.65199374472914,222142,1042,2832.9754621982574,,12.172887802124023,49.42643356323242,0.39
222,MetaDrive-test-no-noise-td3-low,78,228.0309720467068,223019,1044,2846.382462978363,-52.192527770996094,6.501692295074463,52.36933898925781,0.38
223,MetaDrive-test-no-noise-td3-low,78,231.5634103244555,224315,1046,2865.0109560489655,-54.9293327331543,9.166608810424805,53.11313247680664,0.4
224,MetaDrive-test-no-noise-td3-low,78,234.15324808379114,225179,1048,2877.0619189739227,-53.00947570800781,6.904326915740967,53.245277404785156,0.41
225,MetaDrive-test-no-noise-td3-low,78,228.04704627253804,226289,1052,2892.025512933731,-51.91419982910156,4.620488166809082,52.109161376953125,0.41
226,MetaDrive-test-no-noise-td3-low,78,229.2580897096568,227073,1055,2901.482927083969,-47.63860321044922,18.38565444946289,46.757080078125,0.42
227,MetaDrive-test-no-noise-td3-low,78,230.20428561850812,228095,1057,2914.3244259357452,-49.98411560058594,8.009369850158691,49.555511474609375,0.42
228,MetaDrive-test-no-noise-td3-low,78,227.56189510014644,229152,1061,2930.2326879501343,,8.730060577392578,53.492401123046875,0.42
229,MetaDrive-test-no-noise-td3-low,78,227.94962837139053,230089,1063,2943.093563079834,-51.527557373046875,10.302111625671387,51.117496490478516,0.42
230,MetaDrive-test-no-noise-td3-low,78,228.75970836277543,231090,1064,2960.38688993454,,9.773672103881836,51.594810485839844,0.41
231,MetaDrive-test-no-noise-td3-low,78,228.7246844145194,232182,1067,2974.192711830139,,13.925500869750977,48.997154235839844,0.4
232,MetaDrive-test-no-noise-td3-low,77,232.3071009114964,233825,1069,2999.8039548397064,-51.19560623168945,24.43182373046875,50.534610748291016,0.41
233,MetaDrive-test-no-noise-td3-low,77,232.3900963167134,234561,1070,3012.8621711730957,-52.92765808105469,54.933998107910156,52.35598373413086,0.4
234,MetaDrive-test-no-noise-td3-low,77,234.50881179726915,235458,1071,3026.6301968097687,,19.46415138244629,54.44792175292969,0.4
235,MetaDrive-test-no-noise-td3-low,77,237.87870381123636,236315,1072,3040.184807062149,-55.31435775756836,7.665660858154297,54.44594192504883,0.41
236,MetaDrive-test-no-noise-td3-low,77,238.9099385503171,237316,1073,3053.3969020843506,,13.831308364868164,45.68220138549805,0.41
237,MetaDrive-test-no-noise-td3-low,77,241.06041919079348,238106,1074,3064.9542891979218,,7.763357162475586,50.03266143798828,0.42
238,MetaDrive-test-no-noise-td3-low,77,244.4954023296068,239044,1075,3078.353497028351,,10.23159408569336,48.22673797607422,0.43
239,MetaDrive-test-no-noise-td3-low,77,241.04954379804374,240034,1078,3091.2319469451904,,7.754644870758057,46.71045684814453,0.44
240,MetaDrive-test-no-noise-td3-low,77,240.9042538360595,241035,1079,3106.774585008621,-48.8369140625,9.854500770568848,47.659645080566406,0.43
241,MetaDrive-test-no-noise-td3-low,77,241.56491759915465,242036,1080,3121.093724012375,,6.849828720092773,50.97111892700195,0.42
242,MetaDrive-test-no-noise-td3-low,77,243.75878408539376,243260,1082,3138.984167098999,,12.383005142211914,52.35679626464844,0.43
243,MetaDrive-test-no-noise-td3-low,77,239.13856321401414,244533,1084,3157.855278968811,-47.792076110839844,7.167756080627441,48.337066650390625,0.41
244,MetaDrive-test-no-noise-td3-low,77,238.61633309864644,245248,1086,3168.3336350917816,,27.20999526977539,52.47578811645508,0.42
245,MetaDrive-test-no-noise-td3-low,77,241.50283269740316,246162,1087,3180.093122959137,,11.245195388793945,51.43173599243164,0.43
246,MetaDrive-test-no-noise-td3-low,77,233.93163785001587,247097,1092,3193.423784971237,-49.87256622314453,7.911591529846191,49.25172805786133,0.42
247,MetaDrive-test-no-noise-td3-low,77,238.74634513497367,248661,1094,3217.4891109466553,-50.74216842651367,138.7814178466797,49.94874572753906,0.43
248,MetaDrive-test-no-noise-td3-low,77,239.97971223489253,249207,1096,3225.830013990402,-52.78411102294922,91.53217315673828,51.45520782470703,0.43
249,MetaDrive-test-no-noise-td3-low,77,238.3241684236985,250093,1098,3238.932648897171,-51.090782165527344,16.498001098632812,50.21846008300781,0.42
250,MetaDrive-test-no-noise-td3-low,77,242.39560496991015,251094,1099,3253.630434989929,,46.18966293334961,52.50685119628906,0.42
251,MetaDrive-test-no-noise-td3-low,77,238.92578232182257,252135,1101,3267.3318388462067,-54.17280578613281,67.29425048828125,52.52947998046875,0.41
252,MetaDrive-test-no-noise-td3-low,77,240.00369250277905,253378,1103,3285.148388147354,,6.357551574707031,51.09564208984375,0.41
253,MetaDrive-test-no-noise-td3-low,77,242.22740624866884,254505,1105,3301.783169031143,-50.13322067260742,9.112683296203613,50.9359016418457,0.41
254,MetaDrive-test-no-noise-td3-low,77,244.68408561839013,255521,1107,3316.913276910782,-40.85775375366211,5.186725616455078,40.321861267089844,0.42
255,MetaDrive-test-no-noise-td3-low,77,246.58098512594833,256158,1108,3325.947954893112,,6.1978960037231445,50.971710205078125,0.43
256,MetaDrive-test-no-noise-td3-low,77,244.4947342783028,257330,1111,3341.8485250473022,,9.589390754699707,45.90213394165039,0.42
257,MetaDrive-test-no-noise-td3-low,76,246.77349372785247,258331,1112,3355.4690878391266,-47.85597610473633,12.185052871704102,46.782684326171875,0.42
258,MetaDrive-test-no-noise-td3-low,76,246.84394253319013,259172,1114,3366.3337540626526,,22.18820571899414,50.61068344116211,0.42
259,MetaDrive-test-no-noise-td3-low,76,249.41447533431293,260164,1117,3379.352947950363,,11.49759292602539,51.979881286621094,0.43
260,MetaDrive-test-no-noise-td3-low,76,253.27589925717487,261121,1118,3393.6269669532776,-48.438453674316406,140.10369873046875,47.690162658691406,0.44
261,MetaDrive-test-no-noise-td3-low,76,249.33473801951936,262294,1121,3410.440908908844,,21.04155158996582,48.497467041015625,0.42
262,MetaDrive-test-no-noise-td3-low,76,248.64203176720466,263663,1123,3428.6191940307617,-50.19309997558594,12.024002075195312,49.11339569091797,0.42
263,MetaDrive-test-no-noise-td3-low,76,248.91500588862218,264076,1124,3434.2562539577484,,77.20005798339844,46.83809280395508,0.42
264,MetaDrive-test-no-noise-td3-low,76,248.8949101461063,265097,1127,3448.286602973938,-47.01832580566406,67.32278442382812,46.7026481628418,0.42
265,MetaDrive-test-no-noise-td3-low,76,253.20277865257245,266378,1129,3468.2325308322906,,118.48023986816406,51.61457061767578,0.43
266,MetaDrive-test-no-noise-td3-low,76,254.61766520473805,267368,1131,3482.2474279403687,,19.140178680419922,48.202369689941406,0.44
267,MetaDrive-test-no-noise-td3-low,76,258.1433404656635,268282,1133,3497.0490159988403,,5.974795341491699,53.72461700439453,0.45
268,MetaDrive-test-no-noise-td3-low,76,259.3981456550824,269635,1135,3516.1540689468384,-54.385475158691406,11.689208984375,53.79155349731445,0.45
269,MetaDrive-test-no-noise-td3-low,76,256.16329934598957,270586,1137,3529.3314950466156,,21.82404327392578,51.261436462402344,0.44
270,MetaDrive-test-no-noise-td3-low,76,255.54955655522932,271442,1138,3542.0568249225616,,127.46607971191406,50.844970703125,0.45
271,MetaDrive-test-no-noise-td3-low,76,256.5646549044459,272443,1139,3558.932312965393,-53.760826110839844,29.901323318481445,52.68998718261719,0.44
272,MetaDrive-test-no-noise-td3-low,76,253.35918637330025,273444,1140,3575.1424691677094,,19.397354125976562,51.09811782836914,0.43
273,MetaDrive-test-no-noise-td3-low,76,251.2173564017767,274094,1142,3583.9419770240784,,15.635422706604004,52.438819885253906,0.43
274,MetaDrive-test-no-noise-td3-low,76,251.3041265966513,275452,1145,3602.8572909832,,6.484125137329102,48.94858932495117,0.44
275,MetaDrive-test-no-noise-td3-low,76,251.87855881099821,276057,1146,3612.962292909622,-47.32929229736328,10.918827056884766,47.658935546875,0.44
276,MetaDrive-test-no-noise-td3-low,76,252.04743969504472,277360,1149,3631.4915330410004,,7.561526775360107,54.183895111083984,0.45
277,MetaDrive-test-no-noise-td3-low,76,254.22443574753058,278600,1151,3650.22988986969,,11.397537231445312,55.96648025512695,0.45
278,MetaDrive-test-no-noise-td3-low,76,256.1718018359716,279376,1152,3663.757383823395,,9.950666427612305,52.41675567626953,0.45
279,MetaDrive-test-no-noise-td3-low,76,259.5535375343499,280618,1154,3681.7602739334106,,53.471046447753906,53.72639846801758,0.45
280,MetaDrive-test-no-noise-td3-low,76,256.01410602909874,281397,1157,3692.371598005295,-49.996864318847656,8.211042404174805,49.535709381103516,0.43
281,MetaDrive-test-no-noise-td3-low,76,258.006284816563,282119,1159,3702.738217830658,-48.51354217529297,18.902191162109375,47.91865539550781,0.43
282,MetaDrive-test-no-noise-td3-low,76,259.14076199991894,283942,1163,3727.758621931076,,10.488424301147461,47.206966400146484,0.43
283,MetaDrive-test-no-noise-td3-low,76,258.83704841530084,284838,1164,3741.5075459480286,,12.588249206542969,50.994598388671875,0.43
284,MetaDrive-test-no-noise-td3-low,76,260.5901207300733,285839,1165,3756.7233641147614,-51.050071716308594,11.781248092651367,51.372108459472656,0.43
285,MetaDrive-test-no-noise-td3-low,76,261.4868438413559,286388,1166,3764.1572761535645,,5.903039932250977,54.84380340576172,0.44
286,MetaDrive-test-no-noise-td3-low,76,254.5423328108684,287234,1169,3775.3659150600433,,6.574591636657715,49.58877944946289,0.42
287,MetaDrive-test-no-noise-td3-low,76,254.24414199144343,288576,1171,3793.9712817668915,,8.742623329162598,54.86976623535156,0.43
288,MetaDrive-test-no-noise-td3-low,76,253.26683175245546,289006,1172,3799.01270198822,,23.644527435302734,53.40135192871094,0.42
289,MetaDrive-test-no-noise-td3-low,75,249.0056883412652,290836,1176,3827.0514919757843,,11.124029159545898,49.68711471557617,0.4
290,MetaDrive-test-no-noise-td3-low,75,251.61029889086134,291485,1177,3837.1872408390045,-54.5631217956543,21.904224395751953,53.65687561035156,0.4
291,MetaDrive-test-no-noise-td3-low,75,252.10636340877988,292291,1178,3846.6264140605927,-53.28755569458008,9.021110534667969,52.26295471191406,0.4
292,MetaDrive-test-no-noise-td3-low,75,252.5967841318046,293082,1179,3858.2544310092926,,12.556324005126953,50.029441833496094,0.41
293,MetaDrive-test-no-noise-td3-low,75,250.4183680859244,294151,1181,3872.639549970627,-51.792110443115234,11.423973083496094,52.08442687988281,0.42
294,MetaDrive-test-no-noise-td3-low,75,250.21828762645688,295122,1183,3885.6895699501038,,10.397065162658691,50.77252960205078,0.41
295,MetaDrive-test-no-noise-td3-low,75,255.02754963935945,296429,1185,3901.4839611053467,-48.45415496826172,8.753410339355469,47.993072509765625,0.43
296,MetaDrive-test-no-noise-td3-low,75,252.8773566594692,297430,1186,3916.5674769878387,,13.271092414855957,51.17714309692383,0.42
297,MetaDrive-test-no-noise-td3-low,75,255.39310257614753,298640,1188,3932.736568927765,,27.190711975097656,51.686279296875,0.43
298,MetaDrive-test-no-noise-td3-low,75,257.44285249640575,299132,1189,3938.953654050827,,6.428759574890137,50.39362335205078,0.44
299,MetaDrive-test-no-noise-td3-low,75,257.81059591674045,300061,1192,3950.4328339099884,-52.41215896606445,13.520179748535156,51.957862854003906,0.44
300,MetaDrive-test-no-noise-td3-low,75,255.68221281692556,301180,1195,3964.327488899231,,14.185422897338867,52.169437408447266,0.44
301,MetaDrive-test-no-noise-td3-low,75,254.19019741699591,302210,1197,3977.1807079315186,,23.84933090209961,50.60727310180664,0.44
302,MetaDrive-test-no-noise-td3-low,75,252.8410451670886,303215,1200,3989.760020017624,-49.43370819091797,21.664119720458984,49.678672790527344,0.45
303,MetaDrive-test-no-noise-td3-low,76,252.4179648331041,304520,1202,4006.5122611522675,,5.958836555480957,54.19358825683594,0.45
304,MetaDrive-test-no-noise-td3-low,76,246.25577415858498,305110,1205,4014.4441678524017,,8.873167991638184,52.729339599609375,0.43
305,MetaDrive-test-no-noise-td3-low,76,246.35033736697522,306437,1207,4031.5375537872314,-54.029502868652344,36.743873596191406,54.437889099121094,0.44
306,MetaDrive-test-no-noise-td3-low,76,248.57604086345407,307524,1209,4046.097888946533,,20.189516067504883,50.74620819091797,0.45
307,MetaDrive-test-no-noise-td3-low,76,248.62778602314538,308525,1210,4058.51425409317,-49.82787322998047,8.339007377624512,49.00433349609375,0.45
308,MetaDrive-test-no-noise-td3-low,76,248.94542877521576,309524,1211,4072.2132499217987,,6.692788600921631,57.331790924072266,0.45
309,MetaDrive-test-no-noise-td3-low,75,247.52983216178572,310860,1213,4091.59832906723,,11.278117179870605,51.63715744018555,0.45
310,MetaDrive-test-no-noise-td3-low,75,249.37056523900577,311483,1214,4100.214730978012,-47.91618347167969,10.831768035888672,47.38263702392578,0.46
311,MetaDrive-test-no-noise-td3-low,75,250.21214431017387,312152,1215,4109.077074766159,,7.242424011230469,53.855255126953125,0.46
312,MetaDrive-test-no-noise-td3-low,75,248.76187573642488,313646,1218,4128.372553825378,,12.168804168701172,52.49413299560547,0.46
313,MetaDrive-test-no-noise-td3-low,75,250.04003688023488,314431,1220,4139.813956022263,-52.91765213012695,32.97354507446289,51.8449592590332,0.45
314,MetaDrive-test-no-noise-td3-low,75,251.21292785561252,315019,1221,4147.656689167023,-45.77680206298828,23.823837280273438,45.78964614868164,0.46
315,MetaDrive-test-no-noise-td3-low,75,250.63582930329693,316551,1224,4169.116957902908,-49.87303924560547,5.938531875610352,49.54435348510742,0.45
316,MetaDrive-test-no-noise-td3-low,75,249.9051185470598,317405,1225,4180.598533153534,-52.9002799987793,15.063698768615723,52.299224853515625,0.44
317,MetaDrive-test-no-noise-td3-low,75,251.4958983042811,318191,1226,4189.340589046478,-51.239891052246094,14.219549179077148,49.682098388671875,0.44
318,MetaDrive-test-no-noise-td3-low,75,255.12773799462693,319019,1227,4201.377930879593,-54.30711364746094,7.299393653869629,54.05458068847656,0.45
319,MetaDrive-test-no-noise-td3-low,75,253.42816230251202,320246,1230,4216.677519083023,,7.767428874969482,47.922157287597656,0.45
320,MetaDrive-test-no-noise-td3-low,75,251.5187945170543,321095,1232,4229.451686143875,-53.309547424316406,11.609321594238281,52.59947967529297,0.44
321,MetaDrive-test-no-noise-td3-low,75,252.98973129668673,322096,1233,4242.919946908951,,8.872915267944336,50.736366271972656,0.44
322,MetaDrive-test-no-noise-td3-low,75,253.52856494367177,323097,1234,4255.419098138809,-55.636024475097656,15.076005935668945,55.259925842285156,0.43
323,MetaDrive-test-no-noise-td3-low,75,253.79187487433387,324098,1235,4267.269796133041,,16.818809509277344,50.13044738769531,0.43
324,MetaDrive-test-no-noise-td3-low,75,251.80709000939413,325466,1238,4283.697876930237,,31.398775100708008,50.49643325805664,0.42
325,MetaDrive-test-no-noise-td3-low,75,253.26745467155897,326874,1240,4304.346032142639,,9.280920028686523,46.746971130371094,0.42
326,MetaDrive-test-no-noise-td3-low,75,252.17875214565294,327145,1241,4308.833256959915,-45.098854064941406,16.80802345275879,46.24895477294922,0.41
327,MetaDrive-test-no-noise-td3-low,75,253.35629717924903,328963,1243,4331.843062877655,-57.538429260253906,24.228206634521484,57.39874267578125,0.41
328,MetaDrive-test-no-noise-td3-low,75,252.41024774498806,329503,1244,4340.312638998032,-51.472557067871094,17.569007873535156,52.35639572143555,0.4
329,MetaDrive-test-no-noise-td3-low,75,248.96693012859808,330032,1246,4347.3541560173035,,5.966772079467773,52.85287094116211,0.38
330,MetaDrive-test-no-noise-td3-low,75,252.06018573326597,331970,1248,4373.36478304863,,19.434642791748047,51.8201789855957,0.37
331,MetaDrive-test-no-noise-td3-low,75,251.611125132273,332971,1249,4385.252870798111,-52.178070068359375,18.363262176513672,51.48378372192383,0.36
332,MetaDrive-test-no-noise-td3-low,75,251.76572469495594,333247,1250,4389.604745864868,-52.71876907348633,8.055337905883789,52.79347610473633,0.36
333,MetaDrive-test-no-noise-td3-low,75,251.30561554926715,334053,1251,4399.275033950806,-54.403438568115234,12.651185035705566,53.55512619018555,0.36
334,MetaDrive-test-no-noise-td3-low,75,251.72366104178943,335551,1253,4419.799746990204,-52.63954544067383,23.410953521728516,52.58879089355469,0.37
335,MetaDrive-test-no-noise-td3-low,75,252.00231566043723,336538,1254,4432.205948829651,,6.995863437652588,51.46186065673828,0.38
336,MetaDrive-test-no-noise-td3-low,75,256.0248253480597,337539,1255,4449.944231033325,-53.01312255859375,23.278953552246094,53.210044860839844,0.38
337,MetaDrive-test-no-noise-td3-low,75,258.91220832693836,338241,1256,4458.9225897789,-49.86084747314453,20.30318832397461,50.024017333984375,0.39
338,MetaDrive-test-no-noise-td3-low,75,259.6628174258455,339346,1258,4474.244000911713,,8.481794357299805,57.26937484741211,0.39
339,MetaDrive-test-no-noise-td3-low,75,259.3876867368337,340195,1260,4484.408136844635,-54.547359466552734,7.347444534301758,54.36861801147461,0.4
340,MetaDrive-test-no-noise-td3-low,75,259.9550760316599,341225,1262,4499.379265069962,-54.525169372558594,86.07475280761719,53.15203857421875,0.4
341,MetaDrive-test-no-noise-td3-low,75,260.72054034314914,342413,1264,4514.417046070099,-50.73149490356445,10.777057647705078,50.228546142578125,0.42
342,MetaDrive-test-no-noise-td3-low,75,261.521270782078,343163,1265,4525.4830849170685,-55.71278381347656,29.309616088867188,55.191349029541016,0.43
343,MetaDrive-test-no-noise-td3-low,75,263.31452998071,344545,1267,4546.5566329956055,-51.599884033203125,39.210723876953125,51.268531799316406,0.43
344,MetaDrive-test-no-noise-td3-low,75,265.5143431684044,345033,1268,4553.178364038467,-51.42670440673828,9.729410171508789,52.86774444580078,0.44
345,MetaDrive-test-no-noise-td3-low,75,261.4274582733245,346368,1271,4573.873708963394,,8.965476036071777,51.69245147705078,0.43
346,MetaDrive-test-no-noise-td3-low,75,261.1752355946685,347023,1272,4582.134656906128,-48.98735427856445,17.8142032623291,48.70508575439453,0.44
347,MetaDrive-test-no-noise-td3-low,75,262.7513875956323,348065,1274,4595.921029090881,-51.90040969848633,60.806434631347656,50.511077880859375,0.45
348,MetaDrive-test-no-noise-td3-low,75,258.21909928380063,349124,1277,4610.46625494957,,21.1234130859375,52.581825256347656,0.46
349,MetaDrive-test-no-noise-td3-low,75,256.2230238671267,350077,1279,4623.890471935272,-50.70124816894531,12.339418411254883,50.573246002197266,0.45
350,MetaDrive-test-no-noise-td3-low,75,252.67438769271826,351148,1282,4639.917778968811,,8.444978713989258,52.196590423583984,0.43
351,MetaDrive-test-no-noise-td3-low,75,251.02309768311443,352148,1285,4653.124963998795,,12.595541954040527,52.946510314941406,0.42
352,MetaDrive-test-no-noise-td3-low,75,251.12551925456438,353054,1287,4666.098957061768,,16.087968826293945,52.82183837890625,0.41
353,MetaDrive-test-no-noise-td3-low,75,251.40274723827713,354107,1289,4679.874279975891,-47.83729934692383,5.332803726196289,47.22803497314453,0.4
354,MetaDrive-test-no-noise-td3-low,75,254.35338630302348,355353,1291,4698.599175930023,-46.11527633666992,61.71965789794922,44.798118591308594,0.41
355,MetaDrive-test-no-noise-td3-low,75,256.4118283421705,356556,1294,4715.303347826004,,8.982912063598633,50.22220230102539,0.41
356,MetaDrive-test-no-noise-td3-low,75,256.17610372401504,357024,1296,4721.8697011470795,,7.5613532066345215,55.0845832824707,0.41
357,MetaDrive-test-no-noise-td3-low,75,258.58234183824743,358777,1299,4744.719188928604,-54.187164306640625,6.276320457458496,53.39496612548828,0.4
358,MetaDrive-test-no-noise-td3-low,75,259.0633019444424,359315,1300,4751.721659183502,-55.74633026123047,7.241128444671631,55.09481430053711,0.4
359,MetaDrive-test-no-noise-td3-low,75,255.14280652110608,360038,1302,4761.291845083237,,11.64457893371582,50.9834098815918,0.39
360,MetaDrive-test-no-noise-td3-low,75,261.03350847934894,361137,1304,4777.111400842667,-53.22374725341797,20.414356231689453,52.235164642333984,0.41
361,MetaDrive-test-no-noise-td3-low,75,258.9141630167572,362845,1307,4804.7775111198425,-49.26333999633789,7.864267826080322,49.30550765991211,0.4
362,MetaDrive-test-no-noise-td3-low,75,258.4015128082041,363501,1308,4814.517833948135,-53.6683349609375,6.243995189666748,53.46633529663086,0.4
363,MetaDrive-test-no-noise-td3-low,75,258.21447965928326,364401,1310,4826.828377962112,-53.276206970214844,4.671245574951172,52.67439270019531,0.4
364,MetaDrive-test-no-noise-td3-low,75,256.9317620481395,365089,1312,4836.870064020157,-51.58009338378906,9.961893081665039,51.09770965576172,0.4
365,MetaDrive-test-no-noise-td3-low,75,259.8054474779841,366629,1314,4860.0887858867645,-51.33908462524414,5.637487411499023,51.274757385253906,0.4
366,MetaDrive-test-no-noise-td3-low,75,259.1124640998054,367630,1315,4876.58621096611,,12.586947441101074,52.68144607543945,0.39
367,MetaDrive-test-no-noise-td3-low,75,261.5286452441426,368228,1316,4885.3586847782135,,10.967262268066406,54.72160339355469,0.4
368,MetaDrive-test-no-noise-td3-low,75,260.3956727691255,369532,1319,4903.15257692337,,6.3794097900390625,55.28955841064453,0.4
369,MetaDrive-test-no-noise-td3-low,75,259.07901844777854,370262,1321,4913.276295900345,,7.452628135681152,51.913330078125,0.4
370,MetaDrive-test-no-noise-td3-low,75,261.13741324865987,371428,1323,4929.3239459991455,,7.850919723510742,58.96428298950195,0.42
371,MetaDrive-test-no-noise-td3-low,75,260.2816525508832,372429,1324,4949.194745063782,-56.844783782958984,52.54535675048828,56.454586029052734,0.41
372,MetaDrive-test-no-noise-td3-low,75,260.1688415132228,373761,1326,4968.51793885231,-51.39674377441406,8.123758316040039,51.69937515258789,0.42
373,MetaDrive-test-no-noise-td3-low,75,256.1170735357769,374390,1328,4979.125814914703,,8.817264556884766,55.74119186401367,0.41
374,MetaDrive-test-no-noise-td3-low,75,257.15932194378246,375391,1329,4998.044610977173,-51.5053825378418,25.318246841430664,50.57472610473633,0.4
375,MetaDrive-test-no-noise-td3-low,75,257.27735667750034,376085,1331,5009.110900878906,-50.59790802001953,3.9369935989379883,50.34682846069336,0.4
376,MetaDrive-test-no-noise-td3-low,75,253.4160826638402,377717,1334,5032.872066020966,-50.98957061767578,4.987847328186035,50.69126510620117,0.4
377,MetaDrive-test-no-noise-td3-low,74,254.89309108199149,378863,1336,5053.385018110275,-49.39365768432617,16.255048751831055,49.663883209228516,0.4
378,MetaDrive-test-no-noise-td3-low,74,255.67508133741427,379459,1337,5062.633576869965,-50.55704879760742,26.915937423706055,50.00739669799805,0.4
379,MetaDrive-test-no-noise-td3-low,74,255.11304948772718,380251,1339,5074.603574037552,-52.55177307128906,11.655722618103027,52.098148345947266,0.4
380,MetaDrive-test-no-noise-td3-low,74,253.30748954482584,381252,1340,5092.452008962631,,7.045159339904785,53.806663513183594,0.4
381,MetaDrive-test-no-noise-td3-low,74,254.3913275018967,382107,1341,5106.6829171180725,-49.134765625,27.864986419677734,49.74025344848633,0.4
382,MetaDrive-test-no-noise-td3-low,74,256.972332532212,383269,1343,5123.404500961304,-48.58592224121094,5.283868789672852,48.747520446777344,0.42
383,MetaDrive-test-no-noise-td3-low,74,258.2814446374795,384463,1345,5140.575042963028,-50.773258209228516,7.2059173583984375,50.923728942871094,0.43
384,MetaDrive-test-no-noise-td3-low,74,259.1325907988952,385545,1347,5156.032311916351,-50.88310241699219,9.412877082824707,50.06411361694336,0.45
385,MetaDrive-test-no-noise-td3-low,74,258.1842506220093,386472,1348,5171.472414970398,,8.697090148925781,49.69988250732422,0.45
386,MetaDrive-test-no-noise-td3-low,74,260.94938861503533,387525,1350,5186.85418009758,-48.077110290527344,6.332095146179199,47.70840072631836,0.47
387,MetaDrive-test-no-noise-td3-low,74,261.1453056665823,388174,1351,5195.985469818115,,13.665205955505371,45.330108642578125,0.48
388,MetaDrive-test-no-noise-td3-low,74,259.59462092188244,389312,1353,5212.944839954376,,10.19127082824707,51.510169982910156,0.47
389,MetaDrive-test-no-noise-td3-low,74,257.3261738692014,390681,1355,5237.581457853317,-48.969703674316406,11.707054138183594,48.670806884765625,0.47
390,MetaDrive-test-no-noise-td3-low,74,255.97473364087463,391158,1356,5245.127764940262,,10.547920227050781,46.73551559448242,0.46
391,MetaDrive-test-no-noise-td3-low,74,255.86106100226635,392322,1358,5261.169309854507,,11.387489318847656,51.036903381347656,0.48
392,MetaDrive-test-no-noise-td3-low,74,260.16678938288254,393168,1359,5275.479726076126,,8.820943832397461,52.27519226074219,0.49
393,MetaDrive-test-no-noise-td3-low,74,262.5045318151538,394091,1361,5290.448289871216,-54.478302001953125,38.649208068847656,53.02821731567383,0.49
394,MetaDrive-test-no-noise-td3-low,74,260.3327723310716,395239,1363,5309.0039439201355,-54.68190002441406,5.2760772705078125,53.732852935791016,0.48
395,MetaDrive-test-no-noise-td3-low,74,259.1702172411704,396240,1364,5324.880373954773,,10.632508277893066,48.91171646118164,0.47
396,MetaDrive-test-no-noise-td3-low,74,255.05998415867572,397233,1367,5338.356090068817,-49.4520263671875,5.845183372497559,48.414398193359375,0.46
397,MetaDrive-test-no-noise-td3-low,74,254.90271023164098,398289,1369,5354.069833993912,-49.742637634277344,29.55145835876465,48.33561706542969,0.45
398,MetaDrive-test-no-noise-td3-low,74,255.1769643372995,399120,1371,5366.030256986618,,15.663179397583008,51.20136260986328,0.46
399,MetaDrive-test-no-noise-td3-low,74,253.40416298118808,400513,1373,5390.789911031723,-47.07868194580078,7.929469108581543,47.28499984741211,0.44
400,MetaDrive-test-no-noise-td3-low,74,255.69809892718166,401509,1375,5405.708642959595,-47.820560455322266,9.865203857421875,46.68480682373047,0.44
401,MetaDrive-test-no-noise-td3-low,74,257.9171332606423,402232,1377,5415.93919301033,,5.2496562004089355,51.298492431640625,0.45
402,MetaDrive-test-no-noise-td3-low,74,257.8767710811722,403233,1378,5430.096951961517,-51.23623275756836,10.479585647583008,51.51063537597656,0.45
403,MetaDrive-test-no-noise-td3-low,74,257.64344913072057,404070,1379,5443.218991994858,,14.186458587646484,51.123069763183594,0.45
404,MetaDrive-test-no-noise-td3-low,74,258.5684750783512,405241,1382,5461.083664178848,-54.24253463745117,8.706573486328125,53.89738082885742,0.45
405,MetaDrive-test-no-noise-td3-low,74,256.95850345895184,406074,1385,5473.933115005493,,4.635231971740723,51.84699249267578,0.44
406,MetaDrive-test-no-noise-td3-low,74,258.6428683289274,407075,1386,5490.90213394165,-48.9300422668457,10.786371231079102,48.164276123046875,0.44
407,MetaDrive-test-no-noise-td3-low,74,259.85147040018074,408773,1389,5515.929532051086,-46.953372955322266,6.7928009033203125,46.94114685058594,0.46
408,MetaDrive-test-no-noise-td3-low,74,261.7087825567567,409774,1390,5533.197745800018,,11.519225120544434,47.185604095458984,0.45
409,MetaDrive-test-no-noise-td3-low,74,261.25545106822943,410775,1391,5548.76523900032,-48.19721221923828,6.536410808563232,47.816654205322266,0.44
410,MetaDrive-test-no-noise-td3-low,74,261.40442601790687,411007,1392,5552.179065942764,-47.78046417236328,24.719161987304688,48.40974044799805,0.44
411,MetaDrive-test-no-noise-td3-low,73,264.82358666239594,412008,1393,5570.7808220386505,,8.995062828063965,46.21588134765625,0.44
412,MetaDrive-test-no-noise-td3-low,73,264.6149113612786,413009,1394,5588.187832117081,-53.890106201171875,38.844486236572266,52.921390533447266,0.43
413,MetaDrive-test-no-noise-td3-low,73,269.16234090141893,414885,1396,5622.099982976913,-48.83494567871094,17.71997833251953,47.98047637939453,0.44
414,MetaDrive-test-no-noise-td3-low,73,268.37063235445976,415003,1397,5624.184417009354,-51.822025299072266,4.884448051452637,51.77507400512695,0.44
415,MetaDrive-test-no-noise-td3-low,73,263.284416748412,416378,1401,5646.330646038055,,6.079120635986328,48.05257797241211,0.43
416,MetaDrive-test-no-noise-td3-low,73,264.3875804148882,417652,1403,5666.600988864899,,13.124948501586914,49.544342041015625,0.42
417,MetaDrive-test-no-noise-td3-low,73,263.3962184999494,418653,1404,5683.466596126556,-50.71326446533203,4.7008161544799805,50.276527404785156,0.41
418,MetaDrive-test-no-noise-td3-low,73,265.0199658983031,419194,1405,5692.064487934113,,7.639339923858643,52.258460998535156,0.41
419,MetaDrive-test-no-noise-td3-low,73,260.8939355705397,420218,1409,5708.512483119965,,11.050748825073242,50.4576416015625,0.39
420,MetaDrive-test-no-noise-td3-low,73,262.65156977292133,421729,1411,5732.77969288826,-51.19451904296875,12.342939376831055,51.498043060302734,0.39
421,MetaDrive-test-no-noise-td3-low,73,264.1859257392506,422730,1412,5749.5641939640045,,5.7381486892700195,49.92073440551758,0.39
422,MetaDrive-test-no-noise-td3-low,73,262.89819627824255,423731,1413,5766.758931875229,-50.066200256347656,11.234269142150879,49.02484130859375,0.38
423,MetaDrive-test-no-noise-td3-low,73,260.5352659958412,424732,1414,5782.254588842392,,8.780479431152344,51.648338317871094,0.38
424,MetaDrive-test-no-noise-td3-low,73,260.37202517433275,425202,1415,5789.481458902359,,4.633515357971191,50.29747009277344,0.39
425,MetaDrive-test-no-noise-td3-low,73,260.90553911520715,426234,1417,5805.779695987701,,6.592418193817139,45.85414505004883,0.38
426,MetaDrive-test-no-noise-td3-low,73,258.24567552067106,427104,1420,5818.964239120483,,7.852444171905518,51.61957550048828,0.37
427,MetaDrive-test-no-noise-td3-low,73,259.4209010119973,428561,1422,5841.2210149765015,-46.07535171508789,10.412080764770508,45.063690185546875,0.37
428,MetaDrive-test-no-noise-td3-low,73,260.7827295306416,429498,1423,5858.251398801804,,16.291645050048828,44.224273681640625,0.37
429,MetaDrive-test-no-noise-td3-low,73,259.9937414276442,430659,1425,5876.946969032288,-52.353572845458984,9.479513168334961,51.673336029052734,0.38
430,MetaDrive-test-no-noise-td3-low,73,261.78794908832316,431660,1426,5895.486267089844,,8.346660614013672,50.842323303222656,0.38
431,MetaDrive-test-no-noise-td3-low,73,264.5640373301857,432189,1427,5904.217973947525,-47.54853057861328,10.855226516723633,46.362056732177734,0.39
432,MetaDrive-test-no-noise-td3-low,73,259.56320289277346,433096,1431,5918.022649049759,,14.632892608642578,49.92753601074219,0.38
433,MetaDrive-test-no-noise-td3-low,73,262.1113689214416,434088,1433,5932.570238828659,,6.929017066955566,45.291481018066406,0.39
434,MetaDrive-test-no-noise-td3-low,73,257.54457202928546,435194,1436,5950.57118678093,,57.07301330566406,47.37315368652344,0.39
435,MetaDrive-test-no-noise-td3-low,73,255.51250279490637,436094,1439,5963.217903137207,,6.4500346183776855,48.406211853027344,0.39
436,MetaDrive-test-no-noise-td3-low,73,249.84140464378518,437091,1443,5978.285946130753,-45.79936599731445,6.853124618530273,45.548851013183594,0.38
437,MetaDrive-test-no-noise-td3-low,73,249.6486486959049,438588,1446,6005.104897975922,,52.98743438720703,50.90286636352539,0.36
438,MetaDrive-test-no-noise-td3-low,73,250.3816423416231,439418,1447,6019.1299839019775,,133.482666015625,49.88093185424805,0.36
439,MetaDrive-test-no-noise-td3-low,72,251.29507909545228,440684,1449,6038.947014808655,,7.532393455505371,47.73488998413086,0.37
440,MetaDrive-test-no-noise-td3-low,72,251.3245285698773,441323,1450,6049.380966186523,-50.59734344482422,7.897815704345703,50.237186431884766,0.37
441,MetaDrive-test-no-noise-td3-low,72,252.09657917618287,442153,1452,6062.201219081879,-49.5458869934082,14.633697509765625,49.15305709838867,0.37
442,MetaDrive-test-no-noise-td3-low,72,254.5127960647225,443316,1454,6081.423370838165,,6.791449546813965,49.90150451660156,0.37
443,MetaDrive-test-no-noise-td3-low,72,255.42529672177128,444676,1456,6104.224299907684,,8.92779541015625,52.32500457763672,0.38
444,MetaDrive-test-no-noise-td3-low,72,254.46971059528718,445062,1457,6109.86282992363,,11.042439460754395,47.68983459472656,0.37
445,MetaDrive-test-no-noise-td3-low,72,249.427138225873,446287,1460,6128.5671899318695,-47.74482345581055,69.74626922607422,47.75164794921875,0.36
446,MetaDrive-test-no-noise-td3-low,72,253.17686111338588,447474,1462,6147.1673991680145,,9.856569290161133,47.976253509521484,0.38
447,MetaDrive-test-no-noise-td3-low,72,252.57962171083074,448475,1463,6164.100527048111,-44.82894515991211,10.109426498413086,44.93111038208008,0.37
448,MetaDrive-test-no-noise-td3-low,72,252.72913495115023,449447,1465,6180.731453895569,-44.810604095458984,16.884597778320312,43.70157241821289,0.37
449,MetaDrive-test-no-noise-td3-low,72,254.10119874490482,450912,1468,6205.9601719379425,,18.111040115356445,47.15525817871094,0.36
450,MetaDrive-test-no-noise-td3-low,72,255.98657662017212,451913,1469,6223.8600969314575,-48.01429748535156,7.667481422424316,48.57018280029297,0.36
451,MetaDrive-test-no-noise-td3-low,72,256.4510026581667,452283,1470,6228.985749959946,-50.78467559814453,11.879959106445312,51.1086540222168,0.37
452,MetaDrive-test-no-noise-td3-low,72,255.52162034165787,453393,1473,6246.764924764633,-50.54422378540039,33.00307846069336,50.6359977722168,0.37
453,MetaDrive-test-no-noise-td3-low,72,257.8430779714632,454394,1474,6267.01647400856,,10.176133155822754,47.97108840942383,0.37
454,MetaDrive-test-no-noise-td3-low,72,256.66014589792724,455395,1475,6284.750398874283,-48.66337203979492,6.035196304321289,48.941402435302734,0.36
455,MetaDrive-test-no-noise-td3-low,72,258.39399788128117,456274,1477,6298.7819719314575,,7.002181053161621,43.366146087646484,0.37
456,MetaDrive-test-no-noise-td3-low,72,260.5668115993261,457622,1479,6322.375316858292,,11.735971450805664,45.621089935302734,0.38
457,MetaDrive-test-no-noise-td3-low,72,262.78150027279423,458206,1480,6332.4420170784,,8.465882301330566,46.85367202758789,0.39
458,MetaDrive-test-no-noise-td3-low,72,263.3788588241046,459095,1482,6345.712380170822,-46.622032165527344,6.434187889099121,46.44293975830078,0.39
459,MetaDrive-test-no-noise-td3-low,72,266.2747403827281,460477,1484,6371.953170776367,-46.33573913574219,8.145490646362305,47.51931381225586,0.39
460,MetaDrive-test-no-noise-td3-low,72,266.0176110307889,461339,1486,6384.176241159439,-50.478187561035156,7.053933143615723,49.416656494140625,0.4
461,MetaDrive-test-no-noise-td3-low,72,265.56586589435994,462421,1488,6401.183722019196,-46.14630126953125,76.45932006835938,45.723087310791016,0.39
462,MetaDrive-test-no-noise-td3-low,72,264.74634601483484,463225,1489,6413.59189081192,-48.754329681396484,7.675599575042725,48.73773193359375,0.39
463,MetaDrive-test-no-noise-td3-low,72,262.8636487356532,464226,1490,6431.014050960541,,6.692320346832275,49.681732177734375,0.39
464,MetaDrive-test-no-noise-td3-low,72,262.6555554261024,465249,1492,6448.144410133362,-45.54910659790039,18.50131607055664,44.04813766479492,0.4
465,MetaDrive-test-no-noise-td3-low,72,260.1971524083595,466377,1494,6466.829834938049,-44.4348258972168,7.632303714752197,44.33222961425781,0.41
466,MetaDrive-test-no-noise-td3-low,72,256.9220695684729,467162,1496,6479.860554933548,,8.950279235839844,46.78942108154297,0.41
467,MetaDrive-test-no-noise-td3-low,72,255.7943488197419,468645,1498,6502.8603320121765,-47.63419723510742,16.094486236572266,48.07244110107422,0.4
468,MetaDrive-test-no-noise-td3-low,72,256.71767743202713,469070,1499,6509.5748999118805,,7.886686325073242,48.51422119140625,0.4
469,MetaDrive-test-no-noise-td3-low,72,260.5520305566768,470203,1501,6527.886140823364,-45.20928955078125,9.856643676757812,45.581031799316406,0.42
470,MetaDrive-test-no-noise-td3-low,71,262.76742392209485,471680,1503,6551.339117050171,,8.23850154876709,51.5222053527832,0.44
471,MetaDrive-test-no-noise-td3-low,71,264.4870785617008,472301,1504,6560.919983148575,-52.64973449707031,6.060176849365234,52.769012451171875,0.45
472,MetaDrive-test-no-noise-td3-low,71,267.12389482805446,473234,1506,6577.317301988602,,94.75302124023438,42.5151252746582,0.46
473,MetaDrive-test-no-noise-td3-low,71,267.25533910182793,474235,1507,6594.512168884277,-46.355018615722656,11.893007278442383,46.278900146484375,0.46
474,MetaDrive-test-no-noise-td3-low,71,269.34381296961874,475051,1508,6607.886698961258,-45.10399627685547,6.986639022827148,44.526390075683594,0.47
475,MetaDrive-test-no-noise-td3-low,71,269.5634324510617,476090,1510,6625.209880113602,,90.40626525878906,44.878562927246094,0.46
476,MetaDrive-test-no-noise-td3-low,71,268.96962371256285,477091,1511,6645.230130910873,-48.09095001220703,8.521814346313477,48.361873626708984,0.45
477,MetaDrive-test-no-noise-td3-low,71,270.08072355565537,478682,1514,6668.778614044189,,4.608681678771973,46.24471664428711,0.47
478,MetaDrive-test-no-noise-td3-low,71,270.1187711555847,479362,1515,6678.868647098541,,5.495803356170654,47.2913932800293,0.47
479,MetaDrive-test-no-noise-td3-low,71,270.22681237453617,480208,1517,6692.625625133514,,7.184177398681641,45.53961181640625,0.47
480,MetaDrive-test-no-noise-td3-low,71,273.30372138654724,481902,1519,6719.537191867828,,9.55683708190918,47.637481689453125,0.47
481,MetaDrive-test-no-noise-td3-low,71,274.6224326881504,482458,1520,6728.368695020676,,6.396474838256836,47.14042282104492,0.47
482,MetaDrive-test-no-noise-td3-low,71,273.7241043242838,483089,1521,6738.109863042831,-46.36201477050781,5.078773021697998,45.85704803466797,0.47
483,MetaDrive-test-no-noise-td3-low,71,272.26562612511685,484267,1523,6755.69376206398,-48.83020782470703,9.497666358947754,47.61674499511719,0.47
484,MetaDrive-test-no-noise-td3-low,71,272.3904602476845,485042,1524,6766.962368965149,,4.187075614929199,48.783233642578125,0.47
485,MetaDrive-test-no-noise-td3-low,71,267.4303562743903,486251,1527,6786.047100067139,-49.747806549072266,15.352680206298828,48.621795654296875,0.46
486,MetaDrive-test-no-noise-td3-low,71,270.23775635455337,487004,1528,6799.787616968155,,9.657299995422363,49.03802490234375,0.47
487,MetaDrive-test-no-noise-td3-low,71,276.00871484666965,488699,1531,6829.856641054153,-42.36121368408203,174.42245483398438,41.7945442199707,0.48
488,MetaDrive-test-no-noise-td3-low,71,274.4932570914194,489031,1532,6835.641564130783,-49.20212173461914,5.2704057693481445,49.10740280151367,0.47
489,MetaDrive-test-no-noise-td3-low,71,275.28804511247125,490379,1534,6855.539983034134,-42.549869537353516,6.980142593383789,42.71207046508789,0.47
490,MetaDrive-test-no-noise-td3-low,71,276.27918641441886,491181,1536,6866.5270619392395,-46.476200103759766,14.142959594726562,46.67569351196289,0.47
491,MetaDrive-test-no-noise-td3-low,71,279.1306739377367,492443,1538,6886.745368003845,-46.81718444824219,14.288461685180664,47.42923355102539,0.48
492,MetaDrive-test-no-noise-td3-low,71,282.0045899788883,493444,1539,6903.948173046112,,11.08789348602295,45.8886604309082,0.48
493,MetaDrive-test-no-noise-td3-low,71,284.31986535273734,494052,1540,6913.63001704216,,5.127270698547363,46.79591751098633,0.49
494,MetaDrive-test-no-noise-td3-low,71,289.3193397472602,495408,1542,6930.8608338832855,,4.767173767089844,47.05780792236328,0.5
495,MetaDrive-test-no-noise-td3-low,71,290.6212170405677,496225,1543,6941.54253411293,-48.09418869018555,6.789647102355957,47.71828079223633,0.5
496,MetaDrive-test-no-noise-td3-low,71,291.64722294564683,497541,1545,6958.516546964645,-46.30937957763672,26.884489059448242,46.70490264892578,0.5
497,MetaDrive-test-no-noise-td3-low,71,288.65682681799046,498353,1547,6968.418140172958,-48.57857894897461,11.948471069335938,47.151588439941406,0.5
498,MetaDrive-test-no-noise-td3-low,71,285.85110444604726,499046,1549,6977.9414529800415,,9.308616638183594,46.01838684082031,0.48
