TanmayH/CS269-RL-project-code/MetaDrive-test-no-noise2-td3_weighted_ignore/td3/progress.csv
,log_dir,frame_per_second,episode_reward,total_steps,total_episodes,total_time,target_q,actor_loss,critic_loss,success_rate
0,MetaDrive-test-no-noise2-td3,623,7.233735284689523,1590,2,2.548137903213501,,,,0.0
1,MetaDrive-test-no-noise2-td3,554,7.729394437291471,2591,3,4.6731531620025635,,,,0.0
2,MetaDrive-test-no-noise2-td3,560,8.420544726726067,3592,4,6.408340930938721,,,,0.0
3,MetaDrive-test-no-noise2-td3,496,7.601327305009206,4988,6,10.043745756149292,,,,0.0
4,MetaDrive-test-no-noise2-td3,520,8.184242142787388,5989,7,11.498667001724243,,,,0.0
5,MetaDrive-test-no-noise2-td3,520,8.806010897340276,6990,8,13.42512583732605,,,,0.0
6,MetaDrive-test-no-noise2-td3,524,8.816497734261524,7991,9,15.22303295135498,,,,0.0
7,MetaDrive-test-no-noise2-td3,527,7.846902082555735,8371,10,15.87756085395813,,,,0.0
8,MetaDrive-test-no-noise2-td3,532,7.427560560392444,9016,11,16.919351816177368,,,,0.0
9,MetaDrive-test-no-noise2-td3,509,7.666010049368758,10017,12,19.65781307220459,0.019155748188495636,-0.013001343235373497,0.0025644453708082438,0.0
10,MetaDrive-test-no-noise2-td3,339,0.5538363924044485,11325,37,33.344862937927246,0.0769822895526886,-0.09147226065397263,0.0037617699708789587,0.0
11,MetaDrive-test-no-noise2-td3,297,0.49420545288480217,12326,38,41.46942496299744,0.08353026956319809,,0.0016811208333820105,0.0
12,MetaDrive-test-no-noise2-td3,253,0.2618489657558361,13827,40,54.562581062316895,0.09454479068517685,-0.07616905122995377,0.0021798035595566034,0.0
13,MetaDrive-test-no-noise2-td3,249,0.13388764509479267,14004,41,56.19404077529907,0.08877857029438019,,0.005707793869078159,0.0
14,MetaDrive-test-no-noise2-td3,223,0.16836029507232264,15496,48,69.38208794593811,0.120878666639328,,0.005862627178430557,0.0
15,MetaDrive-test-no-noise2-td3,213,0.2605579321102225,16281,50,76.22231984138489,0.1508456915616989,-0.14367453753948212,0.0037220281083136797,0.0
16,MetaDrive-test-no-noise2-td3,200,0.2695006419930533,17489,54,87.18550395965576,0.17471808195114136,-0.19263285398483276,0.004025815054774284,0.0
17,MetaDrive-test-no-noise2-td3,194,0.4703606647383351,18127,56,93.00290203094482,0.18401560187339783,-0.1764747053384781,0.0028922539204359055,0.0
18,MetaDrive-test-no-noise2-td3,185,0.5154963396936101,19173,64,103.11569094657898,0.21894367039203644,-0.21099865436553955,0.0013753615785390139,0.0
19,MetaDrive-test-no-noise2-td3,179,2.2349028961407735,20111,71,112.12835478782654,0.2811131477355957,-0.27367573976516724,0.018154341727495193,0.0
20,MetaDrive-test-no-noise2-td3,171,2.158523769879398,21007,93,122.25917291641235,0.2418648600578308,-0.23030368983745575,0.4180210828781128,0.0
21,MetaDrive-test-no-noise2-td3,165,1.9562421500264315,22044,113,133.2999608516693,0.3955691456794739,,0.03211537376046181,0.0
22,MetaDrive-test-no-noise2-td3,158,4.232816918488613,23062,134,145.39545702934265,0.5016865134239197,,0.03538481146097183,0.0
23,MetaDrive-test-no-noise2-td3,153,6.505880672198166,24017,156,156.26339888572693,0.6211751103401184,-0.5918538570404053,0.05354966223239899,0.0
24,MetaDrive-test-no-noise2-td3,148,6.455560927938023,25056,184,168.2099449634552,0.6399092674255371,,0.879224419593811,0.0
25,MetaDrive-test-no-noise2-td3,145,7.720142080056609,26015,207,179.11117601394653,0.8906143307685852,-0.9021113514900208,0.04348677769303322,0.0
26,MetaDrive-test-no-noise2-td3,141,7.631006995053043,27026,232,191.33579993247986,1.234391450881958,,0.09977929294109344,0.0
27,MetaDrive-test-no-noise2-td3,138,7.047743189520835,28043,254,202.14635181427002,1.344564437866211,-1.5689709186553955,1.4338301420211792,0.0
28,MetaDrive-test-no-noise2-td3,135,8.762512155043703,29025,273,213.5115888118744,1.6626436710357666,-1.7256923913955688,1.5121409893035889,0.0
29,MetaDrive-test-no-noise2-td3,133,9.386281895260964,30085,296,225.73937797546387,2.0689711570739746,-2.133143424987793,0.18800288438796997,0.0
30,MetaDrive-test-no-noise2-td3,131,10.33508068763668,31004,313,235.37084794044495,2.3055262565612793,,0.0762171745300293,0.0
31,MetaDrive-test-no-noise2-td3,129,12.745934396442056,32041,331,246.64608097076416,2.484229564666748,-2.6530213356018066,1.5259296894073486,0.0
32,MetaDrive-test-no-noise2-td3,127,16.630687480152133,33081,346,258.5697500705719,3.1340930461883545,-3.0713140964508057,0.6496546268463135,0.0
33,MetaDrive-test-no-noise2-td3,126,19.312936072009744,34051,359,268.6534810066223,3.0217888355255127,-3.431957721710205,6.487560272216797,0.0
34,MetaDrive-test-no-noise2-td3,125,23.727935399181643,35022,369,279.08178782463074,3.6225907802581787,,5.175865173339844,0.0
35,MetaDrive-test-no-noise2-td3,124,28.908254461024338,36026,380,289.7039370536804,4.145419120788574,,2.2483060359954834,0.0
36,MetaDrive-test-no-noise2-td3,123,34.53839632702383,37042,391,300.3239440917969,4.952539443969727,,0.17619144916534424,0.0
37,MetaDrive-test-no-noise2-td3,122,39.13513591229349,38127,401,311.9049768447876,5.851900577545166,-6.197454929351807,0.15824690461158752,0.0
38,MetaDrive-test-no-noise2-td3,120,43.78741719583988,39027,410,322.68655490875244,5.985818386077881,-6.44464635848999,1.107323169708252,0.0
39,MetaDrive-test-no-noise2-td3,120,48.87369939182155,40053,420,333.5000629425049,6.9286208152771,-6.941310882568359,1.3362820148468018,0.0
40,MetaDrive-test-no-noise2-td3,119,54.134221590644586,41016,429,342.96196389198303,7.553066253662109,,0.5052037239074707,0.0
41,MetaDrive-test-no-noise2-td3,118,59.48819541685122,42001,437,353.5827977657318,8.120180130004883,-8.076187133789062,0.7371454238891602,0.0
42,MetaDrive-test-no-noise2-td3,117,63.1189502368429,43087,448,365.4776768684387,8.929900169372559,-9.48724365234375,6.0396246910095215,0.0
43,MetaDrive-test-no-noise2-td3,117,66.80002123981458,44054,456,375.75166177749634,9.059568405151367,,12.56869888305664,0.0
44,MetaDrive-test-no-noise2-td3,116,70.74432115153111,45125,465,387.3903660774231,9.473797798156738,-9.685113906860352,1.1301403045654297,0.0
45,MetaDrive-test-no-noise2-td3,116,74.76358046611314,46047,472,396.3465828895569,11.558110237121582,-11.776261329650879,7.134446144104004,0.01
46,MetaDrive-test-no-noise2-td3,115,77.3465148020747,47079,480,407.19457173347473,11.991726875305176,-12.82373332977295,14.051159858703613,0.01
47,MetaDrive-test-no-noise2-td3,115,82.1096191396119,48006,486,416.85380697250366,13.058540344238281,,14.264415740966797,0.01
48,MetaDrive-test-no-noise2-td3,114,88.27300955328332,49666,490,433.3814899921417,14.555671691894531,,1.5774526596069336,0.03
49,MetaDrive-test-no-noise2-td3,113,91.9824903725743,50692,492,446.138445854187,15.9151029586792,,4.3346967697143555,0.04
50,MetaDrive-test-no-noise2-td3,113,92.3150911595161,51065,495,450.11806893348694,14.548617362976074,-15.823684692382812,41.70496368408203,0.04
51,MetaDrive-test-no-noise2-td3,113,95.45253118766244,52324,502,462.32181191444397,17.132278442382812,,37.24904251098633,0.04
52,MetaDrive-test-no-noise2-td3,112,98.47882645551257,53698,504,478.4291501045227,17.828332901000977,,9.331172943115234,0.04
53,MetaDrive-test-no-noise2-td3,111,100.58945072630443,54371,507,485.94573283195496,18.114978790283203,-18.645404815673828,17.620555877685547,0.04
54,MetaDrive-test-no-noise2-td3,111,105.7122310418065,55676,510,500.8264060020447,18.237279891967773,,13.343133926391602,0.06
55,MetaDrive-test-no-noise2-td3,110,106.9499095340156,56129,512,506.1945128440857,20.397417068481445,-21.031986236572266,3.3575940132141113,0.06
56,MetaDrive-test-no-noise2-td3,110,106.46076032243431,57047,521,515.5798668861389,21.773765563964844,-22.62683868408203,2.6800317764282227,0.06
57,MetaDrive-test-no-noise2-td3,110,108.48934099350126,58044,529,525.4670128822327,21.696928024291992,,1.9205912351608276,0.06
58,MetaDrive-test-no-noise2-td3,110,108.31083453337067,59047,537,535.4032878875732,22.377166748046875,-22.452180862426758,3.4144299030303955,0.06
59,MetaDrive-test-no-noise2-td3,109,110.62557657815188,60087,545,546.6795079708099,22.915369033813477,-23.44599723815918,2.1959986686706543,0.06
60,MetaDrive-test-no-noise2-td3,109,109.73434867888504,61082,554,557.0923669338226,22.17574691772461,,24.241836547851562,0.06
61,MetaDrive-test-no-noise2-td3,109,113.25663854271436,62355,558,570.7016777992249,24.077497482299805,-24.38532829284668,7.485925674438477,0.08
62,MetaDrive-test-no-noise2-td3,109,117.00312858484182,63038,561,578.2971279621124,26.317546844482422,,2.788475513458252,0.08
63,MetaDrive-test-no-noise2-td3,108,115.38827470020202,64064,568,588.1550619602203,23.018367767333984,,5.6959075927734375,0.08
64,MetaDrive-test-no-noise2-td3,108,117.30570261844898,65342,573,600.7860269546509,26.488407135009766,,62.48950958251953,0.08
65,MetaDrive-test-no-noise2-td3,108,119.40895575889255,66431,579,613.5455949306488,27.372156143188477,-27.516756057739258,3.1369175910949707,0.08
66,MetaDrive-test-no-noise2-td3,107,117.27021036868882,67987,585,630.3013918399811,29.07575225830078,-29.772464752197266,3.240340232849121,0.08
67,MetaDrive-test-no-noise2-td3,107,117.04981947664835,68096,586,631.3306560516357,26.120803833007812,,26.66665267944336,0.08
68,MetaDrive-test-no-noise2-td3,107,111.6573882203122,69093,591,642.5756669044495,29.35368537902832,-29.805986404418945,3.9626593589782715,0.06
69,MetaDrive-test-no-noise2-td3,107,108.64991095927344,70010,598,652.0884020328522,26.67039680480957,,52.3132438659668,0.05
70,MetaDrive-test-no-noise2-td3,107,112.91350980097565,71268,601,665.5916397571564,28.2294979095459,,5.319472789764404,0.06
71,MetaDrive-test-no-noise2-td3,106,111.6460637156692,72360,603,677.1957988739014,27.60593032836914,,12.864936828613281,0.06
72,MetaDrive-test-no-noise2-td3,106,108.11613571944345,73267,609,686.753534078598,29.944244384765625,-30.604562759399414,4.664938449859619,0.05
73,MetaDrive-test-no-noise2-td3,106,107.7086154969525,74436,613,699.1756329536438,31.714048385620117,,4.673618316650391,0.05
74,MetaDrive-test-no-noise2-td3,106,110.34988735449215,75018,616,705.164000749588,31.994264602661133,,32.95185089111328,0.05
75,MetaDrive-test-no-noise2-td3,106,114.25923825203299,76634,620,722.105700969696,34.37516784667969,,8.413247108459473,0.07
76,MetaDrive-test-no-noise2-td3,106,114.34054745799558,77011,623,726.1369059085846,30.003522872924805,-30.823278427124023,22.798707962036133,0.07
77,MetaDrive-test-no-noise2-td3,106,116.6238623575267,78034,628,736.093035697937,35.29334259033203,,4.017217636108398,0.07
78,MetaDrive-test-no-noise2-td3,105,119.44452185860526,79137,630,749.643691778183,30.627601623535156,-30.913249969482422,4.330753326416016,0.07
79,MetaDrive-test-no-noise2-td3,105,121.34794228908304,80161,635,760.2993810176849,34.83916473388672,-35.541603088378906,7.020271301269531,0.08
80,MetaDrive-test-no-noise2-td3,105,124.88721954048289,81169,637,770.8119277954102,35.78453826904297,-36.493499755859375,2.849949836730957,0.09
81,MetaDrive-test-no-noise2-td3,104,125.467906425529,82623,641,788.1820878982544,33.131717681884766,-33.50996398925781,3.051621913909912,0.09
82,MetaDrive-test-no-noise2-td3,104,127.70818354520576,83014,643,792.1654798984528,34.99590301513672,,5.102917671203613,0.1
83,MetaDrive-test-no-noise2-td3,104,129.77444472403306,84440,648,809.5439128875732,36.487064361572266,,10.380860328674316,0.1
84,MetaDrive-test-no-noise2-td3,104,133.82891549217692,85347,651,818.1110627651215,35.015289306640625,-35.20966339111328,5.126906871795654,0.11
85,MetaDrive-test-no-noise2-td3,104,134.46375066787405,86452,653,830.5640709400177,35.78215789794922,,2.365844249725342,0.11
86,MetaDrive-test-no-noise2-td3,104,136.7676251146105,87008,654,835.8523998260498,33.6023063659668,,74.17428588867188,0.12
87,MetaDrive-test-no-noise2-td3,103,138.91392768702724,88191,657,848.9211280345917,36.694000244140625,-36.67888259887695,15.65108871459961,0.12
88,MetaDrive-test-no-noise2-td3,103,135.97742389141186,89696,659,865.1098997592926,37.47352600097656,,2.806253433227539,0.11
89,MetaDrive-test-no-noise2-td3,103,139.1388622761335,90642,661,875.3299160003662,38.26771926879883,,4.860143661499023,0.12
90,MetaDrive-test-no-noise2-td3,103,143.08932873962928,91335,662,882.7162618637085,34.65520477294922,-35.233970642089844,19.22022819519043,0.13
91,MetaDrive-test-no-noise2-td3,103,142.14312389317786,92132,666,890.6744959354401,37.13982391357422,,3.604396104812622,0.12
92,MetaDrive-test-no-noise2-td3,103,148.6224589296377,93402,668,903.4388480186462,36.60700225830078,,5.468500137329102,0.14
93,MetaDrive-test-no-noise2-td3,103,151.24618636655143,94099,670,911.5236160755157,39.531070709228516,-40.187747955322266,3.6543798446655273,0.15
94,MetaDrive-test-no-noise2-td3,103,155.6952163442024,95553,673,925.8023791313171,36.13645935058594,-37.4344367980957,49.5741081237793,0.17
95,MetaDrive-test-no-noise2-td3,103,159.88095472143354,96467,675,934.0643949508667,39.703697204589844,-39.916385650634766,4.170691967010498,0.19
96,MetaDrive-test-no-noise2-td3,103,163.5268513429181,97156,676,941.3307800292969,41.53767013549805,,2.0523338317871094,0.2
97,MetaDrive-test-no-noise2-td3,103,165.3397277058877,98244,679,951.7731699943542,37.60249710083008,,52.383480072021484,0.22
98,MetaDrive-test-no-noise2-td3,102,170.2137682787251,99640,681,967.9464039802551,40.77923583984375,,3.3160624504089355,0.23
99,MetaDrive-test-no-noise2-td3,102,174.2542237904576,100641,682,980.8035118579865,35.98850631713867,-36.173404693603516,36.090049743652344,0.23
100,MetaDrive-test-no-noise2-td3,102,174.73765275807003,101024,684,984.947429895401,39.31272506713867,,18.13562774658203,0.23
101,MetaDrive-test-no-noise2-td3,102,178.68021083186738,102325,687,997.4670720100403,35.87486267089844,-36.008399963378906,22.0384521484375,0.24
102,MetaDrive-test-no-noise2-td3,102,177.7352634732902,103090,691,1004.8680007457733,38.143707275390625,,61.16914749145508,0.25
103,MetaDrive-test-no-noise2-td3,102,180.2250777064637,104091,692,1017.1380910873413,39.60527420043945,-40.20212936401367,67.25279235839844,0.25
104,MetaDrive-test-no-noise2-td3,102,183.69111539870582,105263,695,1028.7595200538635,42.31305694580078,-42.36383819580078,4.555910110473633,0.26
105,MetaDrive-test-no-noise2-td3,102,186.5366233141049,106218,698,1037.051759004593,38.4825439453125,,6.355884075164795,0.27
106,MetaDrive-test-no-noise2-td3,102,184.18277763159603,107374,701,1050.9768998622894,37.47979736328125,,12.937844276428223,0.27
107,MetaDrive-test-no-noise2-td3,101,185.69286033156405,108375,702,1063.0287461280823,39.834571838378906,-40.858924865722656,4.373723983764648,0.27
108,MetaDrive-test-no-noise2-td3,101,187.68758644576587,109909,705,1079.0974731445312,38.07815170288086,-39.07823944091797,17.718502044677734,0.28
109,MetaDrive-test-no-noise2-td3,101,191.0867588756098,110910,706,1092.0296547412872,40.30632781982422,,13.446252822875977,0.28
110,MetaDrive-test-no-noise2-td3,101,191.00362303451217,111033,707,1093.2538089752197,37.87274169921875,-38.09245300292969,5.6891937255859375,0.28
111,MetaDrive-test-no-noise2-td3,101,192.6414999186349,112099,711,1103.0056200027466,41.282554626464844,-41.450626373291016,5.844449996948242,0.28
112,MetaDrive-test-no-noise2-td3,101,193.24498167796756,113528,714,1118.694198846817,42.13121032714844,,4.299830913543701,0.28
113,MetaDrive-test-no-noise2-td3,101,194.3062475501623,114529,715,1127.706925868988,39.202598571777344,-40.21724319458008,4.550411224365234,0.28
114,MetaDrive-test-no-noise2-td3,101,195.82574311242465,115189,716,1134.9307069778442,38.23552322387695,-38.576881408691406,12.238115310668945,0.29
115,MetaDrive-test-no-noise2-td3,101,196.7955349634344,116079,719,1143.002202987671,39.35667419433594,-39.02788543701172,4.749541282653809,0.29
116,MetaDrive-test-no-noise2-td3,101,198.11798434413475,117221,722,1155.5067179203033,40.80357360839844,-40.59638214111328,9.95272445678711,0.29
117,MetaDrive-test-no-noise2-td3,101,202.95376427105217,118467,724,1167.8789348602295,39.92951202392578,-40.2606315612793,4.357504844665527,0.31
118,MetaDrive-test-no-noise2-td3,101,207.8715970333455,119763,726,1180.0175378322601,38.720123291015625,-39.602272033691406,5.415655136108398,0.33
119,MetaDrive-test-no-noise2-td3,101,209.36184631071328,120277,727,1185.000468969345,38.2099494934082,-38.74787902832031,5.929812431335449,0.34
120,MetaDrive-test-no-noise2-td3,101,210.2785388277534,121278,728,1197.0848579406738,38.350135803222656,,8.490985870361328,0.34
121,MetaDrive-test-no-noise2-td3,101,213.08366333415412,122027,729,1203.903732061386,41.1185188293457,-41.663719177246094,3.3736400604248047,0.35
122,MetaDrive-test-no-noise2-td3,101,214.31979132591823,123494,732,1220.0358979701996,41.27072525024414,,5.158987045288086,0.37
123,MetaDrive-test-no-noise2-td3,101,216.53332424494667,124021,733,1225.1699018478394,42.85395812988281,-42.884490966796875,3.814378261566162,0.38
124,MetaDrive-test-no-noise2-td3,101,213.0542442938252,125076,737,1236.1689219474792,43.36473083496094,,3.2605605125427246,0.37
125,MetaDrive-test-no-noise2-td3,101,215.90826924599295,126077,738,1246.471540927887,41.312232971191406,-42.4742317199707,36.21599578857422,0.37
126,MetaDrive-test-no-noise2-td3,101,218.8629006359223,127332,741,1259.140380859375,39.60701370239258,,7.803597450256348,0.38
127,MetaDrive-test-no-noise2-td3,100,218.25598506657442,128134,743,1269.1065890789032,40.03135681152344,,3.3992509841918945,0.37
128,MetaDrive-test-no-noise2-td3,100,223.02167883886597,129357,746,1280.986289024353,41.680213928222656,-41.433536529541016,5.18730354309082,0.38
129,MetaDrive-test-no-noise2-td3,100,226.1473920497297,130154,747,1289.2090728282928,42.70859146118164,,3.0939226150512695,0.39
130,MetaDrive-test-no-noise2-td3,100,224.2789706881873,131004,749,1298.178118944168,39.357872009277344,,8.54694652557373,0.4
131,MetaDrive-test-no-noise2-td3,100,225.2683607966639,132161,752,1310.5003638267517,42.588653564453125,-42.685794830322266,6.23194694519043,0.4
132,MetaDrive-test-no-noise2-td3,100,220.89809105774788,133820,756,1330.3938038349152,42.9831657409668,,3.8359951972961426,0.38
133,MetaDrive-test-no-noise2-td3,100,221.2635735535691,134040,757,1332.3675389289856,39.42587661743164,,4.105242729187012,0.38
134,MetaDrive-test-no-noise2-td3,100,223.97066022986292,135233,760,1344.4464328289032,43.37446594238281,-43.19075012207031,6.457847595214844,0.39
135,MetaDrive-test-no-noise2-td3,100,220.91729263777933,136416,763,1356.4256188869476,36.75008010864258,,17.119001388549805,0.39
136,MetaDrive-test-no-noise2-td3,100,220.86104598000256,137139,766,1363.2167339324951,38.194759368896484,-39.227439880371094,91.40972137451172,0.4
137,MetaDrive-test-no-noise2-td3,100,221.16259717431444,138140,767,1377.2016739845276,43.24016571044922,,3.0277023315429688,0.39
138,MetaDrive-test-no-noise2-td3,100,215.03430141972123,139105,770,1387.493185043335,43.2872428894043,-42.96259307861328,5.129602432250977,0.37
139,MetaDrive-test-no-noise2-td3,100,213.42532512649348,140277,773,1399.42134308815,43.44243621826172,-44.00788879394531,2.2708921432495117,0.36
140,MetaDrive-test-no-noise2-td3,100,212.3608475415502,141037,775,1407.0911219120026,40.30628967285156,-40.642784118652344,5.748712539672852,0.35
141,MetaDrive-test-no-noise2-td3,100,215.11353055441995,142519,777,1422.9095928668976,39.80704116821289,-40.706077575683594,4.936639785766602,0.36
142,MetaDrive-test-no-noise2-td3,100,213.20413753623924,143520,778,1432.8985240459442,40.75693893432617,,5.961626052856445,0.35
143,MetaDrive-test-no-noise2-td3,100,213.25122458820778,144212,779,1441.7083630561829,42.064056396484375,,7.7645978927612305,0.34
144,MetaDrive-test-no-noise2-td3,99,207.81827616254918,145195,782,1452.310691833496,41.844512939453125,-42.03386306762695,4.782890796661377,0.34
145,MetaDrive-test-no-noise2-td3,99,210.21630749918248,146365,784,1466.6983079910278,42.951927185058594,-43.21638107299805,3.331597328186035,0.34
146,MetaDrive-test-no-noise2-td3,99,213.4738534247574,147670,786,1480.0346479415894,43.454429626464844,,6.051357269287109,0.35
147,MetaDrive-test-no-noise2-td3,99,212.64286206429566,148043,787,1483.3565649986267,39.51970672607422,-39.50461959838867,7.657876491546631,0.36
148,MetaDrive-test-no-noise2-td3,99,212.89142317984766,149044,788,1497.8512630462646,41.355464935302734,,10.779644012451172,0.35
149,MetaDrive-test-no-noise2-td3,99,219.52839134196282,150593,791,1514.150218963623,37.036678314208984,-37.83784484863281,6.2051286697387695,0.37
150,MetaDrive-test-no-noise2-td3,99,213.66465834962312,151064,793,1518.964509010315,41.117679595947266,,7.818971633911133,0.36
151,MetaDrive-test-no-noise2-td3,99,218.0279769233823,152364,795,1531.3761868476868,37.035316467285156,,9.728943824768066,0.37
152,MetaDrive-test-no-noise2-td3,99,220.49456749752636,153266,797,1541.266638994217,40.563392639160156,,3.6418309211730957,0.37
153,MetaDrive-test-no-noise2-td3,99,224.51242490531905,154190,799,1550.6432797908783,40.81814193725586,,16.10031509399414,0.38
154,MetaDrive-test-no-noise2-td3,99,226.55402586242556,155213,801,1561.0525789260864,41.316734313964844,-41.376216888427734,6.511579513549805,0.38
155,MetaDrive-test-no-noise2-td3,99,228.12767237153898,156027,803,1568.9387748241425,40.562469482421875,-40.75747299194336,9.472780227661133,0.39
156,MetaDrive-test-no-noise2-td3,99,222.5822498670981,157202,806,1581.4023268222809,42.29308319091797,,5.237112045288086,0.38
157,MetaDrive-test-no-noise2-td3,99,224.5844286262849,158165,809,1590.306025981903,38.23249053955078,-39.58334732055664,81.08009338378906,0.39
158,MetaDrive-test-no-noise2-td3,99,219.96694148005022,159157,814,1599.9042298793793,40.23768997192383,-39.81156921386719,3.7621607780456543,0.38
159,MetaDrive-test-no-noise2-td3,99,218.7121565554691,160388,817,1615.7053878307343,39.675052642822266,,5.449820518493652,0.37
160,MetaDrive-test-no-noise2-td3,99,215.37785578261872,161274,821,1625.0683867931366,42.56157302856445,,4.577273368835449,0.35
161,MetaDrive-test-no-noise2-td3,99,211.48994387293317,162413,824,1637.1473739147186,42.62462615966797,-44.09471130371094,5.650099754333496,0.34
162,MetaDrive-test-no-noise2-td3,99,212.86339317045216,163162,825,1645.8383529186249,40.175941467285156,,62.43153762817383,0.34
163,MetaDrive-test-no-noise2-td3,99,212.1041745772526,164558,827,1660.93976688385,40.533294677734375,,4.469343662261963,0.33
164,MetaDrive-test-no-noise2-td3,99,209.60455094084602,165159,829,1666.4462449550629,43.85671615600586,-45.31560134887695,3.962655544281006,0.33
165,MetaDrive-test-no-noise2-td3,99,211.22833936689563,166004,831,1674.3508808612823,39.14116668701172,,7.872311592102051,0.33
166,MetaDrive-test-no-noise2-td3,99,211.9001056890959,167204,834,1685.4697229862213,44.845237731933594,,3.8751778602600098,0.33
167,MetaDrive-test-no-noise2-td3,99,213.45323768352392,168726,837,1701.870353937149,40.90770721435547,,11.011472702026367,0.33
168,MetaDrive-test-no-noise2-td3,99,213.6497201754367,169538,839,1710.5445730686188,42.95555114746094,,3.512512683868408,0.34
169,MetaDrive-test-no-noise2-td3,99,212.32774147468325,170204,841,1717.1958348751068,41.33220672607422,,49.20677185058594,0.34
170,MetaDrive-test-no-noise2-td3,99,214.47342080688003,171004,843,1725.8116199970245,45.8466796875,,5.292660713195801,0.35
171,MetaDrive-test-no-noise2-td3,99,213.93790471466062,172111,846,1737.773768901825,40.85685729980469,-41.53175735473633,2.850490093231201,0.35
172,MetaDrive-test-no-noise2-td3,99,211.57675189077705,173074,848,1747.8153450489044,41.44431686401367,,7.119933128356934,0.34
173,MetaDrive-test-no-noise2-td3,98,209.0053514418754,174505,852,1763.077143907547,40.060325622558594,-40.189857482910156,4.752717018127441,0.33
174,MetaDrive-test-no-noise2-td3,98,210.86546613473314,175150,854,1769.693158864975,43.46500778198242,,6.9695820808410645,0.34
175,MetaDrive-test-no-noise2-td3,98,212.73072359181373,176530,857,1784.0538897514343,37.77626037597656,,6.725286483764648,0.35
176,MetaDrive-test-no-noise2-td3,98,212.08474465202355,177250,858,1791.156502008438,40.235321044921875,,4.439052104949951,0.34
177,MetaDrive-test-no-noise2-td3,98,216.23479391298358,178129,859,1800.8440539836884,38.73115921020508,-39.348697662353516,44.913368225097656,0.35
178,MetaDrive-test-no-noise2-td3,98,217.0144321590034,179130,860,1813.997458934784,38.191917419433594,,4.921046733856201,0.35
179,MetaDrive-test-no-noise2-td3,98,218.7960339013636,180130,862,1824.3160388469696,39.846221923828125,,4.924923419952393,0.35
180,MetaDrive-test-no-noise2-td3,98,221.25099966136054,181212,864,1835.5279450416565,42.87744140625,,4.154374122619629,0.36
181,MetaDrive-test-no-noise2-td3,98,219.71324971132813,182132,867,1844.630331993103,40.03553009033203,,7.195549011230469,0.36
182,MetaDrive-test-no-noise2-td3,98,221.9481610234232,183133,868,1856.211226940155,43.98574447631836,-44.53420639038086,4.852476119995117,0.36
183,MetaDrive-test-no-noise2-td3,98,223.97791091402746,184697,871,1871.7797589302063,41.712833404541016,-41.58174133300781,5.233218193054199,0.37
184,MetaDrive-test-no-noise2-td3,98,225.82261276626178,185257,872,1877.176920890808,38.84935760498047,-39.048370361328125,3.0309579372406006,0.38
185,MetaDrive-test-no-noise2-td3,98,226.0624277210999,186440,875,1889.167074918747,43.756797790527344,,2.8721156120300293,0.39
186,MetaDrive-test-no-noise2-td3,98,225.50151747620532,187197,876,1896.9388780593872,40.90108108520508,-40.54790115356445,5.3347578048706055,0.38
187,MetaDrive-test-no-noise2-td3,98,224.41667999561096,188198,877,1909.5112540721893,43.41728973388672,,4.466087341308594,0.37
188,MetaDrive-test-no-noise2-td3,98,226.37831114350757,189339,879,1922.3261709213257,38.7410774230957,-38.9609489440918,13.59519100189209,0.38
189,MetaDrive-test-no-noise2-td3,98,228.51341554738224,190119,881,1929.9782888889313,38.747108459472656,-39.002349853515625,11.232288360595703,0.39
190,MetaDrive-test-no-noise2-td3,98,215.37654766985435,191049,887,1939.4340801239014,37.8079833984375,-38.050350189208984,5.486283302307129,0.35
191,MetaDrive-test-no-noise2-td3,98,217.03551921206392,192034,889,1948.8148219585419,38.360145568847656,,25.959426879882812,0.37
192,MetaDrive-test-no-noise2-td3,98,208.6686834523069,193776,895,1968.7866110801697,38.637969970703125,,46.71132278442383,0.34
193,MetaDrive-test-no-noise2-td3,98,207.0052550976944,194566,897,1977.166541814804,36.35089111328125,,14.291200637817383,0.34
194,MetaDrive-test-no-noise2-td3,98,205.91747501155794,195028,898,1982.3317749500275,38.407039642333984,,5.780132293701172,0.33
195,MetaDrive-test-no-noise2-td3,98,203.8781811311671,196273,901,1994.835294008255,39.12997817993164,-39.23836135864258,4.539400100708008,0.33
196,MetaDrive-test-no-noise2-td3,98,206.46493169841244,197575,904,2007.5693879127502,41.00447463989258,-41.32232666015625,2.6686880588531494,0.34
197,MetaDrive-test-no-noise2-td3,98,208.8896967415103,198114,905,2012.4907829761505,40.78639221191406,,25.83591079711914,0.34
198,MetaDrive-test-no-noise2-td3,98,213.23490162903835,199391,907,2025.1593260765076,41.2304573059082,-42.05685806274414,3.5387837886810303,0.36
199,MetaDrive-test-no-noise2-td3,98,214.12384650603087,200067,908,2032.4952600002289,39.793365478515625,-39.76340866088867,15.239412307739258,0.36
200,MetaDrive-test-no-noise2-td3,98,216.36793357723906,201406,910,2047.8748717308044,39.04746627807617,,5.892678737640381,0.38
201,MetaDrive-test-no-noise2-td3,98,218.8982105276225,202126,913,2055.6102788448334,42.4801139831543,,5.983449935913086,0.38
202,MetaDrive-test-no-noise2-td3,98,222.49627608642447,203050,915,2064.3320758342743,41.20043182373047,,8.266016006469727,0.39
203,MetaDrive-test-no-noise2-td3,98,224.61855825400994,204292,917,2077.700075864792,42.655479431152344,,4.5399932861328125,0.4
204,MetaDrive-test-no-noise2-td3,98,228.17978502466903,205082,919,2085.3881170749664,41.05126953125,,5.773722171783447,0.41
205,MetaDrive-test-no-noise2-td3,98,227.10764854443806,206456,922,2100.2105770111084,38.41410446166992,,55.86958312988281,0.41
206,MetaDrive-test-no-noise2-td3,98,230.7929455409134,207285,923,2107.6147549152374,41.26422882080078,-41.335575103759766,2.8923137187957764,0.42
207,MetaDrive-test-no-noise2-td3,98,232.04400306553154,208578,925,2121.5022118091583,38.5214729309082,,4.034079074859619,0.42
208,MetaDrive-test-no-noise2-td3,98,230.7772222250765,209411,927,2129.671012878418,39.98759460449219,-40.26875686645508,6.282020568847656,0.42
209,MetaDrive-test-no-noise2-td3,98,230.5402455167311,210531,930,2140.6378388404846,39.185707092285156,-39.847145080566406,5.156251907348633,0.42
210,MetaDrive-test-no-noise2-td3,98,228.6563530334909,211124,932,2146.44065785408,44.501502990722656,,12.61806869506836,0.41
211,MetaDrive-test-no-noise2-td3,98,228.68308425928376,212438,935,2162.3741779327393,41.834842681884766,,78.93116760253906,0.4
212,MetaDrive-test-no-noise2-td3,98,228.12415688559634,213651,937,2174.1617889404297,39.99647903442383,-40.173095703125,13.302619934082031,0.4
213,MetaDrive-test-no-noise2-td3,98,229.37018208324216,214093,938,2178.4144189357758,42.88232421875,-42.968536376953125,4.616208076477051,0.4
214,MetaDrive-test-no-noise2-td3,98,227.2385567880492,215138,940,2189.6891520023346,39.96208953857422,,20.823043823242188,0.38
215,MetaDrive-test-no-noise2-td3,98,227.5168830733263,216172,942,2201.1068379879,40.91218185424805,,2.6568846702575684,0.38
216,MetaDrive-test-no-noise2-td3,98,226.72945027383778,217098,944,2211.360790014267,41.213226318359375,,34.98821258544922,0.38
217,MetaDrive-test-no-noise2-td3,97,228.59577563393967,218099,945,2225.830071926117,38.6380615234375,-38.765350341796875,6.959606170654297,0.38
218,MetaDrive-test-no-noise2-td3,97,229.60452485098713,219405,949,2239.31636595726,39.74939727783203,-39.80839538574219,2.9647622108459473,0.38
219,MetaDrive-test-no-noise2-td3,98,231.44758894425127,220027,950,2244.8112699985504,40.73515319824219,-40.7642936706543,5.001503944396973,0.39
220,MetaDrive-test-no-noise2-td3,98,232.30040628586613,221313,954,2257.5723719596863,39.77775573730469,-40.30441665649414,35.25189208984375,0.38
221,MetaDrive-test-no-noise2-td3,98,234.69728872922803,222486,956,2268.819452047348,40.66765594482422,,6.26169490814209,0.4
222,MetaDrive-test-no-noise2-td3,98,234.88999186856225,223204,957,2275.4414229393005,39.87102508544922,,21.354236602783203,0.4
223,MetaDrive-test-no-noise2-td3,98,234.606985058125,224504,959,2289.2616419792175,38.65834045410156,,7.081307411193848,0.41
224,MetaDrive-test-no-noise2-td3,98,234.24787166872508,225031,960,2294.5045771598816,37.40713119506836,-37.7588996887207,3.0739946365356445,0.42
225,MetaDrive-test-no-noise2-td3,98,228.45273913813764,226100,964,2304.337082862854,37.51204299926758,,6.130768775939941,0.4
226,MetaDrive-test-no-noise2-td3,98,228.83509181354685,227970,968,2323.9692480564117,38.52223587036133,,4.0281548500061035,0.4
227,MetaDrive-test-no-noise2-td3,98,231.592385809177,228495,969,2328.428726911545,40.874755859375,-40.982093811035156,3.7538836002349854,0.41
228,MetaDrive-test-no-noise2-td3,98,227.37708219804946,229086,971,2334.023848056793,39.58847427368164,,3.1375534534454346,0.4
229,MetaDrive-test-no-noise2-td3,98,229.01423025878515,230174,973,2343.610315799713,42.718257904052734,,3.894768714904785,0.4
230,MetaDrive-test-no-noise2-td3,98,228.32176313732916,231123,975,2353.271327018738,37.757320404052734,-37.74006271362305,5.7334184646606445,0.4
231,MetaDrive-test-no-noise2-td3,98,229.2385400382185,232794,978,2369.238124847412,39.77290344238281,,7.984101295471191,0.41
232,MetaDrive-test-no-noise2-td3,98,227.634843399908,233135,979,2372.534543991089,41.108036041259766,-41.77769470214844,7.913429260253906,0.41
233,MetaDrive-test-no-noise2-td3,98,231.87552540776338,234674,981,2388.063043832779,38.03227233886719,,3.3137338161468506,0.41
234,MetaDrive-test-no-noise2-td3,98,236.07476392824577,235555,982,2398.672101020813,41.19873046875,-40.472137451171875,10.230995178222656,0.42
235,MetaDrive-test-no-noise2-td3,98,239.0898999794454,236254,984,2405.4986639022827,38.30109405517578,,6.241692543029785,0.43
236,MetaDrive-test-no-noise2-td3,98,238.39951887107807,237207,988,2414.791697025299,41.975746154785156,-42.180694580078125,33.022335052490234,0.43
237,MetaDrive-test-no-noise2-td3,98,239.67410634104033,238221,990,2423.743376016617,37.72058868408203,-38.0927734375,15.41854190826416,0.44
238,MetaDrive-test-no-noise2-td3,98,245.49915646110895,239631,992,2440.268786907196,38.1135139465332,-37.73993682861328,5.204583168029785,0.45
239,MetaDrive-test-no-noise2-td3,98,248.7322691199488,240243,994,2446.0033559799194,40.08624267578125,-40.73572540283203,3.0020787715911865,0.46
240,MetaDrive-test-no-noise2-td3,98,247.4527275275402,241958,998,2466.814742088318,37.917015075683594,,7.095763206481934,0.46
241,MetaDrive-test-no-noise2-td3,97,249.03181698896174,242959,999,2481.818521976471,39.14459991455078,-39.27128982543945,3.665393829345703,0.46
242,MetaDrive-test-no-noise2-td3,97,249.10961471080515,243960,1000,2492.0727598667145,38.96123504638672,,3.8771610260009766,0.45
243,MetaDrive-test-no-noise2-td3,97,252.0410967126679,244847,1001,2502.4727120399475,40.33012008666992,-41.57066345214844,62.92739486694336,0.46
244,MetaDrive-test-no-noise2-td3,97,254.0335906020526,245265,1002,2506.579372882843,40.123680114746094,-39.64104080200195,8.506763458251953,0.47
245,MetaDrive-test-no-noise2-td3,97,252.59212776796173,246057,1004,2513.7159929275513,41.10604476928711,-41.63016128540039,6.106534957885742,0.46
246,MetaDrive-test-no-noise2-td3,97,246.89945542301507,247398,1008,2526.292351961136,42.493953704833984,,5.295496940612793,0.45
247,MetaDrive-test-no-noise2-td3,97,245.72899020523764,248017,1009,2532.7282140254974,37.521392822265625,-38.59307861328125,16.41714859008789,0.45
248,MetaDrive-test-no-noise2-td3,97,247.2655714110584,249072,1011,2543.1600258350372,41.43492126464844,,4.7610979080200195,0.46
249,MetaDrive-test-no-noise2-td3,97,250.72032463559,250162,1013,2553.3234210014343,39.5369873046875,,15.9924955368042,0.48
250,MetaDrive-test-no-noise2-td3,97,251.99982353952527,251466,1015,2566.0235810279846,39.68828201293945,,4.391621112823486,0.49
251,MetaDrive-test-no-noise2-td3,97,251.80304483834163,252924,1017,2583.7984478473663,42.6658935546875,,4.153537750244141,0.49
252,MetaDrive-test-no-noise2-td3,97,252.3899593976782,253495,1018,2589.743020772934,38.8333854675293,-39.7996826171875,47.73472595214844,0.49
253,MetaDrive-test-no-noise2-td3,97,254.55382725962326,254415,1020,2598.608819961548,40.81159210205078,-40.88374328613281,9.19295883178711,0.51
254,MetaDrive-test-no-noise2-td3,97,253.80992493393845,255083,1022,2606.3190829753876,40.88484191894531,-41.64596939086914,31.00616455078125,0.51
255,MetaDrive-test-no-noise2-td3,97,253.8032875138244,256373,1024,2620.309634923935,39.87614059448242,-40.27500534057617,74.428955078125,0.52
256,MetaDrive-test-no-noise2-td3,97,251.60155291011944,257363,1027,2629.3937809467316,40.79143524169922,-41.28643035888672,4.126789093017578,0.52
257,MetaDrive-test-no-noise2-td3,97,250.4023698158938,258228,1030,2638.495899915695,41.956298828125,,6.2278947830200195,0.51
258,MetaDrive-test-no-noise2-td3,97,251.31329917203468,259642,1034,2652.9233968257904,39.00864791870117,,32.95521545410156,0.5
259,MetaDrive-test-no-noise2-td3,97,250.7025393101652,260182,1035,2658.0837309360504,43.5792121887207,,2.4025063514709473,0.51
260,MetaDrive-test-no-noise2-td3,97,245.14747641923853,261445,1040,2671.978113889694,37.772403717041016,-38.3752326965332,5.670353889465332,0.5
261,MetaDrive-test-no-noise2-td3,97,247.55876358877188,262175,1041,2679.657285928726,42.04579162597656,-42.58477783203125,3.3041892051696777,0.51
262,MetaDrive-test-no-noise2-td3,97,246.56555015181075,263415,1044,2691.483746767044,40.7479248046875,-41.03446960449219,4.299731254577637,0.51
263,MetaDrive-test-no-noise2-td3,97,246.060709801501,264138,1046,2699.031944990158,43.39181137084961,,6.4089179039001465,0.52
264,MetaDrive-test-no-noise2-td3,97,247.7435173629941,265858,1049,2720.188900947571,40.14550018310547,,3.056609630584717,0.51
265,MetaDrive-test-no-noise2-td3,97,247.58583662456243,266431,1051,2725.5815167427063,41.61262130737305,-42.913291931152344,7.312655925750732,0.51
266,MetaDrive-test-no-noise2-td3,97,250.05746749034756,267354,1053,2733.7073500156403,39.64424514770508,,4.600791931152344,0.53
267,MetaDrive-test-no-noise2-td3,97,245.21427552687473,268120,1056,2741.1739621162415,38.992305755615234,,4.291265487670898,0.51
268,MetaDrive-test-no-noise2-td3,97,244.84605031979197,269121,1057,2754.3903329372406,40.622982025146484,-41.51580810546875,75.30049133300781,0.5
269,MetaDrive-test-no-noise2-td3,97,245.60505508240252,270012,1058,2764.2696599960327,39.2271842956543,,17.277978897094727,0.5
270,MetaDrive-test-no-noise2-td3,97,244.71178669956663,271160,1060,2778.73700094223,43.84033966064453,,2.8834285736083984,0.49
271,MetaDrive-test-no-noise2-td3,97,246.91883227567578,272600,1064,2793.517302751541,41.11330032348633,,3.661569833755493,0.5
272,MetaDrive-test-no-noise2-td3,97,250.13490002654567,273331,1065,2801.957715988159,43.19750213623047,-42.56889724731445,6.330636024475098,0.51
273,MetaDrive-test-no-noise2-td3,97,252.09396106461728,274107,1067,2809.497547864914,39.046051025390625,-39.81550216674805,74.7421875,0.52
274,MetaDrive-test-no-noise2-td3,97,252.79965047708546,275379,1069,2821.171858072281,43.589351654052734,-43.35061264038086,5.837075233459473,0.52
275,MetaDrive-test-no-noise2-td3,97,256.35806065460065,276145,1070,2829.281187772751,43.93170166015625,-44.13831329345703,5.623621463775635,0.53
276,MetaDrive-test-no-noise2-td3,97,252.4258756575785,277056,1073,2839.549984693527,41.956329345703125,,3.918210506439209,0.52
277,MetaDrive-test-no-noise2-td3,97,252.3981114033821,278111,1075,2850.2669699192047,42.876319885253906,-42.414024353027344,13.587464332580566,0.51
278,MetaDrive-test-no-noise2-td3,97,249.65295857860235,279920,1078,2871.851553916931,45.0201301574707,,2.12492036819458,0.49
279,MetaDrive-test-no-noise2-td3,97,251.2940168115361,280561,1079,2878.9451229572296,41.07615661621094,-41.31652069091797,5.112485885620117,0.5
280,MetaDrive-test-no-noise2-td3,97,250.3103715946435,281178,1080,2885.579008102417,44.375545501708984,,4.943682670593262,0.5
281,MetaDrive-test-no-noise2-td3,97,243.4445522785435,282593,1084,2898.9697120189667,41.06116485595703,-41.11787414550781,5.1895432472229,0.49
282,MetaDrive-test-no-noise2-td3,97,246.6250044140773,283594,1085,2913.030277967453,41.34160614013672,,3.191211462020874,0.49
283,MetaDrive-test-no-noise2-td3,97,250.89632492973575,284358,1086,2920.476746082306,39.602333068847656,,7.2569403648376465,0.5
284,MetaDrive-test-no-noise2-td3,97,252.67744534513514,285008,1088,2926.075289964676,40.80461883544922,,6.1369171142578125,0.51
285,MetaDrive-test-no-noise2-td3,97,250.6768585119906,286007,1090,2936.5825548171997,41.66301727294922,-41.563446044921875,5.772759437561035,0.5
286,MetaDrive-test-no-noise2-td3,97,248.3480721064543,287030,1093,2946.623190164566,41.98846435546875,,3.844635009765625,0.5
287,MetaDrive-test-no-noise2-td3,97,251.46490798095573,288742,1097,2963.3650329113007,43.81825637817383,,10.006778717041016,0.5
288,MetaDrive-test-no-noise2-td3,97,250.68591954429186,289160,1098,2967.6874210834503,41.065608978271484,,2.9238150119781494,0.51
289,MetaDrive-test-no-noise2-td3,97,244.83615914126014,290275,1101,2979.979288816452,41.37979507446289,-41.55550003051758,3.886525869369507,0.51
290,MetaDrive-test-no-noise2-td3,97,245.84246605059963,291485,1103,2992.5638358592987,43.51091384887695,-44.329505920410156,5.790045738220215,0.51
291,MetaDrive-test-no-noise2-td3,97,248.504540997706,292418,1104,3004.0496299266815,40.5440673828125,,3.6854212284088135,0.52
292,MetaDrive-test-no-noise2-td3,97,252.53078201196354,293419,1105,3017.22532582283,38.78156661987305,-39.3544807434082,4.293012619018555,0.52
293,MetaDrive-test-no-noise2-td3,97,254.86609873681348,294132,1106,3024.2148859500885,42.565528869628906,,3.493731737136841,0.52
294,MetaDrive-test-no-noise2-td3,97,256.16979207637405,295035,1108,3033.720148086548,39.592018127441406,-40.1663703918457,12.310094833374023,0.52
295,MetaDrive-test-no-noise2-td3,97,255.9629017388789,296013,1110,3043.632887840271,39.756752014160156,-40.429420471191406,5.910821914672852,0.52
296,MetaDrive-test-no-noise2-td3,97,257.58549293994474,297351,1112,3058.6123428344727,39.3240966796875,-39.38546371459961,3.8531196117401123,0.52
297,MetaDrive-test-no-noise2-td3,97,258.56006146229817,298716,1114,3072.806070804596,40.847049713134766,,5.125417709350586,0.52
298,MetaDrive-test-no-noise2-td3,97,260.1005997131707,299570,1115,3082.5055389404297,44.667510986328125,,4.021597385406494,0.52
299,MetaDrive-test-no-noise2-td3,97,260.14037203569484,300171,1116,3088.182687997818,42.080223083496094,-42.03949737548828,5.004673480987549,0.51
300,MetaDrive-test-no-noise2-td3,97,256.80297705486214,301289,1119,3100.6302008628845,41.13546371459961,-41.51969528198242,5.458400726318359,0.5
301,MetaDrive-test-no-noise2-td3,97,257.87151396733526,302310,1121,3110.2542638778687,39.58985137939453,,2.8164820671081543,0.5
302,MetaDrive-test-no-noise2-td3,97,249.57936596303023,303458,1125,3121.9179520606995,41.991676330566406,,3.767138957977295,0.47
303,MetaDrive-test-no-noise2-td3,97,251.0318428796153,304381,1128,3132.3699338436127,38.60979080200195,-39.108943939208984,5.830808162689209,0.47
304,MetaDrive-test-no-noise2-td3,97,252.25029438919782,305421,1130,3143.914206981659,41.57737731933594,-40.92482376098633,7.05848503112793,0.48
305,MetaDrive-test-no-noise2-td3,97,253.57446001728414,306008,1132,3149.6860361099243,41.094947814941406,,7.963242053985596,0.48
306,MetaDrive-test-no-noise2-td3,97,255.51900968518595,307664,1135,3167.4467358589172,43.19352722167969,,3.1134581565856934,0.49
307,MetaDrive-test-no-noise2-td3,97,258.8454654087781,308415,1137,3174.28302693367,39.02394104003906,-40.083251953125,95.7708740234375,0.5
308,MetaDrive-test-no-noise2-td3,97,261.44687253799896,309154,1138,3183.352124929428,44.98121643066406,,5.62354850769043,0.51
309,MetaDrive-test-no-noise2-td3,97,263.1855034565438,310572,1141,3196.7858419418335,40.8218994140625,,12.16534423828125,0.52
310,MetaDrive-test-no-noise2-td3,97,264.72032287104713,311224,1142,3203.8122420310974,40.94379425048828,,4.846264362335205,0.52
311,MetaDrive-test-no-noise2-td3,97,263.54244202082447,312007,1144,3212.529508829117,40.54255294799805,-40.28862762451172,6.599935531616211,0.51
312,MetaDrive-test-no-noise2-td3,97,262.88187356642936,313166,1148,3224.571613073349,42.04662322998047,,2.7126030921936035,0.51
313,MetaDrive-test-no-noise2-td3,97,262.75133467586727,314367,1151,3236.994621992111,42.147830963134766,-42.826751708984375,4.614340782165527,0.52
314,MetaDrive-test-no-noise2-td3,97,263.95745769702035,315109,1152,3244.3679659366608,40.86904525756836,-41.76348114013672,4.25112247467041,0.52
315,MetaDrive-test-no-noise2-td3,97,265.7816072096512,316172,1154,3255.8523898124695,40.14531326293945,,42.20772171020508,0.52
316,MetaDrive-test-no-noise2-td3,97,269.3482826599593,317204,1156,3267.1784348487854,42.1848258972168,,27.25722885131836,0.54
317,MetaDrive-test-no-noise2-td3,97,266.671719517697,318103,1158,3277.522880077362,42.28709411621094,-42.317108154296875,3.4199447631835938,0.54
318,MetaDrive-test-no-noise2-td3,97,264.09171071091356,319099,1161,3287.113671064377,40.47743225097656,-40.76016616821289,3.2339000701904297,0.53
319,MetaDrive-test-no-noise2-td3,97,266.4443042704026,320361,1164,3298.6340370178223,40.71840286254883,-40.55323791503906,5.830219268798828,0.54
320,MetaDrive-test-no-noise2-td3,97,266.94988960302123,321418,1166,3308.073576927185,44.21035385131836,,4.011045455932617,0.55
321,MetaDrive-test-no-noise2-td3,97,261.0401274237876,322501,1169,3320.1828470230103,44.69259262084961,-45.090919494628906,5.654372215270996,0.52
322,MetaDrive-test-no-noise2-td3,97,259.268488109403,323020,1171,3325.7597930431366,43.12680435180664,,9.164920806884766,0.51
323,MetaDrive-test-no-noise2-td3,97,261.57293725496356,324766,1174,3343.55100607872,43.09795379638672,,5.482253074645996,0.52
324,MetaDrive-test-no-noise2-td3,97,263.4263846810253,325388,1175,3350.0212817192078,43.456844329833984,,4.619028091430664,0.53
325,MetaDrive-test-no-noise2-td3,97,265.08649971417,326268,1176,3359.378177165985,43.57339096069336,,4.375773906707764,0.54
326,MetaDrive-test-no-noise2-td3,97,259.16328455171936,327224,1180,3369.6540579795837,43.836814880371094,,7.336251735687256,0.52
327,MetaDrive-test-no-noise2-td3,97,264.3538330228344,328741,1183,3387.1445047855377,42.57304382324219,-42.97782897949219,4.588629722595215,0.54
328,MetaDrive-test-no-noise2-td3,97,263.50169382896667,329196,1184,3391.5942380428314,41.21063232421875,,4.230931282043457,0.54
329,MetaDrive-test-no-noise2-td3,97,261.0657787507193,330151,1186,3400.3451311588287,40.401710510253906,-40.636024475097656,7.290417671203613,0.55
330,MetaDrive-test-no-noise2-td3,97,262.81332104009226,331333,1188,3413.144961118698,40.502685546875,-41.3481559753418,24.10830307006836,0.54
331,MetaDrive-test-no-noise2-td3,97,265.095473211708,332400,1190,3422.987060070038,41.73898696899414,,6.60637092590332,0.55
332,MetaDrive-test-no-noise2-td3,97,262.0863569891072,333048,1193,3429.8228590488434,44.5201416015625,,4.836770534515381,0.54
333,MetaDrive-test-no-noise2-td3,97,264.92886388373745,334468,1196,3444.2013347148895,41.72808837890625,,5.161479949951172,0.56
334,MetaDrive-test-no-noise2-td3,97,265.0270752184222,335043,1197,3450.2001390457153,43.6823616027832,-44.220401763916016,4.6166863441467285,0.56
335,MetaDrive-test-no-noise2-td3,97,267.16690656698563,336040,1199,3459.202141046524,44.44737243652344,,3.325441837310791,0.57
336,MetaDrive-test-no-noise2-td3,97,266.1877729579161,337555,1201,3474.658514022827,42.4737434387207,-42.93328094482422,7.1872639656066895,0.57
337,MetaDrive-test-no-noise2-td3,97,265.04083508171226,338706,1203,3485.9094700813293,41.255775451660156,,5.188844203948975,0.57
338,MetaDrive-test-no-noise2-td3,97,263.73476071119234,339225,1204,3490.9133608341217,42.612892150878906,-44.08012771606445,13.22732162475586,0.57
339,MetaDrive-test-no-noise2-td3,97,259.5659887142557,340215,1206,3501.0526900291443,41.101226806640625,-40.66014862060547,5.704296112060547,0.57
340,MetaDrive-test-no-noise2-td3,97,258.62080117138095,341005,1208,3508.6045157909393,42.42380142211914,-42.01197052001953,5.154300689697266,0.57
341,MetaDrive-test-no-noise2-td3,97,248.0962168336415,342098,1213,3519.737888097763,42.36294937133789,,6.077642440795898,0.52
342,MetaDrive-test-no-noise2-td3,97,245.2101922280004,343375,1215,3533.8205320835114,41.585201263427734,-42.021549224853516,4.0521697998046875,0.5
343,MetaDrive-test-no-noise2-td3,97,245.97267995194449,344257,1216,3543.707011938095,41.0557746887207,-41.60918426513672,20.54058837890625,0.51
344,MetaDrive-test-no-noise2-td3,97,244.62205575767098,345173,1219,3553.1870579719543,41.446563720703125,-41.94915771484375,18.48175811767578,0.51
345,MetaDrive-test-no-noise2-td3,97,246.519088080456,346365,1221,3564.8324790000916,43.626705169677734,-43.74451446533203,5.789000511169434,0.52
346,MetaDrive-test-no-noise2-td3,97,251.48058263748317,347554,1223,3576.7312898635864,42.42174530029297,,4.706531524658203,0.54
347,MetaDrive-test-no-noise2-td3,97,255.08209285346956,348451,1224,3587.5422308444977,41.51179122924805,-41.916316986083984,5.842217445373535,0.55
348,MetaDrive-test-no-noise2-td3,97,255.42575260740338,349207,1225,3595.036294937134,43.69407272338867,-43.132286071777344,4.956780910491943,0.55
349,MetaDrive-test-no-noise2-td3,97,257.31493646070606,350545,1228,3608.963493824005,45.48283004760742,-44.77290344238281,5.161618232727051,0.56
350,MetaDrive-test-no-noise2-td3,97,256.286406841981,351079,1230,3614.4136629104614,45.32862854003906,-46.02101135253906,5.264060020446777,0.56
351,MetaDrive-test-no-noise2-td3,97,256.4828329104636,352409,1233,3628.488290786743,40.378273010253906,-40.30957794189453,22.560348510742188,0.56
352,MetaDrive-test-no-noise2-td3,97,254.14980046002918,353117,1235,3635.0632667541504,40.237945556640625,-39.806427001953125,14.769628524780273,0.56
353,MetaDrive-test-no-noise2-td3,97,247.91918729336155,354935,1239,3654.1868097782135,45.2315673828125,-44.87620162963867,5.254227638244629,0.54
354,MetaDrive-test-no-noise2-td3,97,250.15623754641166,355316,1240,3657.683219909668,44.13309097290039,,6.853382110595703,0.55
355,MetaDrive-test-no-noise2-td3,97,247.48411364223332,356697,1242,3672.419597864151,42.67558670043945,-42.2598876953125,5.998872756958008,0.54
356,MetaDrive-test-no-noise2-td3,97,249.03018665908257,357269,1243,3678.4432311058044,41.54251480102539,-41.745445251464844,12.458120346069336,0.55
357,MetaDrive-test-no-noise2-td3,97,248.25185308381927,358166,1246,3687.737890958786,45.529205322265625,,3.2066333293914795,0.54
358,MetaDrive-test-no-noise2-td3,97,249.87026954343324,359120,1248,3697.8369569778442,44.81447982788086,,4.1237030029296875,0.55
359,MetaDrive-test-no-noise2-td3,97,251.86129653080297,360121,1249,3709.5583748817444,46.241455078125,-46.47764205932617,6.328962802886963,0.55
360,MetaDrive-test-no-noise2-td3,97,248.46119183483327,361140,1252,3718.5247309207916,40.242977142333984,,8.864612579345703,0.53
361,MetaDrive-test-no-noise2-td3,97,245.39068084733697,362241,1254,3730.965730905533,43.25353240966797,-43.98251724243164,90.91026306152344,0.52
362,MetaDrive-test-no-noise2-td3,97,245.15473324860065,363127,1257,3740.0150668621063,43.89142608642578,-44.21630859375,6.375990867614746,0.51
363,MetaDrive-test-no-noise2-td3,97,240.7493109188134,364086,1260,3749.2418677806854,44.9995231628418,,5.322622299194336,0.5
364,MetaDrive-test-no-noise2-td3,97,240.0677218686235,365356,1264,3761.5172078609467,40.173954010009766,,7.441170692443848,0.5
365,MetaDrive-test-no-noise2-td3,97,237.6002810651823,366030,1266,3768.1257979869843,41.935340881347656,,6.910275459289551,0.49
366,MetaDrive-test-no-noise2-td3,97,238.48801900575756,367075,1269,3778.271931886673,41.47938537597656,-41.81444549560547,13.830951690673828,0.5
367,MetaDrive-test-no-noise2-td3,97,237.83179445148463,368217,1272,3790.1395857334137,44.51734924316406,-45.2844352722168,3.7367873191833496,0.5
368,MetaDrive-test-no-noise2-td3,97,236.35167462174115,369440,1274,3802.495671749115,41.19822692871094,,5.515347480773926,0.49
369,MetaDrive-test-no-noise2-td3,97,236.11486042348383,370054,1275,3807.832496881485,44.47053527832031,,9.758134841918945,0.49
370,MetaDrive-test-no-noise2-td3,97,238.17517301148916,371103,1277,3818.128556728363,43.446922302246094,-44.021385192871094,85.04739379882812,0.5
371,MetaDrive-test-no-noise2-td3,97,243.33945553338543,372450,1279,3831.3657360076904,42.54335021972656,,11.533588409423828,0.52
372,MetaDrive-test-no-noise2-td3,97,243.1755527103621,373184,1282,3838.1220729351044,40.55226516723633,,9.174869537353516,0.52
373,MetaDrive-test-no-noise2-td3,97,242.4537033545158,374145,1283,3849.720181941986,38.740455627441406,-38.374942779541016,8.64236831665039,0.52
374,MetaDrive-test-no-noise2-td3,97,243.36634125830813,375420,1285,3865.6536209583282,46.72052764892578,,19.779369354248047,0.5
375,MetaDrive-test-no-noise2-td3,97,243.51467299633327,376055,1286,3871.784534931183,42.49125671386719,-42.71434783935547,4.500044822692871,0.5
376,MetaDrive-test-no-noise2-td3,97,241.72601060816808,377405,1289,3884.599112033844,38.472373962402344,-38.85854721069336,141.859375,0.5
377,MetaDrive-test-no-noise2-td3,97,239.0337630218675,378406,1290,3894.5334668159485,40.846107482910156,,6.544796943664551,0.49
378,MetaDrive-test-no-noise2-td3,97,241.49234714370553,379017,1291,3901.015256881714,39.93810272216797,-41.26727294921875,6.1018524169921875,0.5
379,MetaDrive-test-no-noise2-td3,97,243.47641850772365,380148,1294,3911.753455877304,42.171321868896484,,3.998502731323242,0.5
380,MetaDrive-test-no-noise2-td3,97,237.37245005451922,381115,1297,3923.0743770599365,42.739715576171875,-42.65504837036133,5.148324012756348,0.48
381,MetaDrive-test-no-noise2-td3,97,234.8863671952271,382122,1300,3932.54461812973,43.10332489013672,,6.506514549255371,0.46
382,MetaDrive-test-no-noise2-td3,97,231.6125541950959,383323,1304,3944.946354866028,44.776458740234375,-44.33576965332031,11.934680938720703,0.44
383,MetaDrive-test-no-noise2-td3,97,233.51137299002588,384324,1305,3956.7630999088287,45.03759002685547,,21.931848526000977,0.44
384,MetaDrive-test-no-noise2-td3,97,233.87657436375622,385308,1307,3966.204822778702,43.91045379638672,,5.097869873046875,0.45
385,MetaDrive-test-no-noise2-td3,97,235.23509865188706,386129,1309,3974.2323400974274,42.943721771240234,-43.7402458190918,3.258107900619507,0.46
386,MetaDrive-test-no-noise2-td3,97,239.97349222984056,387668,1312,3990.7684087753296,40.07632064819336,,13.51662826538086,0.48
387,MetaDrive-test-no-noise2-td3,97,240.372134078964,388420,1313,3998.3837378025055,43.15005874633789,,4.804443359375,0.49
388,MetaDrive-test-no-noise2-td3,97,241.60655218259933,389386,1314,4010.136476993561,42.516357421875,,7.067342281341553,0.5
389,MetaDrive-test-no-noise2-td3,97,242.93103115782299,390140,1315,4017.67586684227,40.413169860839844,,6.134059429168701,0.51
390,MetaDrive-test-no-noise2-td3,97,243.37079784254044,391025,1317,4027.1713359355927,42.5478515625,-43.32363510131836,6.430042266845703,0.51
391,MetaDrive-test-no-noise2-td3,97,244.80806651946455,392520,1319,4042.639899969101,43.642425537109375,,5.560075759887695,0.52
392,MetaDrive-test-no-noise2-td3,97,241.53462167552078,393067,1321,4048.0548508167267,41.8252067565918,-42.10150909423828,5.117426872253418,0.51
393,MetaDrive-test-no-noise2-td3,97,241.01156648234556,394070,1323,4058.8157539367676,40.7496337890625,,6.352904319763184,0.51
394,MetaDrive-test-no-noise2-td3,97,239.3521893334589,395386,1326,4070.7705628871918,40.47075653076172,,7.236428737640381,0.51
395,MetaDrive-test-no-noise2-td3,97,241.19892843674046,396026,1327,4077.7107548713684,42.94083786010742,,16.414321899414062,0.51
396,MetaDrive-test-no-noise2-td3,97,241.8055275835624,397491,1331,4093.8793499469757,40.851043701171875,-41.7584228515625,10.507977485656738,0.5
397,MetaDrive-test-no-noise2-td3,97,241.10218322514555,398027,1332,4098.88631105423,42.817718505859375,-41.95142364501953,15.513727188110352,0.5
398,MetaDrive-test-no-noise2-td3,97,243.8918382244543,399563,1334,4116.264575958252,39.66904830932617,-40.02259063720703,4.037565231323242,0.51
399,MetaDrive-test-no-noise2-td3,97,245.96616458675427,400564,1335,4125.974812030792,34.50658416748047,,5.398900985717773,0.51
400,MetaDrive-test-no-noise2-td3,97,245.01721540814535,401171,1337,4131.586947917938,40.653961181640625,-41.10245132446289,5.086195945739746,0.51
401,MetaDrive-test-no-noise2-td3,97,244.08550792049374,402441,1341,4143.475086927414,43.64087677001953,-43.91002655029297,4.90587043762207,0.5
402,MetaDrive-test-no-noise2-td3,97,242.41682065739843,403161,1343,4150.9252099990845,45.39112091064453,-45.96639633178711,6.96988582611084,0.5
403,MetaDrive-test-no-noise2-td3,97,244.32904012987777,404130,1345,4160.558297872543,41.5496940612793,,5.64620304107666,0.52
404,MetaDrive-test-no-noise2-td3,97,245.8282640095185,405131,1346,4172.869805812836,39.42001724243164,-39.59204864501953,6.716531753540039,0.52
405,MetaDrive-test-no-noise2-td3,97,242.14063271219973,406050,1349,4183.663888931274,40.788307189941406,,7.326432228088379,0.51
406,MetaDrive-test-no-noise2-td3,97,244.50745816056278,407038,1351,4193.8897087574005,41.701995849609375,,3.93748140335083,0.52
407,MetaDrive-test-no-noise2-td3,97,244.44891520020585,408015,1354,4203.388190031052,43.37036895751953,-43.4590950012207,3.0562491416931152,0.52
408,MetaDrive-test-no-noise2-td3,97,243.8235935455178,409796,1358,4221.888829946518,42.340606689453125,,14.757094383239746,0.52
409,MetaDrive-test-no-noise2-td3,97,247.24630708999695,410396,1359,4227.4263298511505,41.045372009277344,,6.807989120483398,0.53
410,MetaDrive-test-no-noise2-td3,97,249.15621734598702,411260,1361,4236.022572755814,38.388607025146484,,12.880049705505371,0.54
411,MetaDrive-test-no-noise2-td3,97,248.2132632222209,412204,1364,4245.0068418979645,41.30583953857422,,18.374732971191406,0.53
412,MetaDrive-test-no-noise2-td3,97,248.30419141669412,413389,1366,4256.229552984238,41.019309997558594,-40.99461364746094,16.894432067871094,0.53
413,MetaDrive-test-no-noise2-td3,97,250.38182919393205,414417,1368,4268.355883836746,43.85985565185547,-43.608741760253906,3.3333396911621094,0.53
414,MetaDrive-test-no-noise2-td3,97,250.7471335483007,415051,1370,4274.973739147186,40.803688049316406,-41.890419006347656,10.540822982788086,0.54
415,MetaDrive-test-no-noise2-td3,97,251.11402547741403,416209,1373,4286.008761882782,42.388214111328125,-42.94934844970703,5.938717842102051,0.55
416,MetaDrive-test-no-noise2-td3,97,252.90105129901224,417404,1375,4297.515842914581,41.11671829223633,,4.803852081298828,0.55
417,MetaDrive-test-no-noise2-td3,97,254.63942263250803,418405,1376,4309.6143000125885,43.00440979003906,-43.49921798706055,3.4692177772521973,0.54
418,MetaDrive-test-no-noise2-td3,97,251.71848016722842,419519,1378,4321.74077796936,40.66151809692383,-41.32107162475586,4.328054428100586,0.53
419,MetaDrive-test-no-noise2-td3,97,252.1330202459259,420071,1379,4327.4415991306305,42.545814514160156,-41.640289306640625,7.921623229980469,0.53
420,MetaDrive-test-no-noise2-td3,97,255.493405962813,421714,1382,4344.847110033035,44.12816619873047,,6.773364543914795,0.54
421,MetaDrive-test-no-noise2-td3,97,255.51082194871964,422311,1383,4350.663072824478,46.812076568603516,-47.25877380371094,23.195676803588867,0.54
422,MetaDrive-test-no-noise2-td3,97,256.9844396377296,423312,1384,4361.940635919571,43.722877502441406,,15.984756469726562,0.54
423,MetaDrive-test-no-noise2-td3,97,256.76420018527483,424065,1385,4369.975204944611,43.552818298339844,-43.05070495605469,5.313787460327148,0.55
424,MetaDrive-test-no-noise2-td3,97,255.44652471515303,425104,1388,4379.884361982346,42.526424407958984,,9.15725326538086,0.55
425,MetaDrive-test-no-noise2-td3,97,257.48713194757687,426489,1390,4393.252116918564,42.62594985961914,-42.95832824707031,119.3599853515625,0.56
426,MetaDrive-test-no-noise2-td3,97,257.4854265739696,427088,1391,4400.616594076157,42.45667266845703,,7.97568416595459,0.55
427,MetaDrive-test-no-noise2-td3,97,260.2438452159463,428717,1394,4418.274225950241,42.3217887878418,-44.321266174316406,6.051255702972412,0.55
428,MetaDrive-test-no-noise2-td3,97,263.3180112706939,429222,1395,4423.223368883133,40.56818389892578,,4.971597671508789,0.56
429,MetaDrive-test-no-noise2-td3,97,265.87173022218224,430357,1397,4434.498094797134,44.410614013671875,-44.792816162109375,5.049015045166016,0.57
430,MetaDrive-test-no-noise2-td3,96,267.1361659049229,431358,1398,4448.866059064865,41.379337310791016,,18.019508361816406,0.56
431,MetaDrive-test-no-noise2-td3,96,269.4146590079531,432359,1399,4461.66051697731,41.069244384765625,-41.08904266357422,4.810538291931152,0.56
432,MetaDrive-test-no-noise2-td3,96,270.5373273275488,433257,1401,4470.140188932419,41.132293701171875,-41.719818115234375,8.928940773010254,0.57
433,MetaDrive-test-no-noise2-td3,96,274.8181519800658,434456,1403,4481.04488492012,41.280574798583984,,6.089386940002441,0.59
434,MetaDrive-test-no-noise2-td3,96,273.9161016225061,435457,1404,4492.61662197113,45.808319091796875,-46.678192138671875,5.800827980041504,0.59
435,MetaDrive-test-no-noise2-td3,96,273.7343666840113,436286,1405,4501.6804459095,38.845176696777344,,4.846056938171387,0.6
436,MetaDrive-test-no-noise2-td3,96,271.0667784475715,437317,1408,4512.405236959457,46.53055953979492,-45.807254791259766,4.531136989593506,0.59
437,MetaDrive-test-no-noise2-td3,96,270.7820783425717,438696,1410,4526.142718076706,42.316192626953125,,6.05784797668457,0.58
438,MetaDrive-test-no-noise2-td3,96,272.3526928162765,439142,1411,4529.93955373764,40.5518798828125,,2.6796939373016357,0.59
439,MetaDrive-test-no-noise2-td3,96,271.9786229899978,440184,1413,4542.102509975433,40.845542907714844,,11.05961799621582,0.58
440,MetaDrive-test-no-noise2-td3,96,269.44190892853976,441725,1416,4558.61873793602,40.6749382019043,-41.15972137451172,5.417507171630859,0.56
441,MetaDrive-test-no-noise2-td3,96,269.8295534499955,442481,1418,4566.074683904648,38.460205078125,-38.14630126953125,6.648626327514648,0.56
442,MetaDrive-test-no-noise2-td3,96,270.49263295406234,443200,1420,4573.240624904633,41.19831466674805,,6.358059883117676,0.56
443,MetaDrive-test-no-noise2-td3,96,268.1206556287702,444365,1423,4585.3776779174805,42.524375915527344,-42.83466339111328,6.3722076416015625,0.54
444,MetaDrive-test-no-noise2-td3,96,270.2134058322439,445001,1424,4590.990384817123,43.3809814453125,-43.519996643066406,5.781558990478516,0.55
445,MetaDrive-test-no-noise2-td3,96,269.6006493371829,446127,1426,4602.579020738602,42.45166778564453,-43.462989807128906,9.988201141357422,0.55
446,MetaDrive-test-no-noise2-td3,96,267.3053872084382,447411,1430,4614.765271902084,44.79507827758789,-44.6660041809082,9.296350479125977,0.56
447,MetaDrive-test-no-noise2-td3,96,267.00466793452955,448412,1431,4628.820425033569,43.86659240722656,,5.767041206359863,0.55
448,MetaDrive-test-no-noise2-td3,96,263.84509290575215,449479,1433,4639.245070934296,39.886043548583984,-40.08607864379883,18.909374237060547,0.54
449,MetaDrive-test-no-noise2-td3,96,263.924036635118,450617,1435,4650.179347038269,42.38433074951172,-43.21214294433594,8.34459114074707,0.54
450,MetaDrive-test-no-noise2-td3,96,267.5719787151526,451618,1436,4662.97025179863,43.50432586669922,,19.100181579589844,0.54
451,MetaDrive-test-no-noise2-td3,96,268.4699448373534,452131,1437,4667.795446157455,41.4179801940918,-41.40106964111328,16.96971893310547,0.54
452,MetaDrive-test-no-noise2-td3,96,272.2958793433191,453579,1440,4682.129678964615,46.53398513793945,-46.219993591308594,10.581402778625488,0.56
453,MetaDrive-test-no-noise2-td3,96,270.7750349737205,454378,1442,4689.179538011551,41.65864562988281,,4.749843120574951,0.56
454,MetaDrive-test-no-noise2-td3,96,272.47419644536114,455010,1443,4695.729403972626,48.292850494384766,,5.755256175994873,0.57
455,MetaDrive-test-no-noise2-td3,96,275.5656523908981,456607,1445,4712.675952911377,41.28984832763672,-41.69486999511719,4.783474922180176,0.57
456,MetaDrive-test-no-noise2-td3,96,277.15344270983604,457516,1447,4721.068920850754,41.50870895385742,,5.700135231018066,0.59
457,MetaDrive-test-no-noise2-td3,96,280.7437751194786,458517,1448,4731.2675659656525,44.71290969848633,-44.5680046081543,4.949481010437012,0.59
458,MetaDrive-test-no-noise2-td3,96,281.05829078192113,459019,1449,4735.735112905502,37.46344757080078,-37.766239166259766,5.140280723571777,0.6
459,MetaDrive-test-no-noise2-td3,96,280.39924850481754,460110,1451,4747.078032016754,43.14863586425781,,4.066040992736816,0.6
460,MetaDrive-test-no-noise2-td3,96,281.18941691713064,461104,1452,4758.017031908035,40.221553802490234,,13.215953826904297,0.6
461,MetaDrive-test-no-noise2-td3,96,283.2223829481967,462070,1454,4767.790699005127,45.81061553955078,,4.015887260437012,0.61
462,MetaDrive-test-no-noise2-td3,96,284.4661527200431,463071,1455,4779.225227832794,45.85145950317383,-46.569541931152344,15.933116912841797,0.61
463,MetaDrive-test-no-noise2-td3,96,283.6934457598855,464244,1458,4790.437747001648,39.74349594116211,,4.200072288513184,0.6
464,MetaDrive-test-no-noise2-td3,96,283.42654001439325,465143,1460,4799.83082985878,41.8099250793457,-41.77863311767578,4.782401084899902,0.59
465,MetaDrive-test-no-noise2-td3,96,282.6116214426664,466144,1461,4810.14515376091,43.91179275512695,,6.51579475402832,0.58
466,MetaDrive-test-no-noise2-td3,96,286.3705889341691,467426,1463,4823.808756113052,41.1927375793457,,7.385809898376465,0.59
467,MetaDrive-test-no-noise2-td3,96,286.77692083193404,468427,1464,4835.842855930328,40.16876220703125,-39.532135009765625,6.373971939086914,0.58
468,MetaDrive-test-no-noise2-td3,96,289.46990993521683,469037,1465,4841.638798952103,41.97798538208008,-42.25644302368164,13.239877700805664,0.59
469,MetaDrive-test-no-noise2-td3,96,292.0578544448687,470712,1467,4862.013037919998,38.500431060791016,,5.910548210144043,0.59
470,MetaDrive-test-no-noise2-td3,96,291.15848123616115,471143,1468,4866.273216962814,40.853553771972656,-41.69340515136719,7.862244606018066,0.59
471,MetaDrive-test-no-noise2-td3,96,294.0689287185028,472043,1470,4877.054663896561,36.1563720703125,-36.344058990478516,5.665578842163086,0.59
472,MetaDrive-test-no-noise2-td3,96,295.6296946886607,473586,1473,4893.096909761429,44.23670959472656,,3.1632485389709473,0.59
473,MetaDrive-test-no-noise2-td3,96,294.37725986187684,474050,1474,4897.797517776489,40.03351593017578,,4.421874523162842,0.59
474,MetaDrive-test-no-noise2-td3,96,290.85428686729387,475238,1476,4909.299516916275,44.371578216552734,,17.307453155517578,0.59
475,MetaDrive-test-no-noise2-td3,96,291.8767323582839,476095,1477,4919.152848958969,42.429656982421875,-43.07919692993164,5.582625389099121,0.6
476,MetaDrive-test-no-noise2-td3,96,290.9995283662706,477016,1479,4928.942462921143,39.19701385498047,,5.206310749053955,0.59
477,MetaDrive-test-no-noise2-td3,96,292.4755085330247,478631,1481,4945.9340279102325,41.683433532714844,-41.47016906738281,5.921380043029785,0.59
478,MetaDrive-test-no-noise2-td3,96,292.7804126228994,479297,1482,4952.961728096008,40.539031982421875,-40.86283874511719,9.449921607971191,0.59
479,MetaDrive-test-no-noise2-td3,96,289.3746688984704,480104,1484,4961.275867938995,41.49494934082031,,19.410518646240234,0.58
480,MetaDrive-test-no-noise2-td3,96,286.3724640919505,481367,1487,4976.8235421180725,42.53728103637695,-42.374515533447266,4.489850997924805,0.56
481,MetaDrive-test-no-noise2-td3,96,286.69424123582644,482151,1488,4984.581151008606,41.686988830566406,-42.842529296875,108.5823974609375,0.56
482,MetaDrive-test-no-noise2-td3,96,284.9888927516772,483512,1491,4998.591776132584,41.47884750366211,,4.416511535644531,0.56
483,MetaDrive-test-no-noise2-td3,96,285.0684038343202,484513,1492,5011.786572933197,40.64853286743164,-40.96675491333008,63.480377197265625,0.56
484,MetaDrive-test-no-noise2-td3,96,283.43240810852296,485166,1494,5017.590728998184,38.526573181152344,,4.313060760498047,0.56
485,MetaDrive-test-no-noise2-td3,96,283.7125848063569,486542,1496,5031.495271921158,42.73823547363281,,3.6793556213378906,0.56
486,MetaDrive-test-no-noise2-td3,96,283.2581116685669,487102,1497,5037.091235876083,44.16372299194336,,9.38626480102539,0.56
487,MetaDrive-test-no-noise2-td3,96,283.70456721260365,488396,1499,5051.231349945068,38.25899887084961,,15.51727294921875,0.58
488,MetaDrive-test-no-noise2-td3,96,285.71716991004473,489397,1500,5062.133655786514,38.888423919677734,-39.399330139160156,4.951925277709961,0.57
489,MetaDrive-test-no-noise2-td3,96,283.91788129635705,490237,1502,5069.308555841446,46.228248596191406,-46.35011672973633,8.589216232299805,0.57
490,MetaDrive-test-no-noise2-td3,96,285.4586251642293,491093,1503,5077.629241943359,38.839054107666016,-38.86005401611328,7.932224750518799,0.57
491,MetaDrive-test-no-noise2-td3,96,287.7426808530012,492380,1505,5091.4293739795685,42.84874725341797,,11.813135147094727,0.58
492,MetaDrive-test-no-noise2-td3,96,287.2341387129877,493474,1507,5105.212043046951,37.903076171875,,15.36983871459961,0.57
493,MetaDrive-test-no-noise2-td3,96,285.78240706430506,494263,1509,5113.359622955322,40.74232864379883,-41.74346160888672,6.459530830383301,0.55
494,MetaDrive-test-no-noise2-td3,96,284.9940721984985,495221,1511,5122.926949977875,41.163177490234375,-41.191986083984375,6.707962989807129,0.55
495,MetaDrive-test-no-noise2-td3,96,282.0880038142196,496138,1514,5132.147652864456,38.64014434814453,,7.1434783935546875,0.54
496,MetaDrive-test-no-noise2-td3,96,281.41092472317916,497230,1516,5142.642114877701,44.5518798828125,,3.3417844772338867,0.55
497,MetaDrive-test-no-noise2-td3,96,283.445089448791,498774,1518,5161.552905082703,39.01362609863281,,6.893120765686035,0.55
498,MetaDrive-test-no-noise2-td3,96,283.3488503295745,499263,1519,5165.948033809662,39.996150970458984,-41.078346252441406,6.940278053283691,0.55
