TanmayH/CS269-RL-project-code/MetaDrive-td3combine-expt_with_safe-leaky-adamw-in-q-weighted-corrected-diff-arch/MetaDrive-Gen-Next-v1/td3/progress.csv
,log_dir,frame_per_second,episode_reward,total_steps,total_episodes,total_time,actor_loss,critic_loss,target_q,success_rate
0,MetaDrive-td3combine-expt_with_safe-leaky-adamw-in-q-weighted-corrected-diff-arch,214,184.21288306731407,1097,2,5.105541229248047,-42.48250961303711,27.87830352783203,41.72687530517578,0.5
1,MetaDrive-td3combine-expt_with_safe-leaky-adamw-in-q-weighted-corrected-diff-arch,85,130.23781625454623,2231,4,26.004929065704346,-31.796947479248047,7.0327324867248535,31.112295150756836,0.25
2,MetaDrive-td3combine-expt_with_safe-leaky-adamw-in-q-weighted-corrected-diff-arch,77,124.74771479088209,3232,5,41.79947328567505,,7.729616165161133,26.93625259399414,0.2
3,MetaDrive-td3combine-expt_with_safe-leaky-adamw-in-q-weighted-corrected-diff-arch,71,125.49223967905894,4563,8,64.08870339393616,-29.596914291381836,7.7430925369262695,30.08643913269043,0.125
4,MetaDrive-td3combine-expt_with_safe-leaky-adamw-in-q-weighted-corrected-diff-arch,69,124.63331799786637,5318,9,76.24950313568115,,10.218257904052734,28.493146896362305,0.1111111111111111
5,MetaDrive-td3combine-expt_with_safe-leaky-adamw-in-q-weighted-corrected-diff-arch,67,134.55992425345156,6621,11,98.42513513565063,-36.64710998535156,5.462259292602539,36.707515716552734,0.09090909090909091
6,MetaDrive-td3combine-expt_with_safe-leaky-adamw-in-q-weighted-corrected-diff-arch,66,133.7107333587879,7622,12,114.99458813667297,,4.067080497741699,38.29969787597656,0.08333333333333333
7,MetaDrive-td3combine-expt_with_safe-leaky-adamw-in-q-weighted-corrected-diff-arch,64,128.9355478595788,8187,13,127.37054014205933,-37.74893569946289,8.283857345581055,38.182334899902344,0.07692307692307693
8,MetaDrive-td3combine-expt_with_safe-leaky-adamw-in-q-weighted-corrected-diff-arch,62,128.56641721228235,9188,14,146.99355697631836,,9.632461547851562,36.07250213623047,0.07142857142857142
9,MetaDrive-td3combine-expt_with_safe-leaky-adamw-in-q-weighted-corrected-diff-arch,60,119.38159118775673,10179,17,167.63591122627258,-34.8706169128418,12.818001747131348,34.39649200439453,0.058823529411764705
10,MetaDrive-td3combine-expt_with_safe-leaky-adamw-in-q-weighted-corrected-diff-arch,60,119.14001304080632,11180,18,185.9173502922058,,6.709952354431152,32.74250411987305,0.05555555555555555
11,MetaDrive-td3combine-expt_with_safe-leaky-adamw-in-q-weighted-corrected-diff-arch,58,121.4280768732327,12181,19,206.95259809494019,-36.899478912353516,11.4429292678833,36.413917541503906,0.05263157894736842
12,MetaDrive-td3combine-expt_with_safe-leaky-adamw-in-q-weighted-corrected-diff-arch,58,121.29801684184973,13428,21,227.9111773967743,,8.290460586547852,35.91963195800781,0.047619047619047616
13,MetaDrive-td3combine-expt_with_safe-leaky-adamw-in-q-weighted-corrected-diff-arch,59,120.74304645703161,14429,22,244.3366720676422,-38.703495025634766,5.5995330810546875,39.14264678955078,0.045454545454545456
14,MetaDrive-td3combine-expt_with_safe-leaky-adamw-in-q-weighted-corrected-diff-arch,58,127.69082442046486,15060,23,255.91726899147034,,8.396678924560547,34.46712875366211,0.08695652173913043
15,MetaDrive-td3combine-expt_with_safe-leaky-adamw-in-q-weighted-corrected-diff-arch,58,128.60518281730074,16061,24,272.55015230178833,-42.55914306640625,14.117341995239258,43.274871826171875,0.08333333333333333
16,MetaDrive-td3combine-expt_with_safe-leaky-adamw-in-q-weighted-corrected-diff-arch,58,129.17386813455832,17062,25,290.6725010871887,,19.062923431396484,34.50297164916992,0.08
17,MetaDrive-td3combine-expt_with_safe-leaky-adamw-in-q-weighted-corrected-diff-arch,57,125.63860478072783,18063,26,315.1059901714325,-37.438720703125,11.259573936462402,36.241207122802734,0.07692307692307693
18,MetaDrive-td3combine-expt_with_safe-leaky-adamw-in-q-weighted-corrected-diff-arch,57,127.87565717213485,19064,27,334.4271731376648,,7.371557712554932,37.31105422973633,0.07407407407407407
19,MetaDrive-td3combine-expt_with_safe-leaky-adamw-in-q-weighted-corrected-diff-arch,56,126.4118175790699,20065,28,354.1588542461395,-41.25703811645508,5.214507579803467,40.309974670410156,0.07142857142857142
20,MetaDrive-td3combine-expt_with_safe-leaky-adamw-in-q-weighted-corrected-diff-arch,56,131.91593724674706,21492,30,377.7283294200897,,4.732556343078613,42.24439239501953,0.06666666666666667
21,MetaDrive-td3combine-expt_with_safe-leaky-adamw-in-q-weighted-corrected-diff-arch,57,136.05774863329202,22232,31,389.42639422416687,,6.80350399017334,39.986515045166016,0.0967741935483871
22,MetaDrive-td3combine-expt_with_safe-leaky-adamw-in-q-weighted-corrected-diff-arch,57,134.6845018644545,23632,33,414.5748801231384,,7.292906761169434,41.3072624206543,0.09090909090909091
23,MetaDrive-td3combine-expt_with_safe-leaky-adamw-in-q-weighted-corrected-diff-arch,57,137.5743347438963,24461,34,429.0946681499481,-35.728763580322266,6.0605573654174805,35.88816833496094,0.11764705882352941
24,MetaDrive-td3combine-expt_with_safe-leaky-adamw-in-q-weighted-corrected-diff-arch,56,135.1467707766912,25462,35,447.4024691581726,,7.117122173309326,38.45758819580078,0.11428571428571428
25,MetaDrive-td3combine-expt_with_safe-leaky-adamw-in-q-weighted-corrected-diff-arch,56,139.26740169272,26345,36,464.2180972099304,-39.076995849609375,4.623714447021484,38.259117126464844,0.1388888888888889
26,MetaDrive-td3combine-expt_with_safe-leaky-adamw-in-q-weighted-corrected-diff-arch,56,141.14423278778477,27346,37,481.7871401309967,,7.428749084472656,34.073272705078125,0.13513513513513514
27,MetaDrive-td3combine-expt_with_safe-leaky-adamw-in-q-weighted-corrected-diff-arch,56,137.73230130750332,28806,39,508.36741518974304,,6.24417781829834,39.661231994628906,0.1282051282051282
28,MetaDrive-td3combine-expt_with_safe-leaky-adamw-in-q-weighted-corrected-diff-arch,56,135.66747432567362,29807,40,525.393707036972,-33.81692123413086,11.789666175842285,34.46867752075195,0.125
29,MetaDrive-td3combine-expt_with_safe-leaky-adamw-in-q-weighted-corrected-diff-arch,56,137.7269611636287,30592,41,538.2792031764984,,6.138291358947754,31.789344787597656,0.12195121951219512
30,MetaDrive-td3combine-expt_with_safe-leaky-adamw-in-q-weighted-corrected-diff-arch,56,136.24054402506542,31278,42,549.3125402927399,,6.683720588684082,35.43272018432617,0.11904761904761904
31,MetaDrive-td3combine-expt_with_safe-leaky-adamw-in-q-weighted-corrected-diff-arch,56,134.58843148439453,32279,43,569.2615191936493,-37.76137924194336,2.7205066680908203,38.08341598510742,0.11627906976744186
32,MetaDrive-td3combine-expt_with_safe-leaky-adamw-in-q-weighted-corrected-diff-arch,56,131.82950843464914,33854,46,599.4434492588043,,4.536382675170898,35.027347564697266,0.10869565217391304
33,MetaDrive-td3combine-expt_with_safe-leaky-adamw-in-q-weighted-corrected-diff-arch,56,131.38087361228406,34749,47,619.1848821640015,-36.219993591308594,4.674887657165527,35.35554504394531,0.10638297872340426
34,MetaDrive-td3combine-expt_with_safe-leaky-adamw-in-q-weighted-corrected-diff-arch,56,130.74447903369602,35185,48,627.9831821918488,-39.29468536376953,5.107733726501465,38.316951751708984,0.10416666666666667
35,MetaDrive-td3combine-expt_with_safe-leaky-adamw-in-q-weighted-corrected-diff-arch,55,125.89370746609696,36603,52,657.8148791790009,-36.06841278076172,5.101592540740967,35.54566192626953,0.09615384615384616
36,MetaDrive-td3combine-expt_with_safe-leaky-adamw-in-q-weighted-corrected-diff-arch,55,123.06573458916483,37718,54,678.6284852027893,,6.401458740234375,35.04842758178711,0.09259259259259259
37,MetaDrive-td3combine-expt_with_safe-leaky-adamw-in-q-weighted-corrected-diff-arch,55,122.89190798322394,38143,55,685.5666370391846,-39.1009521484375,3.122488021850586,38.312808990478516,0.09090909090909091
38,MetaDrive-td3combine-expt_with_safe-leaky-adamw-in-q-weighted-corrected-diff-arch,55,124.5001820913603,39479,57,710.4011471271515,-31.766929626464844,12.456758499145508,31.154067993164062,0.08771929824561403
39,MetaDrive-td3combine-expt_with_safe-leaky-adamw-in-q-weighted-corrected-diff-arch,55,121.65161308200763,40583,60,731.0239582061768,-34.133392333984375,13.42464828491211,33.65129852294922,0.08333333333333333
40,MetaDrive-td3combine-expt_with_safe-leaky-adamw-in-q-weighted-corrected-diff-arch,55,122.11913580084628,41584,61,749.0740070343018,,9.661934852600098,34.242591857910156,0.08196721311475409
41,MetaDrive-td3combine-expt_with_safe-leaky-adamw-in-q-weighted-corrected-diff-arch,55,121.0898777811041,42585,62,773.7650671005249,-34.20257568359375,10.077140808105469,34.554962158203125,0.08064516129032258
42,MetaDrive-td3combine-expt_with_safe-leaky-adamw-in-q-weighted-corrected-diff-arch,54,121.59134445193347,43528,64,793.7749011516571,,12.483898162841797,33.73564147949219,0.078125
43,MetaDrive-td3combine-expt_with_safe-leaky-adamw-in-q-weighted-corrected-diff-arch,54,122.46868590443331,44059,65,802.1463651657104,-36.95398712158203,17.26318359375,36.06211471557617,0.07692307692307693
44,MetaDrive-td3combine-expt_with_safe-leaky-adamw-in-q-weighted-corrected-diff-arch,54,125.21500832409214,45719,67,836.6131722927094,-39.00630187988281,7.144680023193359,38.206825256347656,0.08955223880597014
45,MetaDrive-td3combine-expt_with_safe-leaky-adamw-in-q-weighted-corrected-diff-arch,54,125.19052147395814,46112,68,844.5174829959869,,6.477218151092529,35.915348052978516,0.08823529411764706
46,MetaDrive-td3combine-expt_with_safe-leaky-adamw-in-q-weighted-corrected-diff-arch,54,123.38589528853356,47172,70,863.7620882987976,,5.356669902801514,33.330596923828125,0.08571428571428572
47,MetaDrive-td3combine-expt_with_safe-leaky-adamw-in-q-weighted-corrected-diff-arch,54,121.94181342204843,48634,73,892.0735652446747,,7.416467666625977,31.773941040039062,0.0821917808219178
48,MetaDrive-td3combine-expt_with_safe-leaky-adamw-in-q-weighted-corrected-diff-arch,54,122.00176179197321,49593,74,913.7224833965302,-33.106483459472656,5.962851524353027,33.753257751464844,0.08108108108108109
49,MetaDrive-td3combine-expt_with_safe-leaky-adamw-in-q-weighted-corrected-diff-arch,54,122.20027922112699,50094,75,921.8040132522583,,7.692342758178711,36.18888473510742,0.08
50,MetaDrive-td3combine-expt_with_safe-leaky-adamw-in-q-weighted-corrected-diff-arch,54,125.20462799436308,51757,78,950.5221891403198,-38.48190689086914,5.276394844055176,37.64885330200195,0.08974358974358974
51,MetaDrive-td3combine-expt_with_safe-leaky-adamw-in-q-weighted-corrected-diff-arch,54,124.66793014306622,52758,79,969.8310091495514,,9.240743637084961,35.807640075683594,0.08860759493670886
52,MetaDrive-td3combine-expt_with_safe-leaky-adamw-in-q-weighted-corrected-diff-arch,54,123.85940759723385,53235,80,980.3310222625732,-34.774017333984375,5.429794788360596,34.29444885253906,0.0875
53,MetaDrive-td3combine-expt_with_safe-leaky-adamw-in-q-weighted-corrected-diff-arch,54,123.97085486857641,54675,82,1005.4190011024475,-36.35921859741211,4.670327186584473,36.40351104736328,0.08536585365853659
54,MetaDrive-td3combine-expt_with_safe-leaky-adamw-in-q-weighted-corrected-diff-arch,54,123.60728448236527,55676,83,1027.974807024002,,4.872506141662598,33.860816955566406,0.08433734939759036
55,MetaDrive-td3combine-expt_with_safe-leaky-adamw-in-q-weighted-corrected-diff-arch,54,123.31679205857293,56950,85,1050.1158924102783,,4.769735336303711,31.1962947845459,0.08235294117647059
56,MetaDrive-td3combine-expt_with_safe-leaky-adamw-in-q-weighted-corrected-diff-arch,54,123.89334856942648,57951,86,1071.777586221695,-37.38395309448242,4.0957536697387695,37.50895309448242,0.08139534883720931
57,MetaDrive-td3combine-expt_with_safe-leaky-adamw-in-q-weighted-corrected-diff-arch,54,123.80501700056861,58952,87,1091.4737200737,,10.719348907470703,30.77684783935547,0.08045977011494253
58,MetaDrive-td3combine-expt_with_safe-leaky-adamw-in-q-weighted-corrected-diff-arch,54,123.82051178788491,59953,88,1108.3564302921295,-34.9642333984375,5.144111156463623,35.64484405517578,0.07954545454545454
59,MetaDrive-td3combine-expt_with_safe-leaky-adamw-in-q-weighted-corrected-diff-arch,54,122.51666179780146,60025,89,1109.8898203372955,-31.11872100830078,5.049105644226074,31.324264526367188,0.07865168539325842
60,MetaDrive-td3combine-expt_with_safe-leaky-adamw-in-q-weighted-corrected-diff-arch,53,122.90882318510597,61460,93,1138.572214126587,,31.813941955566406,31.516666412353516,0.08602150537634409
61,MetaDrive-td3combine-expt_with_safe-leaky-adamw-in-q-weighted-corrected-diff-arch,53,123.07196337127205,62461,94,1160.9940412044525,-36.15879440307617,6.8064727783203125,35.35548782348633,0.0851063829787234
62,MetaDrive-td3combine-expt_with_safe-leaky-adamw-in-q-weighted-corrected-diff-arch,53,123.37655097690647,63462,95,1181.3108711242676,,4.953242778778076,31.71900177001953,0.08421052631578947
63,MetaDrive-td3combine-expt_with_safe-leaky-adamw-in-q-weighted-corrected-diff-arch,53,123.86289579013548,64675,97,1206.0458912849426,-34.61046600341797,5.281703472137451,34.744136810302734,0.08247422680412371
64,MetaDrive-td3combine-expt_with_safe-leaky-adamw-in-q-weighted-corrected-diff-arch,53,123.60185097638558,65371,99,1220.2005002498627,-35.40436553955078,34.982765197753906,34.819114685058594,0.08080808080808081
65,MetaDrive-td3combine-expt_with_safe-leaky-adamw-in-q-weighted-corrected-diff-arch,53,123.61375694599829,66372,100,1242.2686731815338,,6.526885986328125,26.79727554321289,0.08
66,MetaDrive-td3combine-expt_with_safe-leaky-adamw-in-q-weighted-corrected-diff-arch,53,122.14535950573796,67373,101,1265.9958772659302,-31.333009719848633,6.779355049133301,32.02250671386719,0.07
67,MetaDrive-td3combine-expt_with_safe-leaky-adamw-in-q-weighted-corrected-diff-arch,53,122.97830324560105,68374,102,1287.9912061691284,,6.368595123291016,33.703369140625,0.07
68,MetaDrive-td3combine-expt_with_safe-leaky-adamw-in-q-weighted-corrected-diff-arch,53,123.9731062764622,69375,103,1305.6552321910858,-35.40011215209961,4.418152332305908,36.128143310546875,0.07
69,MetaDrive-td3combine-expt_with_safe-leaky-adamw-in-q-weighted-corrected-diff-arch,53,125.66098893103644,70046,104,1317.115287065506,,4.70255184173584,33.015438079833984,0.08
70,MetaDrive-td3combine-expt_with_safe-leaky-adamw-in-q-weighted-corrected-diff-arch,53,122.3173206769943,71557,108,1349.7415680885315,-37.85175323486328,8.700033187866211,37.61971664428711,0.08
71,MetaDrive-td3combine-expt_with_safe-leaky-adamw-in-q-weighted-corrected-diff-arch,52,118.83460020101644,72676,111,1377.13152217865,,6.892958164215088,33.24484634399414,0.08
72,MetaDrive-td3combine-expt_with_safe-leaky-adamw-in-q-weighted-corrected-diff-arch,52,119.60540176664061,73677,112,1400.626169204712,-32.76757049560547,7.936420440673828,32.12291717529297,0.08
73,MetaDrive-td3combine-expt_with_safe-leaky-adamw-in-q-weighted-corrected-diff-arch,52,120.02855592836468,74862,114,1429.1640512943268,,11.718417167663574,32.0768928527832,0.08
74,MetaDrive-td3combine-expt_with_safe-leaky-adamw-in-q-weighted-corrected-diff-arch,52,120.35924906154175,75111,115,1433.8648493289948,-33.72490692138672,8.083340644836426,33.51967239379883,0.08
75,MetaDrive-td3combine-expt_with_safe-leaky-adamw-in-q-weighted-corrected-diff-arch,52,121.18350576338246,76657,117,1467.9722142219543,-28.771669387817383,23.16874122619629,29.63399314880371,0.08
76,MetaDrive-td3combine-expt_with_safe-leaky-adamw-in-q-weighted-corrected-diff-arch,52,121.52558184933399,77349,118,1481.3378291130066,-28.846878051757812,10.053115844726562,29.917217254638672,0.08
77,MetaDrive-td3combine-expt_with_safe-leaky-adamw-in-q-weighted-corrected-diff-arch,52,120.75907282741925,78350,119,1502.3143672943115,,4.559512138366699,33.80364227294922,0.08
78,MetaDrive-td3combine-expt_with_safe-leaky-adamw-in-q-weighted-corrected-diff-arch,52,121.11146170964481,79351,120,1523.0174190998077,-33.7633056640625,6.26163387298584,33.82164001464844,0.08
79,MetaDrive-td3combine-expt_with_safe-leaky-adamw-in-q-weighted-corrected-diff-arch,51,120.81762663065224,80493,122,1549.0077981948853,-32.3111572265625,44.225616455078125,30.928030014038086,0.08
80,MetaDrive-td3combine-expt_with_safe-leaky-adamw-in-q-weighted-corrected-diff-arch,51,117.04405995572537,81703,125,1574.7212781906128,-30.1298828125,5.652339458465576,30.670766830444336,0.07
81,MetaDrive-td3combine-expt_with_safe-leaky-adamw-in-q-weighted-corrected-diff-arch,51,118.35107462398146,82704,126,1593.4714460372925,,12.044751167297363,26.956825256347656,0.07
82,MetaDrive-td3combine-expt_with_safe-leaky-adamw-in-q-weighted-corrected-diff-arch,51,118.16697140472876,83705,127,1612.1225740909576,-31.21920394897461,7.522513389587402,30.182140350341797,0.07
83,MetaDrive-td3combine-expt_with_safe-leaky-adamw-in-q-weighted-corrected-diff-arch,51,117.79807607301838,84706,128,1635.603128194809,,13.799944877624512,33.540977478027344,0.07
84,MetaDrive-td3combine-expt_with_safe-leaky-adamw-in-q-weighted-corrected-diff-arch,51,116.67138762895998,85707,129,1651.420469045639,-32.4132080078125,8.001769065856934,33.14900207519531,0.07
85,MetaDrive-td3combine-expt_with_safe-leaky-adamw-in-q-weighted-corrected-diff-arch,51,115.88309209738243,86708,130,1674.4232094287872,,3.665337562561035,35.503726959228516,0.07
86,MetaDrive-td3combine-expt_with_safe-leaky-adamw-in-q-weighted-corrected-diff-arch,51,114.38048360934614,87709,131,1695.4169642925262,-34.188289642333984,7.105162620544434,33.76933288574219,0.06
87,MetaDrive-td3combine-expt_with_safe-leaky-adamw-in-q-weighted-corrected-diff-arch,51,115.91533515912461,88681,132,1720.6176602840424,-33.491661071777344,53.195655822753906,33.367225646972656,0.06
88,MetaDrive-td3combine-expt_with_safe-leaky-adamw-in-q-weighted-corrected-diff-arch,51,115.57855391867729,89682,133,1738.746353149414,,47.600521087646484,30.766056060791016,0.06
89,MetaDrive-td3combine-expt_with_safe-leaky-adamw-in-q-weighted-corrected-diff-arch,51,110.78165542983135,90046,136,1746.5726931095123,,10.628300666809082,29.733243942260742,0.04
90,MetaDrive-td3combine-expt_with_safe-leaky-adamw-in-q-weighted-corrected-diff-arch,51,112.74349952138977,91511,138,1779.8952231407166,-26.583850860595703,10.610363006591797,26.76336097717285,0.04
91,MetaDrive-td3combine-expt_with_safe-leaky-adamw-in-q-weighted-corrected-diff-arch,51,116.11515114960268,92482,139,1799.9867751598358,,10.343132019042969,28.635242462158203,0.05
92,MetaDrive-td3combine-expt_with_safe-leaky-adamw-in-q-weighted-corrected-diff-arch,51,113.94173403442711,93078,142,1811.8569202423096,,9.057368278503418,29.621448516845703,0.05
93,MetaDrive-td3combine-expt_with_safe-leaky-adamw-in-q-weighted-corrected-diff-arch,51,116.3098497002303,94815,144,1844.573646068573,-32.08914566040039,5.902458190917969,32.32709503173828,0.06
94,MetaDrive-td3combine-expt_with_safe-leaky-adamw-in-q-weighted-corrected-diff-arch,51,117.65382725164483,95494,145,1860.492043018341,,12.527798652648926,32.76148223876953,0.06
95,MetaDrive-td3combine-expt_with_safe-leaky-adamw-in-q-weighted-corrected-diff-arch,51,117.8472246363617,96495,146,1879.3575510978699,-30.403602600097656,11.39456558227539,30.974018096923828,0.06
96,MetaDrive-td3combine-expt_with_safe-leaky-adamw-in-q-weighted-corrected-diff-arch,51,118.03600427217113,97496,147,1898.8314232826233,,7.263782501220703,30.59684944152832,0.06
97,MetaDrive-td3combine-expt_with_safe-leaky-adamw-in-q-weighted-corrected-diff-arch,51,119.08311539450226,98150,148,1914.8472971916199,,7.483943939208984,31.136608123779297,0.06
98,MetaDrive-td3combine-expt_with_safe-leaky-adamw-in-q-weighted-corrected-diff-arch,51,121.96394629635901,99689,150,1943.0765402317047,-29.937984466552734,9.389652252197266,28.262182235717773,0.07
99,MetaDrive-td3combine-expt_with_safe-leaky-adamw-in-q-weighted-corrected-diff-arch,51,122.7042507246011,100244,151,1953.92369222641,,24.00434112548828,29.730121612548828,0.07
100,MetaDrive-td3combine-expt_with_safe-leaky-adamw-in-q-weighted-corrected-diff-arch,51,123.2453770979994,101245,152,1972.3095390796661,-34.62456512451172,6.337500095367432,34.70591735839844,0.07
101,MetaDrive-td3combine-expt_with_safe-leaky-adamw-in-q-weighted-corrected-diff-arch,51,126.67503474738135,102308,154,1992.510507106781,,8.849493026733398,31.61395263671875,0.08
102,MetaDrive-td3combine-expt_with_safe-leaky-adamw-in-q-weighted-corrected-diff-arch,51,125.27063828684737,103270,157,2009.0431022644043,,6.456847190856934,31.543407440185547,0.09
103,MetaDrive-td3combine-expt_with_safe-leaky-adamw-in-q-weighted-corrected-diff-arch,51,126.5422912681422,104271,158,2029.9001631736755,-30.058670043945312,9.452201843261719,29.256710052490234,0.09
104,MetaDrive-td3combine-expt_with_safe-leaky-adamw-in-q-weighted-corrected-diff-arch,51,128.7976038387694,105183,159,2047.2382471561432,-27.29677391052246,12.688423156738281,27.9010066986084,0.1
105,MetaDrive-td3combine-expt_with_safe-leaky-adamw-in-q-weighted-corrected-diff-arch,51,128.30134264252763,106725,162,2078.7872352600098,-31.934785842895508,10.581513404846191,30.622543334960938,0.1
106,MetaDrive-td3combine-expt_with_safe-leaky-adamw-in-q-weighted-corrected-diff-arch,51,130.24624471609138,107726,163,2097.785595178604,,13.394903182983398,27.99279022216797,0.1
107,MetaDrive-td3combine-expt_with_safe-leaky-adamw-in-q-weighted-corrected-diff-arch,51,126.20474824705181,108932,166,2125.134949207306,,14.970443725585938,25.801877975463867,0.1
108,MetaDrive-td3combine-expt_with_safe-leaky-adamw-in-q-weighted-corrected-diff-arch,51,124.11707372356514,109145,167,2129.5240020751953,-27.40616226196289,14.809576034545898,27.338294982910156,0.09
109,MetaDrive-td3combine-expt_with_safe-leaky-adamw-in-q-weighted-corrected-diff-arch,51,126.5761852651755,110550,169,2159.260277032852,,7.064245223999023,26.844682693481445,0.09
110,MetaDrive-td3combine-expt_with_safe-leaky-adamw-in-q-weighted-corrected-diff-arch,51,127.74046064804392,111551,170,2178.485988140106,-26.04874610900879,4.973121166229248,26.30282211303711,0.09
111,MetaDrive-td3combine-expt_with_safe-leaky-adamw-in-q-weighted-corrected-diff-arch,51,129.77204853136533,112156,171,2189.7286500930786,,8.245718002319336,27.439483642578125,0.1
112,MetaDrive-td3combine-expt_with_safe-leaky-adamw-in-q-weighted-corrected-diff-arch,51,130.63041496797868,113157,172,2211.661067008972,-28.817882537841797,6.095321178436279,28.13070297241211,0.1
113,MetaDrive-td3combine-expt_with_safe-leaky-adamw-in-q-weighted-corrected-diff-arch,51,131.56389219862277,114158,173,2236.122479200363,,6.677542686462402,30.122451782226562,0.1
114,MetaDrive-td3combine-expt_with_safe-leaky-adamw-in-q-weighted-corrected-diff-arch,51,132.66513653407276,115075,175,2253.161016225815,-28.17755126953125,38.79059982299805,27.422283172607422,0.11
115,MetaDrive-td3combine-expt_with_safe-leaky-adamw-in-q-weighted-corrected-diff-arch,51,131.5962536030992,116188,177,2275.0701072216034,,8.3300199508667,27.813613891601562,0.1
116,MetaDrive-td3combine-expt_with_safe-leaky-adamw-in-q-weighted-corrected-diff-arch,51,130.58026579848004,117355,179,2300.2980551719666,-31.276500701904297,9.867881774902344,31.650894165039062,0.1
117,MetaDrive-td3combine-expt_with_safe-leaky-adamw-in-q-weighted-corrected-diff-arch,50,130.8054930444315,118356,180,2321.310046195984,,19.14548110961914,28.552316665649414,0.1
118,MetaDrive-td3combine-expt_with_safe-leaky-adamw-in-q-weighted-corrected-diff-arch,51,131.73691632563782,119357,181,2339.9193992614746,-28.63310432434082,15.78404712677002,28.173583984375,0.1
119,MetaDrive-td3combine-expt_with_safe-leaky-adamw-in-q-weighted-corrected-diff-arch,51,131.65353810200094,120358,182,2359.516879081726,,14.372249603271484,26.170740127563477,0.1
120,MetaDrive-td3combine-expt_with_safe-leaky-adamw-in-q-weighted-corrected-diff-arch,51,131.8134267515543,121359,183,2379.5584602355957,-29.816709518432617,7.922763347625732,29.95964813232422,0.1
121,MetaDrive-td3combine-expt_with_safe-leaky-adamw-in-q-weighted-corrected-diff-arch,50,131.95706941134193,122360,184,2403.330180168152,,18.747940063476562,29.083995819091797,0.1
122,MetaDrive-td3combine-expt_with_safe-leaky-adamw-in-q-weighted-corrected-diff-arch,50,133.50914082104342,123251,185,2419.6647691726685,-24.02457046508789,4.994506359100342,24.43861961364746,0.11
123,MetaDrive-td3combine-expt_with_safe-leaky-adamw-in-q-weighted-corrected-diff-arch,50,132.79825960146164,124069,189,2437.181127309799,-23.316265106201172,8.632080078125,23.217069625854492,0.11
124,MetaDrive-td3combine-expt_with_safe-leaky-adamw-in-q-weighted-corrected-diff-arch,50,132.71800942965928,125070,190,2454.884359359741,,7.715702056884766,29.306821823120117,0.11
125,MetaDrive-td3combine-expt_with_safe-leaky-adamw-in-q-weighted-corrected-diff-arch,50,135.9978816222016,126039,191,2472.6436252593994,-28.187061309814453,9.853626251220703,28.766984939575195,0.12
126,MetaDrive-td3combine-expt_with_safe-leaky-adamw-in-q-weighted-corrected-diff-arch,50,135.1149459463435,127532,194,2502.893114089966,,8.242691040039062,27.431365966796875,0.11
127,MetaDrive-td3combine-expt_with_safe-leaky-adamw-in-q-weighted-corrected-diff-arch,50,134.48949228965418,128216,196,2515.195822238922,,7.55202579498291,28.052566528320312,0.11
128,MetaDrive-td3combine-expt_with_safe-leaky-adamw-in-q-weighted-corrected-diff-arch,50,133.14453204072797,129705,199,2544.762576341629,-23.777572631835938,40.703128814697266,24.014867782592773,0.11
129,MetaDrive-td3combine-expt_with_safe-leaky-adamw-in-q-weighted-corrected-diff-arch,50,134.7556664295518,130372,200,2557.139340162277,,3.4728405475616455,26.9063663482666,0.12
130,MetaDrive-td3combine-expt_with_safe-leaky-adamw-in-q-weighted-corrected-diff-arch,50,134.5337512862153,131179,202,2578.2273762226105,-23.404582977294922,5.700601577758789,22.962045669555664,0.12
131,MetaDrive-td3combine-expt_with_safe-leaky-adamw-in-q-weighted-corrected-diff-arch,50,133.744178717835,132544,204,2610.9068343639374,,7.350366592407227,24.4228572845459,0.11
132,MetaDrive-td3combine-expt_with_safe-leaky-adamw-in-q-weighted-corrected-diff-arch,50,135.34579442939784,133140,205,2622.433961391449,,7.2618303298950195,22.593090057373047,0.12
133,MetaDrive-td3combine-expt_with_safe-leaky-adamw-in-q-weighted-corrected-diff-arch,50,136.1590382052147,134141,206,2644.624834060669,-25.807584762573242,14.312196731567383,25.005264282226562,0.12
134,MetaDrive-td3combine-expt_with_safe-leaky-adamw-in-q-weighted-corrected-diff-arch,50,138.2961331724938,135142,207,2669.0381643772125,,7.959786415100098,25.79667091369629,0.12
135,MetaDrive-td3combine-expt_with_safe-leaky-adamw-in-q-weighted-corrected-diff-arch,50,139.3896690154156,136143,208,2690.4144163131714,-24.311473846435547,11.663744926452637,25.287813186645508,0.12
136,MetaDrive-td3combine-expt_with_safe-leaky-adamw-in-q-weighted-corrected-diff-arch,50,143.47100096222562,137280,210,2711.746392250061,,15.38621711730957,29.153104782104492,0.13
137,MetaDrive-td3combine-expt_with_safe-leaky-adamw-in-q-weighted-corrected-diff-arch,50,143.68703400911193,138281,211,2733.0331151485443,-29.88373565673828,5.855579376220703,29.757823944091797,0.13
138,MetaDrive-td3combine-expt_with_safe-leaky-adamw-in-q-weighted-corrected-diff-arch,50,143.9706758449111,139470,214,2761.1639552116394,,49.044281005859375,25.43541717529297,0.14
139,MetaDrive-td3combine-expt_with_safe-leaky-adamw-in-q-weighted-corrected-diff-arch,50,145.3143454398476,140471,215,2781.1199972629547,-29.27051544189453,9.204635620117188,28.740591049194336,0.14
140,MetaDrive-td3combine-expt_with_safe-leaky-adamw-in-q-weighted-corrected-diff-arch,50,146.11087585764076,141250,216,2795.749406337738,,47.479488372802734,27.287555694580078,0.15
141,MetaDrive-td3combine-expt_with_safe-leaky-adamw-in-q-weighted-corrected-diff-arch,50,146.45486722595382,142251,217,2818.1360273361206,-26.11155891418457,10.367189407348633,25.712921142578125,0.15
142,MetaDrive-td3combine-expt_with_safe-leaky-adamw-in-q-weighted-corrected-diff-arch,50,147.59301675219658,143131,218,2832.9314544200897,-23.831436157226562,10.34657096862793,24.48479652404785,0.16
143,MetaDrive-td3combine-expt_with_safe-leaky-adamw-in-q-weighted-corrected-diff-arch,50,151.18096766371272,144767,220,2861.026358127594,-25.335098266601562,12.885393142700195,23.621559143066406,0.18
144,MetaDrive-td3combine-expt_with_safe-leaky-adamw-in-q-weighted-corrected-diff-arch,50,150.4692036263842,145394,222,2872.814530134201,,11.458431243896484,27.512956619262695,0.18
145,MetaDrive-td3combine-expt_with_safe-leaky-adamw-in-q-weighted-corrected-diff-arch,50,152.6376781053673,146680,224,2896.8244421482086,,11.712648391723633,22.93331527709961,0.18
146,MetaDrive-td3combine-expt_with_safe-leaky-adamw-in-q-weighted-corrected-diff-arch,50,151.476000927315,147391,226,2910.3270382881165,-19.428279876708984,10.567516326904297,20.295551300048828,0.18
147,MetaDrive-td3combine-expt_with_safe-leaky-adamw-in-q-weighted-corrected-diff-arch,50,152.09411810158977,148009,227,2920.8576142787933,-24.762563705444336,9.237556457519531,24.78619384765625,0.19
148,MetaDrive-td3combine-expt_with_safe-leaky-adamw-in-q-weighted-corrected-diff-arch,50,154.4396881358882,149621,229,2947.661122083664,-25.824840545654297,9.363897323608398,25.381898880004883,0.2
149,MetaDrive-td3combine-expt_with_safe-leaky-adamw-in-q-weighted-corrected-diff-arch,50,153.69996162946035,150618,231,2974.12966132164,,8.493946075439453,22.96587371826172,0.2
150,MetaDrive-td3combine-expt_with_safe-leaky-adamw-in-q-weighted-corrected-diff-arch,50,154.1986838588641,151485,232,2988.573843240738,-26.388952255249023,10.411036491394043,24.960607528686523,0.21
151,MetaDrive-td3combine-expt_with_safe-leaky-adamw-in-q-weighted-corrected-diff-arch,50,155.1439238733741,152847,235,3015.7940061092377,-25.923599243164062,14.221805572509766,26.32139778137207,0.21
152,MetaDrive-td3combine-expt_with_safe-leaky-adamw-in-q-weighted-corrected-diff-arch,50,157.87513638915692,153645,236,3029.3422861099243,-23.921655654907227,8.05616569519043,23.66647720336914,0.22
153,MetaDrive-td3combine-expt_with_safe-leaky-adamw-in-q-weighted-corrected-diff-arch,50,156.38736248981448,154646,237,3047.507161140442,,10.07830810546875,22.30799674987793,0.22
154,MetaDrive-td3combine-expt_with_safe-leaky-adamw-in-q-weighted-corrected-diff-arch,50,155.77405337186096,155647,238,3070.1702041625977,-19.270381927490234,7.685007095336914,18.837894439697266,0.22
155,MetaDrive-td3combine-expt_with_safe-leaky-adamw-in-q-weighted-corrected-diff-arch,50,154.19408475780173,156648,239,3090.5770523548126,,12.251701354980469,25.809295654296875,0.21
156,MetaDrive-td3combine-expt_with_safe-leaky-adamw-in-q-weighted-corrected-diff-arch,50,155.02553291656247,157177,240,3100.486654281616,-25.663597106933594,8.533271789550781,24.11049461364746,0.21
157,MetaDrive-td3combine-expt_with_safe-leaky-adamw-in-q-weighted-corrected-diff-arch,50,157.14243233316532,158206,242,3124.390307188034,,7.750838279724121,23.84140396118164,0.21
158,MetaDrive-td3combine-expt_with_safe-leaky-adamw-in-q-weighted-corrected-diff-arch,50,157.52556860858783,159938,244,3157.1533572673798,,35.285987854003906,20.825876235961914,0.2
159,MetaDrive-td3combine-expt_with_safe-leaky-adamw-in-q-weighted-corrected-diff-arch,50,159.00144155850452,160577,245,3168.043487071991,-20.170116424560547,11.218177795410156,21.136606216430664,0.21
160,MetaDrive-td3combine-expt_with_safe-leaky-adamw-in-q-weighted-corrected-diff-arch,50,158.48922004159456,161413,246,3187.5346302986145,-23.88184928894043,8.016319274902344,23.770902633666992,0.21
161,MetaDrive-td3combine-expt_with_safe-leaky-adamw-in-q-weighted-corrected-diff-arch,50,159.65327001195766,162414,247,3207.0103013515472,,8.630521774291992,26.92352294921875,0.21
162,MetaDrive-td3combine-expt_with_safe-leaky-adamw-in-q-weighted-corrected-diff-arch,50,157.98069811724753,163997,249,3234.8698880672455,-21.166627883911133,18.07080841064453,20.015806198120117,0.21
163,MetaDrive-td3combine-expt_with_safe-leaky-adamw-in-q-weighted-corrected-diff-arch,50,158.32617338659642,164998,250,3251.8892652988434,,15.424788475036621,24.076627731323242,0.21
164,MetaDrive-td3combine-expt_with_safe-leaky-adamw-in-q-weighted-corrected-diff-arch,50,158.29666054234903,165437,251,3260.642673254013,-24.29376792907715,10.774299621582031,24.255212783813477,0.21
165,MetaDrive-td3combine-expt_with_safe-leaky-adamw-in-q-weighted-corrected-diff-arch,50,157.5259088064632,166041,252,3273.8588280677795,-25.130470275878906,15.261194229125977,23.84868812561035,0.21
166,MetaDrive-td3combine-expt_with_safe-leaky-adamw-in-q-weighted-corrected-diff-arch,50,156.41785668666037,167923,255,3312.922518014908,-26.596235275268555,17.677370071411133,24.895456314086914,0.21
167,MetaDrive-td3combine-expt_with_safe-leaky-adamw-in-q-weighted-corrected-diff-arch,50,157.46175043779246,168452,256,3323.2539982795715,,10.211845397949219,25.188615798950195,0.21
168,MetaDrive-td3combine-expt_with_safe-leaky-adamw-in-q-weighted-corrected-diff-arch,50,156.25551323597514,169767,258,3350.9658291339874,-24.02387237548828,10.236227035522461,23.622909545898438,0.2
169,MetaDrive-td3combine-expt_with_safe-leaky-adamw-in-q-weighted-corrected-diff-arch,50,154.90500792657986,170768,259,3368.4335432052612,,17.14220428466797,20.628524780273438,0.19
170,MetaDrive-td3combine-expt_with_safe-leaky-adamw-in-q-weighted-corrected-diff-arch,50,156.39861303610402,171769,260,3393.991754055023,-22.56413459777832,9.345304489135742,22.715103149414062,0.19
171,MetaDrive-td3combine-expt_with_safe-leaky-adamw-in-q-weighted-corrected-diff-arch,50,155.88614827346356,172233,261,3404.241546154022,-20.509469985961914,114.82160949707031,19.464914321899414,0.19
172,MetaDrive-td3combine-expt_with_safe-leaky-adamw-in-q-weighted-corrected-diff-arch,50,156.80528322351623,173014,263,3421.5577251911163,,14.27198314666748,22.069921493530273,0.2
173,MetaDrive-td3combine-expt_with_safe-leaky-adamw-in-q-weighted-corrected-diff-arch,50,160.173338566166,174637,265,3456.7782611846924,-23.724382400512695,7.565425395965576,22.696035385131836,0.21
174,MetaDrive-td3combine-expt_with_safe-leaky-adamw-in-q-weighted-corrected-diff-arch,50,160.33334447204635,175340,267,3471.781311273575,,6.140625,20.05217170715332,0.21
175,MetaDrive-td3combine-expt_with_safe-leaky-adamw-in-q-weighted-corrected-diff-arch,50,158.6774704388419,176277,269,3493.3457832336426,-22.91335105895996,10.775497436523438,21.880020141601562,0.21
176,MetaDrive-td3combine-expt_with_safe-leaky-adamw-in-q-weighted-corrected-diff-arch,50,154.31694814912825,177480,272,3516.67804813385,,5.845892906188965,22.765995025634766,0.2
177,MetaDrive-td3combine-expt_with_safe-leaky-adamw-in-q-weighted-corrected-diff-arch,50,154.10236383556034,178481,273,3535.7624723911285,-18.435962677001953,14.378622055053711,18.658327102661133,0.2
178,MetaDrive-td3combine-expt_with_safe-leaky-adamw-in-q-weighted-corrected-diff-arch,50,152.41429294359241,179705,275,3559.6949722766876,-19.43837547302246,4.866490840911865,19.40763282775879,0.19
179,MetaDrive-td3combine-expt_with_safe-leaky-adamw-in-q-weighted-corrected-diff-arch,50,152.80440183849487,180706,276,3577.935510158539,,8.138684272766113,18.53830909729004,0.19
180,MetaDrive-td3combine-expt_with_safe-leaky-adamw-in-q-weighted-corrected-diff-arch,50,152.79235100620062,181314,278,3590.4957921504974,,5.590298175811768,23.662975311279297,0.19
181,MetaDrive-td3combine-expt_with_safe-leaky-adamw-in-q-weighted-corrected-diff-arch,50,152.85574021376874,182171,279,3606.2044820785522,-16.49530029296875,13.337249755859375,15.672999382019043,0.19
182,MetaDrive-td3combine-expt_with_safe-leaky-adamw-in-q-weighted-corrected-diff-arch,50,152.36497563393377,183110,282,3623.0804212093353,,12.778604507446289,22.457433700561523,0.2
183,MetaDrive-td3combine-expt_with_safe-leaky-adamw-in-q-weighted-corrected-diff-arch,50,148.53294233001387,184856,287,3662.8867750167847,,6.309797286987305,21.93999481201172,0.19
184,MetaDrive-td3combine-expt_with_safe-leaky-adamw-in-q-weighted-corrected-diff-arch,50,148.96821409283604,185566,289,3676.973743200302,,22.690170288085938,20.074161529541016,0.19
185,MetaDrive-td3combine-expt_with_safe-leaky-adamw-in-q-weighted-corrected-diff-arch,50,150.03985078255494,186567,290,3697.0103521347046,-18.357276916503906,12.12857437133789,19.610254287719727,0.19
186,MetaDrive-td3combine-expt_with_safe-leaky-adamw-in-q-weighted-corrected-diff-arch,50,146.68558510500645,187789,292,3720.285092115402,-22.409242630004883,18.091461181640625,21.465538024902344,0.18
187,MetaDrive-td3combine-expt_with_safe-leaky-adamw-in-q-weighted-corrected-diff-arch,50,147.78390953409914,188271,293,3732.0410301685333,-24.8897762298584,9.536421775817871,24.148448944091797,0.18
188,MetaDrive-td3combine-expt_with_safe-leaky-adamw-in-q-weighted-corrected-diff-arch,50,146.8385340465858,189272,294,3754.1436171531677,,8.825982093811035,21.75493049621582,0.18
189,MetaDrive-td3combine-expt_with_safe-leaky-adamw-in-q-weighted-corrected-diff-arch,50,146.73395765760415,190474,296,3778.6740820407867,,75.470703125,17.812339782714844,0.18
190,MetaDrive-td3combine-expt_with_safe-leaky-adamw-in-q-weighted-corrected-diff-arch,50,145.7669512062959,191811,300,3805.4885313510895,-18.445556640625,9.893208503723145,18.959819793701172,0.18
191,MetaDrive-td3combine-expt_with_safe-leaky-adamw-in-q-weighted-corrected-diff-arch,50,146.00570192000671,192107,301,3812.952099084854,-21.8598575592041,14.989212036132812,20.767826080322266,0.18
192,MetaDrive-td3combine-expt_with_safe-leaky-adamw-in-q-weighted-corrected-diff-arch,50,145.3454243831665,193106,303,3834.512143135071,,10.537220001220703,22.86906623840332,0.18
193,MetaDrive-td3combine-expt_with_safe-leaky-adamw-in-q-weighted-corrected-diff-arch,50,144.1439032230397,194260,306,3858.539426088333,,7.231910228729248,17.511499404907227,0.17
194,MetaDrive-td3combine-expt_with_safe-leaky-adamw-in-q-weighted-corrected-diff-arch,50,143.65293097476243,195261,307,3883.5996572971344,-25.35080337524414,13.195423126220703,24.41657066345215,0.17
195,MetaDrive-td3combine-expt_with_safe-leaky-adamw-in-q-weighted-corrected-diff-arch,50,141.84804712206164,196575,309,3906.1079931259155,-24.625131607055664,15.03941535949707,24.60297966003418,0.17
196,MetaDrive-td3combine-expt_with_safe-leaky-adamw-in-q-weighted-corrected-diff-arch,50,139.38779158984389,197664,311,3926.21880030632,,5.909268379211426,17.306747436523438,0.16
197,MetaDrive-td3combine-expt_with_safe-leaky-adamw-in-q-weighted-corrected-diff-arch,50,140.71311578053442,198744,313,3949.5672142505646,,8.874238967895508,21.61138153076172,0.16
198,MetaDrive-td3combine-expt_with_safe-leaky-adamw-in-q-weighted-corrected-diff-arch,50,138.81469091354728,199010,314,3954.403411388397,,14.472197532653809,19.768924713134766,0.15
199,MetaDrive-td3combine-expt_with_safe-leaky-adamw-in-q-weighted-corrected-diff-arch,50,135.48380488847923,200258,316,3977.6943271160126,,33.77850341796875,19.104463577270508,0.14
200,MetaDrive-td3combine-expt_with_safe-leaky-adamw-in-q-weighted-corrected-diff-arch,50,138.28959664804717,201044,317,3991.2212851047516,,10.582192420959473,20.288406372070312,0.15
201,MetaDrive-td3combine-expt_with_safe-leaky-adamw-in-q-weighted-corrected-diff-arch,50,135.96070558432436,202808,319,4028.4562780857086,,28.192466735839844,23.197988510131836,0.13
202,MetaDrive-td3combine-expt_with_safe-leaky-adamw-in-q-weighted-corrected-diff-arch,50,133.66777347487138,203094,321,4034.3052690029144,,14.620978355407715,17.293575286865234,0.12
203,MetaDrive-td3combine-expt_with_safe-leaky-adamw-in-q-weighted-corrected-diff-arch,50,133.53850750972734,204095,322,4054.6537532806396,-23.55908203125,6.666313171386719,24.121971130371094,0.12
204,MetaDrive-td3combine-expt_with_safe-leaky-adamw-in-q-weighted-corrected-diff-arch,50,134.73646601440592,205096,323,4073.9857301712036,,20.21698760986328,23.031455993652344,0.12
205,MetaDrive-td3combine-expt_with_safe-leaky-adamw-in-q-weighted-corrected-diff-arch,50,130.5616568491552,206352,328,4095.719140291214,,9.118781089782715,18.206571578979492,0.11
206,MetaDrive-td3combine-expt_with_safe-leaky-adamw-in-q-weighted-corrected-diff-arch,50,131.24863429506638,207353,329,4117.06134223938,-17.032424926757812,98.74951934814453,18.473087310791016,0.11
207,MetaDrive-td3combine-expt_with_safe-leaky-adamw-in-q-weighted-corrected-diff-arch,50,126.71527075558437,208043,334,4129.533682346344,-20.300182342529297,7.6091508865356445,20.474712371826172,0.1
208,MetaDrive-td3combine-expt_with_safe-leaky-adamw-in-q-weighted-corrected-diff-arch,50,122.18773374419347,209993,338,4167.787577152252,-16.324190139770508,18.759334564208984,16.557395935058594,0.09
209,MetaDrive-td3combine-expt_with_safe-leaky-adamw-in-q-weighted-corrected-diff-arch,50,122.79211533630563,210719,339,4180.08798122406,-18.484994888305664,12.156255722045898,17.217926025390625,0.1
210,MetaDrive-td3combine-expt_with_safe-leaky-adamw-in-q-weighted-corrected-diff-arch,50,122.77545439934762,211720,340,4196.828396081924,,27.695289611816406,19.457321166992188,0.1
211,MetaDrive-td3combine-expt_with_safe-leaky-adamw-in-q-weighted-corrected-diff-arch,50,124.05566331891094,212721,341,4221.707739114761,-20.875526428222656,18.675579071044922,19.68904685974121,0.1
212,MetaDrive-td3combine-expt_with_safe-leaky-adamw-in-q-weighted-corrected-diff-arch,50,121.07593691165116,213221,343,4231.141610145569,-14.319693565368652,13.400442123413086,16.106386184692383,0.1
213,MetaDrive-td3combine-expt_with_safe-leaky-adamw-in-q-weighted-corrected-diff-arch,50,120.65344999756473,214222,344,4252.888513088226,,13.766931533813477,18.139293670654297,0.1
214,MetaDrive-td3combine-expt_with_safe-leaky-adamw-in-q-weighted-corrected-diff-arch,50,119.65752632236848,215223,345,4272.341097354889,-21.168092727661133,10.29598617553711,19.173625946044922,0.09
215,MetaDrive-td3combine-expt_with_safe-leaky-adamw-in-q-weighted-corrected-diff-arch,50,119.75563872611312,216224,346,4291.657079219818,,15.429329872131348,16.90716552734375,0.09
216,MetaDrive-td3combine-expt_with_safe-leaky-adamw-in-q-weighted-corrected-diff-arch,50,116.31740779190596,217090,350,4308.819382190704,,8.619413375854492,19.519500732421875,0.08
217,MetaDrive-td3combine-expt_with_safe-leaky-adamw-in-q-weighted-corrected-diff-arch,50,116.3883717303844,218455,352,4334.965545415878,-15.45822811126709,6.116979598999023,15.750578880310059,0.08
218,MetaDrive-td3combine-expt_with_safe-leaky-adamw-in-q-weighted-corrected-diff-arch,50,115.32955899600603,219456,353,4359.217806100845,,13.489486694335938,21.009471893310547,0.07
219,MetaDrive-td3combine-expt_with_safe-leaky-adamw-in-q-weighted-corrected-diff-arch,50,116.1681523983801,220100,356,4372.810875177383,,10.552490234375,17.349349975585938,0.07
220,MetaDrive-td3combine-expt_with_safe-leaky-adamw-in-q-weighted-corrected-diff-arch,50,113.76292453300144,221150,360,4390.511901378632,,5.980044364929199,20.719993591308594,0.08
221,MetaDrive-td3combine-expt_with_safe-leaky-adamw-in-q-weighted-corrected-diff-arch,50,113.0908570894706,222785,363,4424.223080396652,-22.005388259887695,7.529332160949707,23.173986434936523,0.07
222,MetaDrive-td3combine-expt_with_safe-leaky-adamw-in-q-weighted-corrected-diff-arch,50,111.98274067401502,223246,364,4432.24436712265,,9.418699264526367,16.7746639251709,0.06
223,MetaDrive-td3combine-expt_with_safe-leaky-adamw-in-q-weighted-corrected-diff-arch,50,113.14924748387895,224794,366,4463.66649723053,,11.140893936157227,19.37208366394043,0.07
224,MetaDrive-td3combine-expt_with_safe-leaky-adamw-in-q-weighted-corrected-diff-arch,50,112.5466089037211,225021,368,4468.0622091293335,-22.12180519104004,16.114213943481445,22.324068069458008,0.07
225,MetaDrive-td3combine-expt_with_safe-leaky-adamw-in-q-weighted-corrected-diff-arch,50,114.85551323180833,226780,370,4504.961194992065,,10.413934707641602,19.716089248657227,0.07
226,MetaDrive-td3combine-expt_with_safe-leaky-adamw-in-q-weighted-corrected-diff-arch,50,113.12591025677108,227040,372,4509.768588066101,,9.938289642333984,22.383756637573242,0.07
227,MetaDrive-td3combine-expt_with_safe-leaky-adamw-in-q-weighted-corrected-diff-arch,50,113.5685367368458,228678,376,4539.708758115768,,8.023412704467773,17.70335578918457,0.08
228,MetaDrive-td3combine-expt_with_safe-leaky-adamw-in-q-weighted-corrected-diff-arch,50,111.75146485827293,229395,379,4552.1654851436615,-29.529346466064453,10.42862319946289,28.84671401977539,0.08
229,MetaDrive-td3combine-expt_with_safe-leaky-adamw-in-q-weighted-corrected-diff-arch,50,112.41692250209204,230509,381,4576.707075119019,-22.10915184020996,9.572591781616211,20.06659698486328,0.08
230,MetaDrive-td3combine-expt_with_safe-leaky-adamw-in-q-weighted-corrected-diff-arch,50,110.49513335562273,231871,383,4601.322975158691,-15.794828414916992,22.9942569732666,14.918943405151367,0.07
231,MetaDrive-td3combine-expt_with_safe-leaky-adamw-in-q-weighted-corrected-diff-arch,50,111.9470973193909,232642,384,4618.192306280136,,4.055502891540527,25.93793296813965,0.07
232,MetaDrive-td3combine-expt_with_safe-leaky-adamw-in-q-weighted-corrected-diff-arch,50,113.03520926168655,233005,385,4624.408442258835,-20.203277587890625,26.140905380249023,18.620378494262695,0.07
233,MetaDrive-td3combine-expt_with_safe-leaky-adamw-in-q-weighted-corrected-diff-arch,50,114.64516069240952,234006,386,4646.292211294174,,8.802294731140137,19.312589645385742,0.07
234,MetaDrive-td3combine-expt_with_safe-leaky-adamw-in-q-weighted-corrected-diff-arch,50,114.6137203789771,235007,387,4664.606141328812,-17.27985382080078,14.215692520141602,17.20970916748047,0.07
235,MetaDrive-td3combine-expt_with_safe-leaky-adamw-in-q-weighted-corrected-diff-arch,50,116.93803673829993,236686,389,4697.913008213043,,22.36783218383789,16.425888061523438,0.08
236,MetaDrive-td3combine-expt_with_safe-leaky-adamw-in-q-weighted-corrected-diff-arch,50,115.78858261802895,237812,391,4720.533545255661,,4.56022834777832,23.74325180053711,0.08
237,MetaDrive-td3combine-expt_with_safe-leaky-adamw-in-q-weighted-corrected-diff-arch,50,115.97515393158251,238338,392,4733.41193819046,,8.4808988571167,19.85712432861328,0.08
238,MetaDrive-td3combine-expt_with_safe-leaky-adamw-in-q-weighted-corrected-diff-arch,50,114.86182148217652,239878,394,4767.166757106781,,6.898782730102539,19.477481842041016,0.08
239,MetaDrive-td3combine-expt_with_safe-leaky-adamw-in-q-weighted-corrected-diff-arch,50,116.28321006671274,240879,395,4786.940492153168,-21.24466896057129,44.06376647949219,19.936647415161133,0.08
240,MetaDrive-td3combine-expt_with_safe-leaky-adamw-in-q-weighted-corrected-diff-arch,50,115.32715421663417,241076,396,4791.196209192276,,7.852334976196289,18.423349380493164,0.08
241,MetaDrive-td3combine-expt_with_safe-leaky-adamw-in-q-weighted-corrected-diff-arch,50,117.76806536214,242799,398,4825.288551330566,-20.866275787353516,13.206313133239746,20.458650588989258,0.08
242,MetaDrive-td3combine-expt_with_safe-leaky-adamw-in-q-weighted-corrected-diff-arch,50,119.99823319508161,243338,399,4835.845466136932,,14.242044448852539,18.768211364746094,0.08
243,MetaDrive-td3combine-expt_with_safe-leaky-adamw-in-q-weighted-corrected-diff-arch,50,115.99410750115561,244583,402,4859.633964061737,-21.290752410888672,9.96436882019043,21.70827293395996,0.07
244,MetaDrive-td3combine-expt_with_safe-leaky-adamw-in-q-weighted-corrected-diff-arch,50,116.28843700536416,245584,403,4877.768028259277,,63.124961853027344,19.6204891204834,0.07
245,MetaDrive-td3combine-expt_with_safe-leaky-adamw-in-q-weighted-corrected-diff-arch,50,116.29951922057631,246148,405,4889.178415298462,,8.27503490447998,22.722564697265625,0.07
246,MetaDrive-td3combine-expt_with_safe-leaky-adamw-in-q-weighted-corrected-diff-arch,50,114.25039397441877,247149,406,4908.3082711696625,-22.454605102539062,8.53471851348877,22.5003662109375,0.07
247,MetaDrive-td3combine-expt_with_safe-leaky-adamw-in-q-weighted-corrected-diff-arch,50,114.16607765977189,248126,408,4926.10548210144,,8.716188430786133,15.062026977539062,0.07
248,MetaDrive-td3combine-expt_with_safe-leaky-adamw-in-q-weighted-corrected-diff-arch,50,114.97157437847443,249292,410,4951.782170295715,,9.762578964233398,24.312776565551758,0.07
249,MetaDrive-td3combine-expt_with_safe-leaky-adamw-in-q-weighted-corrected-diff-arch,50,115.94258081698946,250448,412,4972.4388082027435,,11.337480545043945,14.578004837036133,0.07
250,MetaDrive-td3combine-expt_with_safe-leaky-adamw-in-q-weighted-corrected-diff-arch,50,114.53186295788393,251600,414,4996.047044277191,,10.340484619140625,23.307565689086914,0.07
251,MetaDrive-td3combine-expt_with_safe-leaky-adamw-in-q-weighted-corrected-diff-arch,50,114.93807096467361,252784,416,5022.020318984985,,16.541818618774414,22.42336654663086,0.07
252,MetaDrive-td3combine-expt_with_safe-leaky-adamw-in-q-weighted-corrected-diff-arch,50,111.64996609227853,253180,418,5029.903966188431,,6.3979034423828125,17.62521743774414,0.06
253,MetaDrive-td3combine-expt_with_safe-leaky-adamw-in-q-weighted-corrected-diff-arch,50,108.09359945683964,254177,424,5048.103278160095,-18.842113494873047,8.668328285217285,19.329442977905273,0.06
254,MetaDrive-td3combine-expt_with_safe-leaky-adamw-in-q-weighted-corrected-diff-arch,50,104.36906650439443,255093,429,5065.452923297882,-19.3726863861084,10.762056350708008,19.162887573242188,0.05
255,MetaDrive-td3combine-expt_with_safe-leaky-adamw-in-q-weighted-corrected-diff-arch,50,106.04930761433187,256414,433,5090.052893161774,,13.478290557861328,17.598127365112305,0.05
256,MetaDrive-td3combine-expt_with_safe-leaky-adamw-in-q-weighted-corrected-diff-arch,50,107.40972084814096,257047,434,5102.870398283005,-21.69056510925293,7.322237968444824,21.253786087036133,0.05
257,MetaDrive-td3combine-expt_with_safe-leaky-adamw-in-q-weighted-corrected-diff-arch,50,109.28098174346088,258011,435,5121.471753358841,-20.47120475769043,9.55362319946289,20.442707061767578,0.06
258,MetaDrive-td3combine-expt_with_safe-leaky-adamw-in-q-weighted-corrected-diff-arch,50,110.40889652260208,259119,437,5146.456878185272,-15.721837997436523,13.687700271606445,15.903564453125,0.06
259,MetaDrive-td3combine-expt_with_safe-leaky-adamw-in-q-weighted-corrected-diff-arch,50,110.44507654187832,260120,438,5169.474889278412,,14.8681640625,14.692347526550293,0.06
260,MetaDrive-td3combine-expt_with_safe-leaky-adamw-in-q-weighted-corrected-diff-arch,50,109.24504294345539,261306,440,5192.357912063599,,13.271379470825195,18.90521240234375,0.05
261,MetaDrive-td3combine-expt_with_safe-leaky-adamw-in-q-weighted-corrected-diff-arch,50,108.80332911761381,262271,444,5208.3857390880585,-24.78474235534668,7.736093521118164,24.964927673339844,0.06
262,MetaDrive-td3combine-expt_with_safe-leaky-adamw-in-q-weighted-corrected-diff-arch,50,110.59860621988511,263501,446,5230.729125261307,-22.24129867553711,6.39164924621582,21.85456085205078,0.07
263,MetaDrive-td3combine-expt_with_safe-leaky-adamw-in-q-weighted-corrected-diff-arch,50,114.73422560753441,264659,448,5250.403645277023,-12.210038185119629,6.858659744262695,11.722362518310547,0.08
264,MetaDrive-td3combine-expt_with_safe-leaky-adamw-in-q-weighted-corrected-diff-arch,50,114.30695140629052,265102,449,5258.72406411171,,8.130558013916016,24.414352416992188,0.08
265,MetaDrive-td3combine-expt_with_safe-leaky-adamw-in-q-weighted-corrected-diff-arch,50,115.76374781373528,266103,450,5276.747464179993,-18.901538848876953,8.505929946899414,18.355607986450195,0.08
266,MetaDrive-td3combine-expt_with_safe-leaky-adamw-in-q-weighted-corrected-diff-arch,50,115.89429734769394,267074,452,5295.027626991272,,6.85961389541626,20.287832260131836,0.08
267,MetaDrive-td3combine-expt_with_safe-leaky-adamw-in-q-weighted-corrected-diff-arch,50,115.20538584429167,268914,455,5330.315760135651,,11.425426483154297,20.77341651916504,0.08
268,MetaDrive-td3combine-expt_with_safe-leaky-adamw-in-q-weighted-corrected-diff-arch,50,117.65438007769619,269915,456,5349.146680116653,-21.959314346313477,13.783086776733398,21.935375213623047,0.08
269,MetaDrive-td3combine-expt_with_safe-leaky-adamw-in-q-weighted-corrected-diff-arch,50,118.11645263727267,270110,457,5352.96070933342,,10.33091926574707,20.55731964111328,0.08
270,MetaDrive-td3combine-expt_with_safe-leaky-adamw-in-q-weighted-corrected-diff-arch,50,118.12408202105813,271274,460,5378.366455078125,,9.567283630371094,20.607074737548828,0.07
271,MetaDrive-td3combine-expt_with_safe-leaky-adamw-in-q-weighted-corrected-diff-arch,50,120.54171122328862,272275,461,5398.382128238678,-16.038362503051758,11.908041000366211,15.654024124145508,0.07
272,MetaDrive-td3combine-expt_with_safe-leaky-adamw-in-q-weighted-corrected-diff-arch,50,122.91461597143056,273225,462,5417.896194219589,-22.58186912536621,6.466407775878906,22.965251922607422,0.08
273,MetaDrive-td3combine-expt_with_safe-leaky-adamw-in-q-weighted-corrected-diff-arch,50,117.96992335165727,274085,465,5435.0888431072235,-20.902490615844727,6.663106918334961,21.298725128173828,0.07
274,MetaDrive-td3combine-expt_with_safe-leaky-adamw-in-q-weighted-corrected-diff-arch,50,117.30996709592176,275051,469,5454.43334031105,-23.407695770263672,16.50361442565918,23.316415786743164,0.07
275,MetaDrive-td3combine-expt_with_safe-leaky-adamw-in-q-weighted-corrected-diff-arch,50,116.51559184310898,276122,471,5478.251747131348,,7.673530578613281,24.307294845581055,0.07
276,MetaDrive-td3combine-expt_with_safe-leaky-adamw-in-q-weighted-corrected-diff-arch,50,117.33098592360253,277123,472,5497.184663057327,-20.616962432861328,7.3812103271484375,20.803451538085938,0.07
277,MetaDrive-td3combine-expt_with_safe-leaky-adamw-in-q-weighted-corrected-diff-arch,50,114.66663400636224,278440,476,5525.751309156418,,9.570556640625,16.995140075683594,0.06
278,MetaDrive-td3combine-expt_with_safe-leaky-adamw-in-q-weighted-corrected-diff-arch,50,118.40789349572327,279413,478,5542.8241720199585,-19.56195831298828,10.486595153808594,20.046781539916992,0.07
279,MetaDrive-td3combine-expt_with_safe-leaky-adamw-in-q-weighted-corrected-diff-arch,50,118.06730788265526,280344,481,5559.983327150345,,10.248571395874023,19.146560668945312,0.08
280,MetaDrive-td3combine-expt_with_safe-leaky-adamw-in-q-weighted-corrected-diff-arch,50,118.95055902044913,281747,483,5590.190830230713,-20.229808807373047,7.257360935211182,19.795019149780273,0.08
281,MetaDrive-td3combine-expt_with_safe-leaky-adamw-in-q-weighted-corrected-diff-arch,50,118.80194779083976,282748,484,5611.982553243637,,7.0705366134643555,24.08995246887207,0.08
282,MetaDrive-td3combine-expt_with_safe-leaky-adamw-in-q-weighted-corrected-diff-arch,50,118.31324719988555,283393,485,5624.178733110428,-24.6711483001709,9.78277587890625,24.98550033569336,0.08
283,MetaDrive-td3combine-expt_with_safe-leaky-adamw-in-q-weighted-corrected-diff-arch,50,115.1287414663786,284119,488,5640.959388256073,-21.344907760620117,10.267542839050293,20.58611297607422,0.07
284,MetaDrive-td3combine-expt_with_safe-leaky-adamw-in-q-weighted-corrected-diff-arch,50,114.3771747579981,285898,493,5676.416679382324,,13.336114883422852,19.84774398803711,0.07
285,MetaDrive-td3combine-expt_with_safe-leaky-adamw-in-q-weighted-corrected-diff-arch,50,113.99730773543894,286047,494,5679.159736156464,-21.44135284423828,6.211230278015137,21.227087020874023,0.07
286,MetaDrive-td3combine-expt_with_safe-leaky-adamw-in-q-weighted-corrected-diff-arch,50,115.46514809172795,287480,496,5707.254175186157,,8.75765609741211,15.946462631225586,0.08
287,MetaDrive-td3combine-expt_with_safe-leaky-adamw-in-q-weighted-corrected-diff-arch,50,115.07812217712804,288678,498,5733.204308271408,,22.510204315185547,23.371116638183594,0.08
288,MetaDrive-td3combine-expt_with_safe-leaky-adamw-in-q-weighted-corrected-diff-arch,50,115.41634685180448,289447,500,5747.197297334671,-23.51091766357422,8.433191299438477,22.814472198486328,0.09
289,MetaDrive-td3combine-expt_with_safe-leaky-adamw-in-q-weighted-corrected-diff-arch,50,117.0967637558918,290448,501,5768.405916213989,,25.461650848388672,20.777359008789062,0.09
290,MetaDrive-td3combine-expt_with_safe-leaky-adamw-in-q-weighted-corrected-diff-arch,50,117.36759813202207,291286,503,5783.694887161255,,8.133176803588867,21.265796661376953,0.1
291,MetaDrive-td3combine-expt_with_safe-leaky-adamw-in-q-weighted-corrected-diff-arch,50,119.49887301179793,292899,506,5815.191447019577,-23.05670738220215,11.520113945007324,22.859966278076172,0.1
292,MetaDrive-td3combine-expt_with_safe-leaky-adamw-in-q-weighted-corrected-diff-arch,50,119.5714088304196,293088,507,5819.077507257462,,7.5031514167785645,22.209611892700195,0.1
293,MetaDrive-td3combine-expt_with_safe-leaky-adamw-in-q-weighted-corrected-diff-arch,50,117.98697064740432,294175,509,5841.129794120789,-22.320261001586914,6.267973899841309,21.7951717376709,0.1
294,MetaDrive-td3combine-expt_with_safe-leaky-adamw-in-q-weighted-corrected-diff-arch,50,118.29432435960967,295176,510,5862.112466335297,,13.756095886230469,22.210081100463867,0.1
295,MetaDrive-td3combine-expt_with_safe-leaky-adamw-in-q-weighted-corrected-diff-arch,50,118.59193143356717,296177,511,5884.7323043346405,-22.772953033447266,12.908363342285156,22.278682708740234,0.1
296,MetaDrive-td3combine-expt_with_safe-leaky-adamw-in-q-weighted-corrected-diff-arch,50,118.10777524274751,297178,512,5907.705487251282,,4.311629295349121,25.78278923034668,0.1
297,MetaDrive-td3combine-expt_with_safe-leaky-adamw-in-q-weighted-corrected-diff-arch,50,117.6529195062665,298290,514,5931.884100198746,,17.25321388244629,21.904815673828125,0.1
298,MetaDrive-td3combine-expt_with_safe-leaky-adamw-in-q-weighted-corrected-diff-arch,50,120.31741460318081,299071,515,5946.433006286621,-19.417329788208008,8.792647361755371,20.335552215576172,0.11
299,MetaDrive-td3combine-expt_with_safe-leaky-adamw-in-q-weighted-corrected-diff-arch,50,121.26323933434605,300281,520,5971.06090426445,-19.077312469482422,8.873641014099121,19.240619659423828,0.11
300,MetaDrive-td3combine-expt_with_safe-leaky-adamw-in-q-weighted-corrected-diff-arch,50,124.07907930903461,301788,523,6003.095105171204,,11.764410018920898,19.56749153137207,0.11
301,MetaDrive-td3combine-expt_with_safe-leaky-adamw-in-q-weighted-corrected-diff-arch,50,125.8284246173398,302867,525,6027.20524430275,-23.40420913696289,9.922054290771484,22.4998722076416,0.11
302,MetaDrive-td3combine-expt_with_safe-leaky-adamw-in-q-weighted-corrected-diff-arch,50,128.1040729198289,303868,526,6049.83399605751,,8.752175331115723,22.067447662353516,0.11
303,MetaDrive-td3combine-expt_with_safe-leaky-adamw-in-q-weighted-corrected-diff-arch,50,129.3342221298395,304380,527,6058.343845129013,,4.736286640167236,22.759370803833008,0.11
304,MetaDrive-td3combine-expt_with_safe-leaky-adamw-in-q-weighted-corrected-diff-arch,50,131.65995083398113,305480,530,6078.2837743759155,,36.505592346191406,27.706096649169922,0.11
305,MetaDrive-td3combine-expt_with_safe-leaky-adamw-in-q-weighted-corrected-diff-arch,50,134.10376346109408,306470,531,6095.551419258118,,8.347841262817383,24.866928100585938,0.12
306,MetaDrive-td3combine-expt_with_safe-leaky-adamw-in-q-weighted-corrected-diff-arch,50,134.43902138145037,307471,532,6117.26313328743,-23.803016662597656,7.814172744750977,24.26283073425293,0.12
307,MetaDrive-td3combine-expt_with_safe-leaky-adamw-in-q-weighted-corrected-diff-arch,50,134.64078873166204,308472,533,6137.533004045486,,8.926982879638672,21.574909210205078,0.12
308,MetaDrive-td3combine-expt_with_safe-leaky-adamw-in-q-weighted-corrected-diff-arch,50,134.65631763130946,309453,535,6155.746337175369,-22.747295379638672,5.410576820373535,21.891855239868164,0.12
309,MetaDrive-td3combine-expt_with_safe-leaky-adamw-in-q-weighted-corrected-diff-arch,50,133.68282515546744,310060,538,6167.203523159027,,9.684928894042969,23.059494018554688,0.12
310,MetaDrive-td3combine-expt_with_safe-leaky-adamw-in-q-weighted-corrected-diff-arch,50,136.35027538950965,311034,539,6188.129022359848,,9.89594841003418,22.364490509033203,0.12
311,MetaDrive-td3combine-expt_with_safe-leaky-adamw-in-q-weighted-corrected-diff-arch,50,133.5081621575077,312288,544,6213.1867661476135,,12.071910858154297,22.524948120117188,0.11
312,MetaDrive-td3combine-expt_with_safe-leaky-adamw-in-q-weighted-corrected-diff-arch,50,127.39525670934701,313954,548,6251.018178224564,,14.279294967651367,24.92123794555664,0.09
313,MetaDrive-td3combine-expt_with_safe-leaky-adamw-in-q-weighted-corrected-diff-arch,50,127.46258061965644,314383,549,6259.069144248962,-22.097726821899414,6.28745174407959,22.26584243774414,0.09
314,MetaDrive-td3combine-expt_with_safe-leaky-adamw-in-q-weighted-corrected-diff-arch,50,127.01784076447647,315384,550,6282.215527296066,,8.812976837158203,23.79617691040039,0.09
315,MetaDrive-td3combine-expt_with_safe-leaky-adamw-in-q-weighted-corrected-diff-arch,50,126.32040507484204,316500,552,6308.036245107651,,14.565705299377441,23.559242248535156,0.09
316,MetaDrive-td3combine-expt_with_safe-leaky-adamw-in-q-weighted-corrected-diff-arch,50,127.13549898129929,317501,553,6328.516867160797,-27.883594512939453,8.547518730163574,27.421192169189453,0.09
317,MetaDrive-td3combine-expt_with_safe-leaky-adamw-in-q-weighted-corrected-diff-arch,50,128.11628897423003,318502,554,6347.498672246933,,10.2399263381958,20.100126266479492,0.09
318,MetaDrive-td3combine-expt_with_safe-leaky-adamw-in-q-weighted-corrected-diff-arch,50,125.82399020731836,319236,556,6362.165019273758,,4.851081848144531,22.93735122680664,0.09
319,MetaDrive-td3combine-expt_with_safe-leaky-adamw-in-q-weighted-corrected-diff-arch,50,125.17791939374416,320321,558,6383.419323205948,-23.330904006958008,6.437689781188965,22.61608123779297,0.09
320,MetaDrive-td3combine-expt_with_safe-leaky-adamw-in-q-weighted-corrected-diff-arch,50,126.88420347728683,321806,560,6412.925920009613,,47.53966522216797,24.652355194091797,0.09
321,MetaDrive-td3combine-expt_with_safe-leaky-adamw-in-q-weighted-corrected-diff-arch,50,125.9931361784194,322807,561,6432.818996429443,-23.16843605041504,5.988370418548584,23.75885009765625,0.09
322,MetaDrive-td3combine-expt_with_safe-leaky-adamw-in-q-weighted-corrected-diff-arch,50,123.37672512525009,323036,563,6437.0313901901245,,17.9879207611084,23.39879608154297,0.08
323,MetaDrive-td3combine-expt_with_safe-leaky-adamw-in-q-weighted-corrected-diff-arch,50,123.05898508767105,324052,565,6456.259131193161,,7.704471588134766,26.14984130859375,0.08
324,MetaDrive-td3combine-expt_with_safe-leaky-adamw-in-q-weighted-corrected-diff-arch,50,124.38105339367355,325389,567,6481.22766327858,-25.176742553710938,8.31776237487793,24.42173957824707,0.08
325,MetaDrive-td3combine-expt_with_safe-leaky-adamw-in-q-weighted-corrected-diff-arch,50,125.10456867332952,326263,570,6498.489231109619,-26.772045135498047,16.735910415649414,25.970726013183594,0.08
326,MetaDrive-td3combine-expt_with_safe-leaky-adamw-in-q-weighted-corrected-diff-arch,50,128.14609736020705,327686,574,6525.151645183563,,10.30021858215332,24.911853790283203,0.09
327,MetaDrive-td3combine-expt_with_safe-leaky-adamw-in-q-weighted-corrected-diff-arch,50,127.50388610116852,328017,576,6531.706752061844,-21.274951934814453,6.470475196838379,21.5583553314209,0.09
328,MetaDrive-td3combine-expt_with_safe-leaky-adamw-in-q-weighted-corrected-diff-arch,50,126.17846388589213,329217,578,6555.312359333038,-24.143112182617188,9.758901596069336,24.56243896484375,0.08
329,MetaDrive-td3combine-expt_with_safe-leaky-adamw-in-q-weighted-corrected-diff-arch,50,129.0643079989546,330701,580,6587.762366294861,-23.319698333740234,12.64140510559082,23.486963272094727,0.08
330,MetaDrive-td3combine-expt_with_safe-leaky-adamw-in-q-weighted-corrected-diff-arch,50,128.6229272188375,331632,582,6606.593481302261,,9.43273639678955,21.142255783081055,0.08
331,MetaDrive-td3combine-expt_with_safe-leaky-adamw-in-q-weighted-corrected-diff-arch,50,127.2251301735713,332032,584,6614.770879268646,,15.420307159423828,22.83855628967285,0.08
332,MetaDrive-td3combine-expt_with_safe-leaky-adamw-in-q-weighted-corrected-diff-arch,50,125.49647502185441,333027,589,6635.816988229752,-24.302507400512695,9.909637451171875,25.642879486083984,0.08
333,MetaDrive-td3combine-expt_with_safe-leaky-adamw-in-q-weighted-corrected-diff-arch,50,125.58581958432688,334118,591,6659.66363120079,,9.793001174926758,27.747934341430664,0.08
334,MetaDrive-td3combine-expt_with_safe-leaky-adamw-in-q-weighted-corrected-diff-arch,50,128.6745432757999,335764,594,6691.771413087845,,3.9276962280273438,26.218690872192383,0.08
335,MetaDrive-td3combine-expt_with_safe-leaky-adamw-in-q-weighted-corrected-diff-arch,50,129.5781563893005,336765,595,6710.372679233551,-29.171926498413086,12.278292655944824,29.843055725097656,0.08
336,MetaDrive-td3combine-expt_with_safe-leaky-adamw-in-q-weighted-corrected-diff-arch,50,129.13255991238128,337766,596,6735.99810218811,,8.119029998779297,27.234176635742188,0.07
337,MetaDrive-td3combine-expt_with_safe-leaky-adamw-in-q-weighted-corrected-diff-arch,50,128.87228688924972,338684,599,6753.699839353561,,14.315177917480469,23.651628494262695,0.07
338,MetaDrive-td3combine-expt_with_safe-leaky-adamw-in-q-weighted-corrected-diff-arch,50,127.11834924644965,339095,600,6762.672772169113,-27.5146484375,13.028402328491211,27.10190200805664,0.06
339,MetaDrive-td3combine-expt_with_safe-leaky-adamw-in-q-weighted-corrected-diff-arch,50,123.86231618016011,340506,603,6792.316486120224,,7.435125350952148,24.585800170898438,0.05
340,MetaDrive-td3combine-expt_with_safe-leaky-adamw-in-q-weighted-corrected-diff-arch,50,123.76630892395517,341507,604,6814.248005151749,-27.397029876708984,6.8982439041137695,27.877412796020508,0.05
341,MetaDrive-td3combine-expt_with_safe-leaky-adamw-in-q-weighted-corrected-diff-arch,50,123.5548691431115,342041,606,6824.715034246445,-23.948200225830078,7.964420795440674,23.676509857177734,0.05
342,MetaDrive-td3combine-expt_with_safe-leaky-adamw-in-q-weighted-corrected-diff-arch,50,127.73154591860194,343426,609,6851.91653418541,,11.060829162597656,26.15605926513672,0.05
343,MetaDrive-td3combine-expt_with_safe-leaky-adamw-in-q-weighted-corrected-diff-arch,50,124.93708756651793,344202,613,6867.718862056732,,8.249616622924805,28.71432113647461,0.05
344,MetaDrive-td3combine-expt_with_safe-leaky-adamw-in-q-weighted-corrected-diff-arch,50,121.77132045237296,345006,616,6884.420214176178,,8.823705673217773,27.136520385742188,0.04
345,MetaDrive-td3combine-expt_with_safe-leaky-adamw-in-q-weighted-corrected-diff-arch,50,122.73966761886466,346411,618,6920.856680393219,-22.949949264526367,6.76542329788208,24.244035720825195,0.04
346,MetaDrive-td3combine-expt_with_safe-leaky-adamw-in-q-weighted-corrected-diff-arch,50,126.26413993836046,347387,619,6943.848187208176,-27.869062423706055,15.385433197021484,26.866640090942383,0.05
347,MetaDrive-td3combine-expt_with_safe-leaky-adamw-in-q-weighted-corrected-diff-arch,50,125.9441009200176,348517,621,6969.678442001343,-21.51986312866211,8.703272819519043,20.799102783203125,0.05
348,MetaDrive-td3combine-expt_with_safe-leaky-adamw-in-q-weighted-corrected-diff-arch,49,127.29911135246275,349518,622,6997.542470216751,,18.888410568237305,23.26173973083496,0.05
349,MetaDrive-td3combine-expt_with_safe-leaky-adamw-in-q-weighted-corrected-diff-arch,49,129.05194752768764,350228,623,7011.444204092026,,10.595943450927734,29.863142013549805,0.06
350,MetaDrive-td3combine-expt_with_safe-leaky-adamw-in-q-weighted-corrected-diff-arch,49,130.50396921591948,351053,624,7031.722758293152,-26.379261016845703,29.098899841308594,26.07411003112793,0.06
351,MetaDrive-td3combine-expt_with_safe-leaky-adamw-in-q-weighted-corrected-diff-arch,49,125.30400723502864,352265,630,7057.62117934227,-23.869686126708984,11.01237678527832,25.700523376464844,0.07
352,MetaDrive-td3combine-expt_with_safe-leaky-adamw-in-q-weighted-corrected-diff-arch,49,123.07780643450673,353375,633,7081.4087471961975,-28.870933532714844,8.175435066223145,28.763446807861328,0.06
353,MetaDrive-td3combine-expt_with_safe-leaky-adamw-in-q-weighted-corrected-diff-arch,49,120.64583844386392,354101,636,7099.30753827095,-24.633602142333984,10.700092315673828,25.351381301879883,0.05
354,MetaDrive-td3combine-expt_with_safe-leaky-adamw-in-q-weighted-corrected-diff-arch,49,122.26384545924779,355524,638,7131.834822177887,,6.990623474121094,25.11378288269043,0.05
355,MetaDrive-td3combine-expt_with_safe-leaky-adamw-in-q-weighted-corrected-diff-arch,49,119.70556827086585,356525,639,7155.703844308853,-22.31385040283203,14.926397323608398,22.59337043762207,0.05
356,MetaDrive-td3combine-expt_with_safe-leaky-adamw-in-q-weighted-corrected-diff-arch,49,121.19878519089066,357154,641,7167.740759134293,,6.270297527313232,24.55794334411621,0.05
357,MetaDrive-td3combine-expt_with_safe-leaky-adamw-in-q-weighted-corrected-diff-arch,49,120.50352371119997,358860,645,7207.213492393494,,6.852237701416016,19.392208099365234,0.05
358,MetaDrive-td3combine-expt_with_safe-leaky-adamw-in-q-weighted-corrected-diff-arch,49,120.86251079086203,359122,646,7212.658789157867,,96.44940185546875,29.93730354309082,0.05
359,MetaDrive-td3combine-expt_with_safe-leaky-adamw-in-q-weighted-corrected-diff-arch,49,120.29704442182103,360287,649,7237.96503329277,-27.547292709350586,7.43319034576416,26.638477325439453,0.05
360,MetaDrive-td3combine-expt_with_safe-leaky-adamw-in-q-weighted-corrected-diff-arch,49,122.25517750803868,361199,651,7259.547102212906,-30.970401763916016,12.719003677368164,29.110801696777344,0.05
361,MetaDrive-td3combine-expt_with_safe-leaky-adamw-in-q-weighted-corrected-diff-arch,49,123.17045958437139,362023,652,7283.7092180252075,-25.164857864379883,8.798202514648438,25.276811599731445,0.05
362,MetaDrive-td3combine-expt_with_safe-leaky-adamw-in-q-weighted-corrected-diff-arch,49,122.3612289037586,363626,655,7320.5842661857605,,9.315698623657227,27.790376663208008,0.05
363,MetaDrive-td3combine-expt_with_safe-leaky-adamw-in-q-weighted-corrected-diff-arch,49,122.02840818428723,364219,656,7336.280073404312,-23.07009506225586,14.467872619628906,22.829219818115234,0.05
364,MetaDrive-td3combine-expt_with_safe-leaky-adamw-in-q-weighted-corrected-diff-arch,49,122.47847533111967,365623,659,7368.901435136795,-24.844432830810547,8.291219711303711,25.604902267456055,0.06
365,MetaDrive-td3combine-expt_with_safe-leaky-adamw-in-q-weighted-corrected-diff-arch,49,123.40807239152478,366179,660,7379.65207028389,-21.18422508239746,6.613262176513672,21.47771453857422,0.07
366,MetaDrive-td3combine-expt_with_safe-leaky-adamw-in-q-weighted-corrected-diff-arch,49,125.36245864063916,367957,664,7429.50030207634,-26.961748123168945,5.071903705596924,27.255878448486328,0.07
367,MetaDrive-td3combine-expt_with_safe-leaky-adamw-in-q-weighted-corrected-diff-arch,49,124.90318424389334,368110,665,7434.173680305481,,9.378423690795898,31.528894424438477,0.07
368,MetaDrive-td3combine-expt_with_safe-leaky-adamw-in-q-weighted-corrected-diff-arch,49,125.98860497838028,369111,666,7472.283709287643,-27.118610382080078,20.136180877685547,27.134593963623047,0.07
369,MetaDrive-td3combine-expt_with_safe-leaky-adamw-in-q-weighted-corrected-diff-arch,49,126.7861430214229,370112,667,7502.614489078522,,6.376121520996094,27.64716911315918,0.07
370,MetaDrive-td3combine-expt_with_safe-leaky-adamw-in-q-weighted-corrected-diff-arch,49,130.3907517669294,371126,669,7528.383884191513,,10.0692138671875,21.02339744567871,0.08
371,MetaDrive-td3combine-expt_with_safe-leaky-adamw-in-q-weighted-corrected-diff-arch,49,129.4539056352834,372020,673,7555.543209314346,,10.77188777923584,29.37301254272461,0.08
372,MetaDrive-td3combine-expt_with_safe-leaky-adamw-in-q-weighted-corrected-diff-arch,49,129.7653615568979,373434,677,7603.10555434227,,10.122676849365234,24.04726791381836,0.07
373,MetaDrive-td3combine-expt_with_safe-leaky-adamw-in-q-weighted-corrected-diff-arch,49,128.55387026220941,374534,681,7634.734377384186,,21.067058563232422,27.935211181640625,0.08
374,MetaDrive-td3combine-expt_with_safe-leaky-adamw-in-q-weighted-corrected-diff-arch,49,127.90329387916961,375155,682,7654.268387079239,-27.16738510131836,5.127622127532959,26.878528594970703,0.07
375,MetaDrive-td3combine-expt_with_safe-leaky-adamw-in-q-weighted-corrected-diff-arch,48,128.40664114411365,376019,686,7682.122633218765,-28.541645050048828,6.6818037033081055,27.836803436279297,0.07
376,MetaDrive-td3combine-expt_with_safe-leaky-adamw-in-q-weighted-corrected-diff-arch,48,130.43773751267864,377020,687,7710.344274282455,,13.108667373657227,27.912973403930664,0.07
377,MetaDrive-td3combine-expt_with_safe-leaky-adamw-in-q-weighted-corrected-diff-arch,48,129.45535062071494,378018,692,7746.129499197006,,6.486566543579102,28.150251388549805,0.07
378,MetaDrive-td3combine-expt_with_safe-leaky-adamw-in-q-weighted-corrected-diff-arch,48,130.48241525997759,379019,693,7780.812315225601,-26.11684799194336,7.706668853759766,25.698989868164062,0.07
379,MetaDrive-td3combine-expt_with_safe-leaky-adamw-in-q-weighted-corrected-diff-arch,48,125.37915998626663,380063,697,7809.539797067642,-25.196094512939453,5.2873358726501465,24.77930450439453,0.07
380,MetaDrive-td3combine-expt_with_safe-leaky-adamw-in-q-weighted-corrected-diff-arch,48,123.8575820836603,381065,700,7836.227117061615,-26.845993041992188,53.18424987792969,26.455476760864258,0.07
381,MetaDrive-td3combine-expt_with_safe-leaky-adamw-in-q-weighted-corrected-diff-arch,48,125.6237034668756,382224,702,7873.259436130524,,6.985080242156982,26.988399505615234,0.07
382,MetaDrive-td3combine-expt_with_safe-leaky-adamw-in-q-weighted-corrected-diff-arch,48,125.19738880213703,383110,704,7900.512509346008,,10.81458568572998,27.02289581298828,0.07
383,MetaDrive-td3combine-expt_with_safe-leaky-adamw-in-q-weighted-corrected-diff-arch,48,123.96123185653623,384537,707,7942.842771291733,-29.124164581298828,8.725805282592773,27.97454071044922,0.07
384,MetaDrive-td3combine-expt_with_safe-leaky-adamw-in-q-weighted-corrected-diff-arch,48,122.8396933248821,385132,709,7962.113298177719,,19.74417495727539,24.2058048248291,0.07
385,MetaDrive-td3combine-expt_with_safe-leaky-adamw-in-q-weighted-corrected-diff-arch,48,124.30529477215391,386133,710,7992.6490433216095,-27.890167236328125,6.3705902099609375,27.68233871459961,0.07
386,MetaDrive-td3combine-expt_with_safe-leaky-adamw-in-q-weighted-corrected-diff-arch,48,126.33891154661389,387484,712,8032.686438322067,,8.344501495361328,29.549583435058594,0.07
387,MetaDrive-td3combine-expt_with_safe-leaky-adamw-in-q-weighted-corrected-diff-arch,48,127.31568967529354,388264,715,8048.864034175873,,11.078169822692871,22.86050033569336,0.07
388,MetaDrive-td3combine-expt_with_safe-leaky-adamw-in-q-weighted-corrected-diff-arch,48,129.47817728831785,389226,717,8072.782286167145,,20.335613250732422,26.919960021972656,0.08
389,MetaDrive-td3combine-expt_with_safe-leaky-adamw-in-q-weighted-corrected-diff-arch,48,128.82591995293092,390227,718,8094.720041275024,-23.78779411315918,15.765985488891602,23.257478713989258,0.08
390,MetaDrive-td3combine-expt_with_safe-leaky-adamw-in-q-weighted-corrected-diff-arch,48,126.97596096140678,391174,721,8113.902496099472,,5.815902233123779,27.39629554748535,0.08
391,MetaDrive-td3combine-expt_with_safe-leaky-adamw-in-q-weighted-corrected-diff-arch,48,124.1672627205805,392178,724,8134.609576225281,,33.195518493652344,29.939128875732422,0.08
392,MetaDrive-td3combine-expt_with_safe-leaky-adamw-in-q-weighted-corrected-diff-arch,48,124.00860889590777,393176,726,8155.892268180847,,7.792215824127197,29.144065856933594,0.07
393,MetaDrive-td3combine-expt_with_safe-leaky-adamw-in-q-weighted-corrected-diff-arch,48,124.5546595921098,394039,730,8174.186581134796,-27.776123046875,6.641268730163574,26.892549514770508,0.07
394,MetaDrive-td3combine-expt_with_safe-leaky-adamw-in-q-weighted-corrected-diff-arch,48,124.0893909804724,395018,734,8200.298639297485,,5.932244300842285,28.84173583984375,0.07
395,MetaDrive-td3combine-expt_with_safe-leaky-adamw-in-q-weighted-corrected-diff-arch,48,125.6358453592683,396061,736,8225.605652332306,-29.811124801635742,6.41334342956543,28.87863540649414,0.07
396,MetaDrive-td3combine-expt_with_safe-leaky-adamw-in-q-weighted-corrected-diff-arch,48,126.90983848375566,397866,740,8274.07783126831,,6.313408851623535,22.695667266845703,0.07
397,MetaDrive-td3combine-expt_with_safe-leaky-adamw-in-q-weighted-corrected-diff-arch,48,127.73156034813623,398505,741,8290.184971094131,-30.074237823486328,9.766220092773438,29.81386947631836,0.07
398,MetaDrive-td3combine-expt_with_safe-leaky-adamw-in-q-weighted-corrected-diff-arch,48,129.34200038167347,399366,743,8315.77467417717,,7.030817031860352,30.538623809814453,0.07
