TanmayH/CS269-RL-project-code/MetaDrive-testbn6/td3/progress.csv
,log_dir,frame_per_second,episode_reward,total_steps,total_episodes,total_time,actor_loss,critic_loss,target_q,success_rate
0,MetaDrive-testbn6,144,6.464881015188233,1035,2,7.185843467712402,0.0326683484017849,0.0016175732016563416,-0.03821621835231781,0.0
1,MetaDrive-testbn6,99,-1.6774049061905747,2236,17,22.493982315063477,,0.010370972566306591,-0.06217369809746742,0.0
2,MetaDrive-testbn6,91,0.41660253579298606,3017,26,32.834123849868774,-0.013487476855516434,0.03718060255050659,0.008186284452676773,0.0
3,MetaDrive-testbn6,86,1.6875865045724134,4020,42,46.58645987510681,,0.48473089933395386,0.03961089998483658,0.0
4,MetaDrive-testbn6,81,3.9778954624441925,5014,66,61.55253744125366,,0.9128120541572571,0.38384485244750977,0.0
5,MetaDrive-testbn6,79,7.983491293514986,6034,85,75.85431218147278,,1.1598879098892212,0.9171827435493469,0.0
6,MetaDrive-testbn6,76,10.815553071510898,7004,103,91.81475710868835,,0.75544273853302,1.5402308702468872,0.0
7,MetaDrive-testbn6,75,15.895155166852035,8004,119,106.27666759490967,,0.7496491074562073,2.307217597961426,0.0
8,MetaDrive-testbn6,75,22.103199821629133,9020,131,119.29037594795227,,0.5464832782745361,3.8281121253967285,0.0
9,MetaDrive-testbn6,74,26.113348371938468,10017,147,133.77267384529114,-4.475191116333008,10.422557830810547,3.777848243713379,0.0
10,MetaDrive-testbn6,73,32.54905803857787,11079,157,150.00314021110535,-5.644710540771484,2.0873031616210938,5.439395904541016,0.0
11,MetaDrive-testbn6,73,38.1846555971232,12118,167,165.05566501617432,,5.371050834655762,6.36142635345459,0.0
12,MetaDrive-testbn6,73,42.730064432839505,13101,174,178.22186851501465,-8.576563835144043,6.435402870178223,7.812851905822754,0.01
13,MetaDrive-testbn6,72,46.40639047488058,14043,181,193.68461275100708,-8.095276832580566,8.450912475585938,8.177814483642578,0.01
14,MetaDrive-testbn6,72,55.00309795909353,15318,188,211.27665972709656,,3.571765422821045,10.805303573608398,0.02
15,MetaDrive-testbn6,71,58.99884011982236,16126,192,224.28698921203613,,3.441385507583618,11.598013877868652,0.03
16,MetaDrive-testbn6,71,63.69221786504495,17021,197,238.8221311569214,-11.772348403930664,4.091784477233887,12.120246887207031,0.03
17,MetaDrive-testbn6,71,69.09962448362106,18235,204,255.2855508327484,-14.354005813598633,27.522777557373047,13.262324333190918,0.04
18,MetaDrive-testbn6,71,74.0125404287244,19135,207,267.74478101730347,-14.817195892333984,3.958526611328125,14.887487411499023,0.05
19,MetaDrive-testbn6,71,80.13233253663178,20088,212,279.7922832965851,,31.116735458374023,17.88848114013672,0.06
20,MetaDrive-testbn6,71,83.74039445907505,21034,215,294.57883167266846,,2.6087937355041504,18.49765396118164,0.06
21,MetaDrive-testbn6,71,88.75630206757512,22201,219,311.86393547058105,-20.463651657104492,2.134673595428467,20.208450317382812,0.06
22,MetaDrive-testbn6,71,92.38877324076891,23020,225,323.1143000125885,,3.125845193862915,21.403076171875,0.06
23,MetaDrive-testbn6,71,94.06653359422319,24036,230,336.7154881954193,,26.39950180053711,20.91299819946289,0.06
24,MetaDrive-testbn6,71,99.28564868065659,25207,234,354.60797572135925,-24.186279296875,5.001011848449707,24.515003204345703,0.06
25,MetaDrive-testbn6,71,102.58918030615692,26065,243,365.51189494132996,-24.8037166595459,4.27130126953125,24.629444122314453,0.06
26,MetaDrive-testbn6,71,107.3734170995469,27180,249,382.69624042510986,,4.5462846755981445,26.526689529418945,0.06
27,MetaDrive-testbn6,71,109.6970817324368,28324,255,398.64592957496643,,36.030548095703125,26.959171295166016,0.06
28,MetaDrive-testbn6,70,112.72880774350222,29432,258,416.5683124065399,,13.526681900024414,27.571990966796875,0.07
29,MetaDrive-testbn6,70,114.94101483425283,30390,262,433.87684535980225,,12.616801261901855,27.58218765258789,0.07
30,MetaDrive-testbn6,69,116.94968266510608,31600,266,452.84458327293396,,4.496807098388672,31.25527572631836,0.07
31,MetaDrive-testbn6,69,119.88026947186394,32017,267,457.8570554256439,-31.137624740600586,61.403892517089844,30.557418823242188,0.08
32,MetaDrive-testbn6,69,123.508018977323,33005,270,472.20124769210815,-32.44659423828125,51.658538818359375,31.46273422241211,0.09
33,MetaDrive-testbn6,70,125.16054067191057,34157,278,487.30644488334656,-34.212860107421875,62.6904296875,32.27503204345703,0.09
34,MetaDrive-testbn6,70,128.41935050050034,35143,281,500.87050700187683,-32.92283630371094,6.746880531311035,32.97768020629883,0.09
35,MetaDrive-testbn6,70,131.0410064441514,36144,282,515.3216605186462,,6.203629970550537,33.15496063232422,0.09
36,MetaDrive-testbn6,70,128.45558312861385,37025,289,527.6894130706787,-36.91912841796875,7.108944892883301,37.421512603759766,0.08
37,MetaDrive-testbn6,70,129.65150666055504,38692,295,549.7826821804047,,2.3648312091827393,37.975135803222656,0.1
38,MetaDrive-testbn6,70,130.1969151914632,39037,297,553.6958560943604,-38.06095504760742,6.4114484786987305,38.218406677246094,0.1
39,MetaDrive-testbn6,70,130.84680159194167,40086,303,568.6358408927917,,71.3307113647461,39.9390983581543,0.11
40,MetaDrive-testbn6,70,133.81360798843212,41368,305,585.2762250900269,,4.832650184631348,41.949005126953125,0.12
41,MetaDrive-testbn6,70,131.6754896630547,42335,308,598.4700314998627,-41.172523498535156,3.319007158279419,41.17258071899414,0.12
42,MetaDrive-testbn6,70,131.776986741841,43089,311,609.3082387447357,-43.20806121826172,2.7605459690093994,43.193695068359375,0.11
43,MetaDrive-testbn6,70,134.49362201047043,44102,313,629.056649684906,,3.25008487701416,44.040016174316406,0.12
44,MetaDrive-testbn6,70,138.03171682040164,45078,315,643.7892985343933,,68.95358276367188,42.76028823852539,0.12
45,MetaDrive-testbn6,69,141.95024019036623,46268,317,661.0957953929901,,28.015350341796875,47.50810241699219,0.14
46,MetaDrive-testbn6,70,139.43222723142574,47006,322,670.0211427211761,,4.264064311981201,47.658294677734375,0.15
47,MetaDrive-testbn6,70,141.61328546602124,48352,326,690.2628562450409,,4.256842136383057,48.177833557128906,0.16
48,MetaDrive-testbn6,70,143.9783392578026,49137,328,701.7706093788147,-47.87969207763672,121.5180435180664,48.106658935546875,0.17
49,MetaDrive-testbn6,70,144.49432646516036,50099,332,714.6801245212555,-45.67420196533203,9.932814598083496,45.87532043457031,0.18
50,MetaDrive-testbn6,70,147.32923964392103,51235,336,730.2120862007141,-49.35892105102539,8.376689910888672,50.07594680786133,0.19
51,MetaDrive-testbn6,70,150.51223561400238,52017,338,742.0325374603271,-48.27193832397461,9.453027725219727,48.993812561035156,0.2
52,MetaDrive-testbn6,69,156.71984469696218,53524,341,764.9314246177673,,20.18476104736328,50.631675720214844,0.22
53,MetaDrive-testbn6,69,158.98137477960776,54346,343,779.8918070793152,,96.6847152709961,49.48558044433594,0.22
54,MetaDrive-testbn6,69,161.98423416906314,55047,344,790.3141701221466,-51.49591827392578,7.357691764831543,52.17209243774414,0.23
55,MetaDrive-testbn6,68,166.14814171745823,56433,346,819.002982378006,-53.7127799987793,5.106613636016846,54.04301834106445,0.23
56,MetaDrive-testbn6,69,167.95148536617648,57001,347,825.3826446533203,-54.094444274902344,7.046837329864502,53.92900466918945,0.24
57,MetaDrive-testbn6,68,169.25783302536368,58149,350,849.5595834255219,-52.8309326171875,86.55321502685547,54.187278747558594,0.24
58,MetaDrive-testbn6,68,173.02307480595582,59009,353,860.8359484672546,-53.633602142333984,114.19882202148438,52.82025909423828,0.26
59,MetaDrive-testbn6,68,177.21187392233188,60189,356,877.0905525684357,-57.99004364013672,4.089856147766113,57.25849151611328,0.28
60,MetaDrive-testbn6,68,176.52138982505744,61016,360,887.6142444610596,,16.248205184936523,55.40675354003906,0.28
61,MetaDrive-testbn6,68,176.2673825023295,62310,365,909.2094912528992,,6.785225868225098,58.08415222167969,0.28
62,MetaDrive-testbn6,68,174.73081844692766,63221,367,921.1308352947235,-58.970985412597656,145.9676055908203,57.13677215576172,0.28
63,MetaDrive-testbn6,68,174.7294131618658,64125,371,934.5107126235962,-59.40784454345703,9.705060958862305,59.36330032348633,0.28
64,MetaDrive-testbn6,68,178.28628877017633,65179,373,952.6439280509949,-60.129722595214844,6.193403244018555,60.62342834472656,0.28
65,MetaDrive-testbn6,68,182.24726272514832,66325,376,969.968912601471,-58.326171875,6.780856132507324,57.87144470214844,0.29
66,MetaDrive-testbn6,68,182.54459469038335,67195,379,981.040452003479,-61.48546600341797,21.96529197692871,61.29447937011719,0.3
67,MetaDrive-testbn6,68,178.98226351670067,68209,384,996.9580914974213,-62.91542053222656,124.96129608154297,61.469696044921875,0.31
68,MetaDrive-testbn6,68,184.04437417266476,69701,387,1017.0048677921295,-63.666053771972656,19.57461929321289,64.28092956542969,0.33
69,MetaDrive-testbn6,68,184.48613201664736,70014,389,1020.8768615722656,,142.65335083007812,61.44049835205078,0.33
70,MetaDrive-testbn6,68,179.466214278984,71100,397,1034.1906259059906,,5.301862716674805,62.18057632446289,0.3
71,MetaDrive-testbn6,68,177.67659737237358,72178,399,1046.9479060173035,,179.6727294921875,63.305320739746094,0.29
72,MetaDrive-testbn6,69,175.1011435881502,73030,405,1058.2118320465088,,2.736571788787842,66.18877410888672,0.27
73,MetaDrive-testbn6,69,176.69712646838053,74058,408,1071.0233323574066,,16.689964294433594,66.88529205322266,0.27
74,MetaDrive-testbn6,69,179.25013924266793,75037,411,1083.86873793602,-68.54353332519531,2.518886089324951,68.62063598632812,0.29
75,MetaDrive-testbn6,69,176.41859368697402,76160,414,1101.7177047729492,,5.159840106964111,67.68146514892578,0.29
76,MetaDrive-testbn6,69,174.95836219703696,77033,415,1112.972804069519,-67.01510620117188,23.391990661621094,65.60685729980469,0.29
77,MetaDrive-testbn6,69,175.52129151510755,78657,419,1133.5567920207977,-68.74148559570312,196.09823608398438,66.89248657226562,0.28
78,MetaDrive-testbn6,69,179.03159839671184,79280,420,1143.4191761016846,,11.252086639404297,67.24659729003906,0.29
79,MetaDrive-testbn6,69,183.31994587292607,80612,423,1162.4753968715668,,13.930534362792969,68.23882293701172,0.3
80,MetaDrive-testbn6,69,185.19325052373534,81711,425,1177.395154953003,-68.93168640136719,6.942715644836426,68.7581787109375,0.31
81,MetaDrive-testbn6,69,184.47607715326495,82111,427,1181.541169643402,-70.6281967163086,10.03817367553711,70.7802734375,0.3
82,MetaDrive-testbn6,69,185.7439808504909,83107,429,1195.8787190914154,-68.31423950195312,15.143546104431152,68.056640625,0.3
83,MetaDrive-testbn6,69,187.93617162846658,84266,433,1212.0084607601166,,2.939802885055542,72.17286682128906,0.31
84,MetaDrive-testbn6,69,192.63194836551892,85334,435,1230.6199674606323,,7.459746360778809,69.55921173095703,0.32
85,MetaDrive-testbn6,69,191.36314873406917,86112,436,1243.3311462402344,,150.17352294921875,70.59858703613281,0.32
86,MetaDrive-testbn6,69,190.41845023679534,87012,439,1255.5177364349365,,7.298828125,73.4771957397461,0.32
87,MetaDrive-testbn6,69,190.51303575951158,88328,443,1279.5302896499634,,7.555923938751221,72.19999694824219,0.31
88,MetaDrive-testbn6,69,188.7483025588508,89078,445,1289.8522610664368,,11.316522598266602,76.54145812988281,0.31
89,MetaDrive-testbn6,69,187.78007347416212,90459,448,1308.3423793315887,-76.64778900146484,8.50444507598877,75.50747680664062,0.31
90,MetaDrive-testbn6,69,187.70128946279317,91159,451,1318.3310585021973,-74.50840759277344,10.327230453491211,74.9454116821289,0.32
91,MetaDrive-testbn6,69,186.52212038767135,92160,452,1334.0818922519684,,34.14742660522461,75.59388732910156,0.31
92,MetaDrive-testbn6,69,186.47317036886724,93107,455,1347.5651800632477,-73.46591186523438,8.928325653076172,73.513671875,0.3
93,MetaDrive-testbn6,69,187.72408053656017,94180,458,1364.1067662239075,,25.56200408935547,76.01763153076172,0.29
94,MetaDrive-testbn6,69,185.13199179410836,95274,460,1378.7587218284607,,11.661649703979492,77.03312683105469,0.28
95,MetaDrive-testbn6,69,188.53004560095374,96064,463,1390.7789270877838,,11.435051918029785,74.75079345703125,0.28
96,MetaDrive-testbn6,68,187.4562238066453,97088,466,1408.3563232421875,,5.921198844909668,73.16871643066406,0.27
97,MetaDrive-testbn6,68,186.22261497741485,98089,467,1424.141285419464,-72.76258850097656,24.612152099609375,74.17170715332031,0.27
98,MetaDrive-testbn6,68,189.2396915805296,99323,471,1440.3598976135254,-76.7143325805664,19.136493682861328,77.2304916381836,0.28
99,MetaDrive-testbn6,68,189.2612003960279,100309,473,1454.4240708351135,-76.11434173583984,16.305156707763672,76.3155517578125,0.29
100,MetaDrive-testbn6,68,188.43538575051974,101514,476,1472.1253926753998,,15.900490760803223,78.36495971679688,0.29
101,MetaDrive-testbn6,68,190.16367644726833,102294,478,1483.3124630451202,,10.634254455566406,79.68731689453125,0.29
102,MetaDrive-testbn6,68,193.46228913859767,103695,482,1509.3964722156525,-77.88398742675781,5.8817033767700195,77.75804901123047,0.28
103,MetaDrive-testbn6,68,193.98026214396214,104134,483,1514.8824634552002,,5.336872100830078,79.26690673828125,0.28
104,MetaDrive-testbn6,68,192.860675632653,105499,486,1532.4489092826843,-78.32318878173828,30.068984985351562,79.20217895507812,0.27
105,MetaDrive-testbn6,68,192.46588580843348,106293,489,1542.5750172138214,-81.22659301757812,6.6214423179626465,80.72085571289062,0.27
106,MetaDrive-testbn6,68,194.50741081989577,107194,494,1555.373789548874,,5.406138896942139,78.30941009521484,0.28
107,MetaDrive-testbn6,69,196.55128803906464,108134,497,1566.1032321453094,,90.76594543457031,76.86087036132812,0.3
108,MetaDrive-testbn6,69,196.94022795793404,109028,499,1577.4806067943573,,15.75815486907959,81.08536529541016,0.3
109,MetaDrive-testbn6,69,200.53216554009904,110152,502,1592.6004104614258,,30.020048141479492,79.2561264038086,0.32
110,MetaDrive-testbn6,69,204.63710384079914,111106,505,1606.0641305446625,,13.138053894042969,80.75477600097656,0.32
111,MetaDrive-testbn6,68,207.66041582145522,112107,506,1628.6859014034271,-81.54307556152344,11.925559997558594,81.47381591796875,0.32
112,MetaDrive-testbn6,68,205.62846012294528,113744,510,1653.1336526870728,,15.111690521240234,81.02175903320312,0.31
113,MetaDrive-testbn6,68,204.21966006647483,114210,511,1659.5181634426117,,86.2999267578125,80.6265869140625,0.3
114,MetaDrive-testbn6,68,209.33968690845458,115559,513,1680.209829568863,-78.83338928222656,56.976741790771484,76.48605346679688,0.32
115,MetaDrive-testbn6,68,208.63113039870225,116108,514,1687.7954905033112,,157.3341064453125,78.5353012084961,0.32
116,MetaDrive-testbn6,68,207.22673646851243,117536,517,1709.415524482727,,19.028873443603516,77.79161071777344,0.31
117,MetaDrive-testbn6,68,206.11418025961123,118518,519,1725.8142414093018,,94.56649017333984,80.33650207519531,0.31
118,MetaDrive-testbn6,68,203.45082899669745,119080,521,1733.107372045517,,56.79970169067383,81.52735900878906,0.3
119,MetaDrive-testbn6,68,203.39629400485796,120202,524,1750.2533373832703,,20.067676544189453,80.63187408447266,0.3
120,MetaDrive-testbn6,68,196.32751082679712,121008,529,1760.3580524921417,,13.742984771728516,81.26464080810547,0.29
121,MetaDrive-testbn6,68,201.62750461133882,122227,531,1775.9218165874481,-81.20056915283203,9.525419235229492,80.65214538574219,0.3
122,MetaDrive-testbn6,68,197.65865480957066,123334,533,1796.6040666103363,,40.655906677246094,79.63217163085938,0.28
123,MetaDrive-testbn6,68,196.79488791792608,124127,535,1807.1122298240662,-79.67625427246094,10.445846557617188,80.25337982177734,0.28
124,MetaDrive-testbn6,68,195.16337053106128,125007,538,1820.555085659027,-81.68473815917969,23.55974578857422,83.06611633300781,0.27
125,MetaDrive-testbn6,68,196.23681382457315,126257,541,1838.8730509281158,-83.24740600585938,176.9920196533203,81.2552490234375,0.27
126,MetaDrive-testbn6,68,188.46237317727565,127462,547,1852.542142868042,,153.67999267578125,77.88513946533203,0.26
127,MetaDrive-testbn6,68,187.50676972766206,128341,549,1869.400600194931,-80.49652099609375,169.49850463867188,80.59434509277344,0.25
128,MetaDrive-testbn6,68,192.31622237090593,129414,551,1882.7100274562836,,6.528502941131592,83.45219421386719,0.26
129,MetaDrive-testbn6,68,193.8631399931718,130335,553,1896.066707611084,-82.25819396972656,295.4787902832031,79.61858367919922,0.27
130,MetaDrive-testbn6,68,194.86368726332586,131158,555,1905.6735842227936,,15.686312675476074,80.77093505859375,0.27
131,MetaDrive-testbn6,68,194.5085715612306,132166,558,1916.7143168449402,,24.96042251586914,80.38761901855469,0.29
132,MetaDrive-testbn6,68,197.70893796536686,133551,562,1936.6287875175476,-80.81242370605469,10.655841827392578,81.53858947753906,0.3
133,MetaDrive-testbn6,69,196.00304145889805,134149,564,1943.5482358932495,-80.88369750976562,31.537155151367188,81.15328216552734,0.31
134,MetaDrive-testbn6,69,194.93982775100557,135381,569,1960.6973314285278,-83.68052673339844,12.059391021728516,83.33653259277344,0.31
135,MetaDrive-testbn6,68,193.23752042166652,136502,571,1981.2359619140625,,336.8002014160156,80.28014373779297,0.3
136,MetaDrive-testbn6,68,191.86718022026173,137403,574,1992.8358652591705,-82.95824432373047,5.801854133605957,83.04412841796875,0.29
137,MetaDrive-testbn6,68,193.094131929762,138054,576,2001.3278419971466,,216.28237915039062,81.69903564453125,0.29
138,MetaDrive-testbn6,68,192.26072216642933,139136,578,2022.0613887310028,,14.728439331054688,82.00199890136719,0.28
139,MetaDrive-testbn6,68,197.8051942237591,140167,580,2040.2243452072144,-85.35626983642578,8.487759590148926,85.32279968261719,0.29
140,MetaDrive-testbn6,68,198.72705705228623,141202,582,2052.276241540909,,7.962668418884277,83.86859130859375,0.31
141,MetaDrive-testbn6,68,199.544357935597,142082,584,2063.439374446869,,295.94781494140625,82.5791015625,0.31
142,MetaDrive-testbn6,68,200.0985643680993,143283,587,2078.9080867767334,-80.25013732910156,25.58112335205078,81.17767333984375,0.32
143,MetaDrive-testbn6,68,200.31291879993623,144012,590,2088.440178155899,,13.258448600769043,81.79884338378906,0.33
144,MetaDrive-testbn6,68,207.06356491331059,145296,592,2105.7621324062347,,7.821834087371826,84.58975219726562,0.35
145,MetaDrive-testbn6,68,210.03844517348253,146356,594,2124.660876274109,,8.223189353942871,86.3298110961914,0.34
146,MetaDrive-testbn6,68,211.62707734560786,147357,595,2139.9857823848724,-86.02627563476562,18.458513259887695,85.77706909179688,0.33
147,MetaDrive-testbn6,68,211.85722421353398,148574,599,2156.6418857574463,,10.683160781860352,82.58637237548828,0.33
148,MetaDrive-testbn6,68,211.8437955697636,149401,601,2169.5456941127777,-83.8787612915039,59.32429504394531,83.27751159667969,0.33
149,MetaDrive-testbn6,68,209.35463294619566,150142,604,2179.6624739170074,,139.1680908203125,78.8562240600586,0.32
150,MetaDrive-testbn6,68,205.9170004829071,151157,608,2192.6391050815582,-79.85821533203125,17.35163116455078,79.06271362304688,0.31
151,MetaDrive-testbn6,68,209.94979064734565,152506,610,2211.4481720924377,,21.079524993896484,85.85079956054688,0.33
152,MetaDrive-testbn6,69,211.82884644065226,153445,611,2223.433336496353,-82.8162612915039,25.499736785888672,82.60481262207031,0.33
153,MetaDrive-testbn6,69,211.74308308979454,154099,612,2231.5701384544373,-80.7724609375,97.91586303710938,80.42755126953125,0.33
154,MetaDrive-testbn6,68,212.61988287818804,155006,613,2247.104115962982,,49.786643981933594,83.74789428710938,0.33
155,MetaDrive-testbn6,68,211.9756913765849,156208,618,2265.433881521225,,17.569557189941406,81.29232788085938,0.33
156,MetaDrive-testbn6,68,209.5659347092798,157075,620,2278.394108772278,-85.77027130126953,21.935588836669922,84.73526000976562,0.32
157,MetaDrive-testbn6,68,213.22986201111667,158154,623,2292.2525296211243,,62.343475341796875,84.01419067382812,0.33
158,MetaDrive-testbn6,69,215.69512116566204,159254,625,2305.6846957206726,,338.4383544921875,86.05255126953125,0.33
159,MetaDrive-testbn6,69,221.2410040540598,160506,627,2321.9214222431183,,16.299625396728516,88.20848083496094,0.34
160,MetaDrive-testbn6,69,219.7155377220608,161214,629,2333.083207845688,,279.37457275390625,81.76904296875,0.34
161,MetaDrive-testbn6,69,219.0931643231097,162210,631,2344.7791223526,,15.639376640319824,89.1954345703125,0.34
162,MetaDrive-testbn6,69,212.99896877147793,163251,636,2358.4834446907043,-85.90017700195312,8.922369956970215,86.34795379638672,0.33
163,MetaDrive-testbn6,69,212.01224236975906,164025,640,2367.958911895752,-84.82736206054688,64.72898864746094,83.17543029785156,0.34
164,MetaDrive-testbn6,69,215.06840900331787,165599,645,2393.1907494068146,-87.63752746582031,31.491397857666016,87.43323516845703,0.34
165,MetaDrive-testbn6,69,213.03133641140863,166701,647,2407.069834947586,-85.95259857177734,227.67506408691406,84.15455627441406,0.33
166,MetaDrive-testbn6,69,213.4611251838438,167439,649,2416.833050251007,-88.66926574707031,9.836920738220215,87.97319793701172,0.34
167,MetaDrive-testbn6,69,213.9783009577165,168440,650,2431.7304644584656,,8.318868637084961,89.11683654785156,0.34
168,MetaDrive-testbn6,69,215.84410934653113,169356,651,2448.1511926651,,10.729543685913086,90.24456787109375,0.34
169,MetaDrive-testbn6,69,213.3555968543094,170170,654,2459.0988309383392,,10.085185050964355,90.54051971435547,0.33
170,MetaDrive-testbn6,69,215.6989879664974,171136,656,2472.3530888557434,,19.188472747802734,84.29601287841797,0.34
171,MetaDrive-testbn6,69,214.61303435742528,172505,659,2494.85884141922,-92.14263916015625,307.9825439453125,89.07992553710938,0.32
172,MetaDrive-testbn6,69,217.07962543326028,173426,661,2507.8860874176025,,27.422809600830078,87.63470458984375,0.34
173,MetaDrive-testbn6,69,209.41981617965382,174058,668,2516.0300211906433,,18.164691925048828,86.10923767089844,0.31
174,MetaDrive-testbn6,69,209.34915726562733,175010,671,2527.2384650707245,,17.91872787475586,88.11296081542969,0.33
175,MetaDrive-testbn6,69,209.35262305771496,176048,674,2542.6318871974945,,28.140033721923828,90.94993591308594,0.34
176,MetaDrive-testbn6,69,212.06245307621694,177329,676,2558.4000656604767,-91.35792541503906,17.52725601196289,90.9638900756836,0.35
177,MetaDrive-testbn6,69,214.14487882530028,178330,677,2576.7166090011597,,60.832740783691406,91.56559753417969,0.35
178,MetaDrive-testbn6,69,210.9277843664591,179136,679,2587.54389834404,,57.24663543701172,91.41664123535156,0.35
179,MetaDrive-testbn6,69,208.90113828128852,180402,682,2605.462831020355,,20.010150909423828,91.02449035644531,0.33
180,MetaDrive-testbn6,69,205.16220587136087,181527,686,2625.327968597412,-91.98774719238281,248.26312255859375,89.24080657958984,0.31
181,MetaDrive-testbn6,68,204.72910195302583,182528,687,2645.7556834220886,,8.105457305908203,91.3535385131836,0.3
182,MetaDrive-testbn6,68,208.51496198140237,183428,689,2662.9492847919464,,20.757722854614258,91.11676788330078,0.3
183,MetaDrive-testbn6,68,205.2214914081295,184021,691,2669.641206264496,-89.24014282226562,20.12784194946289,89.14012908935547,0.29
184,MetaDrive-testbn6,68,201.46261496375334,185566,694,2695.661003112793,,10.348611831665039,93.15473937988281,0.29
185,MetaDrive-testbn6,68,198.93365617249933,186168,696,2706.0511004924774,,35.921321868896484,91.63539123535156,0.29
186,MetaDrive-testbn6,68,202.46638867043683,187222,698,2728.7937138080597,,21.23575210571289,91.0362548828125,0.29
187,MetaDrive-testbn6,68,201.2690382056215,188223,699,2745.6518049240112,-91.63465881347656,15.138534545898438,91.1845474243164,0.28
188,MetaDrive-testbn6,68,202.86764896695777,189815,701,2763.1918482780457,-89.87385559082031,36.05415725708008,90.8792495727539,0.27
189,MetaDrive-testbn6,68,205.09019249897705,190444,702,2769.8447279930115,,32.45154571533203,90.75144958496094,0.27
190,MetaDrive-testbn6,68,206.83643880980605,191418,703,2780.381898164749,,21.653358459472656,91.11203002929688,0.28
191,MetaDrive-testbn6,68,207.73931329996825,192419,704,2792.5840797424316,-94.2491455078125,23.77255630493164,94.73206329345703,0.28
192,MetaDrive-testbn6,68,210.78460218803372,193628,707,2809.683584213257,,21.315242767333984,91.4161605834961,0.28
193,MetaDrive-testbn6,68,209.87440711545415,194349,709,2819.8054625988007,-97.65418243408203,17.862178802490234,96.86544799804688,0.27
194,MetaDrive-testbn6,69,207.74317247199437,195624,711,2833.52783870697,,15.15611457824707,90.84378814697266,0.28
195,MetaDrive-testbn6,68,209.12367281197373,196625,712,2851.099849462509,-91.76152038574219,429.4683837890625,90.55029296875,0.27
196,MetaDrive-testbn6,69,207.24051960762864,197626,713,2860.129963159561,,99.43571472167969,90.55730438232422,0.26
197,MetaDrive-testbn6,69,207.26827272992895,198083,716,2866.369571208954,-90.37481689453125,40.89862823486328,89.68525695800781,0.25
198,MetaDrive-testbn6,69,208.91915796278641,199599,719,2888.3451192379,-92.77182006835938,11.310423851013184,91.45307922363281,0.25
199,MetaDrive-testbn6,69,209.5758782339603,200325,720,2898.0002512931824,-90.0012435913086,91.55412292480469,87.98094177246094,0.26
200,MetaDrive-testbn6,69,211.70544597148876,201057,722,2905.213145494461,-93.89097595214844,11.642107963562012,93.3753662109375,0.27
201,MetaDrive-testbn6,69,206.7354149071694,202228,724,2918.3710153102875,,19.031959533691406,93.56181335449219,0.25
202,MetaDrive-testbn6,69,201.48589796027028,203520,727,2936.4978551864624,,22.979934692382812,94.76172637939453,0.24
203,MetaDrive-testbn6,69,202.32458292815875,204296,729,2946.264935016632,,13.208980560302734,96.97322082519531,0.24
204,MetaDrive-testbn6,69,200.86509324907263,205024,731,2959.249124288559,,24.69449234008789,91.061279296875,0.23
205,MetaDrive-testbn6,69,206.98474315078727,206794,734,2980.1225275993347,,40.18049621582031,94.63600158691406,0.24
206,MetaDrive-testbn6,69,208.21308072638024,207293,735,2987.065048456192,-96.4546890258789,20.701656341552734,97.14677429199219,0.25
207,MetaDrive-testbn6,69,207.48059117683445,208894,741,3007.2446546554565,,34.095924377441406,95.650146484375,0.23
208,MetaDrive-testbn6,69,205.9903570457437,209172,743,3010.8359911441803,,19.387081146240234,92.9993896484375,0.23
209,MetaDrive-testbn6,69,206.80403580486995,210320,745,3024.560834169388,,54.988258361816406,96.22505950927734,0.22
210,MetaDrive-testbn6,69,209.64282482128405,211791,748,3046.788186073303,-94.6412353515625,19.085506439208984,93.25807189941406,0.23
211,MetaDrive-testbn6,69,207.13271801700452,212098,749,3052.1858942508698,,13.726938247680664,94.3194351196289,0.22
212,MetaDrive-testbn6,69,201.93798208626995,213071,751,3063.4036543369293,-89.36772155761719,54.26091384887695,91.65592956542969,0.22
213,MetaDrive-testbn6,69,206.96808464115423,214072,753,3077.381466150284,,41.145896911621094,89.53199768066406,0.23
214,MetaDrive-testbn6,69,202.08105246866486,215007,756,3090.216950893402,-93.03956604003906,19.01552963256836,94.09120178222656,0.22
215,MetaDrive-testbn6,69,203.48057947131605,216111,759,3105.707482099533,-94.3547134399414,20.694618225097656,92.79800415039062,0.22
216,MetaDrive-testbn6,69,201.02229298182917,217319,762,3120.6694605350494,-93.95024108886719,32.01415252685547,93.47369384765625,0.2
217,MetaDrive-testbn6,69,206.2824156930003,218433,764,3135.6047909259796,-87.97527313232422,28.26066017150879,87.87643432617188,0.2
218,MetaDrive-testbn6,69,209.50070334800574,219390,765,3151.330615758896,,18.274076461791992,91.0844497680664,0.21
219,MetaDrive-testbn6,69,211.24423896749317,220029,767,3158.4740262031555,-96.2672119140625,12.677482604980469,95.43440246582031,0.22
220,MetaDrive-testbn6,69,212.3999055623022,221906,770,3182.3238825798035,,327.9969482421875,85.26997375488281,0.22
221,MetaDrive-testbn6,69,212.66402395709602,222678,771,3196.524828672409,,19.739728927612305,96.51492309570312,0.21
222,MetaDrive-testbn6,69,212.17893354148845,223788,773,3220.8434472084045,,23.666671752929688,92.00775146484375,0.2
223,MetaDrive-testbn6,69,212.61713143199896,224033,774,3225.481751203537,-93.49788665771484,15.869843482971191,92.110595703125,0.2
224,MetaDrive-testbn6,69,209.07997467150665,225044,777,3240.2665359973907,,48.48705291748047,94.78421783447266,0.19
225,MetaDrive-testbn6,69,211.8064225083809,226045,778,3252.304703474045,-94.97344970703125,30.17556381225586,95.17649841308594,0.19
226,MetaDrive-testbn6,69,208.6910050572452,227018,781,3264.510850906372,,11.591750144958496,93.18211364746094,0.19
227,MetaDrive-testbn6,69,213.12617335988827,228614,784,3285.959477186203,,26.361919403076172,92.1590805053711,0.21
228,MetaDrive-testbn6,69,214.5010404999734,229287,785,3292.4681870937347,-94.794921875,19.85772132873535,93.78910064697266,0.22
229,MetaDrive-testbn6,69,211.4959758116665,230125,788,3301.7740252017975,-95.3492202758789,30.396286010742188,97.97944641113281,0.22
230,MetaDrive-testbn6,69,211.52771972013826,231088,790,3317.7783946990967,,102.71351623535156,98.55996704101562,0.22
231,MetaDrive-testbn6,69,210.09853314834317,232200,792,3332.4439826011658,,19.33550262451172,88.63204956054688,0.21
232,MetaDrive-testbn6,69,208.84566487555404,233268,794,3345.291244983673,,41.29380798339844,89.71987915039062,0.21
233,MetaDrive-testbn6,69,211.19780695614025,234023,795,3354.181211233139,-86.51187133789062,41.77162551879883,85.45433807373047,0.22
234,MetaDrive-testbn6,69,210.71217769302746,235280,798,3369.9194161891937,,31.401695251464844,100.14275360107422,0.23
235,MetaDrive-testbn6,69,210.12162941212333,236068,800,3381.2783455848694,,117.18438720703125,88.99447631835938,0.24
236,MetaDrive-testbn6,69,210.16704577726117,237029,801,3394.1764760017395,-91.37694549560547,18.416088104248047,92.04042053222656,0.25
237,MetaDrive-testbn6,69,203.82301741296868,238443,804,3410.4029545783997,-92.90509033203125,18.95489501953125,94.9654541015625,0.24
238,MetaDrive-testbn6,70,198.3501979887694,239679,807,3423.7853417396545,-97.09394836425781,47.4936408996582,95.68333435058594,0.24
239,MetaDrive-testbn6,70,199.60269091873255,240039,808,3429.018893957138,-92.13166046142578,249.3546142578125,89.53207397460938,0.25
240,MetaDrive-testbn6,70,197.35499151719912,241040,809,3443.0976474285126,,31.301443099975586,86.76483154296875,0.25
241,MetaDrive-testbn6,70,191.0099331788363,242709,812,3461.2558002471924,-90.3462905883789,18.982688903808594,89.25985717773438,0.24
242,MetaDrive-testbn6,70,191.21931470004515,243710,813,3473.7016122341156,,40.682464599609375,90.75543975830078,0.24
243,MetaDrive-testbn6,70,192.25791467716758,244112,814,3477.908933877945,,42.41791534423828,82.32115173339844,0.24
244,MetaDrive-testbn6,70,195.91457732889646,245494,816,3504.118577003479,,22.762962341308594,86.27445983886719,0.24
245,MetaDrive-testbn6,70,197.0744578383952,246206,818,3512.5777831077576,,46.21527862548828,91.39752197265625,0.25
246,MetaDrive-testbn6,70,192.75607153168963,247044,820,3523.062391757965,,51.81126022338867,85.79623413085938,0.25
247,MetaDrive-testbn6,70,194.79444723054033,248429,822,3546.9880769252777,-90.26263427734375,9.061263084411621,89.365234375,0.24
248,MetaDrive-testbn6,70,196.96438661168543,249104,823,3555.6649239063263,,19.262126922607422,87.26895141601562,0.25
249,MetaDrive-testbn6,70,197.73750856989824,250119,825,3571.715231895447,-90.1690673828125,20.854190826416016,88.61325073242188,0.26
250,MetaDrive-testbn6,70,200.63385526719838,251133,827,3584.040395975113,-88.50416564941406,26.581180572509766,87.65815734863281,0.27
251,MetaDrive-testbn6,70,200.93746659259418,252340,830,3598.480865716934,,16.22997283935547,90.78623962402344,0.28
252,MetaDrive-testbn6,70,198.4797615028878,253443,834,3612.366782426834,-90.93479919433594,16.409826278686523,90.34944152832031,0.27
253,MetaDrive-testbn6,70,200.42266627255842,254275,835,3626.9829630851746,-94.20781707763672,33.869041442871094,93.88224792480469,0.27
254,MetaDrive-testbn6,70,204.04853904045592,255016,837,3636.6017048358917,,105.57020568847656,95.32562255859375,0.27
255,MetaDrive-testbn6,70,203.54178956112085,256024,842,3649.27140045166,,17.382396697998047,94.88188171386719,0.27
256,MetaDrive-testbn6,70,196.5016643375628,257379,849,3667.431492090225,-91.01309204101562,21.101425170898438,91.04808044433594,0.26
257,MetaDrive-testbn6,70,195.34826741511768,258246,850,3682.7629799842834,,14.554176330566406,89.64452362060547,0.25
258,MetaDrive-testbn6,70,196.72638093671014,259171,852,3693.740023136139,-81.82353210449219,47.35796356201172,82.04764556884766,0.27
259,MetaDrive-testbn6,70,198.3415990317193,260724,854,3716.398757457733,,51.859336853027344,84.23623657226562,0.27
260,MetaDrive-testbn6,70,198.22628834266197,261706,856,3729.7898104190826,,24.90161895751953,91.81399536132812,0.26
261,MetaDrive-testbn6,70,198.73374896760274,262231,858,3735.2232229709625,-93.65818786621094,169.8008575439453,92.41402435302734,0.27
262,MetaDrive-testbn6,70,191.3148764346039,263172,864,3747.1817026138306,,18.208274841308594,88.47140502929688,0.27
263,MetaDrive-testbn6,70,189.57909714962534,264173,865,3760.7154953479767,-90.71498107910156,13.923137664794922,90.003173828125,0.26
264,MetaDrive-testbn6,70,190.4480875494382,265027,867,3771.95702791214,-86.19602966308594,93.85662841796875,86.21443176269531,0.26
265,MetaDrive-testbn6,70,192.34312136006335,266343,870,3792.5187373161316,-91.80177307128906,82.49346923828125,91.33611297607422,0.25
266,MetaDrive-testbn6,70,192.4711258053078,267295,872,3811.413691997528,-86.66365051269531,17.33159637451172,86.18885803222656,0.25
267,MetaDrive-testbn6,70,187.42067407230869,268149,875,3825.5551857948303,-91.73392486572266,19.136146545410156,90.20796203613281,0.24
268,MetaDrive-testbn6,70,191.80596573445393,269450,877,3847.885025024414,,27.460826873779297,85.51934814453125,0.25
269,MetaDrive-testbn6,70,189.56057228186756,270185,879,3856.16623878479,-86.03486633300781,18.524635314941406,86.4283447265625,0.25
270,MetaDrive-testbn6,70,193.36642409824063,271213,881,3869.4019742012024,-87.43357849121094,18.72214698791504,86.27686309814453,0.27
271,MetaDrive-testbn6,70,195.34314016284986,272387,883,3885.9091351032257,-78.18565368652344,29.79353141784668,77.44647979736328,0.27
272,MetaDrive-testbn6,70,196.44880080058093,273725,885,3908.197426557541,-89.66743469238281,20.240901947021484,87.85041809082031,0.26
273,MetaDrive-testbn6,70,197.28311480013946,274038,887,3912.8682146072388,,23.69849395751953,89.42451477050781,0.26
274,MetaDrive-testbn6,70,197.8644516556017,275545,891,3932.461860179901,-89.71932983398438,52.75251388549805,91.40701293945312,0.27
275,MetaDrive-testbn6,70,194.58210089400347,276042,894,3938.8905284404755,,58.86272048950195,88.0171127319336,0.26
276,MetaDrive-testbn6,70,192.46310643563785,277261,897,3954.0217459201813,-88.73200225830078,28.295257568359375,87.17784118652344,0.25
277,MetaDrive-testbn6,70,192.32858617250614,278470,900,3970.797222137451,,18.710853576660156,89.97126770019531,0.24
278,MetaDrive-testbn6,70,192.74893452496278,279192,901,3981.0001525878906,,11.307634353637695,87.85942077636719,0.24
279,MetaDrive-testbn6,70,197.4277432634594,280543,903,4002.8090748786926,-82.95734405517578,65.75189971923828,83.31275939941406,0.25
280,MetaDrive-testbn6,70,199.38320786965417,281318,904,4014.0102870464325,,45.152015686035156,89.14884948730469,0.26
281,MetaDrive-testbn6,70,198.7188349885038,282018,908,4022.606130361557,,20.169315338134766,90.71763610839844,0.25
282,MetaDrive-testbn6,70,201.00321420450626,283232,911,4039.3855888843536,,394.9482421875,89.80290222167969,0.25
283,MetaDrive-testbn6,70,201.39767525861365,284412,914,4055.4686121940613,,26.108707427978516,87.25332641601562,0.26
284,MetaDrive-testbn6,70,200.1017355760647,285131,916,4066.237110853195,-81.88663482666016,22.12723731994629,81.83628845214844,0.26
285,MetaDrive-testbn6,70,198.10765940399529,286287,918,4083.4310007095337,-91.37200164794922,234.7008056640625,90.5987548828125,0.25
286,MetaDrive-testbn6,70,198.89518131301858,287288,919,4097.522065639496,,46.007877349853516,86.10189056396484,0.24
287,MetaDrive-testbn6,70,193.40324324374265,288159,923,4108.057140111923,-82.04493713378906,363.441162109375,79.61746215820312,0.23
288,MetaDrive-testbn6,70,190.60622838533203,289443,927,4125.160115003586,-93.56867218017578,18.033477783203125,92.83342742919922,0.23
289,MetaDrive-testbn6,70,192.62797282371233,290373,929,4138.030937194824,-85.33317565917969,22.625385284423828,86.40341186523438,0.23
290,MetaDrive-testbn6,70,193.01749322546527,291232,930,4152.984070777893,,28.714778900146484,85.41557312011719,0.23
291,MetaDrive-testbn6,70,194.58956442894157,292011,931,4162.613349676132,-87.57723999023438,73.519287109375,87.96373748779297,0.24
292,MetaDrive-testbn6,70,198.86730417129272,293560,933,4190.272132158279,,40.97924041748047,89.19190216064453,0.25
293,MetaDrive-testbn6,70,199.2771161783177,294163,934,4197.446712017059,-87.52142333984375,20.475467681884766,86.47174072265625,0.26
294,MetaDrive-testbn6,70,197.34058753967864,295164,935,4212.188095569611,,12.480887413024902,84.50272369384766,0.25
295,MetaDrive-testbn6,70,198.0874259216554,296071,937,4225.126528739929,-96.15829467773438,567.80419921875,95.244140625,0.26
296,MetaDrive-testbn6,70,199.95683922086752,297168,939,4239.569031238556,,85.3988265991211,90.52981567382812,0.26
297,MetaDrive-testbn6,70,201.66752984219158,298645,943,4259.400780916214,-83.70594787597656,33.91471481323242,83.19796752929688,0.26
298,MetaDrive-testbn6,70,203.44392721679185,299231,944,4266.599383115768,-89.67059326171875,36.30315399169922,88.370849609375,0.26
299,MetaDrive-testbn6,70,206.24332742044624,300623,948,4285.972869157791,-97.04342651367188,379.1513671875,93.83279418945312,0.26
300,MetaDrive-testbn6,70,206.31986418644254,301247,949,4294.020755290985,-86.19361114501953,33.62779998779297,85.02760314941406,0.26
301,MetaDrive-testbn6,70,204.56097275596133,302340,951,4312.870670795441,,27.30997657775879,89.71450805664062,0.25
302,MetaDrive-testbn6,70,205.36536891676872,303461,953,4327.2625386714935,-83.17301177978516,40.400203704833984,84.65319061279297,0.25
303,MetaDrive-testbn6,70,207.19501239307436,304130,954,4336.32407450676,,88.2347412109375,80.24331665039062,0.26
304,MetaDrive-testbn6,70,209.5107983290649,305510,957,4353.169637680054,,59.46436309814453,87.11276245117188,0.27
305,MetaDrive-testbn6,70,211.21285958911304,306363,959,4366.678590297699,-77.87980651855469,42.530765533447266,77.38956451416016,0.27
306,MetaDrive-testbn6,70,214.2613086374114,307602,962,4384.508740186691,,43.10455322265625,85.89846801757812,0.28
307,MetaDrive-testbn6,70,215.63005626323212,308076,963,4389.620458602905,,37.6054801940918,87.02012634277344,0.28
308,MetaDrive-testbn6,70,217.3025910675091,309979,965,4421.351472854614,-80.90469360351562,17.93872833251953,80.70679473876953,0.28
309,MetaDrive-testbn6,70,215.57262888146528,310980,966,4431.883318185806,,29.586891174316406,81.34481811523438,0.27
310,MetaDrive-testbn6,70,218.44783862282932,311620,967,4439.604934215546,,20.284149169921875,87.8199234008789,0.28
311,MetaDrive-testbn6,70,220.4690663561088,312458,968,4448.441546916962,,19.2086181640625,85.3005142211914,0.29
312,MetaDrive-testbn6,70,223.03523959315172,313459,969,4462.389973640442,-97.91595458984375,49.20207595825195,97.08792114257812,0.29
313,MetaDrive-testbn6,70,223.74281340941317,314317,970,4476.682712316513,-82.10933685302734,9.950836181640625,81.12779235839844,0.3
314,MetaDrive-testbn6,70,224.82408202112484,315956,972,4495.923252105713,,25.03168487548828,88.54557800292969,0.3
315,MetaDrive-testbn6,70,225.6573241345368,316457,973,4505.0104286670685,-83.34278106689453,30.57234764099121,83.140869140625,0.3
316,MetaDrive-testbn6,70,225.5020722354728,317012,975,4512.921139955521,,22.522104263305664,86.97937774658203,0.3
317,MetaDrive-testbn6,70,222.86789292968942,318183,977,4526.223134756088,-90.65631866455078,27.587961196899414,89.94024658203125,0.3
318,MetaDrive-testbn6,70,218.98223879135665,319675,981,4548.38169169426,-84.39697265625,725.1861572265625,81.7614517211914,0.27
319,MetaDrive-testbn6,70,220.1658935134346,320676,982,4559.529252052307,,18.815494537353516,87.23323059082031,0.27
320,MetaDrive-testbn6,70,219.47880771551752,321345,983,4567.691063165665,-94.13748931884766,41.35297393798828,92.29698181152344,0.27
321,MetaDrive-testbn6,70,219.61298603327327,322192,984,4577.606045484543,,15.50271224975586,90.87870788574219,0.27
322,MetaDrive-testbn6,70,217.75367649464522,323499,986,4594.866713523865,-76.87774658203125,473.49822998046875,76.69546508789062,0.26
323,MetaDrive-testbn6,70,218.1564401719131,324060,988,4602.520618677139,,19.39340591430664,89.08415222167969,0.26
324,MetaDrive-testbn6,70,216.21773477944822,325424,991,4621.954527139664,,25.999773025512695,83.4083023071289,0.25
325,MetaDrive-testbn6,70,217.7013243845014,326501,993,4637.320223093033,-88.78684997558594,94.93820190429688,87.93931579589844,0.25
326,MetaDrive-testbn6,70,220.54385461467544,327258,994,4645.845997095108,,12.699088096618652,81.25747680664062,0.25
327,MetaDrive-testbn6,70,221.65846478514416,328186,996,4657.77472615242,,54.6768684387207,92.25536346435547,0.25
328,MetaDrive-testbn6,70,222.3924997022944,329187,997,4672.540938138962,-71.64427185058594,21.85083770751953,70.66209411621094,0.25
329,MetaDrive-testbn6,70,227.3735305382918,330705,999,4690.011484622955,-82.89212036132812,332.4024963378906,80.35521697998047,0.26
330,MetaDrive-testbn6,70,226.27658483689615,331565,1000,4700.839724779129,-91.52481842041016,31.459415435791016,92.53311920166016,0.27
331,MetaDrive-testbn6,70,225.4743508752939,332217,1001,4708.90089225769,-95.86814880371094,30.901582717895508,96.78317260742188,0.27
332,MetaDrive-testbn6,70,221.9172835066604,333395,1004,4723.127868890762,-100.75924682617188,70.6427001953125,99.18605041503906,0.26
333,MetaDrive-testbn6,70,223.07129727461594,334844,1007,4743.26228928566,,43.86481857299805,89.56443786621094,0.26
334,MetaDrive-testbn6,70,224.31562524803346,335198,1008,4748.671311616898,,65.97661590576172,89.85453796386719,0.26
335,MetaDrive-testbn6,70,221.62641029257549,336928,1011,4769.17949795723,,30.11859130859375,90.08155822753906,0.25
336,MetaDrive-testbn6,70,224.3158948271462,337561,1012,4776.721576929092,-92.21664428710938,16.80679702758789,91.75347900390625,0.25
337,MetaDrive-testbn6,70,223.52685166605312,338055,1013,4782.4572949409485,-89.19014739990234,51.09141540527344,88.75772094726562,0.25
338,MetaDrive-testbn6,70,225.789347099147,339467,1015,4800.331875324249,-91.695068359375,54.355567932128906,91.82202911376953,0.25
339,MetaDrive-testbn6,70,226.14236806226887,340472,1017,4812.57204914093,,71.8750228881836,86.87152099609375,0.25
340,MetaDrive-testbn6,70,227.9278934180388,341198,1018,4820.8677043914795,,27.80416488647461,87.76903533935547,0.26
341,MetaDrive-testbn6,70,226.80472920242147,342300,1020,4833.549803733826,,23.423295974731445,78.48420715332031,0.26
342,MetaDrive-testbn6,70,229.56998618302043,343361,1022,4847.125794172287,-84.94914245605469,86.77928161621094,86.25511932373047,0.27
343,MetaDrive-testbn6,70,231.8090911871033,344102,1023,4858.122461557388,,272.70111083984375,92.60392761230469,0.27
344,MetaDrive-testbn6,70,238.9303324896425,345555,1025,4878.714118480682,-87.08491516113281,45.07160186767578,85.83250427246094,0.29
345,MetaDrive-testbn6,70,238.79527544219968,346321,1026,4889.142780780792,-85.5722427368164,23.034910202026367,84.90876007080078,0.28
346,MetaDrive-testbn6,70,238.75228085257393,347054,1027,4898.115421533585,,21.14678382873535,84.40560913085938,0.28
347,MetaDrive-testbn6,70,239.5590731144257,348389,1029,4913.0937530994415,-93.4520263671875,58.33476257324219,93.62724304199219,0.27
348,MetaDrive-testbn6,70,237.83357470494997,349109,1030,4920.766982316971,-88.76010131835938,19.743167877197266,86.28057861328125,0.26
349,MetaDrive-testbn6,70,236.56445077234585,350551,1032,4938.283816099167,-91.40289306640625,29.602630615234375,90.68949890136719,0.24
350,MetaDrive-testbn6,71,235.8715803217558,351218,1033,4945.7185163497925,,30.16620445251465,91.19246673583984,0.24
351,MetaDrive-testbn6,71,231.07095022478484,352014,1035,4956.492411375046,,36.378700256347656,91.2940673828125,0.23
352,MetaDrive-testbn6,71,228.12518333133306,353015,1036,4968.506783723831,-88.7938232421875,139.45431518554688,86.88324737548828,0.22
353,MetaDrive-testbn6,71,228.89787393757936,354275,1038,4984.911853313446,-89.5005111694336,14.641424179077148,88.6171875,0.22
354,MetaDrive-testbn6,71,229.65788358590237,355421,1040,4998.950333356857,-93.40430450439453,61.30415344238281,94.85369110107422,0.22
355,MetaDrive-testbn6,71,231.46885999005383,356211,1042,5007.842732906342,-98.4820556640625,16.647403717041016,97.30087280273438,0.22
356,MetaDrive-testbn6,71,231.0255867746613,357212,1043,5021.24764084816,,9.091415405273438,97.8528060913086,0.22
357,MetaDrive-testbn6,71,233.88700341033447,358435,1045,5034.807972669601,-77.17056274414062,30.427936553955078,77.37480926513672,0.22
358,MetaDrive-testbn6,71,234.42598395152277,359257,1047,5045.735460996628,-84.57816314697266,44.87861633300781,83.29825592041016,0.22
359,MetaDrive-testbn6,71,233.32038236889363,360316,1049,5060.31255364418,,188.46902465820312,92.11862182617188,0.23
360,MetaDrive-testbn6,71,227.29458988787624,361300,1053,5072.600115537643,,106.44304656982422,88.93912506103516,0.21
361,MetaDrive-testbn6,71,226.39558740460012,362328,1055,5083.708912372589,,51.09603500366211,95.55850219726562,0.2
362,MetaDrive-testbn6,71,225.79901463961852,363329,1056,5100.113212823868,-94.02699279785156,17.44073486328125,93.18923950195312,0.19
363,MetaDrive-testbn6,71,226.59590007426206,364077,1057,5114.465357542038,-93.8688735961914,261.8272705078125,90.92223358154297,0.19
364,MetaDrive-testbn6,71,225.48683256800797,365228,1059,5128.205007553101,,534.0238037109375,93.38517761230469,0.18
365,MetaDrive-testbn6,71,227.72614505917352,366122,1061,5139.695157289505,,31.9189395904541,94.04812622070312,0.18
366,MetaDrive-testbn6,71,222.2532736403798,367470,1064,5157.448578119278,,53.401065826416016,83.00247192382812,0.17
367,MetaDrive-testbn6,71,222.13920469154232,368072,1065,5164.020881652832,,49.83231735229492,88.55424499511719,0.18
368,MetaDrive-testbn6,71,217.73722478858465,369528,1068,5182.498173236847,,38.547996520996094,82.02404022216797,0.16
369,MetaDrive-testbn6,71,211.78962326870726,370112,1070,5189.361131191254,,47.170108795166016,87.98046875,0.15
370,MetaDrive-testbn6,71,213.28108825393554,371034,1071,5203.1325879096985,,56.45905303955078,90.15152740478516,0.15
371,MetaDrive-testbn6,71,214.04783257999821,372286,1073,5219.423084020615,,21.087627410888672,86.17373657226562,0.15
372,MetaDrive-testbn6,71,214.6652427172803,373096,1075,5231.224907875061,,85.4451904296875,86.73405456542969,0.15
373,MetaDrive-testbn6,71,215.061610559368,374430,1078,5247.20063328743,,389.11993408203125,77.79341888427734,0.15
374,MetaDrive-testbn6,71,218.9652699032701,375628,1080,5261.061067342758,,24.94651222229004,101.87604522705078,0.15
375,MetaDrive-testbn6,71,215.5742704242652,376799,1082,5283.856716394424,-93.8445816040039,59.97669219970703,94.40594482421875,0.15
376,MetaDrive-testbn6,71,214.59886501501907,377446,1083,5292.396151781082,,19.7174015045166,84.71903991699219,0.14
377,MetaDrive-testbn6,71,214.64154365430127,378447,1084,5306.169904708862,-76.83747100830078,83.24812316894531,77.17919921875,0.14
378,MetaDrive-testbn6,71,214.214798423188,379239,1085,5314.034816980362,-96.64973449707031,14.876058578491211,95.46660614013672,0.14
379,MetaDrive-testbn6,71,216.33805600240757,380431,1087,5327.322402477264,-93.70962524414062,21.019241333007812,90.77435302734375,0.14
380,MetaDrive-testbn6,71,216.85018442241704,381246,1089,5337.549634218216,,36.58530807495117,93.1658706665039,0.14
381,MetaDrive-testbn6,71,215.9190184834441,382015,1091,5346.555180549622,-94.50180053710938,24.39892578125,92.62447357177734,0.14
382,MetaDrive-testbn6,71,218.47760247202785,383335,1093,5362.964372873306,-89.56378173828125,199.4019012451172,89.43502807617188,0.14
383,MetaDrive-testbn6,71,214.25659945587603,384164,1095,5374.77420258522,,38.35593795776367,96.22679901123047,0.13
384,MetaDrive-testbn6,71,212.0819887359389,385571,1098,5391.884749412537,-91.13946533203125,143.98072814941406,90.81970977783203,0.12
385,MetaDrive-testbn6,71,210.70685377782726,386182,1099,5397.591373205185,,46.196876525878906,92.50999450683594,0.13
386,MetaDrive-testbn6,71,210.41615518341507,387183,1100,5411.168444156647,-88.02798461914062,70.81790924072266,87.14144134521484,0.12
387,MetaDrive-testbn6,71,210.5179591462038,388001,1101,5422.509801626205,-82.30941009521484,355.77197265625,79.50548553466797,0.11
388,MetaDrive-testbn6,71,213.57903957367466,389128,1103,5435.130119562149,,29.521116256713867,98.40100860595703,0.11
389,MetaDrive-testbn6,71,208.0653364571304,390623,1108,5454.557035446167,-95.1939697265625,47.951393127441406,92.57171630859375,0.1
390,MetaDrive-testbn6,71,210.6243893693186,391166,1109,5462.660226821899,,39.29698944091797,87.88665008544922,0.1
391,MetaDrive-testbn6,71,209.59398326305404,392167,1110,5477.634177207947,-88.97975158691406,21.57646942138672,88.92689514160156,0.1
392,MetaDrive-testbn6,71,211.15760416616737,393751,1112,5506.4987161159515,-87.53350830078125,16.44280242919922,86.40129852294922,0.1
393,MetaDrive-testbn6,71,210.5839815043026,394752,1113,5519.335989236832,,21.913124084472656,89.23866271972656,0.1
394,MetaDrive-testbn6,71,210.68641440121687,395668,1114,5528.8880088329315,,28.517107009887695,89.32978820800781,0.1
395,MetaDrive-testbn6,71,208.70006777810423,396003,1115,5533.475003004074,-88.7688980102539,132.57058715820312,88.17515563964844,0.09
396,MetaDrive-testbn6,71,207.4850082206872,397028,1117,5549.608058691025,,16.13315773010254,89.42051696777344,0.09
397,MetaDrive-testbn6,71,206.83456856006012,398029,1118,5567.582129478455,-87.05602264404297,99.07875061035156,83.57377624511719,0.08
398,MetaDrive-testbn6,71,206.38889289766982,399030,1119,5577.553179264069,,29.321414947509766,83.67474365234375,0.08
399,MetaDrive-testbn6,71,207.26873399300362,400615,1121,5597.671471834183,-85.37039184570312,50.003257751464844,81.93148803710938,0.07
400,MetaDrive-testbn6,71,205.7637603471561,401847,1123,5613.872755050659,-89.04010009765625,31.639347076416016,88.11245727539062,0.07
401,MetaDrive-testbn6,71,199.88084512176061,402886,1125,5632.572607040405,,72.09295654296875,87.62445068359375,0.05
402,MetaDrive-testbn6,71,198.40712658937977,403307,1126,5637.786129236221,-84.94493103027344,37.25055694580078,84.5492172241211,0.05
403,MetaDrive-testbn6,71,198.4233200961892,404308,1127,5649.022207736969,,23.215219497680664,79.64518737792969,0.04
404,MetaDrive-testbn6,71,196.55059094519365,405145,1128,5659.141630649567,-89.64810180664062,27.974775314331055,89.16716766357422,0.04
405,MetaDrive-testbn6,71,196.90662472096375,406146,1129,5672.140949487686,,45.13706970214844,90.89954376220703,0.04
406,MetaDrive-testbn6,71,195.99697590628435,407323,1131,5691.808573007584,-84.4010009765625,37.48227310180664,83.97686004638672,0.04
407,MetaDrive-testbn6,71,195.35039964817398,408324,1132,5701.885056257248,,84.04487609863281,81.02476501464844,0.04
408,MetaDrive-testbn6,71,193.95575528904646,409325,1133,5711.74477481842,-89.81355285644531,56.62420654296875,87.33602905273438,0.04
409,MetaDrive-testbn6,71,194.3310423947531,410326,1134,5721.491575241089,,39.03284454345703,74.14112854003906,0.04
410,MetaDrive-testbn6,71,194.44853961279475,411327,1135,5732.246493339539,-94.18490600585938,27.227813720703125,92.57709503173828,0.04
411,MetaDrive-testbn6,71,193.99000825025732,412328,1136,5743.258381128311,,53.71196746826172,72.95873260498047,0.04
412,MetaDrive-testbn6,71,192.52543447454497,413121,1137,5752.992772817612,-79.90478515625,145.0481414794922,78.69206237792969,0.04
413,MetaDrive-testbn6,71,191.96671262068304,414547,1139,5770.888286352158,-75.05455017089844,182.96090698242188,74.08970642089844,0.04
414,MetaDrive-testbn6,71,187.49219055104567,415967,1142,5786.95810008049,-81.33507537841797,29.673181533813477,80.40829467773438,0.04
415,MetaDrive-testbn6,71,186.13898365359495,416968,1143,5800.219515800476,,177.61297607421875,80.2199935913086,0.04
416,MetaDrive-testbn6,71,185.6462379688887,417969,1144,5812.564769983292,-80.72503662109375,92.66275024414062,80.50996398925781,0.04
417,MetaDrive-testbn6,71,183.97437777260075,418193,1145,5815.884674310684,-85.36698913574219,31.813880920410156,86.105712890625,0.04
418,MetaDrive-testbn6,71,184.79703247371347,419151,1146,5826.819446325302,-88.46591186523438,737.6948852539062,87.68138122558594,0.04
419,MetaDrive-testbn6,71,185.21142136677884,420152,1147,5837.159004688263,,20.794628143310547,89.6502685546875,0.04
420,MetaDrive-testbn6,72,182.19193689116506,421457,1149,5850.8593764305115,-77.39289855957031,45.802398681640625,76.8001708984375,0.03
421,MetaDrive-testbn6,72,183.36129675594188,422799,1152,5872.169313192368,-75.82965850830078,16.916942596435547,74.79242706298828,0.03
422,MetaDrive-testbn6,72,184.30873986156428,423800,1153,5885.95087313652,,191.40371704101562,84.74883270263672,0.03
423,MetaDrive-testbn6,72,183.15339565458825,424737,1154,5898.150497436523,-89.85086059570312,45.32075500488281,89.63677215576172,0.03
424,MetaDrive-testbn6,72,183.5986555165878,425738,1155,5907.983798265457,,47.978599548339844,85.30497741699219,0.03
425,MetaDrive-testbn6,72,182.24952422231007,426107,1156,5912.512701034546,-81.23945617675781,278.968505859375,80.36468505859375,0.03
426,MetaDrive-testbn6,72,181.06848665637781,427097,1157,5923.338743686676,-85.63998413085938,100.34771728515625,85.73733520507812,0.03
427,MetaDrive-testbn6,72,178.35154988113902,428098,1158,5933.17071557045,,147.2774658203125,85.07413482666016,0.03
428,MetaDrive-testbn6,72,178.741792698717,429099,1159,5947.579607486725,-80.91020965576172,199.37451171875,81.22930908203125,0.03
429,MetaDrive-testbn6,72,177.04235432967587,430340,1161,5965.223483085632,,58.91947937011719,80.99595642089844,0.03
430,MetaDrive-testbn6,72,177.43106856146534,431341,1162,5974.261625051498,-86.05551147460938,567.291259765625,86.11515808105469,0.03
431,MetaDrive-testbn6,72,177.0157530639628,432342,1163,5984.861379623413,,25.239309310913086,91.39974975585938,0.03
432,MetaDrive-testbn6,72,172.41478204919335,433941,1165,6001.557311058044,-81.75865173339844,43.326881408691406,80.06973266601562,0.02
433,MetaDrive-testbn6,72,172.35929569370782,434387,1166,6008.7199447155,-83.00313568115234,36.72850036621094,84.69326782226562,0.02
434,MetaDrive-testbn6,72,171.96185629562387,435388,1167,6017.891875267029,,34.25716781616211,92.80574798583984,0.02
435,MetaDrive-testbn6,72,169.12302663741238,436389,1168,6028.935776948929,-80.00157165527344,18.413516998291016,78.73843383789062,0.02
436,MetaDrive-testbn6,72,166.99256129986475,437823,1170,6042.607105731964,-83.42583465576172,30.370412826538086,81.84260559082031,0.02
437,MetaDrive-testbn6,72,163.13133488642805,438824,1171,6053.389557600021,,25.8011417388916,78.4685287475586,0.02
438,MetaDrive-testbn6,72,161.20990593181696,439825,1172,6063.351084947586,-86.57078552246094,163.7187957763672,84.99064636230469,0.02
439,MetaDrive-testbn6,72,158.78600259139634,440826,1173,6074.20384478569,,22.45729637145996,76.28986358642578,0.02
440,MetaDrive-testbn6,72,157.83224583956004,441693,1174,6084.116143465042,-86.53482055664062,302.2732238769531,82.97573852539062,0.02
441,MetaDrive-testbn6,72,156.89367757609597,442694,1175,6094.827513217926,,119.11668395996094,91.92338562011719,0.02
442,MetaDrive-testbn6,72,156.6651258666463,443695,1176,6105.1596965789795,-84.01323699951172,55.99352264404297,82.59363555908203,0.02
443,MetaDrive-testbn6,72,153.74329667049835,444474,1177,6113.568071842194,,59.09683609008789,77.89608764648438,0.01
444,MetaDrive-testbn6,72,149.28746237544155,445355,1179,6122.779110908508,-76.67945861816406,47.827293395996094,75.56343841552734,0.01
445,MetaDrive-testbn6,72,146.10892887372847,446356,1180,6134.060637712479,,19.925830841064453,79.48924255371094,0.01
446,MetaDrive-testbn6,72,145.38504636070857,447147,1181,6142.634847402573,-82.09569549560547,25.07402801513672,80.77113342285156,0.01
447,MetaDrive-testbn6,72,141.03224995098645,448148,1182,6153.218542814255,,81.60722351074219,83.71623229980469,0.01
448,MetaDrive-testbn6,72,138.89170646603395,449149,1183,6164.0890192985535,-83.87727355957031,18.766082763671875,83.15768432617188,0.01
449,MetaDrive-testbn6,72,134.3014910045137,450556,1185,6178.081202745438,,46.88811492919922,87.57281494140625,0.01
450,MetaDrive-testbn6,72,133.06725706718683,451557,1186,6189.406069517136,-83.66925048828125,15.116018295288086,82.4261474609375,0.01
451,MetaDrive-testbn6,73,128.12254847533387,452886,1188,6202.534654378891,,26.288841247558594,76.50921630859375,0.01
452,MetaDrive-testbn6,73,125.98088354658212,453381,1189,6207.594560146332,-78.05435180664062,134.82717895507812,76.82925415039062,0.01
453,MetaDrive-testbn6,73,123.9286299701355,454596,1191,6219.589251041412,,23.701486587524414,78.98326873779297,0.01
454,MetaDrive-testbn6,73,120.99516624187969,455092,1192,6224.4697897434235,,43.0771484375,78.7711181640625,0.01
455,MetaDrive-testbn6,73,117.82717660069953,456093,1193,6234.858849287033,-94.62448120117188,58.70415496826172,95.51194763183594,0.01
456,MetaDrive-testbn6,73,115.29775541904013,457094,1194,6245.774578809738,,59.88206481933594,83.93446350097656,0.01
457,MetaDrive-testbn6,73,114.88495431668973,458095,1195,6255.219811916351,-71.95710754394531,28.35455322265625,70.74922180175781,0.01
458,MetaDrive-testbn6,73,113.8860674696182,459345,1197,6269.324653863907,-79.41525268554688,34.147186279296875,78.49964904785156,0.01
459,MetaDrive-testbn6,73,110.41056311250813,460346,1198,6278.870465040207,,14.806050300598145,80.57565307617188,0.01
460,MetaDrive-testbn6,73,108.52697111854381,461347,1199,6288.88751077652,-84.72502136230469,491.614013671875,81.82023620605469,0.0
461,MetaDrive-testbn6,73,107.66145539306284,462186,1200,6299.074196100235,,271.35943603515625,87.66217803955078,0.0
462,MetaDrive-testbn6,73,104.9033959002914,463187,1201,6311.642342567444,-77.18125915527344,29.3158016204834,74.39533996582031,0.0
463,MetaDrive-testbn6,73,102.06352026624526,464188,1202,6321.855006933212,,23.68826675415039,80.08582305908203,0.0
464,MetaDrive-testbn6,73,99.93800240544411,465189,1203,6332.7093296051025,-77.87379455566406,41.71681594848633,74.31822204589844,0.0
465,MetaDrive-testbn6,73,99.57712145252073,466190,1204,6343.891589641571,,101.22181701660156,79.26831817626953,0.0
466,MetaDrive-testbn6,73,98.54410405020397,467522,1207,6357.27650809288,,42.40960693359375,81.90049743652344,0.0
467,MetaDrive-testbn6,73,97.1806111719938,468523,1208,6366.8927891254425,-79.17001342773438,94.86836242675781,79.26852416992188,0.0
468,MetaDrive-testbn6,73,95.84447584360447,469507,1210,6385.2311398983,-77.69396209716797,30.678565979003906,78.60346221923828,0.0
469,MetaDrive-testbn6,73,92.84954160639217,470508,1211,6395.533911943436,,17.97247886657715,75.73919677734375,0.0
470,MetaDrive-testbn6,73,90.02790401309629,471994,1213,6413.938749790192,,127.79087829589844,73.42466735839844,0.0
471,MetaDrive-testbn6,73,87.52310739721348,472416,1214,6418.6248869895935,,22.063243865966797,76.74661254882812,0.0
472,MetaDrive-testbn6,73,85.47332658391629,473417,1215,6429.107487916946,-90.46793365478516,19.363338470458984,90.12098693847656,0.0
473,MetaDrive-testbn6,73,85.51715440762389,474418,1216,6440.0319793224335,,70.2952880859375,73.43394470214844,0.0
474,MetaDrive-testbn6,73,84.83622475969949,475419,1217,6450.0299077034,-74.4897232055664,19.2015380859375,73.23589324951172,0.0
475,MetaDrive-testbn6,73,82.3239225865246,476420,1218,6459.920407533646,,11.022972106933594,75.35260009765625,0.0
476,MetaDrive-testbn6,73,79.67074821060277,477571,1220,6475.655901670456,-63.78924560546875,19.569049835205078,62.70120620727539,0.0
477,MetaDrive-testbn6,73,76.18466403868044,478306,1221,6483.935415506363,,18.01162338256836,65.01835632324219,0.0
478,MetaDrive-testbn6,73,76.0234066175613,479163,1222,6494.710206031799,-76.3123779296875,35.81578063964844,74.70294189453125,0.0
479,MetaDrive-testbn6,73,76.2085175714908,480164,1223,6506.605497837067,,23.56031036376953,75.41180419921875,0.0
480,MetaDrive-testbn6,73,71.36176208954812,481151,1227,6517.417067527771,-74.90646362304688,27.61886978149414,72.29205322265625,0.0
481,MetaDrive-testbn6,73,69.86598309641788,482156,1229,6534.293869256973,,26.302059173583984,75.604248046875,0.0
482,MetaDrive-testbn6,73,66.48844944265599,483794,1232,6554.81193447113,,17.871967315673828,74.4007339477539,0.0
483,MetaDrive-testbn6,73,66.38912848963365,484116,1233,6558.859865188599,,84.53665924072266,72.14476013183594,0.0
484,MetaDrive-testbn6,73,68.21859871417082,485117,1234,6580.756980895996,-77.43045806884766,185.30108642578125,77.73939514160156,0.0
485,MetaDrive-testbn6,73,65.28897558133863,486125,1241,6593.333604097366,-76.60081481933594,19.565975189208984,74.48309326171875,0.0
486,MetaDrive-testbn6,73,66.3416263363417,487609,1243,6609.174951791763,-78.23751831054688,21.896957397460938,78.02303314208984,0.0
487,MetaDrive-testbn6,73,67.47631191655333,488318,1244,6619.236906290054,,13.208328247070312,71.45623779296875,0.0
488,MetaDrive-testbn6,73,70.34075946950749,489209,1245,6633.4535710811615,-80.2210693359375,29.938461303710938,79.59703063964844,0.0
489,MetaDrive-testbn6,73,71.88663043802504,490210,1246,6651.682398080826,,15.205007553100586,67.206787109375,0.0
490,MetaDrive-testbn6,73,73.1341005321045,491211,1247,6664.421796321869,-76.48806762695312,12.900924682617188,77.085205078125,0.0
491,MetaDrive-testbn6,73,73.27731298572333,492097,1250,6677.571010112762,-80.530029296875,48.517948150634766,79.62538146972656,0.0
492,MetaDrive-testbn6,73,71.3449264686421,493885,1256,6700.447520494461,-79.35293579101562,31.567546844482422,79.28691101074219,0.0
493,MetaDrive-testbn6,73,72.67341471561224,494886,1257,6722.365081071854,,30.492996215820312,66.10807800292969,0.0
494,MetaDrive-testbn6,73,73.4444905672929,495371,1258,6729.203195810318,-61.48828887939453,182.81085205078125,61.30189514160156,0.0
495,MetaDrive-testbn6,73,73.57291534206257,496255,1261,6740.480013132095,-81.4521484375,80.85858154296875,82.14981079101562,0.0
496,MetaDrive-testbn6,73,76.51960955767666,497222,1264,6751.940763473511,,40.82140350341797,67.15372467041016,0.01
497,MetaDrive-testbn6,73,77.64319215218414,498223,1265,6764.061028003693,-75.72842407226562,35.963401794433594,77.04102325439453,0.01
498,MetaDrive-testbn6,73,82.80493522496685,499883,1269,6785.495447874069,-75.29989624023438,220.10581970214844,71.24808502197266,0.02
499,MetaDrive-testbn6,73,85.37718062239394,500884,1270,6800.756631135941,,32.08069610595703,69.49427795410156,0.02
500,MetaDrive-testbn6,73,88.57237148188598,501667,1271,6809.845462322235,-73.96339416503906,22.474700927734375,73.96122741699219,0.02
501,MetaDrive-testbn6,73,89.95356087495469,502422,1272,6818.24800157547,,42.053565979003906,68.94287109375,0.02
502,MetaDrive-testbn6,73,93.34943356691427,503499,1274,6831.09890294075,-80.13731384277344,20.21027374267578,77.81828308105469,0.02
503,MetaDrive-testbn6,73,97.86723525447302,504351,1276,6841.849667549133,-81.51712036132812,39.535247802734375,81.04361724853516,0.02
504,MetaDrive-testbn6,73,104.07789955908439,505596,1280,6861.13219499588,,19.252586364746094,80.42645263671875,0.03
505,MetaDrive-testbn6,73,109.27711076646214,506842,1282,6876.668748855591,,50.68238067626953,75.92192077636719,0.03
506,MetaDrive-testbn6,73,111.73963917972748,507481,1283,6886.833980321884,-81.98390197753906,149.74002075195312,82.89508056640625,0.03
507,MetaDrive-testbn6,73,115.24376491929566,508967,1287,6908.778613090515,-81.15235137939453,51.10643005371094,79.8377685546875,0.03
508,MetaDrive-testbn6,73,118.11404839125063,509791,1288,6924.071856975555,-78.31381225585938,53.24401092529297,77.89442443847656,0.03
509,MetaDrive-testbn6,73,119.92020674473741,510948,1290,6941.1293976306915,,309.4176025390625,74.46549987792969,0.03
510,MetaDrive-testbn6,73,120.59795291327868,511154,1291,6943.498778104782,,23.311260223388672,72.97671508789062,0.03
511,MetaDrive-testbn6,73,125.24948402243507,512188,1295,6956.773167848587,,220.9409942626953,80.0428695678711,0.03
512,MetaDrive-testbn6,73,130.88873087914794,513909,1299,6986.536712408066,-85.27787017822266,22.256698608398438,84.69163513183594,0.03
513,MetaDrive-testbn6,73,129.96233558607526,514181,1300,6990.442165136337,-79.84309387207031,49.02582550048828,78.92948913574219,0.03
514,MetaDrive-testbn6,73,135.44608313309868,515372,1302,7005.722970962524,,29.13876724243164,81.4168701171875,0.03
515,MetaDrive-testbn6,73,136.38877187637166,516373,1303,7019.736364364624,-74.16795349121094,30.16764259338379,72.03677368164062,0.03
516,MetaDrive-testbn6,73,140.01857320333173,517623,1306,7033.2598667144775,-69.94795227050781,36.289451599121094,69.79920959472656,0.04
517,MetaDrive-testbn6,73,140.01118759034094,518043,1309,7038.143201351166,-76.59820556640625,233.37130737304688,76.27883911132812,0.04
518,MetaDrive-testbn6,73,142.24595845818988,519747,1313,7059.835069894791,-82.21168518066406,490.21807861328125,79.968994140625,0.04
519,MetaDrive-testbn6,73,142.96016840882356,520029,1314,7063.1150913238525,-78.52108764648438,18.911975860595703,78.95979309082031,0.04
520,MetaDrive-testbn6,73,145.2495215171819,521822,1319,7086.923269033432,,9.913984298706055,73.83375549316406,0.04
521,MetaDrive-testbn6,73,147.39634878255995,522621,1320,7095.948233604431,-73.9969253540039,19.597957611083984,75.59870910644531,0.04
522,MetaDrive-testbn6,73,148.8503375720469,523164,1322,7102.952419042587,,29.34912109375,71.70166015625,0.04
523,MetaDrive-testbn6,73,151.06238551644364,524490,1324,7120.118046760559,,54.13401794433594,69.79530334472656,0.04
524,MetaDrive-testbn6,73,154.75175025938245,525447,1326,7136.104012012482,-72.30072784423828,64.21121978759766,70.80717468261719,0.05
525,MetaDrive-testbn6,73,156.13263125052168,526657,1328,7147.47727894783,-68.37608337402344,61.575439453125,69.17449951171875,0.05
526,MetaDrive-testbn6,73,153.6670860564607,527787,1330,7162.399774312973,-67.80074310302734,41.55778121948242,67.98188781738281,0.05
527,MetaDrive-testbn6,73,154.64687011775948,528110,1331,7165.841926574707,,70.07450866699219,71.89485168457031,0.05
528,MetaDrive-testbn6,73,156.02828409193788,529007,1333,7174.678641319275,-66.81307220458984,15.641441345214844,66.2845458984375,0.05
529,MetaDrive-testbn6,73,160.805380207363,530376,1336,7192.423535585403,,43.82395553588867,74.50981903076172,0.05
530,MetaDrive-testbn6,73,161.93528126614046,531973,1338,7210.20768737793,-78.67547607421875,13.42940616607666,78.71977233886719,0.05
531,MetaDrive-testbn6,73,162.21435344735875,532313,1339,7214.808300733566,-79.17028045654297,253.99205017089844,77.37019348144531,0.05
532,MetaDrive-testbn6,73,163.26459444403304,533314,1340,7227.548696041107,,23.975757598876953,68.62431335449219,0.05
533,MetaDrive-testbn6,73,163.45319127418443,534742,1342,7245.0308883190155,,18.85696029663086,65.2110366821289,0.05
534,MetaDrive-testbn6,73,165.50863152204477,535743,1343,7255.632571220398,-74.51526641845703,9.253707885742188,73.85895538330078,0.05
535,MetaDrive-testbn6,73,161.4096968020885,536414,1345,7265.758811473846,,11.19278335571289,73.31119537353516,0.05
536,MetaDrive-testbn6,73,158.54128263552133,537261,1348,7276.273679971695,-70.14344787597656,80.53976440429688,69.5420913696289,0.06
537,MetaDrive-testbn6,73,159.79439861814518,538868,1351,7293.220847606659,,128.92449951171875,67.65638732910156,0.07
538,MetaDrive-testbn6,73,162.94166145489191,539442,1352,7300.0952916145325,,10.331769943237305,63.919620513916016,0.07
539,MetaDrive-testbn6,73,161.85514340260107,540310,1356,7312.685302019119,,23.638864517211914,62.49983215332031,0.07
540,MetaDrive-testbn6,73,161.81920351572654,541262,1358,7324.606027603149,,110.81430053710938,72.83863830566406,0.08
541,MetaDrive-testbn6,73,162.2349401965751,542711,1361,7345.401318073273,-68.16549682617188,17.32509994506836,67.5532455444336,0.08
542,MetaDrive-testbn6,73,162.17742203046677,543613,1363,7358.390839099884,-67.52174377441406,10.731132507324219,68.47079467773438,0.08
543,MetaDrive-testbn6,73,161.82580555797315,544003,1365,7362.9512503147125,-68.72640991210938,77.07310485839844,67.50809478759766,0.08
544,MetaDrive-testbn6,73,166.22490651812643,545340,1367,7382.763406038284,,25.8227481842041,64.7764892578125,0.08
545,MetaDrive-testbn6,73,160.69187251154978,546072,1370,7390.980234861374,,53.83552932739258,65.95502471923828,0.07
546,MetaDrive-testbn6,73,158.45178493978003,547382,1373,7407.90048289299,,19.18154525756836,61.07735061645508,0.08
547,MetaDrive-testbn6,73,156.04032953261668,548367,1376,7421.492319583893,-67.44107055664062,197.86184692382812,65.36804962158203,0.09
548,MetaDrive-testbn6,73,158.3638042050785,549007,1378,7429.386944293976,-69.48957061767578,53.27899932861328,69.25907897949219,0.09
549,MetaDrive-testbn6,73,157.6055658178025,550029,1380,7442.459196329117,-57.89972686767578,18.16681671142578,56.76177215576172,0.08
550,MetaDrive-testbn6,73,160.47452204649724,551030,1381,7455.175166606903,,214.79388427734375,69.10798645019531,0.08
551,MetaDrive-testbn6,73,155.4763309458266,552049,1384,7469.8245351314545,-58.667015075683594,75.71540832519531,58.29050064086914,0.08
552,MetaDrive-testbn6,73,160.2354513298588,553174,1386,7483.958070278168,,93.10087585449219,66.01382446289062,0.08
553,MetaDrive-testbn6,73,159.48855453354227,554025,1388,7498.404046058655,-66.22804260253906,42.39128494262695,65.9769287109375,0.08
554,MetaDrive-testbn6,73,161.1387566690599,555592,1390,7520.064435958862,,16.76993179321289,71.87476348876953,0.08
555,MetaDrive-testbn6,73,164.83061510914288,556593,1391,7540.740036010742,-79.96642303466797,58.920345306396484,79.0162353515625,0.08
556,MetaDrive-testbn6,73,165.0685690162648,557363,1394,7550.502064466476,-66.52658081054688,43.85859680175781,65.92564392089844,0.08
557,MetaDrive-testbn6,73,166.6120844634172,558361,1397,7563.7354254722595,-70.28927612304688,14.551778793334961,68.40541076660156,0.08
558,MetaDrive-testbn6,73,166.85525081819134,559178,1399,7573.989154815674,,365.50506591796875,72.23299407958984,0.09
559,MetaDrive-testbn6,73,168.98717088834707,560179,1400,7591.851387023926,-72.08775329589844,43.115447998046875,72.20665740966797,0.09
560,MetaDrive-testbn6,73,169.16526142425914,561226,1402,7604.782063007355,,14.344812393188477,66.172119140625,0.11
561,MetaDrive-testbn6,73,170.61922443459034,562043,1404,7616.882658958435,-65.53706359863281,17.55658721923828,65.85575866699219,0.11
562,MetaDrive-testbn6,73,173.10625337445813,563044,1405,7637.690097332001,,135.1832275390625,81.12330627441406,0.11
563,MetaDrive-testbn6,73,176.73518904160844,564329,1409,7655.043346166611,-66.30070495605469,152.4586181640625,66.43537139892578,0.11
564,MetaDrive-testbn6,73,182.03267057542416,565939,1411,7680.849652528763,-73.74485778808594,37.73493194580078,73.217529296875,0.11
565,MetaDrive-testbn6,73,184.6048347471851,566411,1412,7686.914560556412,-67.2160873413086,141.66680908203125,66.48400115966797,0.12
566,MetaDrive-testbn6,73,183.9888416138814,567117,1415,7696.629910945892,-77.17561340332031,19.188980102539062,74.87130737304688,0.12
567,MetaDrive-testbn6,73,186.63780065282464,568106,1417,7710.157947301865,,13.819425582885742,72.42286682128906,0.13
568,MetaDrive-testbn6,73,184.40209922434934,569377,1420,7727.268029928207,-66.36731719970703,31.881134033203125,65.3594970703125,0.13
569,MetaDrive-testbn6,73,185.83645594115376,570057,1422,7735.246628284454,-68.05595397949219,37.17567825317383,66.05015563964844,0.14
570,MetaDrive-testbn6,73,185.57618336752248,571058,1423,7752.8737235069275,,16.821250915527344,74.42466735839844,0.14
571,MetaDrive-testbn6,73,190.23546611375238,572843,1425,7776.1777946949005,-70.08045196533203,241.96878051757812,67.12031555175781,0.14
572,MetaDrive-testbn6,73,190.84988915770083,573710,1426,7789.477217912674,,23.600574493408203,67.25576782226562,0.13
573,MetaDrive-testbn6,73,192.26530892043348,574293,1427,7797.2566792964935,-66.03109741210938,42.12396240234375,64.67984008789062,0.13
574,MetaDrive-testbn6,73,194.41756144372485,575174,1429,7808.385142326355,,23.935653686523438,66.95654296875,0.14
575,MetaDrive-testbn6,73,195.70602377762307,576508,1432,7827.126076459885,,62.70824432373047,68.95893859863281,0.14
576,MetaDrive-testbn6,73,198.10139071601574,577064,1433,7834.422680616379,,62.98871612548828,77.31752014160156,0.15
577,MetaDrive-testbn6,73,193.99497970382822,578348,1437,7853.94531083107,,10.281980514526367,69.53427124023438,0.15
578,MetaDrive-testbn6,73,199.5717012316406,579668,1439,7871.857171297073,,491.9366455078125,66.4375,0.17
579,MetaDrive-testbn6,73,201.01915481175044,580261,1440,7879.622774362564,-80.13723754882812,53.85719299316406,79.747314453125,0.17
580,MetaDrive-testbn6,73,200.13797301341717,581276,1443,7891.7623026371,,42.18663787841797,73.07371520996094,0.17
581,MetaDrive-testbn6,73,201.04268223592305,582204,1446,7903.159068822861,,32.325469970703125,73.5679702758789,0.17
582,MetaDrive-testbn6,73,203.24410290985182,583593,1448,7919.864106416702,-71.86324310302734,12.992420196533203,72.24873352050781,0.17
583,MetaDrive-testbn6,73,201.12457371564832,584011,1451,7926.046087265015,-67.14669036865234,32.07905578613281,66.83686828613281,0.16
584,MetaDrive-testbn6,73,202.61836720543462,585012,1452,7942.108213186264,,10.912372589111328,70.8622817993164,0.16
585,MetaDrive-testbn6,73,199.09452194023115,586068,1457,7955.637319564819,,91.56763458251953,61.56393051147461,0.15
586,MetaDrive-testbn6,73,201.54097668895895,587281,1459,7969.9487063884735,-66.05347442626953,21.855243682861328,64.21376037597656,0.16
587,MetaDrive-testbn6,73,204.4133936540545,588373,1461,7983.424470901489,-74.7031478881836,13.963382720947266,74.86524963378906,0.17
588,MetaDrive-testbn6,73,206.90458524484455,589374,1462,7997.650101423264,,35.703975677490234,67.84359741210938,0.17
589,MetaDrive-testbn6,73,207.22144592263285,590303,1463,8011.71181678772,-69.92945861816406,59.09188461303711,70.35189056396484,0.17
590,MetaDrive-testbn6,73,209.97326238322847,591198,1465,8023.017593383789,,7.41875696182251,77.51335144042969,0.18
591,MetaDrive-testbn6,73,207.08842626356054,592433,1468,8040.934993505478,-69.2845687866211,21.468849182128906,68.02974700927734,0.18
592,MetaDrive-testbn6,73,209.76652601762325,593487,1470,8053.829601287842,-64.65145874023438,25.097949981689453,67.25242614746094,0.18
593,MetaDrive-testbn6,73,209.38196701373897,594362,1473,8064.762353420258,,53.53034210205078,74.36085510253906,0.18
594,MetaDrive-testbn6,73,212.6119756101153,595986,1475,8086.255079746246,,28.919696807861328,65.58370971679688,0.18
595,MetaDrive-testbn6,73,211.96938205327274,596535,1476,8092.340367078781,-65.46160888671875,17.176544189453125,65.55862426757812,0.18
596,MetaDrive-testbn6,73,214.4410777297187,597344,1477,8103.057895421982,,6.856899261474609,66.28657531738281,0.19
597,MetaDrive-testbn6,73,217.1788654555086,598340,1478,8119.575420856476,,12.837182998657227,69.99940490722656,0.19
598,MetaDrive-testbn6,73,216.4416176934959,599598,1480,8137.700143575668,,13.579156875610352,69.10245513916016,0.19
599,MetaDrive-testbn6,73,213.21550145769635,600293,1483,8149.002068281174,-69.84930419921875,10.675540924072266,68.84412384033203,0.19
600,MetaDrive-testbn6,73,214.57809672227012,601294,1484,8164.854747533798,,80.856201171875,68.61933898925781,0.19
601,MetaDrive-testbn6,73,212.96004767056792,602305,1486,8177.693378448486,-71.71355438232422,123.37519836425781,72.05140686035156,0.19
602,MetaDrive-testbn6,73,213.95763180637056,603317,1488,8190.29189991951,-70.68087768554688,59.98380661010742,70.17561340332031,0.19
603,MetaDrive-testbn6,73,215.98165985728457,604318,1489,8212.617453575134,,17.570369720458984,71.47601318359375,0.19
604,MetaDrive-testbn6,73,213.99121971124546,605495,1491,8230.691775560379,-72.18016052246094,30.54031753540039,71.11592102050781,0.19
605,MetaDrive-testbn6,73,217.20025339304323,606443,1493,8241.906425237656,-73.41322326660156,10.795045852661133,72.52157592773438,0.19
606,MetaDrive-testbn6,73,217.7126905898305,607765,1496,8256.99369931221,-62.02461242675781,17.086505889892578,61.27412796020508,0.2
607,MetaDrive-testbn6,73,216.63153170755996,608070,1497,8261.75087070465,,31.387786865234375,70.74021911621094,0.2
608,MetaDrive-testbn6,73,218.03652466498662,609280,1499,8281.282814502716,,57.52803421020508,72.53150939941406,0.19
609,MetaDrive-testbn6,73,212.22011694615117,610006,1502,8288.956276416779,,9.697744369506836,60.597015380859375,0.18
610,MetaDrive-testbn6,73,208.82962557070312,611074,1506,8303.093606948853,,41.13053894042969,68.594482421875,0.18
611,MetaDrive-testbn6,73,210.50451604099868,612103,1508,8318.35414814949,-71.46298217773438,14.658649444580078,71.15016174316406,0.18
612,MetaDrive-testbn6,73,210.17610926917754,613023,1510,8330.542704582214,-73.00700378417969,94.99285888671875,71.80049133300781,0.19
613,MetaDrive-testbn6,73,207.1364886685507,614956,1514,8358.74154829979,,11.706905364990234,70.12603759765625,0.18
614,MetaDrive-testbn6,73,209.91262892436876,615797,1515,8370.404987573624,-69.95068359375,10.988995552062988,70.04045867919922,0.18
615,MetaDrive-testbn6,73,206.4656831896999,616203,1517,8374.834759950638,-65.0838623046875,58.354427337646484,63.82887268066406,0.17
616,MetaDrive-testbn6,73,210.09110003587145,617091,1518,8388.936804533005,-71.41159057617188,7.262006759643555,71.13612365722656,0.18
617,MetaDrive-testbn6,73,211.7872695685022,618335,1521,8404.166684627533,-67.69261169433594,8.261920928955078,67.13175201416016,0.17
618,MetaDrive-testbn6,73,212.99052866449824,619263,1523,8416.424247026443,-65.90083312988281,132.00350952148438,63.76105499267578,0.17
619,MetaDrive-testbn6,73,213.70801116052672,620937,1525,8444.461181402206,-70.41130828857422,12.564013481140137,68.76225280761719,0.17
620,MetaDrive-testbn6,73,214.22961100562785,621700,1526,8457.5196454525,,21.982568740844727,66.723388671875,0.17
621,MetaDrive-testbn6,73,213.57604246297896,622084,1527,8464.124197721481,,9.725631713867188,69.3699722290039,0.17
622,MetaDrive-testbn6,73,212.19154297671452,623387,1530,8482.950641155243,-69.95005798339844,88.48661041259766,69.30450439453125,0.16
623,MetaDrive-testbn6,73,208.35568627736467,624127,1533,8494.61122250557,-73.04698181152344,12.307015419006348,72.24018859863281,0.15
624,MetaDrive-testbn6,73,210.69069160815755,625093,1534,8510.828089952469,-74.71549987792969,12.12837028503418,73.7562255859375,0.16
625,MetaDrive-testbn6,73,214.64109480722797,626459,1537,8527.6929500103,-72.26431274414062,26.02053451538086,70.96894836425781,0.17
626,MetaDrive-testbn6,73,212.6423312399056,627497,1539,8544.975227594376,-65.67115020751953,164.54342651367188,65.20730590820312,0.15
627,MetaDrive-testbn6,73,213.35769846438714,628498,1540,8563.05372428894,,368.72808837890625,67.86553955078125,0.15
628,MetaDrive-testbn6,73,214.90487745459032,629302,1541,8575.65639591217,,28.987150192260742,69.65034484863281,0.16
629,MetaDrive-testbn6,73,217.92772636874466,630002,1542,8586.043454408646,,15.129706382751465,77.44082641601562,0.17
630,MetaDrive-testbn6,73,217.50007409403364,631003,1543,8600.199681282043,-73.05012512207031,29.073070526123047,73.20181274414062,0.17
631,MetaDrive-testbn6,73,218.07885027119355,632080,1546,8613.30330824852,,20.14397430419922,73.8509521484375,0.17
632,MetaDrive-testbn6,73,218.4112329911228,633413,1549,8631.389413833618,-71.86792755126953,28.22724723815918,70.58924865722656,0.17
633,MetaDrive-testbn6,73,220.28613968342688,634037,1551,8638.384702444077,-70.65873718261719,97.13873291015625,70.54398345947266,0.17
634,MetaDrive-testbn6,73,218.19913918606665,635719,1555,8661.636772155762,-75.3619155883789,46.8406982421875,73.10630798339844,0.17
635,MetaDrive-testbn6,73,218.07448576192746,636325,1556,8668.165907382965,-80.16424560546875,14.664640426635742,79.92655944824219,0.17
636,MetaDrive-testbn6,73,221.1357511966041,637615,1558,8684.183737754822,-67.46817016601562,88.43758392333984,65.9212417602539,0.17
637,MetaDrive-testbn6,73,219.93392502206672,638102,1559,8693.23191690445,,52.0435676574707,65.140380859375,0.17
638,MetaDrive-testbn6,73,218.35185298089294,639151,1561,8713.38154745102,-73.302978515625,39.47197723388672,72.11856079101562,0.16
639,MetaDrive-testbn6,73,217.9390716740889,640152,1562,8729.36106300354,,14.125739097595215,60.341941833496094,0.16
640,MetaDrive-testbn6,73,217.6417134694388,641153,1563,8747.593517541885,-75.84087371826172,153.733154296875,77.1253662109375,0.15
641,MetaDrive-testbn6,73,219.52607994793158,642693,1566,8766.615999698639,-63.25623321533203,153.7559356689453,62.97854995727539,0.16
642,MetaDrive-testbn6,73,218.9839507532329,643090,1568,8771.281117677689,,190.52220153808594,69.04520416259766,0.16
643,MetaDrive-testbn6,73,217.70600885704846,644003,1571,8783.612484693527,-71.06239318847656,50.104103088378906,70.87644958496094,0.16
644,MetaDrive-testbn6,73,209.76515226741242,645526,1576,8808.34392952919,,202.2421417236328,67.63374328613281,0.14
645,MetaDrive-testbn6,73,208.18033857518392,646884,1578,8826.32300567627,,15.616439819335938,73.06704711914062,0.13
646,MetaDrive-testbn6,73,208.66983419662938,647277,1579,8831.95215511322,-72.80919647216797,32.05516815185547,72.41661071777344,0.13
647,MetaDrive-testbn6,73,209.63274566311907,648095,1581,8841.806457042694,-73.54740142822266,79.4325180053711,73.73015594482422,0.14
648,MetaDrive-testbn6,73,213.7348051563395,649499,1583,8859.47880601883,-65.78304290771484,22.692493438720703,65.58941650390625,0.15
649,MetaDrive-testbn6,73,215.3903996609355,650286,1584,8870.815790653229,,10.855507850646973,73.77165985107422,0.16
650,MetaDrive-testbn6,73,210.55309877793093,651209,1588,8882.941048622131,-64.47421264648438,20.652193069458008,63.09406280517578,0.16
651,MetaDrive-testbn6,73,207.63069612492282,652701,1592,8902.95828461647,-64.32305908203125,22.290843963623047,63.98527908325195,0.17
652,MetaDrive-testbn6,73,206.55310367963426,653352,1594,8909.7942237854,,134.3846435546875,71.27609252929688,0.17
653,MetaDrive-testbn6,73,207.70705193709614,654130,1596,8918.441643238068,,15.464375495910645,69.4040298461914,0.18
654,MetaDrive-testbn6,73,211.28991146749166,655067,1597,8935.006239891052,-70.66998291015625,184.47830200195312,70.5487060546875,0.18
655,MetaDrive-testbn6,73,209.58836612310927,656151,1599,8955.11846613884,-65.70764923095703,95.45623779296875,66.06591796875,0.18
656,MetaDrive-testbn6,73,211.21448571102832,657757,1604,8973.367331981659,-68.3779525756836,166.85108947753906,67.49854278564453,0.19
657,MetaDrive-testbn6,73,212.4296775551664,658029,1605,8976.798300981522,-67.33078002929688,15.098122596740723,66.52796936035156,0.19
658,MetaDrive-testbn6,73,210.13693060189797,659509,1608,8998.651765346527,-67.25859069824219,189.26266479492188,68.63934326171875,0.18
659,MetaDrive-testbn6,73,210.80019509159055,660510,1609,9016.451298713684,,63.09783172607422,64.4937744140625,0.17
660,MetaDrive-testbn6,73,212.6230040141674,661093,1610,9024.092070102692,-64.43038940429688,24.050146102905273,62.356910705566406,0.17
661,MetaDrive-testbn6,73,215.74688226491216,662157,1612,9037.070317029953,-77.20484924316406,14.802437782287598,77.44944763183594,0.18
662,MetaDrive-testbn6,73,215.23021927721945,663030,1614,9047.667184591293,,53.33036422729492,68.29447174072266,0.19
663,MetaDrive-testbn6,73,214.68570488123808,664091,1616,9059.853442668915,-68.7274169921875,27.657962799072266,68.77130889892578,0.19
664,MetaDrive-testbn6,73,210.99438772061828,665919,1620,9081.27713060379,-73.12315368652344,21.062732696533203,71.02827453613281,0.18
665,MetaDrive-testbn6,73,210.32616009454546,666233,1621,9085.300821065903,-64.29720306396484,18.611709594726562,62.960357666015625,0.18
666,MetaDrive-testbn6,73,197.1782901909541,667829,1626,9102.864392757416,-58.12104797363281,16.70958709716797,56.50267791748047,0.19
667,MetaDrive-testbn6,73,197.16490876915196,668176,1627,9107.154493570328,,12.135547637939453,59.33865737915039,0.19
668,MetaDrive-testbn6,73,196.40618216340212,669238,1631,9120.753644704819,,36.592411041259766,73.42251586914062,0.19
669,MetaDrive-testbn6,73,192.2701580041256,670158,1634,9132.674112081528,,12.814363479614258,58.632843017578125,0.18
670,MetaDrive-testbn6,73,190.7650959616142,671329,1637,9146.565377473831,-59.662200927734375,23.692623138427734,57.877197265625,0.18
671,MetaDrive-testbn6,73,189.99510077765513,672656,1640,9165.613004922867,,52.132118225097656,66.0152816772461,0.19
672,MetaDrive-testbn6,73,187.06763254361942,673951,1642,9187.676033973694,-66.83810424804688,42.197547912597656,66.26739501953125,0.17
673,MetaDrive-testbn6,73,185.6801306878202,674031,1643,9188.58403301239,-72.18568420410156,24.3248291015625,71.5532455444336,0.17
674,MetaDrive-testbn6,73,186.5260523285009,675429,1645,9206.77856850624,-72.62942504882812,68.62139892578125,72.99263000488281,0.17
675,MetaDrive-testbn6,73,185.0526098644021,676550,1647,9220.557772397995,,47.93134307861328,68.37468719482422,0.16
676,MetaDrive-testbn6,73,186.9064360763163,677483,1649,9231.80077123642,-62.92491912841797,20.669736862182617,62.50882339477539,0.17
677,MetaDrive-testbn6,73,187.94461382614136,678396,1651,9243.928859233856,,18.666549682617188,57.01802062988281,0.18
678,MetaDrive-testbn6,73,187.55080134336214,679210,1653,9254.797212839127,,14.166778564453125,67.24390411376953,0.18
679,MetaDrive-testbn6,73,186.2921393251095,680614,1657,9277.97996377945,,21.535810470581055,65.08329772949219,0.18
680,MetaDrive-testbn6,73,185.39229266142394,681157,1658,9285.91719174385,-62.87591552734375,23.24624252319336,62.52429962158203,0.17
681,MetaDrive-testbn6,73,186.90368071777894,682025,1659,9295.507833957672,-69.64437866210938,9.114585876464844,69.40757751464844,0.17
682,MetaDrive-testbn6,73,186.96971288758624,683459,1662,9315.846529006958,-59.889930725097656,58.223182678222656,58.72343063354492,0.17
683,MetaDrive-testbn6,73,187.76908160012871,684609,1664,9333.191021203995,-60.47235870361328,20.998153686523438,60.256038665771484,0.18
684,MetaDrive-testbn6,73,187.60047078862942,685167,1665,9341.635871887207,-63.20531463623047,18.225521087646484,63.62525177001953,0.17
685,MetaDrive-testbn6,73,189.44740793028686,686172,1667,9353.821587085724,,6.7895050048828125,58.837501525878906,0.17
686,MetaDrive-testbn6,73,189.98143855612082,687294,1671,9369.608711719513,,11.535024642944336,66.90748596191406,0.18
687,MetaDrive-testbn6,73,196.14461639820118,688984,1673,9399.317390918732,,7.385310173034668,64.88838958740234,0.18
688,MetaDrive-testbn6,73,196.31875276797,689284,1674,9403.769087553024,,16.227230072021484,65.75935363769531,0.18
689,MetaDrive-testbn6,73,196.138072314739,690050,1677,9412.856944561005,,28.05850601196289,69.96205139160156,0.18
690,MetaDrive-testbn6,73,193.22601880198022,691051,1678,9424.696933984756,-60.14934539794922,7.5676774978637695,59.80173873901367,0.18
691,MetaDrive-testbn6,73,190.96762396202797,692191,1682,9438.73150920868,-56.72611999511719,64.82566833496094,55.946083068847656,0.17
692,MetaDrive-testbn6,73,190.74446119343912,693077,1683,9449.096154928207,-63.78837966918945,115.51077270507812,63.053016662597656,0.17
693,MetaDrive-testbn6,73,188.68542810325093,694122,1686,9463.27030467987,,87.72876739501953,64.82090759277344,0.16
694,MetaDrive-testbn6,73,189.8174018314246,695145,1688,9474.696040391922,-53.54290771484375,12.458829879760742,53.03445816040039,0.16
695,MetaDrive-testbn6,73,190.4304221273673,696159,1690,9486.407199144363,-63.13910675048828,10.546932220458984,63.042476654052734,0.17
696,MetaDrive-testbn6,73,188.9476323220733,697406,1694,9501.17100405693,,17.612613677978516,60.90118408203125,0.16
697,MetaDrive-testbn6,73,189.31367976990833,698736,1696,9522.325295448303,,15.090813636779785,64.552734375,0.15
698,MetaDrive-testbn6,73,185.29328978938582,699011,1698,9525.665535211563,-62.2774658203125,12.724698066711426,61.841941833496094,0.15
699,MetaDrive-testbn6,73,187.16571408356356,700768,1702,9550.830278635025,,7.0972819328308105,66.56431579589844,0.15
700,MetaDrive-testbn6,73,186.02289491088624,701095,1703,9555.255805253983,-64.11717224121094,8.163026809692383,64.12369537353516,0.14
701,MetaDrive-testbn6,73,187.9203863813401,702751,1705,9574.11614561081,-59.24856948852539,12.588724136352539,58.284053802490234,0.15
702,MetaDrive-testbn6,73,189.10832104933772,703104,1706,9577.678864240646,,6.312302589416504,64.11540222167969,0.16
703,MetaDrive-testbn6,73,181.1463295690644,704250,1710,9592.927223920822,,17.826250076293945,65.12574768066406,0.16
704,MetaDrive-testbn6,73,179.66304928020116,705042,1711,9604.394826412201,,26.1756591796875,60.10613250732422,0.15
705,MetaDrive-testbn6,73,182.34928481271263,706664,1714,9631.336047172546,,39.21600341796875,62.896148681640625,0.15
706,MetaDrive-testbn6,73,179.9832239405101,707934,1717,9651.889198541641,,28.381370544433594,57.04402160644531,0.16
707,MetaDrive-testbn6,73,182.8416556277538,708459,1718,9657.823644399643,-56.52983856201172,60.648094177246094,55.64765930175781,0.16
708,MetaDrive-testbn6,73,186.1861563085498,709040,1719,9666.138697862625,,39.33535385131836,65.1348648071289,0.17
709,MetaDrive-testbn6,73,189.22450053392433,710505,1721,9682.771968841553,-61.244224548339844,77.59176635742188,59.964996337890625,0.18
710,MetaDrive-testbn6,73,192.33056155362772,711050,1722,9690.846693277359,,23.55514907836914,67.07622528076172,0.19
711,MetaDrive-testbn6,73,196.32325349148482,712022,1724,9703.930138349533,,8.551307678222656,67.14210510253906,0.2
712,MetaDrive-testbn6,73,197.4547852955203,713138,1727,9717.642778873444,,28.57184410095215,68.07369232177734,0.19
713,MetaDrive-testbn6,73,199.4213769029801,714075,1729,9728.09566783905,-63.331512451171875,34.567054748535156,61.08479309082031,0.19
714,MetaDrive-testbn6,73,200.05865651575448,715352,1733,9743.817704439163,,18.56032943725586,60.8529167175293,0.21
715,MetaDrive-testbn6,73,202.65464698956134,716016,1734,9752.588779211044,,114.7369384765625,66.59944152832031,0.22
716,MetaDrive-testbn6,73,206.08778530932963,717503,1737,9770.319069385529,-66.93911743164062,7.602477073669434,66.4481201171875,0.24
717,MetaDrive-testbn6,73,207.63161664048144,718040,1738,9775.869052410126,,69.79672241210938,65.59457397460938,0.25
718,MetaDrive-testbn6,73,205.28075445392776,719068,1741,9790.764595270157,,13.751346588134766,68.2569580078125,0.25
719,MetaDrive-testbn6,73,200.44460104516804,720139,1745,9802.844320297241,-61.90811538696289,20.567493438720703,61.798011779785156,0.26
720,MetaDrive-testbn6,73,202.77928405775998,721475,1747,9818.501554250717,-63.02042770385742,191.59335327148438,64.64669799804688,0.28
721,MetaDrive-testbn6,73,206.22888242662845,722414,1748,9834.038189888,,5.21661376953125,66.19001770019531,0.28
722,MetaDrive-testbn6,73,204.62231932135924,723070,1750,9842.342304229736,,80.99162292480469,65.61231994628906,0.27
723,MetaDrive-testbn6,73,205.901431338972,724256,1753,9856.002215623856,,54.893348693847656,62.67155838012695,0.27
724,MetaDrive-testbn6,73,210.04068930461227,725181,1754,9872.490377187729,-66.46041870117188,13.010194778442383,64.76681518554688,0.28
725,MetaDrive-testbn6,73,209.92926884659212,726071,1757,9885.959815979004,-62.56833267211914,10.192056655883789,61.275535583496094,0.28
726,MetaDrive-testbn6,73,211.2411932941589,727679,1759,9915.663721561432,-65.28904724121094,164.72242736816406,69.59419250488281,0.29
727,MetaDrive-testbn6,73,213.8100112124985,728628,1760,9927.86743402481,,47.89728546142578,62.399452209472656,0.3
728,MetaDrive-testbn6,73,213.2919785357399,729250,1762,9936.421862125397,,38.109710693359375,63.36317443847656,0.3
729,MetaDrive-testbn6,73,207.97903822198882,730013,1766,9948.122995615005,-61.832977294921875,158.5924835205078,59.59589385986328,0.29
730,MetaDrive-testbn6,73,208.40576196331503,731014,1767,9970.272341489792,,30.72801399230957,58.73402404785156,0.28
731,MetaDrive-testbn6,73,214.50141125557127,732639,1770,9992.936918020248,-65.75814819335938,6.70195198059082,64.68972778320312,0.29
732,MetaDrive-testbn6,73,214.54078014218223,733640,1771,10011.543956041336,,42.85626220703125,65.46224975585938,0.28
733,MetaDrive-testbn6,73,214.73700423503257,734255,1772,10018.82339978218,-63.63164520263672,103.83129119873047,62.290313720703125,0.29
734,MetaDrive-testbn6,73,213.30879577801375,735032,1774,10027.330171823502,,35.54826736450195,58.93800354003906,0.3
735,MetaDrive-testbn6,73,214.81793709460626,736415,1778,10046.092358350754,-60.543846130371094,6.337368965148926,59.468101501464844,0.31
736,MetaDrive-testbn6,73,215.2854527916743,737090,1779,10056.677508831024,,13.32502555847168,63.887001037597656,0.3
737,MetaDrive-testbn6,73,210.58057077973345,738136,1784,10072.57090139389,,13.538471221923828,59.62873077392578,0.3
738,MetaDrive-testbn6,73,213.46811048302038,739147,1786,10085.287507772446,-68.96966552734375,16.00200843811035,66.57823181152344,0.31
739,MetaDrive-testbn6,73,217.56996438094427,740517,1789,10103.72222828865,-64.65367126464844,13.96302604675293,64.26338195800781,0.33
740,MetaDrive-testbn6,73,217.41631768078457,741140,1791,10110.751023292542,,11.74673843383789,66.50389099121094,0.32
741,MetaDrive-testbn6,73,220.9900349741221,742126,1792,10125.934464931488,,13.286698341369629,65.22457885742188,0.33
742,MetaDrive-testbn6,73,217.68645532408445,743403,1796,10141.105850458145,-56.3971061706543,12.816822052001953,56.38807678222656,0.33
743,MetaDrive-testbn6,73,220.64471990713494,744265,1797,10155.326867341995,-61.07745361328125,15.505937576293945,61.34659194946289,0.34
744,MetaDrive-testbn6,73,222.88293553353108,745060,1799,10163.877403020859,,9.714827537536621,62.02541732788086,0.35
745,MetaDrive-testbn6,73,225.1192875527873,746061,1800,10182.520618200302,-60.34806442260742,9.915752410888672,60.527610778808594,0.35
746,MetaDrive-testbn6,73,226.78340855704636,747145,1802,10196.564151525497,-60.92153549194336,13.79823112487793,61.2639045715332,0.36
747,MetaDrive-testbn6,73,225.84940845211528,748314,1805,10212.300660848618,,17.172943115234375,59.611083984375,0.34
748,MetaDrive-testbn6,73,226.05284127571457,749550,1807,10229.973911523819,,9.099813461303711,61.241233825683594,0.33
749,MetaDrive-testbn6,73,227.3829728611606,750099,1809,10237.37518787384,-71.24264526367188,278.35284423828125,69.5997314453125,0.33
750,MetaDrive-testbn6,73,226.66783892669696,751149,1812,10249.12022304535,-65.33714294433594,20.336349487304688,64.65669250488281,0.33
751,MetaDrive-testbn6,73,225.31915202025164,752374,1815,10263.934230089188,,15.946900367736816,57.72639846801758,0.34
752,MetaDrive-testbn6,73,223.176666215017,753046,1817,10272.42208480835,,38.564151763916016,58.734169006347656,0.33
753,MetaDrive-testbn6,73,225.3129416785758,754013,1818,10291.368092536926,-66.79755401611328,14.018498420715332,66.04310607910156,0.34
754,MetaDrive-testbn6,73,226.23441095707102,755376,1820,10309.275842428207,,11.644094467163086,62.20692443847656,0.34
755,MetaDrive-testbn6,73,225.5639502876772,756356,1822,10320.880050897598,,5.371258735656738,64.6165542602539,0.35
756,MetaDrive-testbn6,73,224.37665282959253,757488,1825,10334.103715896606,,207.60867309570312,56.52414321899414,0.35
757,MetaDrive-testbn6,73,226.11814135641154,758038,1826,10339.923748016357,,38.673362731933594,63.327354431152344,0.36
758,MetaDrive-testbn6,73,227.5905995343745,759391,1828,10359.299881696701,-58.90354537963867,11.472148895263672,58.06800842285156,0.37
759,MetaDrive-testbn6,73,229.09807602690904,760018,1829,10366.474704265594,,19.870407104492188,58.45487594604492,0.38
760,MetaDrive-testbn6,73,232.53048804507364,761306,1832,10383.002056360245,,36.419349670410156,65.20613098144531,0.38
761,MetaDrive-testbn6,73,228.13099438849127,762197,1835,10392.953411340714,-69.09220123291016,33.4333610534668,67.43984985351562,0.36
762,MetaDrive-testbn6,73,227.14119934411323,763594,1837,10411.962815999985,,50.47993469238281,60.18587112426758,0.34
763,MetaDrive-testbn6,73,227.1549355187598,764039,1838,10417.726125955582,-68.06948852539062,23.16048812866211,67.87220764160156,0.34
764,MetaDrive-testbn6,73,228.3433005715033,765167,1841,10431.6152510643,-67.80964660644531,17.17135238647461,65.71464538574219,0.34
765,MetaDrive-testbn6,73,232.08423254138862,766104,1843,10442.183597564697,,152.76177978515625,62.93628692626953,0.35
766,MetaDrive-testbn6,73,235.27516276447014,767270,1845,10456.304020404816,,13.775754928588867,59.20066452026367,0.34
767,MetaDrive-testbn6,73,235.01571850918378,768076,1847,10465.914026737213,,208.1693115234375,67.633056640625,0.33
768,MetaDrive-testbn6,73,235.65891216874567,769358,1850,10485.83682012558,,14.381404876708984,60.23668670654297,0.35
769,MetaDrive-testbn6,73,235.5304151421658,770222,1852,10498.436103343964,,23.93227195739746,61.59236145019531,0.35
770,MetaDrive-testbn6,73,233.98591627827136,771310,1854,10517.614468812943,,26.9328556060791,62.508506774902344,0.35
771,MetaDrive-testbn6,73,236.5464087345386,772067,1856,10528.424209594727,-65.27714538574219,13.1279935836792,64.38752746582031,0.36
772,MetaDrive-testbn6,73,236.87651389877607,773009,1858,10542.365141630173,-54.650718688964844,78.50273132324219,54.802978515625,0.36
773,MetaDrive-testbn6,73,235.48865698937993,774672,1862,10564.941373348236,,27.110401153564453,63.76137924194336,0.37
774,MetaDrive-testbn6,73,236.70626985460237,775300,1864,10572.784034490585,,10.258237838745117,61.30741882324219,0.38
775,MetaDrive-testbn6,73,240.82954280298586,776282,1866,10584.912431716919,,43.388633728027344,60.66979217529297,0.39
776,MetaDrive-testbn6,73,241.15777582202958,777359,1868,10599.133345365524,-69.5725326538086,81.75608825683594,67.80166625976562,0.41
777,MetaDrive-testbn6,73,240.26370329492977,778494,1870,10617.646422863007,,66.79415893554688,63.756080627441406,0.41
778,MetaDrive-testbn6,73,239.4560575990363,779048,1871,10623.830308198929,,170.0006103515625,57.44752502441406,0.42
779,MetaDrive-testbn6,73,237.45745664138184,780249,1875,10640.577565431595,-60.767574310302734,12.80753231048584,60.57239532470703,0.42
780,MetaDrive-testbn6,73,240.23179692042325,781132,1877,10652.54663014412,,68.49958038330078,58.552921295166016,0.43
781,MetaDrive-testbn6,73,237.11330538372255,782342,1880,10666.461529016495,,8.32973575592041,64.37199401855469,0.43
782,MetaDrive-testbn6,73,240.54424155535574,783145,1883,10676.449123382568,-57.711456298828125,14.441523551940918,55.61150360107422,0.43
783,MetaDrive-testbn6,73,243.3593852345614,784276,1885,10690.484273195267,,90.03163146972656,64.89817810058594,0.45
784,MetaDrive-testbn6,73,243.39742646643907,785277,1886,10705.777127027512,-57.05852127075195,175.36062622070312,56.26923370361328,0.44
785,MetaDrive-testbn6,73,240.49535394184352,786967,1890,10727.650000095367,-62.653961181640625,18.858318328857422,62.80488586425781,0.43
786,MetaDrive-testbn6,73,240.89864565600823,787358,1891,10731.94670176506,,70.54047393798828,59.725616455078125,0.44
787,MetaDrive-testbn6,73,240.32984628240575,788151,1892,10742.64513039589,-57.09572982788086,8.53354549407959,56.04882049560547,0.44
788,MetaDrive-testbn6,73,243.7276212778965,789375,1894,10758.937688827515,-62.006813049316406,8.247840881347656,61.2149658203125,0.45
789,MetaDrive-testbn6,73,244.91216629587998,790497,1896,10772.79608798027,-67.34559631347656,20.219959259033203,65.86476135253906,0.45
790,MetaDrive-testbn6,73,243.10684586666008,791228,1898,10782.024723768234,,9.234847068786621,64.01565551757812,0.43
791,MetaDrive-testbn6,73,244.39150109602747,792591,1900,10802.982041597366,-61.470367431640625,142.62557983398438,59.66990280151367,0.43
792,MetaDrive-testbn6,73,243.9336902571291,793092,1901,10809.11692738533,,5.928370475769043,59.020240783691406,0.43
793,MetaDrive-testbn6,73,244.40910950844466,794090,1903,10822.184876441956,,8.75522232055664,59.64759826660156,0.44
794,MetaDrive-testbn6,73,245.45941551265128,795360,1905,10840.685195684433,,12.589188575744629,66.70330047607422,0.45
795,MetaDrive-testbn6,73,243.8729221680999,796021,1908,10849.273438692093,-65.55534362792969,24.80731201171875,65.2905044555664,0.46
796,MetaDrive-testbn6,73,244.5932779068057,797022,1909,10868.427707195282,,14.140533447265625,58.406925201416016,0.46
797,MetaDrive-testbn6,73,247.56422805010916,798697,1912,10893.746862649918,-59.771358489990234,62.8846435546875,58.767234802246094,0.47
798,MetaDrive-testbn6,73,249.26496980043055,799220,1913,10899.666155338287,,89.63816833496094,63.82964324951172,0.48
799,MetaDrive-testbn6,73,250.92957230314053,800189,1915,10910.825590372086,-57.56398391723633,32.39885711669922,60.85729217529297,0.49
800,MetaDrive-testbn6,73,253.1160267252653,801190,1916,10926.669530153275,,151.58572387695312,64.56304168701172,0.49
801,MetaDrive-testbn6,73,254.34241997413844,802410,1918,10945.239128828049,,31.806045532226562,61.22246551513672,0.5
802,MetaDrive-testbn6,73,253.43345804510588,803083,1919,10953.403137683868,-60.017059326171875,7.786360263824463,59.186649322509766,0.5
803,MetaDrive-testbn6,73,253.16015007073892,804653,1922,10972.840198755264,-54.678932189941406,11.702081680297852,55.44523620605469,0.49
