TanmayH/CS269-RL-project-code/MetaDrive-td3combine-expt_with_safe-leaky-adamw-in/MetaDrive-Gen-Next-v1/td3/progress.csv
,log_dir,frame_per_second,episode_reward,total_steps,total_episodes,total_time,actor_loss,critic_loss,target_q,success_rate
0,MetaDrive-td3combine-expt_with_safe-leaky-adamw-in,225,224.08094866431702,1110,2,4.921133995056152,,14.076167106628418,29.932374954223633,0.5
1,MetaDrive-td3combine-expt_with_safe-leaky-adamw-in,96,116.20853632490106,2017,7,20.88806700706482,-29.87512969970703,14.347257614135742,30.657325744628906,0.14285714285714285
2,MetaDrive-td3combine-expt_with_safe-leaky-adamw-in,82,105.48283195990304,3028,12,36.86366891860962,,10.302404403686523,25.632156372070312,0.08333333333333333
3,MetaDrive-td3combine-expt_with_safe-leaky-adamw-in,76,97.27938316739716,4028,18,52.82135009765625,,18.72218894958496,31.714128494262695,0.05555555555555555
4,MetaDrive-td3combine-expt_with_safe-leaky-adamw-in,73,102.14030461887886,5059,22,68.63698720932007,-30.59343147277832,12.709195137023926,29.977642059326172,0.09090909090909091
5,MetaDrive-td3combine-expt_with_safe-leaky-adamw-in,69,100.76447674745567,6267,26,90.74491906166077,-31.97777557373047,9.369961738586426,32.12491226196289,0.07692307692307693
6,MetaDrive-td3combine-expt_with_safe-leaky-adamw-in,65,101.24804457046137,7466,29,113.49161505699158,,13.895978927612305,26.0079402923584,0.06896551724137931
7,MetaDrive-td3combine-expt_with_safe-leaky-adamw-in,65,100.73690868902611,8627,31,131.59104824066162,-25.630413055419922,8.200824737548828,24.981159210205078,0.06451612903225806
8,MetaDrive-td3combine-expt_with_safe-leaky-adamw-in,64,103.6039996014387,9628,32,149.10896825790405,,6.579023361206055,18.964962005615234,0.0625
9,MetaDrive-td3combine-expt_with_safe-leaky-adamw-in,64,107.93679392405282,10498,33,162.85488200187683,,10.652250289916992,20.842159271240234,0.06060606060606061
10,MetaDrive-td3combine-expt_with_safe-leaky-adamw-in,62,111.16455221085008,11499,34,184.44522309303284,-22.07779312133789,14.050445556640625,20.590946197509766,0.058823529411764705
11,MetaDrive-td3combine-expt_with_safe-leaky-adamw-in,63,114.96778689417654,12626,36,200.1147780418396,,14.092841148376465,18.114892959594727,0.08333333333333333
12,MetaDrive-td3combine-expt_with_safe-leaky-adamw-in,63,121.23690609279065,13483,37,212.69726729393005,-19.059598922729492,9.589151382446289,19.293363571166992,0.10810810810810811
13,MetaDrive-td3combine-expt_with_safe-leaky-adamw-in,63,124.99743840678285,14484,38,226.69486618041992,,9.946352005004883,19.590946197509766,0.10526315789473684
14,MetaDrive-td3combine-expt_with_safe-leaky-adamw-in,63,127.44754822900214,15485,39,244.34944319725037,-23.272672653198242,5.9479780197143555,22.802955627441406,0.10256410256410256
15,MetaDrive-td3combine-expt_with_safe-leaky-adamw-in,63,125.8549228981889,16625,41,261.378023147583,-22.469757080078125,5.615513324737549,23.316783905029297,0.0975609756097561
16,MetaDrive-td3combine-expt_with_safe-leaky-adamw-in,63,127.26221504094819,17300,43,271.455441236496,,11.530128479003906,21.52533531188965,0.11627906976744186
17,MetaDrive-td3combine-expt_with_safe-leaky-adamw-in,63,132.69827779607945,18301,44,289.0277440547943,-20.794878005981445,15.842089653015137,21.197996139526367,0.11363636363636363
18,MetaDrive-td3combine-expt_with_safe-leaky-adamw-in,62,134.2592827274704,19302,45,306.7746500968933,,19.291717529296875,23.977706909179688,0.1111111111111111
19,MetaDrive-td3combine-expt_with_safe-leaky-adamw-in,62,137.59385864718521,20303,46,324.6960849761963,-19.937984466552734,11.842464447021484,18.769065856933594,0.10869565217391304
20,MetaDrive-td3combine-expt_with_safe-leaky-adamw-in,62,144.5245226432137,21602,48,344.11345911026,,20.944082260131836,24.010976791381836,0.14583333333333334
21,MetaDrive-td3combine-expt_with_safe-leaky-adamw-in,62,145.073013083604,22214,49,354.6369972229004,,4.171092510223389,23.685163497924805,0.14285714285714285
22,MetaDrive-td3combine-expt_with_safe-leaky-adamw-in,61,147.5048071253089,23972,52,387.50682306289673,,8.292362213134766,20.781845092773438,0.1346153846153846
23,MetaDrive-td3combine-expt_with_safe-leaky-adamw-in,61,148.25408860301076,24603,53,397.82131719589233,-23.98280906677246,7.110629558563232,24.216848373413086,0.1320754716981132
24,MetaDrive-td3combine-expt_with_safe-leaky-adamw-in,61,149.39458749986827,25604,54,413.2595670223236,,8.001233100891113,24.557506561279297,0.12962962962962962
25,MetaDrive-td3combine-expt_with_safe-leaky-adamw-in,61,148.67751854733692,26035,55,420.18989992141724,-26.04949378967285,7.08327579498291,26.385162353515625,0.12727272727272726
26,MetaDrive-td3combine-expt_with_safe-leaky-adamw-in,62,148.96567373585086,27176,58,437.75097918510437,,7.609702110290527,24.409263610839844,0.1206896551724138
27,MetaDrive-td3combine-expt_with_safe-leaky-adamw-in,61,150.34193328910615,28177,59,460.63265919685364,-24.237762451171875,4.878994941711426,24.312149047851562,0.11864406779661017
28,MetaDrive-td3combine-expt_with_safe-leaky-adamw-in,61,152.8526486032768,29085,61,474.51646614074707,-21.784717559814453,4.974525451660156,21.390840530395508,0.13114754098360656
29,MetaDrive-td3combine-expt_with_safe-leaky-adamw-in,61,155.68838975660503,30086,62,492.0937530994415,,3.948734760284424,21.634794235229492,0.12903225806451613
30,MetaDrive-td3combine-expt_with_safe-leaky-adamw-in,61,151.21734649232985,31585,66,517.4669580459595,-25.181955337524414,25.284324645996094,24.122682571411133,0.12121212121212122
31,MetaDrive-td3combine-expt_with_safe-leaky-adamw-in,61,151.34393816071812,32586,67,533.1903269290924,,9.486398696899414,21.346357345581055,0.11940298507462686
32,MetaDrive-td3combine-expt_with_safe-leaky-adamw-in,61,151.52436776848984,33587,68,548.9244310855865,-26.486425399780273,8.03329849243164,26.863109588623047,0.11764705882352941
33,MetaDrive-td3combine-expt_with_safe-leaky-adamw-in,60,151.57028695657925,34588,69,567.4874911308289,,3.9251320362091064,23.345294952392578,0.11594202898550725
34,MetaDrive-td3combine-expt_with_safe-leaky-adamw-in,61,151.5989740998847,35147,70,576.0083410739899,-26.88782501220703,12.892182350158691,26.424781799316406,0.11428571428571428
35,MetaDrive-td3combine-expt_with_safe-leaky-adamw-in,61,153.89564991203824,36246,72,593.9953620433807,,8.127830505371094,24.934627532958984,0.125
36,MetaDrive-td3combine-expt_with_safe-leaky-adamw-in,61,153.56427175318217,37247,73,609.830687046051,-25.93474578857422,6.118816375732422,25.012889862060547,0.1232876712328767
37,MetaDrive-td3combine-expt_with_safe-leaky-adamw-in,61,156.64556207551735,38107,74,624.1842172145844,-24.275226593017578,4.454244136810303,23.488319396972656,0.12162162162162163
38,MetaDrive-td3combine-expt_with_safe-leaky-adamw-in,60,157.09740533635744,39073,75,642.8893580436707,-25.31935691833496,6.8209075927734375,25.03273582458496,0.12
39,MetaDrive-td3combine-expt_with_safe-leaky-adamw-in,60,156.0610113705168,40695,78,667.9648430347443,-25.306459426879883,4.910484313964844,24.663135528564453,0.11538461538461539
40,MetaDrive-td3combine-expt_with_safe-leaky-adamw-in,61,156.66432229063105,41688,80,681.1289901733398,,4.202373504638672,24.50288200378418,0.125
41,MetaDrive-td3combine-expt_with_safe-leaky-adamw-in,61,155.73827590127726,42813,82,698.3161520957947,-25.889446258544922,6.184401512145996,25.26243782043457,0.12195121951219512
42,MetaDrive-td3combine-expt_with_safe-leaky-adamw-in,61,154.57543203238555,43798,84,712.3467772006989,,6.556905746459961,24.91034507751465,0.11904761904761904
43,MetaDrive-td3combine-expt_with_safe-leaky-adamw-in,61,152.03802699927584,44044,86,716.217698097229,,6.262594223022461,25.827383041381836,0.11627906976744186
44,MetaDrive-td3combine-expt_with_safe-leaky-adamw-in,61,153.6234075891569,45759,89,743.892669916153,-24.981706619262695,10.676647186279297,24.414033889770508,0.12359550561797752
45,MetaDrive-td3combine-expt_with_safe-leaky-adamw-in,61,154.8524644690757,46298,90,751.7303850650787,,6.169011116027832,25.019987106323242,0.13333333333333333
46,MetaDrive-td3combine-expt_with_safe-leaky-adamw-in,61,154.7115798477203,47193,92,765.0183942317963,-21.559173583984375,7.016833305358887,22.628740310668945,0.13043478260869565
47,MetaDrive-td3combine-expt_with_safe-leaky-adamw-in,61,154.16915312898183,48355,94,782.670419216156,-25.375694274902344,5.264928340911865,25.813472747802734,0.1276595744680851
48,MetaDrive-td3combine-expt_with_safe-leaky-adamw-in,61,153.82666295452202,49356,95,799.0933423042297,,3.896810531616211,30.877309799194336,0.12631578947368421
49,MetaDrive-td3combine-expt_with_safe-leaky-adamw-in,61,153.45429852411846,50095,97,809.946043252945,-26.379180908203125,65.93726348876953,26.195022583007812,0.12371134020618557
50,MetaDrive-td3combine-expt_with_safe-leaky-adamw-in,61,152.36433207964726,51012,100,824.7119090557098,,4.315558910369873,28.0682430267334,0.12
51,MetaDrive-td3combine-expt_with_safe-leaky-adamw-in,61,152.30441847628438,52847,103,855.1169440746307,-29.854938507080078,4.585344314575195,29.74852752685547,0.11
52,MetaDrive-td3combine-expt_with_safe-leaky-adamw-in,61,155.40635370035653,53635,104,865.6368792057037,-29.42997932434082,7.993946552276611,29.205198287963867,0.12
53,MetaDrive-td3combine-expt_with_safe-leaky-adamw-in,61,157.40799651603626,54578,106,880.8098731040955,,8.546438217163086,27.803897857666016,0.13
54,MetaDrive-td3combine-expt_with_safe-leaky-adamw-in,61,160.91802227264765,55654,108,899.631443977356,,3.952625274658203,29.789752960205078,0.13
55,MetaDrive-td3combine-expt_with_safe-leaky-adamw-in,61,160.31275146800567,56701,112,915.4729521274567,-24.743925094604492,4.374134540557861,24.360553741455078,0.13
56,MetaDrive-td3combine-expt_with_safe-leaky-adamw-in,61,160.40142067734632,57086,113,921.4397511482239,,7.445319175720215,23.639442443847656,0.13
57,MetaDrive-td3combine-expt_with_safe-leaky-adamw-in,61,163.6971440599028,58194,115,938.7572269439697,,4.826685905456543,23.43735122680664,0.13
58,MetaDrive-td3combine-expt_with_safe-leaky-adamw-in,61,163.9333694546052,59174,119,955.8306670188904,,8.124977111816406,24.962562561035156,0.13
59,MetaDrive-td3combine-expt_with_safe-leaky-adamw-in,61,163.16757719168248,60033,122,969.4415221214294,-20.90985107421875,4.523050308227539,21.09847068786621,0.12
60,MetaDrive-td3combine-expt_with_safe-leaky-adamw-in,61,163.656999767795,61034,124,985.634505033493,,6.163252830505371,26.867305755615234,0.12
61,MetaDrive-td3combine-expt_with_safe-leaky-adamw-in,61,166.17656373288432,62702,126,1016.9893481731415,,3.7761330604553223,28.007709503173828,0.12
62,MetaDrive-td3combine-expt_with_safe-leaky-adamw-in,61,166.7076517519516,63067,128,1022.9273071289062,-25.89699935913086,4.55102014541626,25.174097061157227,0.12
63,MetaDrive-td3combine-expt_with_safe-leaky-adamw-in,61,164.6869017966263,64220,132,1041.1011559963226,,7.661293029785156,30.674060821533203,0.12
64,MetaDrive-td3combine-expt_with_safe-leaky-adamw-in,61,163.85399266244985,65605,135,1060.1699841022491,-25.168319702148438,13.501419067382812,23.688949584960938,0.13
65,MetaDrive-td3combine-expt_with_safe-leaky-adamw-in,61,161.68274588899743,66720,137,1078.4598309993744,,4.992557525634766,25.631418228149414,0.12
66,MetaDrive-td3combine-expt_with_safe-leaky-adamw-in,61,157.98657346112373,67123,139,1084.4183039665222,-27.94398307800293,7.223869323730469,28.79277801513672,0.12
67,MetaDrive-td3combine-expt_with_safe-leaky-adamw-in,61,161.0792504936411,68245,141,1102.3709869384766,-26.34278106689453,6.6033196449279785,26.38490867614746,0.13
68,MetaDrive-td3combine-expt_with_safe-leaky-adamw-in,61,152.5813987009146,69722,146,1127.0682621002197,,5.991092681884766,33.33571243286133,0.12
69,MetaDrive-td3combine-expt_with_safe-leaky-adamw-in,61,151.8405221648132,70177,147,1136.1598720550537,-28.3946475982666,9.897628784179688,28.259580612182617,0.11
70,MetaDrive-td3combine-expt_with_safe-leaky-adamw-in,62,149.74854788332726,71517,150,1153.4661428928375,-29.891700744628906,5.009096145629883,30.13857650756836,0.12
71,MetaDrive-td3combine-expt_with_safe-leaky-adamw-in,61,149.92359736164173,72395,152,1167.8772599697113,-25.579334259033203,6.458812713623047,25.67137908935547,0.12
72,MetaDrive-td3combine-expt_with_safe-leaky-adamw-in,61,147.33681337814522,73833,156,1191.1787011623383,-28.95630645751953,6.491948127746582,29.119909286499023,0.12
73,MetaDrive-td3combine-expt_with_safe-leaky-adamw-in,61,146.98398955041782,74086,157,1196.4604840278625,,8.249300003051758,25.99663543701172,0.12
74,MetaDrive-td3combine-expt_with_safe-leaky-adamw-in,62,142.999317782511,75350,161,1214.7464351654053,,4.812433242797852,28.359130859375,0.12
75,MetaDrive-td3combine-expt_with_safe-leaky-adamw-in,62,142.75972299917714,76297,164,1229.1150913238525,-26.070064544677734,4.8261260986328125,26.021631240844727,0.12
76,MetaDrive-td3combine-expt_with_safe-leaky-adamw-in,62,143.74278994127675,77298,165,1245.6830961704254,,4.62590217590332,26.977075576782227,0.12
77,MetaDrive-td3combine-expt_with_safe-leaky-adamw-in,61,143.82745870448792,78582,168,1268.4840083122253,,4.775195121765137,27.829435348510742,0.12
78,MetaDrive-td3combine-expt_with_safe-leaky-adamw-in,61,142.62227289560744,79170,170,1276.977147102356,,5.3922529220581055,26.96631622314453,0.12
79,MetaDrive-td3combine-expt_with_safe-leaky-adamw-in,61,141.00067811609154,80151,172,1296.645851135254,-28.367080688476562,8.59927749633789,28.302547454833984,0.11
80,MetaDrive-td3combine-expt_with_safe-leaky-adamw-in,61,140.66924873739026,81355,174,1315.4688260555267,-29.005916595458984,5.969626426696777,28.791790008544922,0.12
81,MetaDrive-td3combine-expt_with_safe-leaky-adamw-in,61,140.4883319699499,82141,177,1325.8861300945282,-27.880441665649414,7.3719587326049805,28.322906494140625,0.13
82,MetaDrive-td3combine-expt_with_safe-leaky-adamw-in,61,141.48016043680414,83243,179,1348.4218471050262,-28.286190032958984,4.765925884246826,28.556922912597656,0.13
83,MetaDrive-td3combine-expt_with_safe-leaky-adamw-in,61,141.94675591502784,84155,181,1363.703117132187,-28.81139373779297,7.340191841125488,29.213363647460938,0.12
84,MetaDrive-td3combine-expt_with_safe-leaky-adamw-in,61,141.74720102961703,85156,182,1381.5826151371002,,3.0460076332092285,26.749298095703125,0.12
85,MetaDrive-td3combine-expt_with_safe-leaky-adamw-in,61,144.49904045500546,86559,185,1403.7439532279968,-30.114410400390625,4.562985420227051,29.907150268554688,0.12
86,MetaDrive-td3combine-expt_with_safe-leaky-adamw-in,61,146.5142308300061,87680,187,1421.407254934311,,4.918691635131836,27.898832321166992,0.12
87,MetaDrive-td3combine-expt_with_safe-leaky-adamw-in,61,143.9230176494816,88379,190,1431.8431601524353,-27.023590087890625,2.7857322692871094,26.83985137939453,0.11
88,MetaDrive-td3combine-expt_with_safe-leaky-adamw-in,61,144.4904622196001,89380,191,1454.4865419864655,,7.230443477630615,27.83880615234375,0.11
89,MetaDrive-td3combine-expt_with_safe-leaky-adamw-in,61,147.7255292905187,90434,193,1469.2761042118073,,5.9379167556762695,25.311046600341797,0.12
90,MetaDrive-td3combine-expt_with_safe-leaky-adamw-in,61,147.37869735369924,91435,194,1490.6118371486664,-27.640052795410156,7.6989312171936035,27.692873001098633,0.12
91,MetaDrive-td3combine-expt_with_safe-leaky-adamw-in,61,148.18986369050742,92035,196,1499.418701171875,-27.520280838012695,6.5610527992248535,27.56195640563965,0.12
92,MetaDrive-td3combine-expt_with_safe-leaky-adamw-in,61,149.34443422822048,93359,198,1520.654051065445,-28.077831268310547,4.597444534301758,27.90534782409668,0.13
93,MetaDrive-td3combine-expt_with_safe-leaky-adamw-in,61,150.5674149897636,94797,201,1543.704558134079,-27.0587100982666,7.511449813842773,26.434032440185547,0.13
94,MetaDrive-td3combine-expt_with_safe-leaky-adamw-in,61,148.0338050793074,95960,203,1562.0309290885925,,58.81157302856445,30.157907485961914,0.13
95,MetaDrive-td3combine-expt_with_safe-leaky-adamw-in,61,145.35537114436565,96240,204,1566.6129240989685,,5.144021987915039,28.35371208190918,0.12
96,MetaDrive-td3combine-expt_with_safe-leaky-adamw-in,61,143.42500877511142,97071,207,1579.0977141857147,-24.938888549804688,7.8824262619018555,25.322542190551758,0.11
97,MetaDrive-td3combine-expt_with_safe-leaky-adamw-in,61,144.04025180410665,98608,210,1602.4018340110779,,4.067477226257324,28.19530487060547,0.11
98,MetaDrive-td3combine-expt_with_safe-leaky-adamw-in,61,145.10652501928334,99839,213,1623.5679512023926,-29.081663131713867,5.329914093017578,29.1589298248291,0.12
99,MetaDrive-td3combine-expt_with_safe-leaky-adamw-in,61,145.06873778862877,100765,214,1638.7673721313477,-28.41175079345703,5.571872711181641,28.214738845825195,0.13
100,MetaDrive-td3combine-expt_with_safe-leaky-adamw-in,61,146.56776383117045,101543,215,1649.5835990905762,-29.385526657104492,7.1603498458862305,28.746213912963867,0.14
101,MetaDrive-td3combine-expt_with_safe-leaky-adamw-in,61,146.98864892303456,102163,218,1659.2439761161804,-24.304283142089844,77.13580322265625,24.32269859313965,0.14
102,MetaDrive-td3combine-expt_with_safe-leaky-adamw-in,61,146.8607324613289,103164,219,1678.472904920578,,5.939192771911621,26.052534103393555,0.14
103,MetaDrive-td3combine-expt_with_safe-leaky-adamw-in,61,150.3342896129796,104814,221,1707.6477870941162,,5.121145248413086,27.191787719726562,0.14
104,MetaDrive-td3combine-expt_with_safe-leaky-adamw-in,61,150.0227991291511,105108,222,1712.1309940814972,,4.462461471557617,31.126840591430664,0.14
105,MetaDrive-td3combine-expt_with_safe-leaky-adamw-in,61,149.33663789248027,106261,225,1730.4410989284515,-25.250823974609375,12.800298690795898,25.483604431152344,0.14
106,MetaDrive-td3combine-expt_with_safe-leaky-adamw-in,61,148.44713255739947,107262,226,1747.3793280124664,,6.115444660186768,31.635835647583008,0.14
107,MetaDrive-td3combine-expt_with_safe-leaky-adamw-in,61,148.80573719850693,108673,230,1772.9642391204834,-27.65733528137207,2.92472505569458,26.674453735351562,0.14
108,MetaDrive-td3combine-expt_with_safe-leaky-adamw-in,61,149.28630746619496,109437,233,1787.0872082710266,-25.81692123413086,4.27240514755249,25.939598083496094,0.14
109,MetaDrive-td3combine-expt_with_safe-leaky-adamw-in,60,148.9100344493854,110438,234,1811.1482031345367,,3.430779457092285,30.372440338134766,0.13
110,MetaDrive-td3combine-expt_with_safe-leaky-adamw-in,60,148.4388088219727,111297,236,1825.5488080978394,-31.016748428344727,5.464268207550049,30.6030216217041,0.12
111,MetaDrive-td3combine-expt_with_safe-leaky-adamw-in,60,149.6564980358476,112606,238,1852.4735679626465,,2.297229766845703,32.10957717895508,0.12
112,MetaDrive-td3combine-expt_with_safe-leaky-adamw-in,60,152.979165585979,113344,239,1862.6825850009918,,4.09044075012207,25.19468116760254,0.13
113,MetaDrive-td3combine-expt_with_safe-leaky-adamw-in,60,151.58054661402053,114016,240,1873.1782100200653,,4.592822551727295,25.199993133544922,0.12
114,MetaDrive-td3combine-expt_with_safe-leaky-adamw-in,60,153.82335414728993,115406,245,1897.79176902771,,4.221748352050781,28.9075927734375,0.12
115,MetaDrive-td3combine-expt_with_safe-leaky-adamw-in,60,153.94123874718093,116407,246,1913.379893064499,-28.917585372924805,4.852569103240967,28.201892852783203,0.12
116,MetaDrive-td3combine-expt_with_safe-leaky-adamw-in,60,150.9822749636302,117506,248,1932.6554961204529,,4.961304187774658,26.68659210205078,0.11
117,MetaDrive-td3combine-expt_with_safe-leaky-adamw-in,60,153.01758345263778,118078,249,1940.2299251556396,,7.337706565856934,25.79861831665039,0.12
118,MetaDrive-td3combine-expt_with_safe-leaky-adamw-in,60,152.36932613897986,119129,251,1954.5894131660461,-29.167945861816406,6.517584800720215,29.31467056274414,0.11
119,MetaDrive-td3combine-expt_with_safe-leaky-adamw-in,60,151.95240032799222,120918,254,1988.0089509487152,,9.999951362609863,26.314233779907227,0.11
120,MetaDrive-td3combine-expt_with_safe-leaky-adamw-in,60,150.56142625903868,121089,256,1990.9069800376892,-29.230302810668945,5.029923439025879,29.42465591430664,0.11
121,MetaDrive-td3combine-expt_with_safe-leaky-adamw-in,60,151.74112300165123,122103,259,2007.3156380653381,-30.094221115112305,3.64180850982666,30.017227172851562,0.11
122,MetaDrive-td3combine-expt_with_safe-leaky-adamw-in,60,152.0971311570543,123104,260,2026.8398509025574,,4.646241188049316,29.477933883666992,0.11
123,MetaDrive-td3combine-expt_with_safe-leaky-adamw-in,60,152.64979740607947,124006,261,2043.585478067398,,4.451315879821777,28.272445678710938,0.1
124,MetaDrive-td3combine-expt_with_safe-leaky-adamw-in,60,152.04205548770656,125544,266,2069.1596999168396,,4.682380676269531,33.11504364013672,0.11
125,MetaDrive-td3combine-expt_with_safe-leaky-adamw-in,60,155.8421980056482,126485,267,2084.2556982040405,-30.52886962890625,3.6514086723327637,30.030487060546875,0.11
126,MetaDrive-td3combine-expt_with_safe-leaky-adamw-in,60,153.88581005959088,127153,269,2095.2126021385193,-27.268423080444336,3.9180891513824463,26.684568405151367,0.11
127,MetaDrive-td3combine-expt_with_safe-leaky-adamw-in,60,157.353614116151,128764,271,2124.07816696167,,5.165283203125,25.430288314819336,0.11
128,MetaDrive-td3combine-expt_with_safe-leaky-adamw-in,60,156.80132180800683,129765,272,2141.5562880039215,-25.91288948059082,5.753568649291992,25.710954666137695,0.11
129,MetaDrive-td3combine-expt_with_safe-leaky-adamw-in,60,156.92640911590703,130054,273,2146.158488035202,,6.9675679206848145,30.93982696533203,0.11
130,MetaDrive-td3combine-expt_with_safe-leaky-adamw-in,60,156.21566947417253,131440,275,2173.4701039791107,,5.792351722717285,31.200725555419922,0.1
131,MetaDrive-td3combine-expt_with_safe-leaky-adamw-in,60,155.86324126232796,132309,277,2191.1446471214294,-32.37345504760742,5.639698028564453,32.848453521728516,0.09
132,MetaDrive-td3combine-expt_with_safe-leaky-adamw-in,60,154.60154720262,133381,280,2209.636766910553,-25.560657501220703,8.4095458984375,25.49420166015625,0.09
133,MetaDrive-td3combine-expt_with_safe-leaky-adamw-in,60,154.42945575142548,134076,282,2219.112191915512,,11.262428283691406,26.289655685424805,0.1
134,MetaDrive-td3combine-expt_with_safe-leaky-adamw-in,60,155.37409720565896,135077,283,2240.1229271888733,-28.96207046508789,4.700725078582764,29.061996459960938,0.1
135,MetaDrive-td3combine-expt_with_safe-leaky-adamw-in,60,150.3856874761185,136018,287,2254.7155730724335,,7.769028663635254,25.964651107788086,0.1
136,MetaDrive-td3combine-expt_with_safe-leaky-adamw-in,60,153.84695650663835,137825,290,2284.682289123535,-25.18780517578125,7.764695644378662,24.26519012451172,0.12
137,MetaDrive-td3combine-expt_with_safe-leaky-adamw-in,60,149.5888551077512,138046,292,2288.175682067871,,8.31403923034668,31.032306671142578,0.11
138,MetaDrive-td3combine-expt_with_safe-leaky-adamw-in,60,150.25925808668927,139465,295,2315.3175580501556,-26.960691452026367,5.331171989440918,26.582366943359375,0.11
139,MetaDrive-td3combine-expt_with_safe-leaky-adamw-in,60,148.15629663276172,140061,297,2325.410663127899,-25.348630905151367,3.8189399242401123,25.133893966674805,0.1
140,MetaDrive-td3combine-expt_with_safe-leaky-adamw-in,60,145.06618040315777,141137,301,2344.0332379341125,-29.038963317871094,4.367076873779297,29.125709533691406,0.1
141,MetaDrive-td3combine-expt_with_safe-leaky-adamw-in,60,145.28135481509733,142690,305,2373.341238975525,,6.031760215759277,28.204103469848633,0.1
142,MetaDrive-td3combine-expt_with_safe-leaky-adamw-in,60,144.31503236591936,143691,306,2389.4482622146606,-26.175142288208008,13.251527786254883,26.2889347076416,0.1
143,MetaDrive-td3combine-expt_with_safe-leaky-adamw-in,60,146.03342467308897,144692,307,2406.5513122081757,,5.374459743499756,31.010873794555664,0.1
144,MetaDrive-td3combine-expt_with_safe-leaky-adamw-in,60,146.3237061576219,145294,309,2415.6235060691833,,5.7169671058654785,32.081298828125,0.1
145,MetaDrive-td3combine-expt_with_safe-leaky-adamw-in,60,145.46595629256066,146295,310,2434.024359226227,-30.00180435180664,5.8669939041137695,29.808698654174805,0.1
146,MetaDrive-td3combine-expt_with_safe-leaky-adamw-in,60,149.0621059964933,147195,311,2450.789342880249,-29.906068801879883,4.9356842041015625,28.999027252197266,0.11
147,MetaDrive-td3combine-expt_with_safe-leaky-adamw-in,59,146.12009762313758,148983,314,2486.0759558677673,-29.64530372619629,4.884732246398926,29.686359405517578,0.09
148,MetaDrive-td3combine-expt_with_safe-leaky-adamw-in,59,145.28014744260724,149347,315,2491.792857170105,-23.888166427612305,4.2095537185668945,24.259410858154297,0.08
149,MetaDrive-td3combine-expt_with_safe-leaky-adamw-in,59,147.40291783278644,150634,318,2513.9817390441895,,4.4430646896362305,29.002689361572266,0.09
150,MetaDrive-td3combine-expt_with_safe-leaky-adamw-in,59,146.12029037358752,151264,320,2524.0073940753937,,6.107182502746582,25.837093353271484,0.09
151,MetaDrive-td3combine-expt_with_safe-leaky-adamw-in,59,142.35507271829013,152306,325,2543.2527310848236,,13.755239486694336,29.269001007080078,0.09
152,MetaDrive-td3combine-expt_with_safe-leaky-adamw-in,59,143.13116131585286,153307,326,2559.7340779304504,-24.48046875,4.829599380493164,24.016284942626953,0.09
153,MetaDrive-td3combine-expt_with_safe-leaky-adamw-in,59,144.33877609693624,154390,328,2580.761054992676,,5.367406845092773,30.383014678955078,0.09
154,MetaDrive-td3combine-expt_with_safe-leaky-adamw-in,59,145.30623832223182,155391,329,2597.6879160404205,-28.858427047729492,5.777664661407471,29.12540626525879,0.09
155,MetaDrive-td3combine-expt_with_safe-leaky-adamw-in,59,146.7280289490931,156345,332,2612.774754047394,-28.089303970336914,4.459540367126465,28.023666381835938,0.09
156,MetaDrive-td3combine-expt_with_safe-leaky-adamw-in,59,148.57839090787945,157346,333,2632.9225902557373,,5.844503402709961,27.38648223876953,0.09
157,MetaDrive-td3combine-expt_with_safe-leaky-adamw-in,59,148.94501031684732,158393,335,2650.4835839271545,-27.596149444580078,7.229541301727295,27.01996421813965,0.1
158,MetaDrive-td3combine-expt_with_safe-leaky-adamw-in,59,148.57687632742568,159355,336,2671.3199491500854,-28.471336364746094,7.900367736816406,28.28874397277832,0.1
159,MetaDrive-td3combine-expt_with_safe-leaky-adamw-in,59,149.24533726443195,160356,337,2689.917363882065,,4.21880578994751,26.59454917907715,0.1
160,MetaDrive-td3combine-expt_with_safe-leaky-adamw-in,59,148.1515007980605,161357,338,2706.2855570316315,-26.606496810913086,3.9430747032165527,27.08263397216797,0.1
161,MetaDrive-td3combine-expt_with_safe-leaky-adamw-in,59,146.47341441697134,162358,339,2724.6422290802,,6.137605667114258,25.667118072509766,0.09
162,MetaDrive-td3combine-expt_with_safe-leaky-adamw-in,59,146.8286927769683,163573,341,2744.7302401065826,-28.86260223388672,10.5726900100708,27.83645248413086,0.09
163,MetaDrive-td3combine-expt_with_safe-leaky-adamw-in,59,150.1596164750385,164574,342,2764.1696219444275,,4.5189361572265625,28.097131729125977,0.09
164,MetaDrive-td3combine-expt_with_safe-leaky-adamw-in,59,150.06935143624975,165700,344,2782.3126702308655,,3.4466774463653564,28.720169067382812,0.09
165,MetaDrive-td3combine-expt_with_safe-leaky-adamw-in,59,150.0255114917178,166251,345,2791.6078431606293,-26.619169235229492,9.089410781860352,25.44012451171875,0.1
166,MetaDrive-td3combine-expt_with_safe-leaky-adamw-in,59,150.3282661980298,167121,347,2806.2472429275513,-30.17850112915039,6.895952224731445,29.973814010620117,0.1
167,MetaDrive-td3combine-expt_with_safe-leaky-adamw-in,59,151.5086784099787,168244,350,2823.6759121418,,5.481502532958984,23.588336944580078,0.1
168,MetaDrive-td3combine-expt_with_safe-leaky-adamw-in,59,151.3740210404406,169220,352,2840.72473692894,,8.442033767700195,26.43871307373047,0.1
169,MetaDrive-td3combine-expt_with_safe-leaky-adamw-in,59,154.89423342802854,170448,355,2862.713217973709,,3.4266977310180664,31.51170539855957,0.11
170,MetaDrive-td3combine-expt_with_safe-leaky-adamw-in,59,155.81964774763375,171167,356,2874.8786520957947,-29.159059524536133,5.3488359451293945,29.049400329589844,0.11
171,MetaDrive-td3combine-expt_with_safe-leaky-adamw-in,59,158.2730996895256,172168,357,2895.2842669487,,3.3792922496795654,29.319015502929688,0.11
172,MetaDrive-td3combine-expt_with_safe-leaky-adamw-in,59,159.26304718037153,173461,359,2918.681879043579,-29.912883758544922,8.956872940063477,30.482830047607422,0.11
173,MetaDrive-td3combine-expt_with_safe-leaky-adamw-in,59,161.56700939269598,174381,360,2936.120532989502,-25.42888069152832,2.6080756187438965,25.363067626953125,0.12
174,MetaDrive-td3combine-expt_with_safe-leaky-adamw-in,59,159.47459531702927,175287,361,2953.688296318054,-25.129894256591797,4.191089630126953,25.13055419921875,0.12
175,MetaDrive-td3combine-expt_with_safe-leaky-adamw-in,59,161.27517110614625,176124,363,2967.166792869568,,6.848906517028809,27.56006622314453,0.12
176,MetaDrive-td3combine-expt_with_safe-leaky-adamw-in,59,165.79875972584162,177365,365,2992.3573129177094,-31.405397415161133,5.59103536605835,30.918048858642578,0.13
177,MetaDrive-td3combine-expt_with_safe-leaky-adamw-in,59,160.87126692157463,178471,367,3019.356392145157,-24.316919326782227,5.1550469398498535,24.45486068725586,0.12
178,MetaDrive-td3combine-expt_with_safe-leaky-adamw-in,59,160.40810518822684,179007,369,3028.3387591838837,-30.94725799560547,6.926241874694824,30.598255157470703,0.12
179,MetaDrive-td3combine-expt_with_safe-leaky-adamw-in,59,159.10281337490935,180008,370,3049.434905052185,,5.578237533569336,27.720348358154297,0.12
180,MetaDrive-td3combine-expt_with_safe-leaky-adamw-in,58,157.44498105116463,181306,372,3077.270859003067,,6.315695285797119,28.551177978515625,0.12
181,MetaDrive-td3combine-expt_with_safe-leaky-adamw-in,58,159.14941066369832,182435,374,3099.394534111023,-29.525814056396484,6.083956718444824,29.239900588989258,0.12
182,MetaDrive-td3combine-expt_with_safe-leaky-adamw-in,58,160.42497046186955,183210,375,3112.1976840496063,,6.675334930419922,32.489017486572266,0.12
183,MetaDrive-td3combine-expt_with_safe-leaky-adamw-in,58,158.17467299777468,184104,378,3129.3850631713867,,4.418877601623535,26.855918884277344,0.12
184,MetaDrive-td3combine-expt_with_safe-leaky-adamw-in,58,159.49342469301627,185105,379,3151.5458900928497,-28.935876846313477,4.2043962478637695,28.507837295532227,0.12
185,MetaDrive-td3combine-expt_with_safe-leaky-adamw-in,58,159.1296935004399,186423,382,3175.084969997406,-30.15080451965332,11.140636444091797,30.462127685546875,0.12
186,MetaDrive-td3combine-expt_with_safe-leaky-adamw-in,58,160.242211198094,187387,383,3194.531578063965,-27.756614685058594,5.36187744140625,27.980266571044922,0.12
187,MetaDrive-td3combine-expt_with_safe-leaky-adamw-in,58,162.90998951406743,188093,384,3206.020278930664,-31.437522888183594,10.104351997375488,31.24273681640625,0.13
188,MetaDrive-td3combine-expt_with_safe-leaky-adamw-in,58,163.7619210004527,189094,385,3223.6662600040436,,4.992148399353027,24.422500610351562,0.13
189,MetaDrive-td3combine-expt_with_safe-leaky-adamw-in,58,164.76941626490716,190186,387,3244.535546064377,,21.54454803466797,27.79505157470703,0.12
190,MetaDrive-td3combine-expt_with_safe-leaky-adamw-in,58,163.2857742410418,191327,390,3263.961143016815,-27.526166915893555,4.83148193359375,27.471071243286133,0.11
191,MetaDrive-td3combine-expt_with_safe-leaky-adamw-in,58,164.80306668716653,192115,391,3280.5207421779633,-31.590469360351562,5.384847640991211,32.22410583496094,0.11
192,MetaDrive-td3combine-expt_with_safe-leaky-adamw-in,58,167.4954599871427,193034,393,3296.376880168915,,8.286306381225586,31.5185604095459,0.12
193,MetaDrive-td3combine-expt_with_safe-leaky-adamw-in,58,166.22698443057345,194662,395,3328.87113904953,,7.478515625,30.446765899658203,0.12
194,MetaDrive-td3combine-expt_with_safe-leaky-adamw-in,58,168.56870603403854,195326,396,3339.9353761672974,,4.035604000091553,29.495250701904297,0.13
195,MetaDrive-td3combine-expt_with_safe-leaky-adamw-in,58,168.39423821643683,196095,397,3358.2903571128845,-26.1152400970459,5.896142959594727,25.532649993896484,0.13
196,MetaDrive-td3combine-expt_with_safe-leaky-adamw-in,58,172.35127573064486,197363,399,3380.9033200740814,-27.282562255859375,3.9499154090881348,26.957935333251953,0.14
197,MetaDrive-td3combine-expt_with_safe-leaky-adamw-in,58,172.638219383751,198234,403,3397.4524672031403,,4.887812614440918,28.104167938232422,0.14
198,MetaDrive-td3combine-expt_with_safe-leaky-adamw-in,58,176.05683124423138,199742,405,3424.503117084503,,28.51651382446289,32.10206604003906,0.15
199,MetaDrive-td3combine-expt_with_safe-leaky-adamw-in,58,174.37156527277395,200006,407,3429.2405371665955,,7.320634365081787,27.772958755493164,0.15
200,MetaDrive-td3combine-expt_with_safe-leaky-adamw-in,58,173.00021772957328,201306,410,3452.9025530815125,,5.494974136352539,28.641206741333008,0.15
201,MetaDrive-td3combine-expt_with_safe-leaky-adamw-in,58,172.23357572127267,202240,411,3471.486376285553,,6.207386016845703,27.994373321533203,0.15
202,MetaDrive-td3combine-expt_with_safe-leaky-adamw-in,58,173.08489342938438,203241,412,3494.179752111435,-29.72884750366211,2.997955799102783,29.368812561035156,0.15
203,MetaDrive-td3combine-expt_with_safe-leaky-adamw-in,58,173.53157631867535,204853,414,3523.171995162964,-29.043190002441406,16.855356216430664,28.94765853881836,0.16
204,MetaDrive-td3combine-expt_with_safe-leaky-adamw-in,58,173.04953776622966,205105,415,3527.843652009964,-26.9503173828125,5.984988212585449,26.958515167236328,0.16
205,MetaDrive-td3combine-expt_with_safe-leaky-adamw-in,58,174.8258053733542,206564,418,3559.218173980713,,6.647878170013428,32.04534149169922,0.16
206,MetaDrive-td3combine-expt_with_safe-leaky-adamw-in,57,175.72972412657623,207565,419,3581.615210056305,-27.494869232177734,4.719887733459473,26.58664894104004,0.16
207,MetaDrive-td3combine-expt_with_safe-leaky-adamw-in,57,175.25108928578763,208161,422,3593.0389182567596,-30.927698135375977,15.69221305847168,31.137147903442383,0.16
208,MetaDrive-td3combine-expt_with_safe-leaky-adamw-in,57,177.55504673125347,209114,423,3611.2661550045013,,5.147590637207031,28.62897491455078,0.16
209,MetaDrive-td3combine-expt_with_safe-leaky-adamw-in,57,177.56899723870222,210296,426,3633.9291830062866,,6.268021106719971,23.069759368896484,0.17
210,MetaDrive-td3combine-expt_with_safe-leaky-adamw-in,57,177.369138695979,211055,428,3648.6539001464844,-30.281579971313477,6.916463375091553,30.092185974121094,0.17
211,MetaDrive-td3combine-expt_with_safe-leaky-adamw-in,57,178.35118955066326,212221,430,3673.972983121872,-27.340267181396484,6.342947959899902,27.080581665039062,0.17
212,MetaDrive-td3combine-expt_with_safe-leaky-adamw-in,57,168.87703695922468,213074,436,3691.308351993561,,6.887866020202637,33.325035095214844,0.16
213,MetaDrive-td3combine-expt_with_safe-leaky-adamw-in,57,168.84423443513438,214841,438,3726.7217032909393,-32.06436538696289,7.116066932678223,31.318798065185547,0.16
214,MetaDrive-td3combine-expt_with_safe-leaky-adamw-in,57,169.06718203469202,215842,439,3749.065332889557,,4.995521068572998,33.653255462646484,0.16
215,MetaDrive-td3combine-expt_with_safe-leaky-adamw-in,57,169.91845021769782,216843,440,3775.3615951538086,-30.219127655029297,5.663214206695557,30.376462936401367,0.16
216,MetaDrive-td3combine-expt_with_safe-leaky-adamw-in,57,170.07353951403604,217306,441,3785.195302248001,,6.9418158531188965,31.31970977783203,0.16
217,MetaDrive-td3combine-expt_with_safe-leaky-adamw-in,57,170.2350322465312,218205,442,3804.058888196945,-28.68033790588379,13.623476028442383,28.883935928344727,0.17
218,MetaDrive-td3combine-expt_with_safe-leaky-adamw-in,57,170.92379413373405,219206,443,3825.0813131332397,,5.670679569244385,27.22215461730957,0.17
219,MetaDrive-td3combine-expt_with_safe-leaky-adamw-in,57,173.3275421281162,220466,445,3848.1011922359467,,4.119112014770508,30.48480796813965,0.18
220,MetaDrive-td3combine-expt_with_safe-leaky-adamw-in,57,174.41795892113433,221057,446,3858.6129841804504,-35.614898681640625,4.887881278991699,35.521907806396484,0.19
221,MetaDrive-td3combine-expt_with_safe-leaky-adamw-in,57,175.25244408624508,222058,447,3877.8168230056763,,40.79313659667969,29.537776947021484,0.19
222,MetaDrive-td3combine-expt_with_safe-leaky-adamw-in,57,173.73959629603115,223059,448,3899.4778940677643,-29.817941665649414,17.431110382080078,28.817794799804688,0.18
223,MetaDrive-td3combine-expt_with_safe-leaky-adamw-in,57,177.071916365128,224596,451,3929.8233251571655,,7.610589981079102,32.04924011230469,0.2
224,MetaDrive-td3combine-expt_with_safe-leaky-adamw-in,57,177.07605549930912,225597,452,3952.6520540714264,-28.257671356201172,8.453376770019531,28.134700775146484,0.2
225,MetaDrive-td3combine-expt_with_safe-leaky-adamw-in,57,178.4832084542234,226216,453,3963.9238221645355,,4.615006446838379,27.867765426635742,0.21
226,MetaDrive-td3combine-expt_with_safe-leaky-adamw-in,57,180.39243656445552,227600,455,3991.629972934723,,10.787422180175781,29.122533798217773,0.21
227,MetaDrive-td3combine-expt_with_safe-leaky-adamw-in,57,181.55826724140022,228126,456,4001.636199235916,,6.083346366882324,24.00391960144043,0.22
228,MetaDrive-td3combine-expt_with_safe-leaky-adamw-in,56,181.70969991588646,229255,458,4024.4498960971832,-27.152599334716797,7.426029682159424,26.890911102294922,0.23
229,MetaDrive-td3combine-expt_with_safe-leaky-adamw-in,56,181.80160311121,230177,459,4044.0331270694733,-26.590112686157227,3.2765755653381348,26.543556213378906,0.23
230,MetaDrive-td3combine-expt_with_safe-leaky-adamw-in,56,178.6670348767475,231506,463,4070.544251203537,,5.969018459320068,30.066959381103516,0.23
231,MetaDrive-td3combine-expt_with_safe-leaky-adamw-in,56,178.76482430835105,232507,464,4090.202733039856,-29.23889923095703,35.68993377685547,29.380199432373047,0.23
232,MetaDrive-td3combine-expt_with_safe-leaky-adamw-in,56,178.23945051699297,233336,465,4106.786060094833,,6.089779853820801,29.303442001342773,0.22
233,MetaDrive-td3combine-expt_with_safe-leaky-adamw-in,56,180.32245731443385,234025,466,4122.829184055328,-30.788476943969727,2.7242212295532227,30.848569869995117,0.22
234,MetaDrive-td3combine-expt_with_safe-leaky-adamw-in,56,181.4916982213619,235026,467,4144.661772966385,,4.772660255432129,25.73230743408203,0.22
235,MetaDrive-td3combine-expt_with_safe-leaky-adamw-in,56,183.6270941463189,236148,469,4167.992185115814,,11.939409255981445,29.007902145385742,0.22
236,MetaDrive-td3combine-expt_with_safe-leaky-adamw-in,56,185.51695861240415,237677,471,4200.947557210922,-27.78986358642578,7.451212406158447,26.890846252441406,0.23
237,MetaDrive-td3combine-expt_with_safe-leaky-adamw-in,56,182.5716022332759,238366,474,4213.8953540325165,,6.663814544677734,28.34610366821289,0.23
238,MetaDrive-td3combine-expt_with_safe-leaky-adamw-in,56,181.79666722140783,239214,476,4229.729905128479,,120.26528930664062,31.016372680664062,0.24
239,MetaDrive-td3combine-expt_with_safe-leaky-adamw-in,56,185.28964115686787,240721,478,4261.088624238968,-28.655839920043945,9.383874893188477,28.793495178222656,0.24
240,MetaDrive-td3combine-expt_with_safe-leaky-adamw-in,56,186.0725878027211,241714,479,4284.09876203537,,5.21088981628418,28.983755111694336,0.24
241,MetaDrive-td3combine-expt_with_safe-leaky-adamw-in,56,187.67468114041145,242205,480,4292.551130056381,-33.29731369018555,4.970261573791504,32.10346221923828,0.25
242,MetaDrive-td3combine-expt_with_safe-leaky-adamw-in,56,187.9408715352431,243206,481,4317.567270040512,,3.2793757915496826,27.368276596069336,0.25
243,MetaDrive-td3combine-expt_with_safe-leaky-adamw-in,56,187.45270344087422,244207,482,4340.772993087769,-28.003767013549805,8.610530853271484,28.605266571044922,0.24
244,MetaDrive-td3combine-expt_with_safe-leaky-adamw-in,56,185.13798022920247,245121,484,4358.610158205032,-25.914430618286133,6.591517925262451,25.589736938476562,0.24
245,MetaDrive-td3combine-expt_with_safe-leaky-adamw-in,56,187.13182570447773,246069,485,4376.128340959549,-30.82176399230957,6.878789901733398,31.56096649169922,0.25
246,MetaDrive-td3combine-expt_with_safe-leaky-adamw-in,56,185.84351889994002,247309,489,4400.715599060059,-28.899032592773438,6.471590995788574,28.661327362060547,0.26
247,MetaDrive-td3combine-expt_with_safe-leaky-adamw-in,56,185.41643716531757,248275,492,4420.191029071808,-30.63543128967285,5.342006683349609,30.688953399658203,0.26
248,MetaDrive-td3combine-expt_with_safe-leaky-adamw-in,56,186.14120747902012,249619,494,4449.1798441410065,-32.83570098876953,7.030402183532715,32.27070236206055,0.27
249,MetaDrive-td3combine-expt_with_safe-leaky-adamw-in,56,184.522630306884,250240,496,4463.311182022095,,5.535985946655273,29.364582061767578,0.26
250,MetaDrive-td3combine-expt_with_safe-leaky-adamw-in,55,185.48243396751553,251241,497,4487.985128164291,-35.64810562133789,7.489809989929199,35.26430130004883,0.26
251,MetaDrive-td3combine-expt_with_safe-leaky-adamw-in,55,182.78125535003718,252395,499,4514.758061170578,-27.710065841674805,4.3043718338012695,27.767375946044922,0.25
252,MetaDrive-td3combine-expt_with_safe-leaky-adamw-in,55,185.76624265727776,253283,501,4531.495390892029,-27.256938934326172,3.7381224632263184,27.49578094482422,0.26
253,MetaDrive-td3combine-expt_with_safe-leaky-adamw-in,55,181.53969320533997,254862,507,4564.567729234695,,4.628686904907227,28.418302536010742,0.25
254,MetaDrive-td3combine-expt_with_safe-leaky-adamw-in,55,182.46912461605257,255098,508,4569.52886223793,,4.864465236663818,28.438505172729492,0.25
255,MetaDrive-td3combine-expt_with_safe-leaky-adamw-in,55,183.47451226933336,256293,510,4593.515953063965,-24.060537338256836,4.674016952514648,24.271329879760742,0.25
256,MetaDrive-td3combine-expt_with_safe-leaky-adamw-in,55,178.72339368278006,257879,513,4623.990602016449,-31.111684799194336,6.562583923339844,30.984207153320312,0.23
257,MetaDrive-td3combine-expt_with_safe-leaky-adamw-in,55,179.5440317643504,258529,514,4637.517577886581,-31.928661346435547,7.693927764892578,31.69957733154297,0.23
258,MetaDrive-td3combine-expt_with_safe-leaky-adamw-in,55,180.27278951727058,259530,515,4662.360013008118,,5.421750068664551,31.468847274780273,0.23
259,MetaDrive-td3combine-expt_with_safe-leaky-adamw-in,55,180.38101670699623,260093,517,4673.15224814415,-30.857942581176758,8.828348159790039,30.685325622558594,0.23
260,MetaDrive-td3combine-expt_with_safe-leaky-adamw-in,55,179.8564904483853,261459,519,4701.881175041199,-33.50502014160156,7.059710502624512,33.24688720703125,0.23
261,MetaDrive-td3combine-expt_with_safe-leaky-adamw-in,55,182.0133877785836,262466,521,4720.568778038025,,17.23851203918457,26.75336265563965,0.24
262,MetaDrive-td3combine-expt_with_safe-leaky-adamw-in,55,183.87153899939142,263612,523,4745.384442090988,,6.014129638671875,22.519882202148438,0.25
263,MetaDrive-td3combine-expt_with_safe-leaky-adamw-in,55,185.06631230281883,264613,524,4766.192072153091,-28.539159774780273,9.111811637878418,28.977149963378906,0.25
264,MetaDrive-td3combine-expt_with_safe-leaky-adamw-in,55,186.69471527149017,265614,525,4787.9371519088745,,7.645002841949463,22.90641212463379,0.25
265,MetaDrive-td3combine-expt_with_safe-leaky-adamw-in,55,185.88905275853838,266615,526,4816.743502140045,-27.799455642700195,9.144660949707031,27.842554092407227,0.24
266,MetaDrive-td3combine-expt_with_safe-leaky-adamw-in,55,186.09313307752433,267616,527,4841.736968994141,,16.39350128173828,28.890100479125977,0.24
267,MetaDrive-td3combine-expt_with_safe-leaky-adamw-in,55,187.8159523603982,268432,528,4858.14842414856,,5.9758124351501465,28.294532775878906,0.24
268,MetaDrive-td3combine-expt_with_safe-leaky-adamw-in,55,188.2748005332642,269071,529,4871.550741910934,-28.753156661987305,6.167754173278809,29.149749755859375,0.24
269,MetaDrive-td3combine-expt_with_safe-leaky-adamw-in,55,191.12590673865208,270458,531,4901.846937179565,,6.557811737060547,31.292884826660156,0.25
270,MetaDrive-td3combine-expt_with_safe-leaky-adamw-in,55,193.7058222388285,271033,532,4913.154786109924,-26.2158203125,8.160669326782227,27.08173179626465,0.25
271,MetaDrive-td3combine-expt_with_safe-leaky-adamw-in,55,197.3864991322079,272034,533,4932.8308889865875,,6.522482872009277,30.664758682250977,0.26
272,MetaDrive-td3combine-expt_with_safe-leaky-adamw-in,55,202.07268235651415,273352,535,4961.382916212082,,4.910101890563965,28.130237579345703,0.27
273,MetaDrive-td3combine-expt_with_safe-leaky-adamw-in,55,203.38173762275764,274038,536,4977.637449979782,,13.090185165405273,26.91014289855957,0.27
274,MetaDrive-td3combine-expt_with_safe-leaky-adamw-in,55,201.42697814685917,275046,539,4999.230492115021,,4.675307273864746,32.64210510253906,0.27
275,MetaDrive-td3combine-expt_with_safe-leaky-adamw-in,54,201.1038148468473,276047,540,5022.895728111267,-29.476665496826172,8.042510032653809,29.570816040039062,0.27
276,MetaDrive-td3combine-expt_with_safe-leaky-adamw-in,54,202.4655449027592,277925,542,5062.3567070961,-31.454544067382812,5.049645900726318,31.54631996154785,0.27
277,MetaDrive-td3combine-expt_with_safe-leaky-adamw-in,54,203.3039967304655,278531,543,5076.086235046387,-30.589603424072266,3.736454963684082,30.249099731445312,0.27
278,MetaDrive-td3combine-expt_with_safe-leaky-adamw-in,54,196.39291278600547,279072,546,5087.751620054245,,6.281194686889648,35.74787902832031,0.24
279,MetaDrive-td3combine-expt_with_safe-leaky-adamw-in,54,195.27092225521739,280203,548,5113.124325037003,-28.156572341918945,5.014826774597168,27.71047019958496,0.24
280,MetaDrive-td3combine-expt_with_safe-leaky-adamw-in,54,197.0122833300775,281236,550,5133.061498165131,,4.485434532165527,33.99715805053711,0.25
281,MetaDrive-td3combine-expt_with_safe-leaky-adamw-in,54,195.1016244309612,282821,552,5164.84655213356,-29.32718849182129,5.959661483764648,28.88138771057129,0.25
282,MetaDrive-td3combine-expt_with_safe-leaky-adamw-in,54,194.33743335116276,283729,553,5185.502224206924,-29.930185317993164,4.442350387573242,29.378917694091797,0.24
283,MetaDrive-td3combine-expt_with_safe-leaky-adamw-in,54,195.20118690824512,284730,554,5215.842067241669,,10.225305557250977,35.116851806640625,0.24
284,MetaDrive-td3combine-expt_with_safe-leaky-adamw-in,54,193.83970175153271,285140,555,5222.743755102158,,10.031699180603027,29.098318099975586,0.24
285,MetaDrive-td3combine-expt_with_safe-leaky-adamw-in,54,193.64603439118798,286137,557,5240.982794046402,-28.13036346435547,79.85821533203125,28.172311782836914,0.23
286,MetaDrive-td3combine-expt_with_safe-leaky-adamw-in,54,196.5411539596886,287825,559,5277.627652168274,-29.32108497619629,6.183434009552002,29.334453582763672,0.25
287,MetaDrive-td3combine-expt_with_safe-leaky-adamw-in,54,198.91256027988197,288276,560,5285.632285118103,,5.128692626953125,30.300352096557617,0.26
288,MetaDrive-td3combine-expt_with_safe-leaky-adamw-in,54,201.51893694440523,289870,562,5320.025298118591,,4.541977882385254,28.76638412475586,0.27
289,MetaDrive-td3combine-expt_with_safe-leaky-adamw-in,54,200.32428962597484,290871,563,5350.077372074127,-30.293874740600586,5.478361129760742,30.448715209960938,0.26
290,MetaDrive-td3combine-expt_with_safe-leaky-adamw-in,54,200.15652145594882,291273,564,5359.282267093658,-30.116004943847656,53.3761100769043,29.884859085083008,0.26
291,MetaDrive-td3combine-expt_with_safe-leaky-adamw-in,54,200.31203624550878,292609,566,5389.229654073715,-34.196388244628906,5.2119598388671875,34.3401985168457,0.27
292,MetaDrive-td3combine-expt_with_safe-leaky-adamw-in,54,198.95237700248882,293105,568,5400.012376070023,-32.347320556640625,4.681324481964111,32.84624099731445,0.27
293,MetaDrive-td3combine-expt_with_safe-leaky-adamw-in,54,196.07252564941518,294095,571,5420.452109098434,-28.402587890625,5.808478832244873,28.609560012817383,0.27
294,MetaDrive-td3combine-expt_with_safe-leaky-adamw-in,54,197.66785120762273,295119,574,5443.074448108673,-31.27760124206543,4.578840255737305,30.294414520263672,0.28
295,MetaDrive-td3combine-expt_with_safe-leaky-adamw-in,54,200.23020223898183,296120,575,5468.854319095612,,6.672084331512451,35.098365783691406,0.28
296,MetaDrive-td3combine-expt_with_safe-leaky-adamw-in,54,198.5870115029369,297435,577,5495.993883132935,-32.48554611206055,7.069042205810547,32.568084716796875,0.27
297,MetaDrive-td3combine-expt_with_safe-leaky-adamw-in,54,198.1463228653337,298525,579,5518.525075912476,-28.55715560913086,4.416604995727539,27.8029842376709,0.28
298,MetaDrive-td3combine-expt_with_safe-leaky-adamw-in,54,195.7397966962471,299140,581,5533.251718044281,,4.950716972351074,27.881874084472656,0.27
299,MetaDrive-td3combine-expt_with_safe-leaky-adamw-in,54,195.48710516868908,300854,584,5569.842288017273,,5.818483352661133,30.675914764404297,0.27
300,MetaDrive-td3combine-expt_with_safe-leaky-adamw-in,54,195.04802236893397,301386,585,5580.928342103958,,5.163293838500977,29.853755950927734,0.27
301,MetaDrive-td3combine-expt_with_safe-leaky-adamw-in,53,198.3380874226851,302387,586,5603.943070888519,-28.13425064086914,5.491739273071289,27.54749870300293,0.27
302,MetaDrive-td3combine-expt_with_safe-leaky-adamw-in,53,196.0498603409038,303904,589,5637.4562039375305,,5.848911762237549,30.82518768310547,0.25
303,MetaDrive-td3combine-expt_with_safe-leaky-adamw-in,53,197.1032196235471,304583,590,5656.20880317688,-25.622987747192383,5.926544189453125,24.968692779541016,0.25
304,MetaDrive-td3combine-expt_with_safe-leaky-adamw-in,53,196.26182241494627,305587,592,5680.3666660785675,-29.863540649414062,5.825283050537109,29.649494171142578,0.24
305,MetaDrive-td3combine-expt_with_safe-leaky-adamw-in,53,196.91088133489993,306158,593,5691.061187028885,,6.053888320922852,32.4211540222168,0.25
306,MetaDrive-td3combine-expt_with_safe-leaky-adamw-in,53,197.76608030678548,307159,594,5714.057520151138,-27.735422134399414,11.126574516296387,28.490671157836914,0.24
307,MetaDrive-td3combine-expt_with_safe-leaky-adamw-in,53,199.44746726595156,308094,595,5741.033992290497,,5.8424272537231445,28.47669219970703,0.24
308,MetaDrive-td3combine-expt_with_safe-leaky-adamw-in,53,195.83651993916735,309105,599,5760.525362253189,-32.85670852661133,7.446805000305176,32.90497589111328,0.24
309,MetaDrive-td3combine-expt_with_safe-leaky-adamw-in,53,195.06448743020263,310345,602,5789.574014902115,-32.11520004272461,5.572056770324707,31.22280502319336,0.23
310,MetaDrive-td3combine-expt_with_safe-leaky-adamw-in,53,197.36684129370758,311555,604,5814.683478116989,-34.398193359375,6.196596145629883,34.506103515625,0.23
311,MetaDrive-td3combine-expt_with_safe-leaky-adamw-in,53,198.84477509439682,312556,605,5836.054203033447,,4.219784736633301,28.895240783691406,0.23
312,MetaDrive-td3combine-expt_with_safe-leaky-adamw-in,53,201.67740995011883,313557,606,5859.385241031647,-25.718162536621094,13.786951065063477,25.528533935546875,0.23
313,MetaDrive-td3combine-expt_with_safe-leaky-adamw-in,53,200.5683222132269,314888,609,5890.121953010559,,7.809439659118652,33.14403533935547,0.23
314,MetaDrive-td3combine-expt_with_safe-leaky-adamw-in,53,200.5804677957302,315315,610,5899.592809915543,-31.1249942779541,5.995912551879883,30.940027236938477,0.23
315,MetaDrive-td3combine-expt_with_safe-leaky-adamw-in,53,204.31378763793617,316285,611,5920.781574249268,-30.262052536010742,4.494197368621826,30.067575454711914,0.24
316,MetaDrive-td3combine-expt_with_safe-leaky-adamw-in,53,204.01008121740648,317694,613,5948.245543241501,,20.44419288635254,27.406597137451172,0.24
317,MetaDrive-td3combine-expt_with_safe-leaky-adamw-in,53,204.47846072531837,318230,614,5958.074447154999,,3.4147214889526367,30.40785789489746,0.25
318,MetaDrive-td3combine-expt_with_safe-leaky-adamw-in,53,204.58365372994973,319231,615,5984.271989107132,-32.44850540161133,4.646440029144287,32.62135696411133,0.25
319,MetaDrive-td3combine-expt_with_safe-leaky-adamw-in,53,207.01318402828684,320699,617,6011.653321027756,-29.77162742614746,6.131992340087891,30.037906646728516,0.26
320,MetaDrive-td3combine-expt_with_safe-leaky-adamw-in,53,204.8840991017888,321364,619,6023.996303081512,,9.82145881652832,33.900577545166016,0.25
321,MetaDrive-td3combine-expt_with_safe-leaky-adamw-in,53,206.96754436960725,322365,620,6052.4642770290375,-34.21438980102539,5.747804164886475,34.222625732421875,0.25
322,MetaDrive-td3combine-expt_with_safe-leaky-adamw-in,53,206.16540118375994,323448,622,6073.210858106613,,5.400696277618408,32.480831146240234,0.25
323,MetaDrive-td3combine-expt_with_safe-leaky-adamw-in,53,202.64546754619226,324158,624,6087.973309993744,,7.739235877990723,25.45732307434082,0.24
324,MetaDrive-td3combine-expt_with_safe-leaky-adamw-in,53,202.4067846191167,325150,626,6108.7409081459045,,10.357229232788086,33.60307693481445,0.25
325,MetaDrive-td3combine-expt_with_safe-leaky-adamw-in,53,202.26322059109282,326089,628,6126.003667116165,-30.125518798828125,5.577142238616943,29.26293182373047,0.26
326,MetaDrive-td3combine-expt_with_safe-leaky-adamw-in,53,201.85180005815204,327107,630,6144.507718086243,-33.75468444824219,7.214396953582764,33.231956481933594,0.26
327,MetaDrive-td3combine-expt_with_safe-leaky-adamw-in,53,201.9603324507769,328108,631,6167.599999904633,,4.948642730712891,31.23161506652832,0.26
328,MetaDrive-td3combine-expt_with_safe-leaky-adamw-in,53,192.49281097822472,329047,636,6185.767995119095,-29.192371368408203,7.864477634429932,30.07491683959961,0.25
329,MetaDrive-td3combine-expt_with_safe-leaky-adamw-in,53,193.5949125070346,330220,638,6206.091039896011,,14.4185791015625,34.2855224609375,0.26
330,MetaDrive-td3combine-expt_with_safe-leaky-adamw-in,53,194.90867676040796,331636,640,6230.000589132309,,7.691136360168457,31.215129852294922,0.26
331,MetaDrive-td3combine-expt_with_safe-leaky-adamw-in,53,194.58578633828827,332203,641,6239.905923128128,-33.69173812866211,36.368812561035156,33.275997161865234,0.26
332,MetaDrive-td3combine-expt_with_safe-leaky-adamw-in,53,192.4042340313021,333172,643,6258.6890070438385,,4.002224922180176,31.714725494384766,0.26
333,MetaDrive-td3combine-expt_with_safe-leaky-adamw-in,53,194.4735137470148,334173,644,6277.393561124802,-32.34524917602539,10.912825584411621,31.668928146362305,0.26
334,MetaDrive-td3combine-expt_with_safe-leaky-adamw-in,53,196.7651715550766,335339,646,6298.797523975372,-25.442604064941406,14.591565132141113,25.274633407592773,0.26
335,MetaDrive-td3combine-expt_with_safe-leaky-adamw-in,53,197.73912339535113,336719,648,6324.7656009197235,-27.759721755981445,7.9813666343688965,27.075393676757812,0.26
336,MetaDrive-td3combine-expt_with_safe-leaky-adamw-in,53,196.55870436523585,337225,649,6333.915171146393,-27.104511260986328,8.091856956481934,26.76881217956543,0.25
337,MetaDrive-td3combine-expt_with_safe-leaky-adamw-in,53,191.43840646740722,338152,653,6349.57440829277,,10.104629516601562,29.58904457092285,0.23
338,MetaDrive-td3combine-expt_with_safe-leaky-adamw-in,53,190.23126277737578,339153,654,6367.853461027145,-30.620622634887695,6.282096862792969,30.475013732910156,0.23
339,MetaDrive-td3combine-expt_with_safe-leaky-adamw-in,53,188.10593286927008,340721,657,6397.779703140259,-30.470760345458984,7.682864189147949,30.831279754638672,0.22
340,MetaDrive-td3combine-expt_with_safe-leaky-adamw-in,53,185.7124288138978,341177,658,6406.552823066711,-27.039085388183594,5.087435722351074,27.028396606445312,0.21
341,MetaDrive-td3combine-expt_with_safe-leaky-adamw-in,53,184.90956944599017,342178,659,6431.514472961426,,6.1035051345825195,26.119699478149414,0.2
342,MetaDrive-td3combine-expt_with_safe-leaky-adamw-in,53,183.3574012445776,343179,660,6448.5553069114685,-31.063446044921875,8.278886795043945,31.22595977783203,0.19
343,MetaDrive-td3combine-expt_with_safe-leaky-adamw-in,53,175.66468090785077,344100,665,6463.502663135529,,4.188570976257324,30.090078353881836,0.18
344,MetaDrive-td3combine-expt_with_safe-leaky-adamw-in,53,174.68583822246822,345460,667,6486.115603923798,,4.0177717208862305,34.30107879638672,0.17
345,MetaDrive-td3combine-expt_with_safe-leaky-adamw-in,53,173.76784278767445,346067,669,6496.303528308868,-30.227968215942383,35.99726104736328,29.266551971435547,0.17
346,MetaDrive-td3combine-expt_with_safe-leaky-adamw-in,53,173.8007825929904,347068,670,6517.181389093399,,5.593021392822266,35.863834381103516,0.16
347,MetaDrive-td3combine-expt_with_safe-leaky-adamw-in,53,174.82207702196166,348069,671,6534.694964885712,-27.549131393432617,25.613201141357422,27.18351936340332,0.16
348,MetaDrive-td3combine-expt_with_safe-leaky-adamw-in,53,177.13115169223124,349005,672,6550.641381025314,-27.63473129272461,15.288972854614258,27.393423080444336,0.17
349,MetaDrive-td3combine-expt_with_safe-leaky-adamw-in,53,173.31033105472412,350067,676,6569.592961072922,-33.08527755737305,7.578912258148193,33.01732635498047,0.17
350,MetaDrive-td3combine-expt_with_safe-leaky-adamw-in,53,173.08677971172594,351028,678,6587.566432952881,,8.819663047790527,29.70064353942871,0.18
351,MetaDrive-td3combine-expt_with_safe-leaky-adamw-in,53,172.46345047319053,352029,679,6609.648926973343,-27.947505950927734,10.99919319152832,28.498977661132812,0.17
352,MetaDrive-td3combine-expt_with_safe-leaky-adamw-in,53,176.33189838739068,353231,681,6631.193470954895,-31.168298721313477,4.435451507568359,31.14321517944336,0.18
353,MetaDrive-td3combine-expt_with_safe-leaky-adamw-in,53,174.67707258077633,354232,682,6650.258611917496,,20.448490142822266,25.790599822998047,0.17
354,MetaDrive-td3combine-expt_with_safe-leaky-adamw-in,53,176.1448820464411,355233,683,6672.533160209656,-28.99367904663086,11.304351806640625,29.094940185546875,0.17
355,MetaDrive-td3combine-expt_with_safe-leaky-adamw-in,53,177.8687694313847,356510,685,6693.9163682460785,,6.525195121765137,36.2697639465332,0.17
356,MetaDrive-td3combine-expt_with_safe-leaky-adamw-in,53,176.65515565092352,357748,687,6716.370824098587,,5.375215530395508,26.94278907775879,0.17
357,MetaDrive-td3combine-expt_with_safe-leaky-adamw-in,53,177.70762707743077,358213,688,6725.253910064697,-29.62483787536621,8.959028244018555,29.968515396118164,0.17
358,MetaDrive-td3combine-expt_with_safe-leaky-adamw-in,53,176.8303122923288,359214,689,6743.591032028198,,19.37734031677246,24.68803596496582,0.17
359,MetaDrive-td3combine-expt_with_safe-leaky-adamw-in,53,177.31812838407404,360490,692,6764.893221139908,,3.7101173400878906,27.586088180541992,0.18
360,MetaDrive-td3combine-expt_with_safe-leaky-adamw-in,53,177.36358142468856,361177,693,6775.1325941085815,-35.981990814208984,5.97956657409668,36.442569732666016,0.18
361,MetaDrive-td3combine-expt_with_safe-leaky-adamw-in,53,176.3303963012869,362142,694,6794.2043170928955,,5.398733615875244,36.34636688232422,0.18
362,MetaDrive-td3combine-expt_with_safe-leaky-adamw-in,53,177.2908121776002,363148,696,6811.0841588974,,5.171672344207764,32.96135711669922,0.19
363,MetaDrive-td3combine-expt_with_safe-leaky-adamw-in,53,180.88963157336414,364223,698,6829.591504096985,-30.351449966430664,9.128030776977539,30.25874137878418,0.21
364,MetaDrive-td3combine-expt_with_safe-leaky-adamw-in,53,183.96618181021066,365419,700,6851.317811250687,-30.163795471191406,6.138818740844727,29.740314483642578,0.21
365,MetaDrive-td3combine-expt_with_safe-leaky-adamw-in,53,184.57179022527092,366175,702,6866.464159965515,-32.849205017089844,4.284946441650391,33.45484161376953,0.22
366,MetaDrive-td3combine-expt_with_safe-leaky-adamw-in,53,185.86929253866856,367890,705,6906.000528097153,,13.270491600036621,31.28618049621582,0.23
367,MetaDrive-td3combine-expt_with_safe-leaky-adamw-in,53,184.91914068465883,368891,706,6927.97284412384,-28.716976165771484,5.918874740600586,28.539228439331055,0.23
368,MetaDrive-td3combine-expt_with_safe-leaky-adamw-in,53,186.20565394951828,369892,707,6950.351245164871,,5.517965316772461,29.486921310424805,0.23
369,MetaDrive-td3combine-expt_with_safe-leaky-adamw-in,53,186.28606699939203,370917,709,6966.937293052673,-32.224979400634766,7.337655067443848,31.970182418823242,0.23
370,MetaDrive-td3combine-expt_with_safe-leaky-adamw-in,53,187.19603770903336,371433,710,6976.14737200737,-29.935285568237305,5.145303726196289,29.493906021118164,0.24
371,MetaDrive-td3combine-expt_with_safe-leaky-adamw-in,53,183.6646354172223,372477,712,6995.8315970897675,-31.724407196044922,6.404399871826172,31.60802459716797,0.23
372,MetaDrive-td3combine-expt_with_safe-leaky-adamw-in,53,184.90322382342907,373478,713,7017.77360200882,,6.696254730224609,29.880569458007812,0.23
373,MetaDrive-td3combine-expt_with_safe-leaky-adamw-in,53,186.10649479836903,374057,714,7027.55562710762,-28.932065963745117,9.26977825164795,29.09853172302246,0.23
374,MetaDrive-td3combine-expt_with_safe-leaky-adamw-in,53,185.6850366288496,375058,715,7046.635484218597,,11.187036514282227,29.906024932861328,0.23
375,MetaDrive-td3combine-expt_with_safe-leaky-adamw-in,53,179.99219366212688,376317,720,7071.44104218483,-26.273757934570312,4.880889892578125,26.36935806274414,0.22
376,MetaDrive-td3combine-expt_with_safe-leaky-adamw-in,53,181.03387539990777,377318,721,7093.924846172333,,5.20660924911499,26.7564697265625,0.22
377,MetaDrive-td3combine-expt_with_safe-leaky-adamw-in,53,180.50787398380712,378063,723,7107.582337141037,-30.63823127746582,6.880102634429932,29.429611206054688,0.21
378,MetaDrive-td3combine-expt_with_safe-leaky-adamw-in,53,181.37599194225214,379855,726,7143.1878299713135,-28.612777709960938,4.333452224731445,28.359813690185547,0.21
379,MetaDrive-td3combine-expt_with_safe-leaky-adamw-in,53,183.34775577379335,380595,727,7157.872852087021,-23.08354949951172,27.537670135498047,22.498964309692383,0.22
380,MetaDrive-td3combine-expt_with_safe-leaky-adamw-in,53,182.86305178807285,381596,728,7183.870010137558,,7.395678997039795,29.116130828857422,0.21
381,MetaDrive-td3combine-expt_with_safe-leaky-adamw-in,53,181.77260923639514,382650,730,7207.113668203354,,5.748888969421387,31.60977554321289,0.2
382,MetaDrive-td3combine-expt_with_safe-leaky-adamw-in,53,181.629292036197,383651,731,7233.757094144821,-30.767311096191406,8.070019721984863,30.868188858032227,0.2
383,MetaDrive-td3combine-expt_with_safe-leaky-adamw-in,53,183.76541762580925,384231,732,7244.008703947067,-29.642728805541992,6.095798969268799,28.882095336914062,0.21
384,MetaDrive-td3combine-expt_with_safe-leaky-adamw-in,53,187.54753824067532,385645,734,7273.9773280620575,-26.292985916137695,5.081455230712891,26.416786193847656,0.21
385,MetaDrive-td3combine-expt_with_safe-leaky-adamw-in,53,188.0985431728725,386102,735,7283.6641590595245,,6.212406158447266,31.840866088867188,0.21
386,MetaDrive-td3combine-expt_with_safe-leaky-adamw-in,53,183.36635598676787,387010,739,7301.366546154022,,13.740960121154785,27.890506744384766,0.19
387,MetaDrive-td3combine-expt_with_safe-leaky-adamw-in,52,183.50207345466632,388568,741,7336.869455099106,,6.47904109954834,26.637449264526367,0.19
388,MetaDrive-td3combine-expt_with_safe-leaky-adamw-in,52,182.89251328650312,389569,742,7361.104249000549,-29.937204360961914,4.913761138916016,30.089412689208984,0.19
389,MetaDrive-td3combine-expt_with_safe-leaky-adamw-in,52,183.41300006840126,390364,744,7375.888934135437,,7.871297836303711,30.58220100402832,0.2
390,MetaDrive-td3combine-expt_with_safe-leaky-adamw-in,52,185.2043501091297,391528,746,7396.099524021149,,8.083669662475586,31.042755126953125,0.22
391,MetaDrive-td3combine-expt_with_safe-leaky-adamw-in,52,187.77983254663985,392327,747,7412.56094789505,-27.345245361328125,4.686745643615723,27.807117462158203,0.23
392,MetaDrive-td3combine-expt_with_safe-leaky-adamw-in,52,190.98367019868226,393416,749,7433.347510099411,,5.391304969787598,30.10559844970703,0.24
393,MetaDrive-td3combine-expt_with_safe-leaky-adamw-in,52,192.320880202554,394067,751,7444.62161397934,-28.034883499145508,5.8029584884643555,27.992271423339844,0.25
394,MetaDrive-td3combine-expt_with_safe-leaky-adamw-in,52,193.82504071326986,395068,752,7466.980539083481,,22.86488914489746,31.227216720581055,0.25
395,MetaDrive-td3combine-expt_with_safe-leaky-adamw-in,52,195.40343003439105,396069,753,7489.2013511657715,-33.535072326660156,9.221393585205078,32.60517120361328,0.25
396,MetaDrive-td3combine-expt_with_safe-leaky-adamw-in,52,195.43079788776058,397070,754,7508.462285041809,,5.860887050628662,28.71198272705078,0.25
397,MetaDrive-td3combine-expt_with_safe-leaky-adamw-in,52,193.28968739842446,398765,757,7543.038366317749,-32.245635986328125,7.627566337585449,31.48826026916504,0.24
398,MetaDrive-td3combine-expt_with_safe-leaky-adamw-in,52,194.54454371657124,399292,758,7553.830119132996,,6.258240699768066,30.642578125,0.24
