TanmayH/CS269-RL-project-code/MetaDrive-test-reducing-q-diff-td3/td3/progress.csv
,log_dir,frame_per_second,episode_reward,total_steps,total_episodes,total_time,target_q,actor_loss,critic_loss,success_rate
0,MetaDrive-test-reducing-q-diff-td3,668,11.124005125866752,2001,2,2.9953839778900146,,,,0.0
1,MetaDrive-test-reducing-q-diff-td3,575,11.182013488476327,3002,3,5.216110944747925,,,,0.0
2,MetaDrive-test-reducing-q-diff-td3,462,10.708587771656624,4003,4,8.647705793380737,,,,0.0
3,MetaDrive-test-reducing-q-diff-td3,415,11.37027932913368,5004,5,12.036410808563232,0.014482883736491203,,0.007767253555357456,0.0
4,MetaDrive-test-reducing-q-diff-td3,209,-0.7225693156387097,6016,44,28.746495008468628,-0.07757582515478134,,1.597482442855835,0.0
5,MetaDrive-test-reducing-q-diff-td3,164,-0.918073706102715,7150,51,43.42554807662964,0.10080280154943466,,0.041925229132175446,0.0
6,MetaDrive-test-reducing-q-diff-td3,147,-0.9327021927241385,8151,52,55.32799196243286,0.02698788046836853,-0.08266518265008926,0.7973807454109192,0.0
7,MetaDrive-test-reducing-q-diff-td3,132,-0.9565135266303081,9152,53,69.1048572063446,-0.0601947084069252,,1.317704439163208,0.0
8,MetaDrive-test-reducing-q-diff-td3,121,-0.9762485784178911,10153,54,83.63275909423828,0.09802518039941788,-0.08522336184978485,0.05853187292814255,0.0
9,MetaDrive-test-reducing-q-diff-td3,113,-0.9651062879072595,11223,56,99.2906289100647,0.08082292973995209,-0.026152687147259712,0.01768021285533905,0.0
10,MetaDrive-test-reducing-q-diff-td3,106,-0.8976220678010743,12224,57,114.46357297897339,0.07629503309726715,,0.015441233292222023,0.0
11,MetaDrive-test-reducing-q-diff-td3,104,-0.8200058179884671,13225,58,126.22755408287048,0.07802613079547882,-0.022953616455197334,0.0119705805554986,0.0
12,MetaDrive-test-reducing-q-diff-td3,103,-0.8158510009685159,14325,60,138.5904200077057,-0.012193463742733002,-0.012169678695499897,0.7742361426353455,0.0
13,MetaDrive-test-reducing-q-diff-td3,102,-0.7429337708606469,15326,61,149.86170196533203,0.046990808099508286,,0.004844218492507935,0.0
14,MetaDrive-test-reducing-q-diff-td3,101,-0.7089772095865927,16327,62,161.38044595718384,0.04478921741247177,-0.02499590441584587,0.0020714332349598408,0.0
15,MetaDrive-test-reducing-q-diff-td3,100,-0.9007632286385094,17506,65,174.97129201889038,0.05102157220244408,,0.020164184272289276,0.0
16,MetaDrive-test-reducing-q-diff-td3,99,-0.919540597172788,18507,66,186.2937958240509,0.0397619903087616,-0.007330494001507759,0.00731775164604187,0.0
17,MetaDrive-test-reducing-q-diff-td3,97,-0.9811199165772463,19898,69,203.14972496032715,0.038599517196416855,,0.0012883589370176196,0.0
18,MetaDrive-test-reducing-q-diff-td3,97,-0.9177823553314711,20899,70,214.69317412376404,-0.04576496407389641,-0.04613051936030388,0.7983427047729492,0.0
19,MetaDrive-test-reducing-q-diff-td3,96,-0.9835681723312798,21682,71,224.4209909439087,0.032855723053216934,,0.002671648282557726,0.0
20,MetaDrive-test-reducing-q-diff-td3,95,-1.1152132765714584,22689,73,236.39307403564453,0.03054896742105484,-0.0230230875313282,0.004921700805425644,0.0
21,MetaDrive-test-reducing-q-diff-td3,95,-1.129423072320123,23690,74,247.65248584747314,0.02141069434583187,,0.00026250616065226495,0.0
22,MetaDrive-test-reducing-q-diff-td3,95,-1.1406396674467276,24691,75,259.8993740081787,0.0039985994808375835,0.003355177119374275,0.0049298591911792755,0.0
23,MetaDrive-test-reducing-q-diff-td3,94,-1.1019589739080364,25299,77,266.7269949913025,0.006845220923423767,-0.0024498808197677135,0.006786938291043043,0.0
24,MetaDrive-test-reducing-q-diff-td3,93,-0.864151075135415,26019,96,278.17677116394043,0.03827644884586334,-0.08828791975975037,0.014085844159126282,0.0
25,MetaDrive-test-reducing-q-diff-td3,92,0.7369135141873988,27001,120,291.9260139465332,0.060975994914770126,-0.09715720266103745,0.03503626585006714,0.0
26,MetaDrive-test-reducing-q-diff-td3,91,2.7851610147387595,28005,149,306.8149139881134,0.26715773344039917,-0.3217017650604248,0.00459558330476284,0.0
27,MetaDrive-test-reducing-q-diff-td3,90,6.029220803163768,29057,174,321.8913400173187,0.48064106702804565,-0.36044490337371826,0.19048288464546204,0.0
28,MetaDrive-test-reducing-q-diff-td3,89,8.804687889686974,30059,198,336.9283630847931,0.6298397779464722,-0.7411828637123108,0.13329452276229858,0.0
29,MetaDrive-test-reducing-q-diff-td3,88,8.64016339774013,31018,224,351.4982089996338,1.0023716688156128,,0.6967269778251648,0.0
30,MetaDrive-test-reducing-q-diff-td3,87,11.437460401071814,32042,245,365.71471214294434,1.3492836952209473,,0.07200595736503601,0.0
31,MetaDrive-test-reducing-q-diff-td3,86,12.704397353280388,33036,266,379.8665018081665,1.6783629655838013,,0.11919954419136047,0.0
32,MetaDrive-test-reducing-q-diff-td3,86,13.749444211094122,34011,287,394.8610780239105,1.8148472309112549,-2.0754425525665283,0.9831238985061646,0.0
33,MetaDrive-test-reducing-q-diff-td3,85,15.438132757267049,35041,307,409.39066910743713,2.183227300643921,-2.3712100982666016,0.26485079526901245,0.0
34,MetaDrive-test-reducing-q-diff-td3,85,17.851385386666117,36017,328,423.24887704849243,2.8574936389923096,-3.0316877365112305,0.1313072293996811,0.0
35,MetaDrive-test-reducing-q-diff-td3,84,17.06664619863526,37017,349,437.2221460342407,3.259944438934326,-3.488837242126465,0.16207680106163025,0.0
36,MetaDrive-test-reducing-q-diff-td3,84,16.33759364437968,38043,373,452.1093680858612,3.625307321548462,-3.923360586166382,0.2074539065361023,0.0
37,MetaDrive-test-reducing-q-diff-td3,83,17.469327752847594,39014,391,465.80436515808105,4.123869895935059,,0.16358239948749542,0.0
38,MetaDrive-test-reducing-q-diff-td3,83,19.07378009488709,40080,409,480.79521203041077,4.496450424194336,,2.9740748405456543,0.0
39,MetaDrive-test-reducing-q-diff-td3,83,22.489048063825646,41055,422,494.25198698043823,5.124927520751953,-5.674880504608154,6.950769424438477,0.0
40,MetaDrive-test-reducing-q-diff-td3,82,26.136726874055256,42046,436,508.63508677482605,5.315298557281494,,7.283708572387695,0.0
41,MetaDrive-test-reducing-q-diff-td3,82,29.9124089998598,43040,448,522.5753748416901,6.160935401916504,,0.2297954261302948,0.0
42,MetaDrive-test-reducing-q-diff-td3,82,35.060509706265314,44149,460,538.2938029766083,6.834630489349365,-7.18446159362793,8.140125274658203,0.0
43,MetaDrive-test-reducing-q-diff-td3,81,39.506477443437035,45046,471,549.8818790912628,7.5665717124938965,,0.5428875684738159,0.0
44,MetaDrive-test-reducing-q-diff-td3,81,41.885522858675515,46036,483,563.5433640480042,7.975610256195068,,0.3730037808418274,0.0
45,MetaDrive-test-reducing-q-diff-td3,81,46.87301155913223,47015,492,577.1089720726013,8.764113426208496,-9.006263732910156,0.4951116144657135,0.0
46,MetaDrive-test-reducing-q-diff-td3,81,52.05254786545438,48019,501,589.748321056366,9.771669387817383,-10.064934730529785,10.533132553100586,0.0
47,MetaDrive-test-reducing-q-diff-td3,81,54.2845062797531,49014,511,603.0394220352173,10.048882484436035,,14.537028312683105,0.0
48,MetaDrive-test-reducing-q-diff-td3,81,58.209256174772506,50100,521,617.744048833847,10.885469436645508,,0.6786638498306274,0.0
49,MetaDrive-test-reducing-q-diff-td3,81,62.35656017615523,51122,529,630.9839930534363,12.147193908691406,,1.648411750793457,0.0
50,MetaDrive-test-reducing-q-diff-td3,80,65.49822721220418,52008,536,642.6792688369751,12.014372825622559,,16.062822341918945,0.0
51,MetaDrive-test-reducing-q-diff-td3,80,70.43501337358241,53048,544,656.3856477737427,13.029919624328613,,15.452058792114258,0.0
52,MetaDrive-test-reducing-q-diff-td3,80,71.71957824386485,54045,552,669.5021288394928,12.569343566894531,-13.254402160644531,2.256518602371216,0.0
53,MetaDrive-test-reducing-q-diff-td3,80,73.70188022449031,55069,560,683.512601852417,15.162257194519043,-15.752974510192871,0.6178213357925415,0.0
54,MetaDrive-test-reducing-q-diff-td3,80,78.62952521313836,56113,567,697.4459908008575,16.3483829498291,-16.236989974975586,0.7124974727630615,0.0
55,MetaDrive-test-reducing-q-diff-td3,80,82.84633124580719,57058,574,710.3497920036316,16.51921844482422,,0.8061802387237549,0.0
56,MetaDrive-test-reducing-q-diff-td3,80,85.8104173542975,58111,582,723.7183408737183,17.8475341796875,-17.992095947265625,1.508365273475647,0.0
57,MetaDrive-test-reducing-q-diff-td3,80,85.77553929561674,59047,591,736.7712059020996,17.438556671142578,-17.815675735473633,2.314260244369507,0.0
58,MetaDrive-test-reducing-q-diff-td3,80,86.80705310677025,60064,599,749.7402701377869,17.078292846679688,,1.0137231349945068,0.0
59,MetaDrive-test-reducing-q-diff-td3,79,88.1115671390277,61039,606,763.1035048961639,17.8758602142334,-17.945140838623047,1.832912802696228,0.0
60,MetaDrive-test-reducing-q-diff-td3,79,92.71238368324788,62097,614,777.1303188800812,20.09915542602539,-20.348072052001953,1.5004723072052002,0.0
61,MetaDrive-test-reducing-q-diff-td3,79,95.51372685289277,63022,619,789.2909870147705,20.3306884765625,,5.093301773071289,0.0
62,MetaDrive-test-reducing-q-diff-td3,79,92.9309331134932,64005,628,802.2606739997864,20.452831268310547,-20.243160247802734,3.4786794185638428,0.0
63,MetaDrive-test-reducing-q-diff-td3,79,94.26254075368199,65368,636,819.5609648227692,20.299562454223633,,26.675838470458984,0.0
64,MetaDrive-test-reducing-q-diff-td3,79,96.76748584445758,66281,637,831.2804689407349,22.491472244262695,-23.452489852905273,19.629989624023438,0.01
65,MetaDrive-test-reducing-q-diff-td3,79,103.08684619493714,67867,639,856.156268119812,22.74860382080078,-23.1647891998291,1.3140227794647217,0.03
66,MetaDrive-test-reducing-q-diff-td3,79,106.03637025552648,68648,640,866.9966180324554,23.83431053161621,,1.3958182334899902,0.04
67,MetaDrive-test-reducing-q-diff-td3,79,107.80011127722648,69004,641,871.5949969291687,21.92734718322754,,20.562862396240234,0.04
68,MetaDrive-test-reducing-q-diff-td3,79,111.25710905543096,70008,643,885.8323347568512,24.346649169921875,,1.9416991472244263,0.05
69,MetaDrive-test-reducing-q-diff-td3,78,114.06538565207661,71275,648,902.6595358848572,24.552446365356445,-24.669475555419922,1.6200445890426636,0.05
70,MetaDrive-test-reducing-q-diff-td3,78,117.82436217238701,72276,649,919.6125330924988,23.28058433532715,,2.462376117706299,0.05
71,MetaDrive-test-reducing-q-diff-td3,78,121.59061363993403,73935,652,940.9506161212921,24.229045867919922,-25.61458396911621,63.33715057373047,0.06
72,MetaDrive-test-reducing-q-diff-td3,78,123.15716257525717,74463,653,948.1347620487213,25.314950942993164,-26.62289047241211,56.40235900878906,0.07
73,MetaDrive-test-reducing-q-diff-td3,78,125.41144145272007,75137,655,956.971293926239,26.2026424407959,-25.513315200805664,3.7141599655151367,0.08
74,MetaDrive-test-reducing-q-diff-td3,78,126.24595129905454,76138,656,970.5458459854126,24.617523193359375,,14.046037673950195,0.08
75,MetaDrive-test-reducing-q-diff-td3,78,130.18129463756128,77180,658,983.6635689735413,25.59571075439453,,6.966948509216309,0.1
76,MetaDrive-test-reducing-q-diff-td3,78,131.2057548543509,78181,659,996.4466118812561,25.776762008666992,-25.248493194580078,5.928506851196289,0.1
77,MetaDrive-test-reducing-q-diff-td3,78,135.94203924803446,79142,660,1012.446389913559,27.8352108001709,,2.031569242477417,0.11
78,MetaDrive-test-reducing-q-diff-td3,78,136.8630838826304,80031,663,1023.5946910381317,25.563045501708984,-26.32115364074707,2.319756031036377,0.12
79,MetaDrive-test-reducing-q-diff-td3,78,143.6218077498643,81738,665,1047.2263398170471,29.671096801757812,,3.390784502029419,0.14
80,MetaDrive-test-reducing-q-diff-td3,78,143.33767845901684,82229,667,1053.5346088409424,31.665782928466797,-32.73857498168945,3.712892532348633,0.14
81,MetaDrive-test-reducing-q-diff-td3,78,146.48659776015006,83313,671,1067.133996963501,28.27743148803711,-28.833520889282227,12.416413307189941,0.15
82,MetaDrive-test-reducing-q-diff-td3,77,149.05516092627312,84167,672,1080.2417769432068,29.418027877807617,-29.4990234375,2.293776035308838,0.16
83,MetaDrive-test-reducing-q-diff-td3,77,150.4563248709587,85498,674,1099.5873379707336,27.178180694580078,,3.981602191925049,0.17
84,MetaDrive-test-reducing-q-diff-td3,77,152.21208455999604,86499,675,1117.583862066269,30.357858657836914,-31.975265502929688,7.533256530761719,0.17
85,MetaDrive-test-reducing-q-diff-td3,77,155.02839101606142,87270,677,1128.0649631023407,27.543678283691406,,3.3238329887390137,0.18
86,MetaDrive-test-reducing-q-diff-td3,77,158.14207762481672,88001,678,1138.0574469566345,28.616790771484375,-29.20685577392578,5.756600379943848,0.19
87,MetaDrive-test-reducing-q-diff-td3,77,161.47673181332442,89235,680,1157.3253901004791,33.2421875,-32.311275482177734,6.927133083343506,0.2
88,MetaDrive-test-reducing-q-diff-td3,77,164.46207222431676,90042,681,1169.2935860157013,29.30002212524414,,12.11941146850586,0.21
89,MetaDrive-test-reducing-q-diff-td3,76,166.68771320599674,91043,682,1187.8941750526428,27.39208984375,-27.986547470092773,10.587310791015625,0.21
90,MetaDrive-test-reducing-q-diff-td3,76,172.74618658928293,92782,685,1214.9104759693146,30.5251522064209,,2.923147201538086,0.22
91,MetaDrive-test-reducing-q-diff-td3,76,173.16758404757772,93892,687,1230.9465248584747,30.660123825073242,,39.31875991821289,0.22
92,MetaDrive-test-reducing-q-diff-td3,76,175.94613918870058,94708,689,1242.1923451423645,32.89223098754883,,2.2752761840820312,0.23
93,MetaDrive-test-reducing-q-diff-td3,76,176.4718542059411,95028,691,1246.2703528404236,29.981151580810547,,94.94387817382812,0.23
94,MetaDrive-test-reducing-q-diff-td3,76,181.13026316366077,96410,694,1267.6450459957123,31.459671020507812,,6.487679481506348,0.25
95,MetaDrive-test-reducing-q-diff-td3,75,184.14797366244164,97323,695,1281.5806729793549,27.922504425048828,-28.152997970581055,6.556933403015137,0.26
96,MetaDrive-test-reducing-q-diff-td3,75,187.04833227557071,98268,697,1293.1770939826965,27.417736053466797,,4.070553779602051,0.27
97,MetaDrive-test-reducing-q-diff-td3,76,189.80592119726512,99333,701,1306.0152928829193,31.48320198059082,-32.50312805175781,27.93927764892578,0.28
98,MetaDrive-test-reducing-q-diff-td3,75,196.0112397792871,100574,703,1324.3591938018799,33.4680061340332,,4.6099700927734375,0.3
99,MetaDrive-test-reducing-q-diff-td3,75,199.10566134813837,101575,704,1341.4781141281128,30.52494239807129,-30.7781925201416,4.383179187774658,0.3
100,MetaDrive-test-reducing-q-diff-td3,75,200.63410184548255,102109,705,1348.2252469062805,29.23333740234375,-29.5020694732666,11.881631851196289,0.3
101,MetaDrive-test-reducing-q-diff-td3,75,202.72372809436803,103110,706,1365.9279470443726,31.237045288085938,,5.364304542541504,0.3
102,MetaDrive-test-reducing-q-diff-td3,75,204.893659429344,104017,709,1377.1939189434052,30.66678237915039,-30.47318458557129,6.120082855224609,0.31
103,MetaDrive-test-reducing-q-diff-td3,75,205.72472600997872,105018,710,1392.748804807663,33.83030700683594,,6.120601654052734,0.31
104,MetaDrive-test-reducing-q-diff-td3,75,206.77044480746451,106019,711,1406.6813797950745,32.47370147705078,-32.602622985839844,25.617088317871094,0.31
105,MetaDrive-test-reducing-q-diff-td3,75,209.96471850401474,107228,714,1421.920392036438,32.50045394897461,,5.06393575668335,0.33
106,MetaDrive-test-reducing-q-diff-td3,75,212.3199185526516,108251,717,1434.63005900383,32.63861083984375,-32.46586608886719,6.912303447723389,0.35
107,MetaDrive-test-reducing-q-diff-td3,75,215.56569344735755,109070,718,1447.2331619262695,35.8420524597168,,4.529577255249023,0.36
108,MetaDrive-test-reducing-q-diff-td3,75,218.27059841391045,110050,722,1460.8323440551758,34.208839416503906,,3.7580597400665283,0.37
109,MetaDrive-test-reducing-q-diff-td3,75,223.2690808135375,111482,724,1480.751267194748,28.341840744018555,,6.966547012329102,0.38
110,MetaDrive-test-reducing-q-diff-td3,75,225.7227267810391,112256,727,1492.233363866806,30.982528686523438,,6.250377655029297,0.38
111,MetaDrive-test-reducing-q-diff-td3,75,228.31332741098868,113313,730,1507.4266428947449,32.73735809326172,-34.26591491699219,90.81253051757812,0.39
112,MetaDrive-test-reducing-q-diff-td3,75,231.70950580853088,114250,732,1518.5921437740326,30.63819122314453,,15.139981269836426,0.41
113,MetaDrive-test-reducing-q-diff-td3,75,234.21737914614104,115008,734,1528.9124689102173,29.598127365112305,,3.8331665992736816,0.42
114,MetaDrive-test-reducing-q-diff-td3,75,235.20567220073752,116009,735,1542.0397582054138,32.77656555175781,-33.269805908203125,7.637975215911865,0.42
115,MetaDrive-test-reducing-q-diff-td3,75,235.65539439056786,117172,737,1557.8348848819733,34.353370666503906,,5.374423980712891,0.43
116,MetaDrive-test-reducing-q-diff-td3,75,225.54973113509325,118030,741,1569.09543800354,34.829505920410156,,24.904151916503906,0.4
117,MetaDrive-test-reducing-q-diff-td3,75,222.64013106789557,119031,742,1582.6192219257355,33.16788101196289,-33.205997467041016,5.023128509521484,0.39
118,MetaDrive-test-reducing-q-diff-td3,75,223.87488036975006,120278,747,1598.1689238548279,29.7381591796875,,5.143573760986328,0.41
119,MetaDrive-test-reducing-q-diff-td3,75,222.30943383820895,121064,750,1608.7303459644318,31.241615295410156,,24.5689754486084,0.42
120,MetaDrive-test-reducing-q-diff-td3,75,220.63576622452888,122065,751,1622.9195849895477,39.37571716308594,-39.62516403198242,7.564800262451172,0.41
121,MetaDrive-test-reducing-q-diff-td3,75,217.46932652080338,123177,754,1637.530837059021,36.649715423583984,-36.66826629638672,6.449010848999023,0.4
122,MetaDrive-test-reducing-q-diff-td3,75,219.75077797322746,124562,756,1654.9175670146942,34.22989273071289,,7.477007865905762,0.41
123,MetaDrive-test-reducing-q-diff-td3,75,217.18090706102947,125359,758,1665.9238829612732,37.61585998535156,-37.9921989440918,7.024456024169922,0.39
124,MetaDrive-test-reducing-q-diff-td3,75,216.8146063502628,126681,760,1685.5209679603577,30.37527847290039,-30.977384567260742,8.757749557495117,0.4
125,MetaDrive-test-reducing-q-diff-td3,75,217.40231722455286,127190,761,1691.7702479362488,34.95524597167969,,7.462886810302734,0.41
126,MetaDrive-test-reducing-q-diff-td3,75,219.19628745638926,128745,763,1712.926097869873,40.478004455566406,-40.522769927978516,6.86334228515625,0.41
127,MetaDrive-test-reducing-q-diff-td3,75,216.80031499691268,129158,764,1719.0235919952393,37.51171112060547,,6.871865272521973,0.4
128,MetaDrive-test-reducing-q-diff-td3,75,217.64368748753859,130610,768,1737.910493850708,35.06290054321289,,7.84102725982666,0.41
129,MetaDrive-test-reducing-q-diff-td3,75,220.16837030573672,131426,769,1751.0285320281982,32.98209762573242,,4.342918395996094,0.42
130,MetaDrive-test-reducing-q-diff-td3,74,221.8820542313854,132711,771,1770.2958557605743,37.604286193847656,-39.00509262084961,9.780721664428711,0.41
131,MetaDrive-test-reducing-q-diff-td3,74,218.44909226574026,133522,774,1780.5206611156464,34.536983489990234,,80.39213562011719,0.4
132,MetaDrive-test-reducing-q-diff-td3,75,218.98193914860335,134116,776,1787.585881948471,37.40544128417969,,89.27737426757812,0.41
133,MetaDrive-test-reducing-q-diff-td3,74,216.12073913471696,135052,778,1801.7544231414795,36.71296691894531,,5.759104251861572,0.4
134,MetaDrive-test-reducing-q-diff-td3,74,214.10327320546986,136106,780,1817.319710969925,39.08903121948242,,13.38327693939209,0.39
135,MetaDrive-test-reducing-q-diff-td3,74,212.82536712274418,137105,782,1831.124806880951,39.6530876159668,-40.24748992919922,42.19287109375,0.4
136,MetaDrive-test-reducing-q-diff-td3,74,210.25137605177434,138045,785,1843.5252680778503,37.985477447509766,-38.98908996582031,8.708015441894531,0.4
137,MetaDrive-test-reducing-q-diff-td3,74,211.2844685795178,139896,789,1873.9267268180847,34.520198822021484,,10.234058380126953,0.4
138,MetaDrive-test-reducing-q-diff-td3,74,213.72407134688387,140563,790,1882.975214958191,33.273582458496094,-34.09547424316406,6.322506904602051,0.41
139,MetaDrive-test-reducing-q-diff-td3,74,213.9939883575518,141866,792,1901.6771771907806,37.23415756225586,,6.362461566925049,0.4
140,MetaDrive-test-reducing-q-diff-td3,74,217.5793117868662,142717,793,1913.0590698719025,40.654029846191406,-41.907997131347656,6.558134078979492,0.41
141,MetaDrive-test-reducing-q-diff-td3,74,216.80690498096155,143718,794,1928.4766459465027,39.07490921020508,,18.837203979492188,0.4
142,MetaDrive-test-reducing-q-diff-td3,74,214.5102579894418,144599,796,1941.3750548362732,36.12214279174805,-36.62789535522461,46.00392150878906,0.4
143,MetaDrive-test-reducing-q-diff-td3,74,215.34438130525902,145263,797,1950.336184978485,34.99306106567383,-35.203765869140625,7.896070957183838,0.4
144,MetaDrive-test-reducing-q-diff-td3,74,218.7620382499355,146685,799,1970.0231370925903,39.10918426513672,-39.61515808105469,26.102157592773438,0.41
145,MetaDrive-test-reducing-q-diff-td3,74,218.9321576730304,147250,800,1978.7042529582977,39.96117401123047,,4.563501358032227,0.4
146,MetaDrive-test-reducing-q-diff-td3,74,218.77928872319956,148251,801,1993.1144020557404,40.95745086669922,-41.190616607666016,4.669737815856934,0.4
147,MetaDrive-test-reducing-q-diff-td3,74,217.0104872143468,149060,803,2003.7514309883118,37.0416259765625,,7.520204544067383,0.4
148,MetaDrive-test-reducing-q-diff-td3,74,213.42351356736853,150866,807,2026.852725982666,39.82261657714844,,6.871198654174805,0.41
149,MetaDrive-test-reducing-q-diff-td3,74,213.66346794921301,151499,808,2035.5018649101257,38.48927688598633,-39.06968688964844,9.007793426513672,0.41
150,MetaDrive-test-reducing-q-diff-td3,74,215.03700642837967,152500,809,2050.1136598587036,37.51907730102539,,7.123179912567139,0.41
151,MetaDrive-test-reducing-q-diff-td3,74,215.62848556166176,153229,812,2060.493241071701,35.4929313659668,-36.83152389526367,12.990049362182617,0.42
152,MetaDrive-test-reducing-q-diff-td3,74,214.7883475300513,154230,813,2075.762732028961,41.298946380615234,,5.4107770919799805,0.41
153,MetaDrive-test-reducing-q-diff-td3,74,218.08772259296686,155635,815,2097.0791449546814,34.95006561279297,-35.471527099609375,5.516645431518555,0.41
154,MetaDrive-test-reducing-q-diff-td3,74,217.44435855162052,156066,816,2103.110069990158,35.99541473388672,,7.229039192199707,0.41
155,MetaDrive-test-reducing-q-diff-td3,74,216.82032048085497,157462,819,2122.288321018219,36.53721618652344,,64.37240600585938,0.41
156,MetaDrive-test-reducing-q-diff-td3,74,219.87409963145768,158130,820,2133.524079799652,34.821693420410156,,12.388280868530273,0.42
157,MetaDrive-test-reducing-q-diff-td3,74,222.11383903213667,159430,822,2153.638741016388,32.70033264160156,,14.24207878112793,0.42
158,MetaDrive-test-reducing-q-diff-td3,74,219.79813128643207,160431,823,2167.6261310577393,39.39813995361328,-39.810508728027344,44.294342041015625,0.41
159,MetaDrive-test-reducing-q-diff-td3,73,220.95345060260865,161432,824,2181.795620918274,39.521427154541016,,6.934135437011719,0.41
160,MetaDrive-test-reducing-q-diff-td3,73,222.3609698887772,162442,827,2196.6753690242767,41.795196533203125,,6.242348670959473,0.42
161,MetaDrive-test-reducing-q-diff-td3,73,223.8838644039895,163591,829,2216.727961063385,35.76660919189453,-35.45754623413086,6.71599006652832,0.42
162,MetaDrive-test-reducing-q-diff-td3,73,217.7327920694177,164087,832,2223.1050469875336,36.34516906738281,-36.739959716796875,6.3271074295043945,0.39
163,MetaDrive-test-reducing-q-diff-td3,73,217.1769809189393,165118,835,2239.861494064331,37.69527053833008,,4.539921283721924,0.39
164,MetaDrive-test-reducing-q-diff-td3,73,215.88434195106163,166167,837,2258.3097858428955,40.7715950012207,-40.20162582397461,5.910086631774902,0.38
165,MetaDrive-test-reducing-q-diff-td3,73,216.92326192583198,167293,839,2273.6933748722076,36.95097351074219,-37.09751892089844,6.280839443206787,0.38
166,MetaDrive-test-reducing-q-diff-td3,73,221.11060706496912,168206,841,2286.139776945114,38.618064880371094,,9.55960464477539,0.4
167,MetaDrive-test-reducing-q-diff-td3,73,223.49355777819372,169105,842,2299.740842103958,37.776309967041016,-39.507022857666016,13.15728759765625,0.41
168,MetaDrive-test-reducing-q-diff-td3,73,224.59507480556192,170024,846,2311.1161358356476,42.58112335205078,,6.594679832458496,0.41
169,MetaDrive-test-reducing-q-diff-td3,73,225.17823137081194,171012,847,2326.0385270118713,37.19800567626953,,8.148233413696289,0.41
170,MetaDrive-test-reducing-q-diff-td3,73,224.512829424306,172013,848,2342.3196289539337,41.914981842041016,-42.446205139160156,9.919898986816406,0.4
171,MetaDrive-test-reducing-q-diff-td3,73,229.5530998480389,173421,851,2361.745630979538,40.210670471191406,-40.955528259277344,5.2942914962768555,0.42
172,MetaDrive-test-reducing-q-diff-td3,73,231.98743644521653,174422,852,2378.125331878662,38.47707748413086,,10.081856727600098,0.42
173,MetaDrive-test-reducing-q-diff-td3,73,234.38797382142238,175960,854,2401.0772621631622,38.150550842285156,,7.874056816101074,0.41
174,MetaDrive-test-reducing-q-diff-td3,73,235.16987188834844,176580,855,2409.9636690616608,33.86616516113281,,4.948738098144531,0.41
175,MetaDrive-test-reducing-q-diff-td3,73,238.20487965179876,177887,857,2428.803524017334,39.331871032714844,-39.18242263793945,4.634181499481201,0.42
176,MetaDrive-test-reducing-q-diff-td3,73,239.0278245637207,178544,858,2437.8750569820404,37.44777297973633,,104.76020812988281,0.43
177,MetaDrive-test-reducing-q-diff-td3,73,233.08724938680953,179242,861,2446.8770067691803,40.380149841308594,,5.790556907653809,0.4
178,MetaDrive-test-reducing-q-diff-td3,73,233.0306099300482,180338,863,2461.147381067276,36.44525146484375,,9.645543098449707,0.39
179,MetaDrive-test-reducing-q-diff-td3,73,235.0253487212196,181140,864,2472.5523340702057,37.92632293701172,,7.104475975036621,0.4
180,MetaDrive-test-reducing-q-diff-td3,73,237.9323708156444,182924,867,2495.392781019211,39.84652328491211,,3.4354891777038574,0.4
181,MetaDrive-test-reducing-q-diff-td3,73,234.7980681637174,183023,868,2496.6528379917145,35.71003341674805,-36.60877990722656,55.1251220703125,0.39
182,MetaDrive-test-reducing-q-diff-td3,73,231.75378032405968,184138,870,2512.4379348754883,37.74494552612305,,8.253982543945312,0.38
183,MetaDrive-test-reducing-q-diff-td3,73,231.8206370866124,185125,872,2524.7738370895386,36.888912200927734,-37.1599006652832,30.186195373535156,0.39
184,MetaDrive-test-reducing-q-diff-td3,73,232.82138845571956,186312,875,2540.968020915985,38.812652587890625,,5.333405017852783,0.39
185,MetaDrive-test-reducing-q-diff-td3,73,231.9782673147869,187337,877,2555.075558900833,39.52603530883789,-40.60462188720703,4.742124557495117,0.39
186,MetaDrive-test-reducing-q-diff-td3,73,235.06688395546996,188029,878,2565.1458349227905,43.757720947265625,-44.541690826416016,6.230952262878418,0.4
187,MetaDrive-test-reducing-q-diff-td3,73,238.5862578049742,189329,880,2584.5813550949097,37.7933235168457,-39.2021598815918,10.286685943603516,0.42
188,MetaDrive-test-reducing-q-diff-td3,73,235.3778844201817,190068,883,2593.7661459445953,41.3541374206543,,7.996096611022949,0.41
189,MetaDrive-test-reducing-q-diff-td3,73,237.9403238758264,191282,886,2610.5751271247864,40.70503616333008,,6.685678482055664,0.42
190,MetaDrive-test-reducing-q-diff-td3,73,240.1735192066,192513,888,2627.1897439956665,33.06451416015625,-33.28425598144531,27.575668334960938,0.42
191,MetaDrive-test-reducing-q-diff-td3,73,240.75698282457935,193131,889,2634.9486589431763,36.051605224609375,-38.376182556152344,175.42294311523438,0.43
192,MetaDrive-test-reducing-q-diff-td3,73,241.43925325284295,194871,891,2662.83323597908,38.387298583984375,-39.49519729614258,11.135156631469727,0.43
193,MetaDrive-test-reducing-q-diff-td3,73,240.0408347568314,195512,893,2672.37064909935,36.504085540771484,,11.43747329711914,0.43
194,MetaDrive-test-reducing-q-diff-td3,73,241.42280500269132,196431,894,2685.1789569854736,38.23613357543945,-38.5477180480957,8.431957244873047,0.44
195,MetaDrive-test-reducing-q-diff-td3,73,240.0193771602916,197176,896,2695.1340098381042,37.97187805175781,,6.592414855957031,0.43
196,MetaDrive-test-reducing-q-diff-td3,73,237.89816030063767,198278,898,2712.1243908405304,35.02665710449219,,6.0133819580078125,0.41
197,MetaDrive-test-reducing-q-diff-td3,73,236.62049888073318,199220,901,2724.8330619335175,40.404544830322266,,6.591091632843018,0.42
198,MetaDrive-test-reducing-q-diff-td3,73,237.2997948870248,200210,903,2739.369336128235,39.52373504638672,,4.095646381378174,0.42
199,MetaDrive-test-reducing-q-diff-td3,73,238.5630607389646,201054,905,2751.4643800258636,39.806541442871094,,4.075264930725098,0.42
200,MetaDrive-test-reducing-q-diff-td3,73,240.05808585607465,202620,908,2771.746484041214,35.97792434692383,,9.385994911193848,0.43
201,MetaDrive-test-reducing-q-diff-td3,73,241.67059566123302,203621,909,2788.7777988910675,38.25554275512695,-38.348270416259766,10.202737808227539,0.43
202,MetaDrive-test-reducing-q-diff-td3,72,245.23420569209517,204622,910,2804.2311811447144,36.39438247680664,,10.12255573272705,0.43
203,MetaDrive-test-reducing-q-diff-td3,72,247.90823861953584,205623,911,2820.295271873474,36.23236846923828,-36.63188552856445,70.17276000976562,0.43
204,MetaDrive-test-reducing-q-diff-td3,72,247.68102824563113,206143,912,2826.512006998062,35.399600982666016,-35.246116638183594,15.261301040649414,0.43
205,MetaDrive-test-reducing-q-diff-td3,72,252.28800868769378,207541,914,2847.8025250434875,40.538299560546875,-40.94487762451172,7.23513126373291,0.45
206,MetaDrive-test-reducing-q-diff-td3,72,249.52244951857392,208406,916,2860.193037033081,36.99263000488281,,3.299368381500244,0.44
207,MetaDrive-test-reducing-q-diff-td3,72,251.6619680809884,209006,917,2868.47248005867,39.92565155029297,,6.45174503326416,0.45
208,MetaDrive-test-reducing-q-diff-td3,72,252.79035687101043,210257,919,2886.5982370376587,33.566070556640625,-34.443763732910156,4.49131965637207,0.45
209,MetaDrive-test-reducing-q-diff-td3,72,252.13414613917337,211435,921,2902.832149028778,40.05882263183594,-40.15730285644531,8.448503494262695,0.45
210,MetaDrive-test-reducing-q-diff-td3,72,255.20032267308304,212706,923,2922.1125960350037,34.22627258300781,,52.91072082519531,0.47
211,MetaDrive-test-reducing-q-diff-td3,72,254.3433498860895,213480,924,2932.6637251377106,36.42758560180664,,8.339030265808105,0.48
212,MetaDrive-test-reducing-q-diff-td3,72,256.66543698553664,214285,926,2943.6762130260468,35.9276237487793,-36.298118591308594,13.111093521118164,0.48
213,MetaDrive-test-reducing-q-diff-td3,72,255.282754829135,215024,929,2954.13489484787,39.50482940673828,,19.201831817626953,0.49
214,MetaDrive-test-reducing-q-diff-td3,72,260.41527695080896,216481,932,2974.3114597797394,39.261558532714844,-39.53371810913086,6.126582622528076,0.51
215,MetaDrive-test-reducing-q-diff-td3,72,260.85149248150077,217184,934,2983.664510011673,37.069644927978516,,42.316429138183594,0.51
216,MetaDrive-test-reducing-q-diff-td3,72,258.38709050380726,218139,938,2998.519755125046,40.00596618652344,-40.16326141357422,7.824466228485107,0.5
217,MetaDrive-test-reducing-q-diff-td3,72,260.0746829548464,219463,940,3017.8183398246765,38.506996154785156,-38.22501754760742,9.437740325927734,0.51
218,MetaDrive-test-reducing-q-diff-td3,72,261.517754014263,220216,941,3029.7455949783325,38.49195861816406,,60.51205825805664,0.51
219,MetaDrive-test-reducing-q-diff-td3,72,260.63087682610853,221165,942,3042.369525909424,37.82175064086914,-38.092918395996094,9.769757270812988,0.51
220,MetaDrive-test-reducing-q-diff-td3,72,264.48965626012387,222026,944,3055.2626791000366,36.83611297607422,,4.211780548095703,0.52
221,MetaDrive-test-reducing-q-diff-td3,72,264.6147049061008,223027,945,3069.5476410388947,40.092952728271484,-40.439186096191406,102.22574615478516,0.51
222,MetaDrive-test-reducing-q-diff-td3,72,264.11162284052284,224074,947,3083.2941749095917,40.00750732421875,,5.122933387756348,0.5
223,MetaDrive-test-reducing-q-diff-td3,72,264.7689659038252,225297,949,3099.8836307525635,38.25448989868164,-38.42250061035156,6.502490043640137,0.51
224,MetaDrive-test-reducing-q-diff-td3,72,265.3236783981037,226298,950,3114.3460788726807,41.33735656738281,,14.695266723632812,0.51
225,MetaDrive-test-reducing-q-diff-td3,72,267.4065367255636,227101,951,3127.479490995407,38.036598205566406,-38.49583435058594,6.461957931518555,0.51
226,MetaDrive-test-reducing-q-diff-td3,72,266.01715789767786,228406,954,3146.444349050522,37.423667907714844,,4.737208366394043,0.53
227,MetaDrive-test-reducing-q-diff-td3,72,267.1395893858887,229063,955,3155.085997104645,38.235687255859375,-39.045902252197266,12.613996505737305,0.53
228,MetaDrive-test-reducing-q-diff-td3,72,266.9470791831204,230064,956,3172.105548143387,36.361724853515625,,19.613632202148438,0.53
229,MetaDrive-test-reducing-q-diff-td3,72,265.6356579959773,231431,959,3190.9613518714905,37.081932067871094,-38.90275573730469,39.56437683105469,0.52
230,MetaDrive-test-reducing-q-diff-td3,72,267.0620143257128,232227,962,3201.265273809433,38.406280517578125,-38.86367416381836,8.76565170288086,0.53
231,MetaDrive-test-reducing-q-diff-td3,72,259.87562515563235,233301,966,3215.6541769504547,36.58489227294922,-37.141292572021484,20.590164184570312,0.53
232,MetaDrive-test-reducing-q-diff-td3,72,262.899939154324,234235,969,3227.966645002365,37.883724212646484,-38.24861526489258,7.876287460327148,0.54
233,MetaDrive-test-reducing-q-diff-td3,72,263.20799948038234,235236,970,3244.7096660137177,35.98134231567383,,6.273584365844727,0.54
234,MetaDrive-test-reducing-q-diff-td3,72,261.8259001277049,236314,973,3258.4488129615784,29.139863967895508,,8.404003143310547,0.54
235,MetaDrive-test-reducing-q-diff-td3,72,261.5166208041868,237571,976,3276.116585969925,35.20069122314453,-36.60845184326172,12.536206245422363,0.54
236,MetaDrive-test-reducing-q-diff-td3,72,263.49544614040934,238464,977,3290.6995520591736,37.77845001220703,,4.751502990722656,0.54
237,MetaDrive-test-reducing-q-diff-td3,72,262.6071340473479,239178,978,3300.3869190216064,41.26464080810547,,5.841640472412109,0.54
238,MetaDrive-test-reducing-q-diff-td3,72,259.2467306687892,240040,980,3312.9443850517273,39.323974609375,,5.730283737182617,0.52
239,MetaDrive-test-reducing-q-diff-td3,72,266.77294201313396,241457,982,3335.9417040348053,41.48107147216797,-41.44255828857422,9.526510238647461,0.54
240,MetaDrive-test-reducing-q-diff-td3,72,268.0459382062766,242787,984,3354.228409767151,41.045501708984375,-41.49351501464844,5.805360794067383,0.54
241,MetaDrive-test-reducing-q-diff-td3,72,271.0515416744801,243373,985,3362.593957901001,37.26719665527344,-38.270103454589844,6.771330833435059,0.55
242,MetaDrive-test-reducing-q-diff-td3,72,271.72917218406457,244374,986,3379.927710056305,36.75598907470703,,9.101533889770508,0.54
243,MetaDrive-test-reducing-q-diff-td3,72,272.0259763349889,245509,988,3394.9054069519043,40.193603515625,-39.83182144165039,14.816065788269043,0.55
244,MetaDrive-test-reducing-q-diff-td3,72,270.9025926457299,246310,990,3404.569750070572,38.965049743652344,,3.470911741256714,0.55
245,MetaDrive-test-reducing-q-diff-td3,72,274.24699512617417,247443,992,3420.449192047119,41.71230697631836,-42.15190887451172,7.187898635864258,0.57
246,MetaDrive-test-reducing-q-diff-td3,72,270.2369527744177,248133,994,3430.2324538230896,36.56264114379883,-36.90542984008789,5.487149238586426,0.56
247,MetaDrive-test-reducing-q-diff-td3,72,273.6690430792271,249262,997,3445.672302007675,41.70884323120117,,11.273130416870117,0.58
248,MetaDrive-test-reducing-q-diff-td3,72,275.09940278119063,250407,1000,3460.278207063675,40.33768081665039,-40.608726501464844,7.547821998596191,0.6
249,MetaDrive-test-reducing-q-diff-td3,72,275.20049480062056,251574,1002,3476.733074903488,41.7723274230957,,91.7952880859375,0.6
250,MetaDrive-test-reducing-q-diff-td3,72,272.8326518876574,252575,1003,3493.09001493454,35.259342193603516,-34.436405181884766,7.500038146972656,0.59
251,MetaDrive-test-reducing-q-diff-td3,72,274.34599842879874,253069,1004,3499.250606060028,39.61355972290039,-39.51741409301758,5.131472587585449,0.6
252,MetaDrive-test-reducing-q-diff-td3,72,269.12202268559463,254352,1008,3518.6274869441986,44.49993133544922,,12.917795181274414,0.58
253,MetaDrive-test-reducing-q-diff-td3,72,267.01021844845155,255264,1010,3532.4320561885834,42.94695281982422,,8.352983474731445,0.6
254,MetaDrive-test-reducing-q-diff-td3,72,264.6862099045642,256128,1012,3543.7453198432922,34.12065505981445,,9.888643264770508,0.6
255,MetaDrive-test-reducing-q-diff-td3,72,263.01451520506714,257490,1014,3565.821175098419,37.73552322387695,,8.84979248046875,0.6
256,MetaDrive-test-reducing-q-diff-td3,72,265.3891145331591,258491,1015,3581.8887419700623,36.243709564208984,-36.62433624267578,8.496068000793457,0.6
257,MetaDrive-test-reducing-q-diff-td3,72,265.48098052098277,259015,1016,3588.9748129844666,39.75471496582031,-39.857582092285156,8.262347221374512,0.6
258,MetaDrive-test-reducing-q-diff-td3,72,264.31447952445546,260027,1018,3604.886610031128,41.46517562866211,-41.400970458984375,9.237760543823242,0.6
259,MetaDrive-test-reducing-q-diff-td3,72,259.5186041415813,261101,1021,3620.828178882599,38.131771087646484,-38.36979675292969,8.602676391601562,0.58
260,MetaDrive-test-reducing-q-diff-td3,72,253.6418898830624,262725,1024,3643.3699300289154,42.36967468261719,-43.201568603515625,6.936284065246582,0.56
261,MetaDrive-test-reducing-q-diff-td3,72,252.54744804517813,263050,1025,3647.980771780014,35.36614990234375,,9.80720329284668,0.55
262,MetaDrive-test-reducing-q-diff-td3,72,255.44571757990127,264038,1027,3662.338364839554,39.57341003417969,,79.26089477539062,0.56
263,MetaDrive-test-reducing-q-diff-td3,72,259.1266267603839,265018,1028,3679.605101108551,39.43463134765625,,6.028711318969727,0.56
264,MetaDrive-test-reducing-q-diff-td3,71,255.43971758127032,266965,1032,3708.2995159626007,38.723045349121094,-39.134117126464844,7.8012237548828125,0.54
265,MetaDrive-test-reducing-q-diff-td3,71,256.8092965559899,267314,1033,3713.4572417736053,38.484771728515625,,27.429641723632812,0.54
266,MetaDrive-test-reducing-q-diff-td3,71,256.4081587527292,268070,1036,3725.944494009018,40.312252044677734,,8.332986831665039,0.53
267,MetaDrive-test-reducing-q-diff-td3,71,258.81759816494036,269089,1038,3741.7002470493317,44.35960388183594,-44.53083801269531,15.001300811767578,0.54
268,MetaDrive-test-reducing-q-diff-td3,71,252.02344456684378,270412,1042,3761.3839428424835,38.69859313964844,,30.459606170654297,0.51
269,MetaDrive-test-reducing-q-diff-td3,71,250.5719651616929,271058,1044,3770.5543937683105,40.06749725341797,,9.666604995727539,0.51
270,MetaDrive-test-reducing-q-diff-td3,71,249.05884039424328,272075,1046,3787.19327378273,39.07868576049805,-39.35091781616211,10.718238830566406,0.52
271,MetaDrive-test-reducing-q-diff-td3,71,246.0233289590285,273229,1048,3804.885843038559,38.752601623535156,-38.9821662902832,10.02679443359375,0.51
272,MetaDrive-test-reducing-q-diff-td3,71,245.44719867244007,274058,1050,3817.339366912842,36.8228759765625,,12.229024887084961,0.51
273,MetaDrive-test-reducing-q-diff-td3,71,242.4255480887267,275059,1051,3833.81844496727,37.1796875,-36.596920013427734,5.074082374572754,0.5
274,MetaDrive-test-reducing-q-diff-td3,71,236.91481711545367,276373,1055,3853.2398331165314,39.711769104003906,-40.94435119628906,11.557748794555664,0.48
275,MetaDrive-test-reducing-q-diff-td3,71,238.3849595020214,277194,1058,3864.921375989914,39.967010498046875,,8.934732437133789,0.49
276,MetaDrive-test-reducing-q-diff-td3,71,238.74345627860035,278808,1061,3889.12095785141,37.42564010620117,,9.620471954345703,0.5
277,MetaDrive-test-reducing-q-diff-td3,71,238.05298087734525,279220,1062,3894.657595872879,39.123165130615234,,5.884354591369629,0.49
278,MetaDrive-test-reducing-q-diff-td3,71,240.7145948516541,280320,1065,3910.032753944397,44.082725524902344,,9.915143013000488,0.5
279,MetaDrive-test-reducing-q-diff-td3,71,243.3851071963665,281590,1067,3928.2032368183136,38.19504928588867,,9.029061317443848,0.5
280,MetaDrive-test-reducing-q-diff-td3,71,243.4880640018625,282225,1069,3936.6117990016937,37.98830032348633,-37.786521911621094,9.815313339233398,0.51
281,MetaDrive-test-reducing-q-diff-td3,71,243.74811568394801,283022,1071,3949.1314928531647,43.654205322265625,,10.390226364135742,0.52
282,MetaDrive-test-reducing-q-diff-td3,71,244.52078915178274,284592,1074,3975.1500821113586,36.1883544921875,,6.684769630432129,0.5
283,MetaDrive-test-reducing-q-diff-td3,71,244.9948236165689,285279,1075,3984.5910110473633,42.5852165222168,-42.13726806640625,12.148650169372559,0.5
284,MetaDrive-test-reducing-q-diff-td3,71,245.9116737050039,286269,1076,4000.6576697826385,38.70598602294922,-39.06636047363281,36.38827133178711,0.5
285,MetaDrive-test-reducing-q-diff-td3,71,243.32838441505805,287453,1079,4017.7619519233704,41.2446174621582,-41.63665008544922,7.2549238204956055,0.49
286,MetaDrive-test-reducing-q-diff-td3,71,240.74182912336943,288242,1081,4029.4616158008575,42.91932678222656,,16.048933029174805,0.49
287,MetaDrive-test-reducing-q-diff-td3,71,240.7920786180701,289491,1083,4047.8590290546417,42.486839294433594,-43.374839782714844,54.864234924316406,0.49
288,MetaDrive-test-reducing-q-diff-td3,71,238.50698401072168,290410,1084,4061.833711862564,39.191524505615234,,15.976436614990234,0.48
289,MetaDrive-test-reducing-q-diff-td3,71,238.50869736807795,291344,1085,4076.0316948890686,39.66745376586914,,15.323192596435547,0.48
290,MetaDrive-test-reducing-q-diff-td3,71,234.54287778562852,292662,1088,4096.051862001419,41.77755355834961,,88.84373474121094,0.47
291,MetaDrive-test-reducing-q-diff-td3,71,232.52180697250978,293322,1090,4105.373923063278,40.298614501953125,,13.995037078857422,0.46
292,MetaDrive-test-reducing-q-diff-td3,71,231.46021138627447,294235,1092,4118.3009560108185,38.075294494628906,-38.786712646484375,6.639186859130859,0.46
293,MetaDrive-test-reducing-q-diff-td3,71,232.60517725629802,295585,1095,4138.623651742935,35.635650634765625,-36.10527038574219,14.49418830871582,0.47
294,MetaDrive-test-reducing-q-diff-td3,71,232.61682392747295,296025,1096,4145.957807779312,35.288848876953125,-35.46070098876953,8.22266960144043,0.47
295,MetaDrive-test-reducing-q-diff-td3,71,231.9916173312032,297426,1098,4171.413938999176,41.63922119140625,,10.044418334960938,0.45
296,MetaDrive-test-reducing-q-diff-td3,71,231.5017958333127,298005,1100,4179.893047094345,43.85924530029297,-43.25333786010742,9.203957557678223,0.44
297,MetaDrive-test-reducing-q-diff-td3,71,231.73137213311048,299006,1101,4196.484430074692,42.10602569580078,,8.044890403747559,0.43
298,MetaDrive-test-reducing-q-diff-td3,71,233.5323739452543,300313,1103,4216.302846908569,38.85839080810547,-39.08949279785156,7.472701072692871,0.44
299,MetaDrive-test-reducing-q-diff-td3,71,232.5363720999763,301022,1105,4226.598307132721,41.57148361206055,,9.035266876220703,0.44
300,MetaDrive-test-reducing-q-diff-td3,71,233.14489437176468,302304,1108,4246.319175958633,37.05876922607422,,8.611764907836914,0.43
301,MetaDrive-test-reducing-q-diff-td3,71,232.96117058170685,303304,1110,4261.105521917343,39.600746154785156,,7.063679218292236,0.43
302,MetaDrive-test-reducing-q-diff-td3,71,230.27742405148024,304103,1113,4273.8211278915405,38.74342346191406,-39.57943344116211,40.446502685546875,0.42
303,MetaDrive-test-reducing-q-diff-td3,71,229.7798937293586,305514,1115,4296.337267875671,41.87806701660156,,9.526863098144531,0.43
304,MetaDrive-test-reducing-q-diff-td3,71,227.1599314846654,306106,1117,4305.321363925934,43.10245132446289,,39.989871978759766,0.42
305,MetaDrive-test-reducing-q-diff-td3,71,227.44683318960037,307107,1118,4322.6413378715515,41.515472412109375,-41.4984130859375,8.034355163574219,0.41
306,MetaDrive-test-reducing-q-diff-td3,71,228.66624828819766,308015,1120,4334.992681980133,37.60094451904297,-37.8846321105957,5.023557662963867,0.43
307,MetaDrive-test-reducing-q-diff-td3,70,226.73003910909352,309112,1124,4354.190423965454,37.780860900878906,,177.21978759765625,0.41
308,MetaDrive-test-reducing-q-diff-td3,70,229.31234586120667,310339,1126,4373.623387813568,42.6760139465332,-42.74310302734375,6.970669746398926,0.42
309,MetaDrive-test-reducing-q-diff-td3,70,224.67515332248183,311164,1128,4386.1411809921265,39.485599517822266,,7.973782539367676,0.42
310,MetaDrive-test-reducing-q-diff-td3,70,226.54572142772165,312150,1130,4403.090999126434,44.29084014892578,,9.485708236694336,0.43
311,MetaDrive-test-reducing-q-diff-td3,70,226.2491914212981,313486,1133,4423.033309936523,43.80539321899414,,7.252604961395264,0.43
312,MetaDrive-test-reducing-q-diff-td3,70,227.9065379566699,314487,1134,4441.825551986694,44.722869873046875,-44.99554443359375,9.112637519836426,0.43
313,MetaDrive-test-reducing-q-diff-td3,70,230.9497533365092,315509,1136,4456.772046804428,37.94783401489258,-37.96430587768555,18.15993881225586,0.45
314,MetaDrive-test-reducing-q-diff-td3,70,228.58896935117735,316068,1138,4464.721389055252,45.3875732421875,,17.033340454101562,0.45
315,MetaDrive-test-reducing-q-diff-td3,70,230.90234315007726,317390,1140,4486.282763957977,37.9875602722168,,8.270965576171875,0.46
316,MetaDrive-test-reducing-q-diff-td3,70,232.78857051443308,318391,1141,4506.623011827469,44.24797821044922,-45.1122932434082,35.245018005371094,0.46
317,MetaDrive-test-reducing-q-diff-td3,70,230.8240332634283,319392,1142,4519.566480875015,38.0983772277832,,8.671369552612305,0.45
318,MetaDrive-test-reducing-q-diff-td3,70,231.54630658465348,320151,1144,4530.226376056671,48.570411682128906,-47.66072463989258,26.90401840209961,0.45
319,MetaDrive-test-reducing-q-diff-td3,70,230.41472163415727,321190,1146,4545.94779086113,35.23744201660156,,31.92766571044922,0.44
320,MetaDrive-test-reducing-q-diff-td3,70,232.4025999472298,322020,1147,4558.616532087326,38.71872329711914,,9.973921775817871,0.45
321,MetaDrive-test-reducing-q-diff-td3,70,235.5332993939375,323021,1148,4577.63553404808,39.019775390625,-38.891544342041016,7.733302116394043,0.45
322,MetaDrive-test-reducing-q-diff-td3,70,237.045950878901,324389,1151,4598.734649896622,41.26951217651367,-41.10694885253906,11.969616889953613,0.46
323,MetaDrive-test-reducing-q-diff-td3,70,239.1299205312706,325245,1153,4610.763134002686,41.245277404785156,-42.035850524902344,17.71753692626953,0.47
324,MetaDrive-test-reducing-q-diff-td3,70,240.763322260437,326456,1155,4628.285789012909,44.0755500793457,,49.34431838989258,0.48
325,MetaDrive-test-reducing-q-diff-td3,70,242.7463313503822,327543,1157,4645.015746116638,40.15382385253906,-40.137107849121094,6.954051971435547,0.49
326,MetaDrive-test-reducing-q-diff-td3,70,242.9842359659938,328411,1159,4658.592746973038,41.79402160644531,-41.50576400756836,7.543743133544922,0.49
327,MetaDrive-test-reducing-q-diff-td3,70,243.58194042110074,329724,1162,4680.871711969376,43.924705505371094,,11.03443717956543,0.49
328,MetaDrive-test-reducing-q-diff-td3,70,243.28887255559164,330362,1163,4691.665294885635,43.035282135009766,,6.734720230102539,0.48
329,MetaDrive-test-reducing-q-diff-td3,70,246.37899485261448,331074,1164,4702.873465061188,41.37572479248047,,24.29363250732422,0.49
330,MetaDrive-test-reducing-q-diff-td3,70,245.71911043527896,332241,1166,4721.320173025131,40.05429458618164,-40.8696174621582,5.296530723571777,0.48
331,MetaDrive-test-reducing-q-diff-td3,70,244.04166184454152,333058,1168,4735.776314973831,41.48197555541992,,105.19293212890625,0.47
332,MetaDrive-test-reducing-q-diff-td3,70,244.9974536796468,334339,1171,4755.368191003799,42.13554763793945,-41.95252990722656,9.581125259399414,0.47
333,MetaDrive-test-reducing-q-diff-td3,70,246.5701576331447,335067,1172,4766.144997835159,40.701419830322266,-41.04067611694336,10.013673782348633,0.48
334,MetaDrive-test-reducing-q-diff-td3,70,248.48344527339322,336068,1173,4783.298331975937,37.26292419433594,,5.582214832305908,0.48
335,MetaDrive-test-reducing-q-diff-td3,70,248.43866763768116,337282,1175,4803.066713094711,44.38349533081055,,5.636357307434082,0.49
336,MetaDrive-test-reducing-q-diff-td3,70,247.4042663499306,338070,1177,4814.685351848602,39.85173797607422,,5.325855255126953,0.49
337,MetaDrive-test-reducing-q-diff-td3,70,248.84608907928535,339638,1179,4841.041661977768,34.98424530029297,,9.325103759765625,0.5
338,MetaDrive-test-reducing-q-diff-td3,70,249.26960896640506,340139,1180,4848.41740489006,42.1256103515625,-43.8586311340332,34.169002532958984,0.5
339,MetaDrive-test-reducing-q-diff-td3,70,251.46024190393825,341140,1181,4869.018155097961,41.79512405395508,,10.353950500488281,0.5
340,MetaDrive-test-reducing-q-diff-td3,70,250.8758891449222,342486,1183,4889.555613994598,37.12309646606445,,8.313308715820312,0.5
341,MetaDrive-test-reducing-q-diff-td3,70,248.98205600809342,343354,1185,4902.919913053513,40.43681335449219,,7.821313858032227,0.5
342,MetaDrive-test-reducing-q-diff-td3,70,251.5713918660463,344072,1186,4913.607347011566,44.085845947265625,,18.81229019165039,0.51
343,MetaDrive-test-reducing-q-diff-td3,69,253.09408297608698,345425,1188,4938.340737104416,44.419490814208984,-44.82763671875,12.964202880859375,0.51
344,MetaDrive-test-reducing-q-diff-td3,69,253.88410383153422,346343,1190,4952.879019975662,39.66815948486328,-39.975650787353516,8.878397941589355,0.5
345,MetaDrive-test-reducing-q-diff-td3,69,252.568782206101,347449,1192,4971.08328795433,43.52515411376953,-43.66943359375,5.343916416168213,0.48
346,MetaDrive-test-reducing-q-diff-td3,69,253.66156739592577,348111,1193,4982.59157204628,42.8720817565918,-42.56422424316406,8.551521301269531,0.48
347,MetaDrive-test-reducing-q-diff-td3,69,254.03064616483388,349052,1195,4997.454647064209,39.01166915893555,,178.44442749023438,0.47
348,MetaDrive-test-reducing-q-diff-td3,69,255.05893837139436,350125,1197,5014.261359930038,38.30491638183594,-39.06550979614258,151.3599853515625,0.47
349,MetaDrive-test-reducing-q-diff-td3,69,255.59574310634176,351103,1198,5030.442520141602,40.70646667480469,-40.72914505004883,7.778362274169922,0.48
350,MetaDrive-test-reducing-q-diff-td3,69,258.4286387259375,352397,1200,5050.740267038345,43.28057861328125,-43.18458557128906,8.000017166137695,0.5
351,MetaDrive-test-reducing-q-diff-td3,69,255.82743232424684,353287,1202,5065.069792985916,43.90815734863281,-44.2535400390625,10.530693054199219,0.49
352,MetaDrive-test-reducing-q-diff-td3,69,256.69952079008095,354469,1204,5082.6239948272705,37.506629943847656,-37.34880065917969,8.515303611755371,0.5
353,MetaDrive-test-reducing-q-diff-td3,69,257.5319775713957,355006,1205,5090.990854978561,37.94962692260742,,5.397310256958008,0.5
354,MetaDrive-test-reducing-q-diff-td3,69,260.0581724226378,356285,1207,5112.497003078461,39.7640266418457,-40.6708869934082,8.039934158325195,0.51
355,MetaDrive-test-reducing-q-diff-td3,69,260.8092236727639,357286,1208,5134.262686014175,44.14693832397461,,65.93321990966797,0.51
356,MetaDrive-test-reducing-q-diff-td3,69,262.4121311371532,358017,1209,5145.673888921738,42.47886276245117,-42.5677375793457,8.148998260498047,0.51
357,MetaDrive-test-reducing-q-diff-td3,69,265.1241907017248,359233,1212,5164.442898035049,39.1622200012207,-39.09309387207031,6.078132629394531,0.52
358,MetaDrive-test-reducing-q-diff-td3,69,264.18139576052835,360492,1214,5186.15562915802,39.25531005859375,,9.65982437133789,0.5
359,MetaDrive-test-reducing-q-diff-td3,69,264.41817385333457,361493,1215,5206.984193086624,39.838653564453125,-39.89922332763672,5.605233192443848,0.49
360,MetaDrive-test-reducing-q-diff-td3,69,264.16746776726063,362742,1217,5231.367170095444,39.5693359375,,6.753606796264648,0.48
361,MetaDrive-test-reducing-q-diff-td3,69,264.8643096572933,363743,1218,5246.957630872726,38.762901306152344,-39.58588409423828,11.322198867797852,0.48
362,MetaDrive-test-reducing-q-diff-td3,69,265.14185563865175,364282,1219,5255.342617034912,42.9559211730957,,23.087566375732422,0.48
363,MetaDrive-test-reducing-q-diff-td3,69,268.00482208109077,365497,1222,5274.018985033035,43.69459533691406,-44.86328887939453,10.436656951904297,0.49
364,MetaDrive-test-reducing-q-diff-td3,69,270.59441872507165,366142,1223,5284.450700998306,41.95682144165039,,7.592025279998779,0.5
365,MetaDrive-test-reducing-q-diff-td3,69,270.4452756863179,367556,1226,5307.387195825577,42.089996337890625,,10.356998443603516,0.51
366,MetaDrive-test-reducing-q-diff-td3,69,271.9169410520024,368271,1227,5321.178865909576,42.49658966064453,-43.35891342163086,9.946141242980957,0.51
367,MetaDrive-test-reducing-q-diff-td3,69,272.48694883866216,369272,1228,5341.401468992233,42.974327087402344,,4.558906555175781,0.5
368,MetaDrive-test-reducing-q-diff-td3,69,271.88161835609503,370301,1231,5359.051815032959,44.24794006347656,-45.745948791503906,16.095693588256836,0.5
369,MetaDrive-test-reducing-q-diff-td3,69,270.12552550570666,371340,1234,5377.16196513176,41.745452880859375,,8.34393310546875,0.5
370,MetaDrive-test-reducing-q-diff-td3,69,271.5656209518392,372887,1236,5403.107258796692,41.634525299072266,-41.357425689697266,10.418822288513184,0.5
371,MetaDrive-test-reducing-q-diff-td3,68,273.0147162008292,373743,1237,5418.066226005554,40.55123519897461,-39.959171295166016,12.09764289855957,0.5
372,MetaDrive-test-reducing-q-diff-td3,68,275.2305594448116,374285,1238,5425.90132188797,42.60149383544922,-43.229835510253906,8.214191436767578,0.51
373,MetaDrive-test-reducing-q-diff-td3,68,273.2996233630893,375049,1240,5437.0219168663025,41.43611526489258,-41.52779006958008,8.59703254699707,0.51
374,MetaDrive-test-reducing-q-diff-td3,68,279.23831487463156,376891,1242,5470.573870182037,40.85988235473633,-41.43656539916992,8.45551586151123,0.53
375,MetaDrive-test-reducing-q-diff-td3,68,278.5174549892997,377368,1243,5477.915818929672,44.562904357910156,,9.860091209411621,0.53
376,MetaDrive-test-reducing-q-diff-td3,68,279.2300311217599,378399,1246,5495.262820959091,43.146461486816406,-43.189208984375,5.9845356941223145,0.54
377,MetaDrive-test-reducing-q-diff-td3,68,280.08349401773165,379120,1247,5507.25892996788,41.43764114379883,,17.21900177001953,0.54
378,MetaDrive-test-reducing-q-diff-td3,68,278.8750259292316,380094,1248,5520.332667827606,39.11540985107422,,16.12691879272461,0.55
379,MetaDrive-test-reducing-q-diff-td3,68,281.2421126884436,381669,1250,5538.843950033188,42.52616500854492,-42.98811340332031,8.208276748657227,0.55
380,MetaDrive-test-reducing-q-diff-td3,68,280.6532496635347,382388,1251,5546.943354845047,34.55257034301758,,5.285042762756348,0.55
381,MetaDrive-test-reducing-q-diff-td3,68,274.0428169472825,383386,1255,5559.836967945099,40.79965591430664,,10.523414611816406,0.52
382,MetaDrive-test-reducing-q-diff-td3,68,272.52624478194565,384303,1257,5570.673089027405,42.68505859375,-43.28238296508789,7.592530250549316,0.51
383,MetaDrive-test-reducing-q-diff-td3,69,276.55721668062233,385178,1258,5582.280101776123,46.05951690673828,,19.412818908691406,0.52
384,MetaDrive-test-reducing-q-diff-td3,69,278.0396762706368,386369,1260,5595.648874044418,40.43119812011719,-40.94326400756836,7.9339704513549805,0.53
385,MetaDrive-test-reducing-q-diff-td3,69,277.3684356916998,387599,1262,5608.70691204071,40.37068176269531,-40.34229278564453,9.597707748413086,0.53
386,MetaDrive-test-reducing-q-diff-td3,69,277.83850534243186,388191,1263,5614.699736118317,40.416316986083984,-39.994285583496094,8.5172119140625,0.54
387,MetaDrive-test-reducing-q-diff-td3,69,277.2240286412682,389007,1264,5623.302481889725,41.81160354614258,-42.19662857055664,122.88912963867188,0.54
388,MetaDrive-test-reducing-q-diff-td3,69,278.85629592816775,390156,1266,5635.591118812561,44.92919921875,,10.506808280944824,0.55
389,MetaDrive-test-reducing-q-diff-td3,69,279.6942409831913,391271,1268,5647.976758003235,36.379119873046875,-37.02501678466797,9.289888381958008,0.56
390,MetaDrive-test-reducing-q-diff-td3,69,281.0395731577097,392123,1269,5658.172945976257,39.14977264404297,-40.32673645019531,16.151220321655273,0.56
391,MetaDrive-test-reducing-q-diff-td3,69,283.31757897179494,393938,1271,5679.023377895355,40.4324951171875,,5.769270896911621,0.56
392,MetaDrive-test-reducing-q-diff-td3,69,282.437847397847,394453,1272,5685.127601861954,44.49112319946289,-45.504547119140625,5.714974403381348,0.56
393,MetaDrive-test-reducing-q-diff-td3,69,284.06307904020383,395171,1273,5694.084387779236,45.32844543457031,-45.232208251953125,7.023342132568359,0.57
394,MetaDrive-test-reducing-q-diff-td3,69,284.69550704264157,396535,1275,5708.707675933838,41.839420318603516,-42.039215087890625,10.615192413330078,0.57
395,MetaDrive-test-reducing-q-diff-td3,69,286.4626257383032,397947,1277,5724.026303052902,39.432655334472656,-39.34515380859375,7.504733085632324,0.58
396,MetaDrive-test-reducing-q-diff-td3,69,286.5168868245227,398526,1278,5730.375182151794,45.165504455566406,,8.349326133728027,0.58
397,MetaDrive-test-reducing-q-diff-td3,69,285.5893423677648,399083,1279,5737.070343017578,39.4539794921875,-39.05665588378906,11.545310974121094,0.57
398,MetaDrive-test-reducing-q-diff-td3,69,284.1871348541464,400734,1282,5754.358159780502,36.897483825683594,,11.988312721252441,0.57
399,MetaDrive-test-reducing-q-diff-td3,69,283.1091574375324,401212,1283,5759.192624807358,42.76771545410156,,6.288282871246338,0.56
400,MetaDrive-test-reducing-q-diff-td3,69,281.1516299425568,402999,1286,5777.988579750061,39.93825912475586,-39.589012145996094,9.017936706542969,0.55
401,MetaDrive-test-reducing-q-diff-td3,69,280.86107507350073,403695,1287,5785.23380613327,40.26430130004883,-40.68861770629883,6.440053462982178,0.56
402,MetaDrive-test-reducing-q-diff-td3,69,282.1356153252246,404395,1288,5792.580601930618,42.16438293457031,-41.92292404174805,7.080264568328857,0.56
403,MetaDrive-test-reducing-q-diff-td3,69,282.4901859166589,405310,1290,5802.096508979797,43.63031005859375,,15.112610816955566,0.57
404,MetaDrive-test-reducing-q-diff-td3,69,280.53008527147506,406634,1293,5816.329159975052,37.51732635498047,,13.933893203735352,0.57
405,MetaDrive-test-reducing-q-diff-td3,69,280.4108989765176,407157,1294,5822.7038588523865,41.08048629760742,-41.240360260009766,7.416476249694824,0.57
406,MetaDrive-test-reducing-q-diff-td3,69,282.96767725084356,408158,1295,5834.246227025986,42.5985107421875,,6.48682975769043,0.57
407,MetaDrive-test-reducing-q-diff-td3,69,282.9451402930934,409997,1297,5858.10022187233,37.070106506347656,-37.63597869873047,9.25125503540039,0.57
408,MetaDrive-test-reducing-q-diff-td3,70,283.0122166916904,410714,1298,5865.510172843933,41.20657730102539,,10.341116905212402,0.57
409,MetaDrive-test-reducing-q-diff-td3,70,282.05995199053893,411032,1299,5868.874293088913,41.46445083618164,,8.51822280883789,0.56
410,MetaDrive-test-reducing-q-diff-td3,70,279.3945503024888,412046,1302,5879.636507987976,41.57482147216797,,7.203476905822754,0.56
411,MetaDrive-test-reducing-q-diff-td3,70,277.2108481821358,413535,1305,5897.38486790657,39.65097427368164,-41.607181549072266,13.514411926269531,0.54
412,MetaDrive-test-reducing-q-diff-td3,70,278.5688504412064,414536,1306,5910.28280711174,40.17216110229492,,5.334892272949219,0.54
413,MetaDrive-test-reducing-q-diff-td3,70,278.3804103172382,415067,1307,5915.629170894623,37.54442596435547,-37.152496337890625,9.723701477050781,0.54
414,MetaDrive-test-reducing-q-diff-td3,70,277.0002343514022,416072,1309,5926.289772033691,37.354190826416016,,10.550668716430664,0.55
415,MetaDrive-test-reducing-q-diff-td3,70,279.3501029360626,417514,1311,5942.217124938965,43.1045036315918,,5.522831916809082,0.55
416,MetaDrive-test-reducing-q-diff-td3,70,279.8678615496741,418163,1312,5949.153260946274,39.89619445800781,-39.992889404296875,14.116118431091309,0.55
417,MetaDrive-test-reducing-q-diff-td3,70,279.3433987367555,419249,1314,5960.79047703743,41.32786178588867,-41.208431243896484,6.204860687255859,0.57
418,MetaDrive-test-reducing-q-diff-td3,70,281.7907899693635,420691,1316,5977.100039958954,42.421669006347656,-42.846065521240234,9.501502990722656,0.59
419,MetaDrive-test-reducing-q-diff-td3,70,282.6290668002301,421692,1317,5989.588433980942,41.24070739746094,,4.9340009689331055,0.59
420,MetaDrive-test-reducing-q-diff-td3,70,281.85025095687587,422219,1318,5994.809698104858,41.55087661743164,-41.801780700683594,24.020259857177734,0.6
421,MetaDrive-test-reducing-q-diff-td3,70,282.5431185946753,423455,1320,6008.790667057037,37.27753829956055,-37.04872512817383,8.208486557006836,0.59
422,MetaDrive-test-reducing-q-diff-td3,70,285.4633723918108,424456,1321,6019.586411952972,42.19002914428711,,10.096860885620117,0.59
423,MetaDrive-test-reducing-q-diff-td3,70,283.2195842553421,425749,1323,6034.796891927719,42.28662109375,-42.16916275024414,6.205076217651367,0.58
424,MetaDrive-test-reducing-q-diff-td3,70,283.97206081755036,426116,1324,6039.146339893341,41.106143951416016,,4.848514080047607,0.58
425,MetaDrive-test-reducing-q-diff-td3,70,280.8853818263673,427469,1327,6053.565764904022,40.44029235839844,-40.18159103393555,9.683980941772461,0.57
426,MetaDrive-test-reducing-q-diff-td3,70,281.28576692255194,428197,1328,6061.12891793251,42.314964294433594,-43.16661071777344,4.6495747566223145,0.58
427,MetaDrive-test-reducing-q-diff-td3,70,284.1251885253137,429493,1330,6075.074846029282,40.66046142578125,-41.41200637817383,8.818401336669922,0.59
428,MetaDrive-test-reducing-q-diff-td3,70,286.55988416872185,430310,1331,6083.759989023209,43.004329681396484,,9.489913940429688,0.6
429,MetaDrive-test-reducing-q-diff-td3,70,290.1608143116414,431464,1333,6096.444076061249,43.930477142333984,,11.434062004089355,0.61
430,MetaDrive-test-reducing-q-diff-td3,70,287.4219867789698,432639,1335,6110.3555319309235,43.972923278808594,-44.59370803833008,11.336349487304688,0.6
431,MetaDrive-test-reducing-q-diff-td3,70,284.9964830886869,433006,1336,6114.40997505188,43.87986373901367,,5.163511276245117,0.59
432,MetaDrive-test-reducing-q-diff-td3,70,284.6032700435619,434074,1338,6127.151447057724,46.52900314331055,,7.7313666343688965,0.59
433,MetaDrive-test-reducing-q-diff-td3,70,286.9501510514815,435296,1340,6140.267498016357,41.213134765625,,18.22325897216797,0.6
434,MetaDrive-test-reducing-q-diff-td3,70,285.0967785761931,436297,1341,6152.210890054703,45.03639221191406,-44.8298454284668,3.6962881088256836,0.59
435,MetaDrive-test-reducing-q-diff-td3,70,283.7417610709123,437010,1342,6160.290073156357,36.98338317871094,,9.818029403686523,0.59
436,MetaDrive-test-reducing-q-diff-td3,70,286.8489676492975,438164,1344,6172.84533405304,40.366485595703125,,8.435586929321289,0.6
437,MetaDrive-test-reducing-q-diff-td3,71,282.7497507049373,439394,1347,6188.274194955826,43.78798294067383,,7.810673236846924,0.58
438,MetaDrive-test-reducing-q-diff-td3,71,282.5829485108042,440152,1348,6196.426364898682,41.90699005126953,,6.48570442199707,0.58
439,MetaDrive-test-reducing-q-diff-td3,71,282.1739893231894,441393,1350,6208.972627878189,44.61476516723633,-44.1971549987793,10.256275177001953,0.59
440,MetaDrive-test-reducing-q-diff-td3,71,282.1270567991926,442265,1352,6217.700341939926,43.99406814575195,-44.01720428466797,12.262923240661621,0.59
441,MetaDrive-test-reducing-q-diff-td3,71,288.8799475924581,443613,1354,6234.546248912811,39.92030715942383,-39.17246627807617,16.54309844970703,0.61
442,MetaDrive-test-reducing-q-diff-td3,71,289.7493128156179,444092,1355,6239.176120042801,39.888214111328125,,24.60262107849121,0.62
443,MetaDrive-test-reducing-q-diff-td3,71,288.6775859547454,445319,1357,6255.616090774536,43.460758209228516,-45.441856384277344,10.24874496459961,0.61
444,MetaDrive-test-reducing-q-diff-td3,71,288.9906922830959,446187,1358,6267.08901309967,45.65370559692383,-46.135433197021484,5.790894508361816,0.61
445,MetaDrive-test-reducing-q-diff-td3,71,290.7055628185187,447793,1360,6285.2623789310455,40.73716354370117,-40.79499816894531,6.31006383895874,0.6
446,MetaDrive-test-reducing-q-diff-td3,71,289.1092743669165,448981,1362,6297.38155913353,40.254669189453125,-39.905242919921875,14.661203384399414,0.59
447,MetaDrive-test-reducing-q-diff-td3,71,288.3750137908694,449467,1363,6302.214854001999,41.69069290161133,-43.03165817260742,9.239980697631836,0.59
448,MetaDrive-test-reducing-q-diff-td3,71,287.27208871418435,450008,1364,6308.184701919556,41.96589660644531,,11.141658782958984,0.59
449,MetaDrive-test-reducing-q-diff-td3,71,287.00102856304295,451222,1366,6320.701140880585,44.61913299560547,,5.832706451416016,0.59
450,MetaDrive-test-reducing-q-diff-td3,71,287.56294126292653,452199,1368,6330.770480871201,42.05385208129883,-41.294960021972656,6.83270263671875,0.6
451,MetaDrive-test-reducing-q-diff-td3,71,286.4831995680727,453490,1370,6345.292987823486,44.29405212402344,,8.673332214355469,0.6
452,MetaDrive-test-reducing-q-diff-td3,71,285.2978948262766,454372,1372,6354.203745126724,44.481048583984375,,185.31126403808594,0.6
453,MetaDrive-test-reducing-q-diff-td3,71,282.98708388912104,455290,1373,6365.950234889984,40.73115921020508,,7.550293922424316,0.59
454,MetaDrive-test-reducing-q-diff-td3,71,282.26358898581486,456922,1375,6385.506453990936,38.545555114746094,,10.387357711791992,0.59
455,MetaDrive-test-reducing-q-diff-td3,71,283.25897740419816,457923,1376,6397.138403177261,41.509422302246094,-41.14716339111328,6.897920608520508,0.58
456,MetaDrive-test-reducing-q-diff-td3,71,280.20568760990614,458023,1377,6398.141764163971,36.36115264892578,-37.08409118652344,79.068603515625,0.57
457,MetaDrive-test-reducing-q-diff-td3,71,281.07477859568866,459235,1379,6410.3017427921295,45.1956901550293,-45.812137603759766,6.569216728210449,0.58
458,MetaDrive-test-reducing-q-diff-td3,71,282.1555216194877,460188,1381,6421.2140209674835,42.11989212036133,,8.896721839904785,0.58
459,MetaDrive-test-reducing-q-diff-td3,71,280.1372370474013,461189,1382,6438.990980863571,39.814754486083984,-40.228187561035156,7.893047332763672,0.57
460,MetaDrive-test-reducing-q-diff-td3,71,282.01746044866684,462190,1383,6450.158278942108,43.58304977416992,,5.576205253601074,0.57
461,MetaDrive-test-reducing-q-diff-td3,71,282.80228367714125,463106,1384,6461.695487976074,38.77509307861328,,146.63931274414062,0.56
462,MetaDrive-test-reducing-q-diff-td3,71,281.559132698032,464390,1387,6475.98112988472,35.95003890991211,,34.859703063964844,0.57
463,MetaDrive-test-reducing-q-diff-td3,71,282.47280308161993,465475,1389,6489.393791913986,41.64314651489258,-42.00156784057617,6.294239044189453,0.57
464,MetaDrive-test-reducing-q-diff-td3,71,281.4248357845787,466206,1391,6498.224947929382,41.45709991455078,,7.435534477233887,0.57
465,MetaDrive-test-reducing-q-diff-td3,71,283.9382003237868,467817,1393,6518.565435886383,43.445003509521484,-44.40181350708008,3.8156609535217285,0.58
466,MetaDrive-test-reducing-q-diff-td3,71,284.9474863109508,468573,1394,6527.573885917664,40.52482604980469,-40.734928131103516,6.112839698791504,0.58
467,MetaDrive-test-reducing-q-diff-td3,71,283.40497028432753,469574,1395,6541.696546077728,44.29023361206055,,7.010125160217285,0.58
468,MetaDrive-test-reducing-q-diff-td3,71,284.0801943198581,470547,1396,6553.698428869247,44.59695816040039,-45.236724853515625,9.238823890686035,0.58
469,MetaDrive-test-reducing-q-diff-td3,71,285.3781856665244,471528,1397,6566.229730129242,42.78346633911133,,7.553720474243164,0.59
470,MetaDrive-test-reducing-q-diff-td3,71,284.77982578402543,472005,1398,6571.196960926056,39.136077880859375,-38.063899993896484,7.970316410064697,0.59
471,MetaDrive-test-reducing-q-diff-td3,71,287.75106254762477,473388,1400,6585.900084972382,44.97451400756836,,10.262496948242188,0.6
472,MetaDrive-test-reducing-q-diff-td3,71,290.70981697703286,474389,1401,6598.506160974503,42.21814727783203,-43.18109893798828,4.1667680740356445,0.6
473,MetaDrive-test-reducing-q-diff-td3,71,293.8359608267172,475129,1402,6607.278681755066,39.264381408691406,-39.89503479003906,13.935406684875488,0.61
474,MetaDrive-test-reducing-q-diff-td3,71,297.13438127538024,476048,1403,6619.721497058868,44.89251708984375,,10.870071411132812,0.62
475,MetaDrive-test-reducing-q-diff-td3,71,296.9483753978174,477049,1404,6631.6000719070435,40.09440231323242,-39.342018127441406,5.062166690826416,0.61
476,MetaDrive-test-reducing-q-diff-td3,71,297.0080158835077,478036,1406,6643.539329051971,41.907508850097656,,5.186166763305664,0.61
477,MetaDrive-test-reducing-q-diff-td3,71,296.7344686913118,479247,1408,6656.218756198883,37.60954666137695,-38.32484436035156,36.49061584472656,0.61
478,MetaDrive-test-reducing-q-diff-td3,72,293.7079316581261,480904,1411,6673.692826986313,41.41548156738281,,18.365530014038086,0.6
479,MetaDrive-test-reducing-q-diff-td3,72,291.38592333922605,481158,1412,6676.247648000717,47.45195770263672,,10.9850492477417,0.59
480,MetaDrive-test-reducing-q-diff-td3,72,291.49929802733516,482159,1413,6691.310532808304,42.31844711303711,-41.94989013671875,5.273515701293945,0.58
481,MetaDrive-test-reducing-q-diff-td3,72,292.866715987898,483704,1415,6709.391583919525,41.07220458984375,,8.832021713256836,0.58
482,MetaDrive-test-reducing-q-diff-td3,72,292.41620965078863,484288,1416,6716.035385847092,35.29982376098633,,77.25630187988281,0.58
483,MetaDrive-test-reducing-q-diff-td3,72,291.97282823014893,485289,1417,6728.299911022186,40.856353759765625,-41.240257263183594,19.559974670410156,0.58
484,MetaDrive-test-reducing-q-diff-td3,72,293.04614854002847,486218,1418,6738.203908920288,39.772438049316406,,6.60550594329834,0.58
485,MetaDrive-test-reducing-q-diff-td3,72,293.9349403540454,487219,1419,6750.937156915665,43.5723762512207,-44.52046585083008,13.17481803894043,0.57
486,MetaDrive-test-reducing-q-diff-td3,72,294.05747540767265,488493,1421,6763.787629127502,38.33246612548828,-38.723697662353516,22.867403030395508,0.59
487,MetaDrive-test-reducing-q-diff-td3,72,294.2220972204519,489006,1422,6769.079881906509,42.101806640625,,10.267104148864746,0.6
488,MetaDrive-test-reducing-q-diff-td3,72,292.324857762228,490161,1424,6781.497518062592,39.21846008300781,-40.20652770996094,18.523069381713867,0.6
489,MetaDrive-test-reducing-q-diff-td3,72,294.09280803782326,491654,1426,6797.409125804901,41.908180236816406,,5.4254961013793945,0.6
490,MetaDrive-test-reducing-q-diff-td3,72,291.8626859778145,492776,1428,6811.373172998428,35.734798431396484,,8.758462905883789,0.58
491,MetaDrive-test-reducing-q-diff-td3,72,292.05222699673067,493465,1429,6818.700889825821,40.226158142089844,-40.96039962768555,9.977128028869629,0.58
492,MetaDrive-test-reducing-q-diff-td3,72,291.9535148124685,494466,1430,6830.415141820908,39.43126678466797,,7.40120267868042,0.57
493,MetaDrive-test-reducing-q-diff-td3,72,289.8523738057862,495528,1432,6841.789921998978,37.06962966918945,,15.024120330810547,0.57
494,MetaDrive-test-reducing-q-diff-td3,72,291.36496749140656,496583,1434,6853.963474988937,42.01010513305664,-41.54882049560547,12.651726722717285,0.57
495,MetaDrive-test-reducing-q-diff-td3,72,290.96147370205296,497097,1436,6860.051411867142,40.037837982177734,-40.98292541503906,7.903503894805908,0.58
496,MetaDrive-test-reducing-q-diff-td3,72,291.0165397619996,498665,1438,6877.2016859054565,42.80348587036133,-43.6253662109375,5.311878204345703,0.58
497,MetaDrive-test-reducing-q-diff-td3,72,290.918901252173,499333,1439,6884.94841504097,44.19032669067383,-44.7191162109375,14.58010482788086,0.58
