TanmayH/CS269-RL-project-code/MetaDrive-gen-step1/td3/progress.csv
,log_dir,frame_per_second,episode_reward,total_steps,total_episodes,total_time,actor_loss,critic_loss,target_q,success_rate
0,MetaDrive-gen-step1,153,7.530241195751744,1064,2,6.945989608764648,,0.01047293096780777,0.030203768983483315,0.0
1,MetaDrive-gen-step1,103,-1.878138506532976,2585,26,25.019645929336548,-0.03367268294095993,0.7755343914031982,-0.06465931236743927,0.0
2,MetaDrive-gen-step1,105,-1.6708279517654374,3586,27,33.97660779953003,,1.4745538234710693,-0.13035838305950165,0.0
3,MetaDrive-gen-step1,104,-1.682516252144641,4587,28,43.839651346206665,0.028696738183498383,0.016465898603200912,0.03561091423034668,0.0
4,MetaDrive-gen-step1,106,-1.6849234340218966,5588,29,52.35516834259033,,0.7353836297988892,-0.03450746834278107,0.0
5,MetaDrive-gen-step1,105,-2.1683548850016594,6018,34,57.172075510025024,,0.0028738812543451786,0.04278051108121872,0.0
6,MetaDrive-gen-step1,106,-2.003116348219407,7019,35,66.16242408752441,-0.03646575286984444,0.026358328759670258,0.026366107165813446,0.0
7,MetaDrive-gen-step1,105,-1.84291300985054,8020,36,76.24693894386292,,0.01744455099105835,0.014291227795183659,0.0
8,MetaDrive-gen-step1,104,-1.697140266082291,9021,37,86.26802158355713,0.058317892253398895,0.008588122203946114,-0.009250005707144737,0.0
9,MetaDrive-gen-step1,104,-1.6504161661533021,10130,39,96.50122094154358,,0.0016033201245591044,-0.015588618814945221,0.0
10,MetaDrive-gen-step1,105,-1.5341260547300657,11131,40,105.92801189422607,-0.015386704355478287,0.01298299990594387,-0.005278110969811678,0.0
11,MetaDrive-gen-step1,106,-1.4214861751992902,12132,41,114.45181894302368,,0.007046520244330168,-0.023625623434782028,0.0
12,MetaDrive-gen-step1,106,-1.364092843135663,13133,42,123.22959089279175,0.07654479146003723,0.004828907549381256,-0.028089147061109543,0.0
13,MetaDrive-gen-step1,105,-1.4626575269107618,14215,44,134.48777532577515,-0.015085791237652302,0.7782242298126221,-0.11238139867782593,0.0
14,MetaDrive-gen-step1,106,-1.4452883878655172,15216,45,142.7963089942932,,0.004706253297626972,-0.03485092520713806,0.0
15,MetaDrive-gen-step1,106,-1.6289685551539657,16859,48,158.02630066871643,0.054777637124061584,0.006415648385882378,-0.043183259665966034,0.0
16,MetaDrive-gen-step1,107,-1.708598899920758,17619,49,163.82842183113098,0.03888019919395447,0.0007350645028054714,-0.04860163480043411,0.0
17,MetaDrive-gen-step1,107,-1.5997126192621633,18620,50,172.47564458847046,,0.024268116801977158,-0.05392991751432419,0.0
18,MetaDrive-gen-step1,108,-1.6053180601580417,19621,51,180.11700868606567,0.06254147738218307,0.00017361546633765101,-0.05961475148797035,0.0
19,MetaDrive-gen-step1,109,-1.5177182961878708,20622,52,188.53172850608826,,0.007171429693698883,-0.05160832405090332,0.0
20,MetaDrive-gen-step1,109,-1.460444002592591,21623,53,197.42357516288757,0.07101914286613464,0.0007120888913050294,-0.06473363935947418,0.0
21,MetaDrive-gen-step1,109,-1.4439186890770788,22853,55,208.68718433380127,0.0764520913362503,0.7196663022041321,-0.14405226707458496,0.0
22,MetaDrive-gen-step1,109,-1.451560442443785,23854,56,217.20156407356262,,0.5682724714279175,-0.1448984295129776,0.0
23,MetaDrive-gen-step1,109,-1.4580315513008224,24855,57,226.58799576759338,0.07346049696207047,0.0034762737341225147,-0.06630156189203262,0.0
24,MetaDrive-gen-step1,109,-1.4702717836189003,25856,58,236.2009425163269,,7.613006164319813e-05,-0.07537946105003357,0.0
25,MetaDrive-gen-step1,109,-1.5390185588571355,26935,60,245.52956795692444,0.08092999458312988,0.00011228366929572076,-0.08203581720590591,0.0
26,MetaDrive-gen-step1,109,-1.5966358390022266,27019,61,246.65737581253052,0.07248735427856445,0.00021259969798848033,-0.08313435316085815,0.0
27,MetaDrive-gen-step1,109,-1.6051041473255954,28020,62,256.877464056015,,0.014487518928945065,-0.08318017423152924,0.0
28,MetaDrive-gen-step1,108,-1.6581231194557502,29121,64,267.3772099018097,0.06789530813694,0.0034356284886598587,-0.08660450577735901,0.0
29,MetaDrive-gen-step1,108,-1.6274310384465784,30197,66,277.18206310272217,0.11699012666940689,0.004661026410758495,-0.08883899450302124,0.0
30,MetaDrive-gen-step1,109,-1.6283813895403527,31198,67,285.8882772922516,,9.595955634722486e-05,-0.09525104612112045,0.0
31,MetaDrive-gen-step1,109,-1.6348184243059793,32199,68,294.9527223110199,0.09184166043996811,0.00025343935703858733,-0.0969301164150238,0.0
32,MetaDrive-gen-step1,109,-1.6981145450028716,33457,70,306.55284428596497,0.12245270609855652,0.0017985641025006771,-0.1055741012096405,0.0
33,MetaDrive-gen-step1,109,-1.6342537750368225,34458,71,314.9859666824341,,3.8842779758851975e-05,-0.10136325657367706,0.0
34,MetaDrive-gen-step1,109,-1.5741337423962645,35459,72,323.5615928173065,0.09630605578422546,0.000657606462482363,-0.10961652547121048,0.0
35,MetaDrive-gen-step1,109,-1.633078937726171,36208,74,329.9772527217865,,0.0006440967554226518,-0.10470542311668396,0.0
36,MetaDrive-gen-step1,109,-1.625609083819324,37227,76,340.4415771961212,0.11297690123319626,0.00020938957459293306,-0.11661133170127869,0.0
37,MetaDrive-gen-step1,109,-1.5258395107099643,38456,78,351.93221950531006,,0.0014449035516008735,-0.11645782738924026,0.0
38,MetaDrive-gen-step1,108,-0.0776090715910504,39002,89,359.3355267047882,,0.0011367134284228086,-0.08635029941797256,0.0
39,MetaDrive-gen-step1,106,0.7115008501691339,40021,122,374.4347970485687,-0.09382899105548859,0.01749807596206665,0.04741571843624115,0.0
40,MetaDrive-gen-step1,105,1.221503721425435,41017,156,389.2860848903656,-0.1900489628314972,0.0008087106980383396,0.12807056307792664,0.0
41,MetaDrive-gen-step1,104,1.538662309629337,42019,188,402.98802614212036,-0.319813996553421,0.007005436345934868,0.27677732706069946,0.0
42,MetaDrive-gen-step1,103,2.6490313438776365,43003,218,416.30258774757385,-0.538493812084198,1.0256121158599854,0.3288702368736267,0.0
43,MetaDrive-gen-step1,102,4.585947401716107,44003,245,429.64193749427795,-0.680189311504364,0.9611862301826477,0.5833154916763306,0.0
44,MetaDrive-gen-step1,101,7.318606826636679,45046,267,443.0952112674713,,0.092534139752388,0.9113616943359375,0.0
45,MetaDrive-gen-step1,100,9.41050166814887,46023,290,456.88169050216675,-1.25901198387146,0.021304402500391006,1.1588507890701294,0.0
46,MetaDrive-gen-step1,100,11.126814540030118,47014,314,469.81460189819336,,0.03645230084657669,1.5011340379714966,0.0
47,MetaDrive-gen-step1,99,12.6188868055552,48011,338,483.199387550354,-1.986905813217163,0.03356697037816048,1.7943267822265625,0.0
48,MetaDrive-gen-step1,98,12.835596105788259,49034,359,496.1235055923462,,0.17364972829818726,2.16557240486145,0.0
49,MetaDrive-gen-step1,98,12.986536909550084,50026,381,507.1462757587433,,1.3739166259765625,2.3796963691711426,0.0
50,MetaDrive-gen-step1,98,12.158101785876147,51005,403,519.661613702774,-2.914073944091797,0.11174814403057098,2.831956386566162,0.0
51,MetaDrive-gen-step1,97,14.623342746566442,52026,423,532.480180978775,,3.095376968383789,3.0805702209472656,0.0
52,MetaDrive-gen-step1,97,17.09279321794406,53070,441,544.1363422870636,,0.29785966873168945,3.7815985679626465,0.0
53,MetaDrive-gen-step1,97,19.09401882290707,54012,456,554.7409811019897,,0.3096886873245239,4.236180305480957,0.0
54,MetaDrive-gen-step1,97,21.389825792516675,55015,473,567.0012857913971,-4.746751308441162,0.4632044732570648,4.543591499328613,0.0
55,MetaDrive-gen-step1,96,22.314299592239962,56026,490,579.8542482852936,,0.3697075843811035,5.285465240478516,0.0
56,MetaDrive-gen-step1,96,24.798615711716835,57091,507,592.5213894844055,-6.340695381164551,3.5341854095458984,5.766565322875977,0.0
57,MetaDrive-gen-step1,96,27.552248384302093,58031,520,604.1130268573761,-6.760183334350586,4.275759696960449,6.175480842590332,0.0
58,MetaDrive-gen-step1,95,28.807707453526643,59017,533,614.8200969696045,-7.9230732917785645,0.36823755502700806,7.280975341796875,0.0
59,MetaDrive-gen-step1,95,31.452683404597803,60021,544,626.212779045105,-8.83641242980957,0.23333650827407837,8.261941909790039,0.0
60,MetaDrive-gen-step1,95,35.187148409971904,61024,554,637.2484526634216,,11.265226364135742,7.892607688903809,0.0
61,MetaDrive-gen-step1,95,41.9520767833814,62041,562,649.3901672363281,-9.342758178710938,0.5153701305389404,9.238100051879883,0.0
62,MetaDrive-gen-step1,95,46.7775778761973,63028,571,660.9501957893372,,7.90359354019165,9.649412155151367,0.0
63,MetaDrive-gen-step1,95,51.84433855480101,64050,581,672.1231887340546,,14.137365341186523,10.22288990020752,0.0
64,MetaDrive-gen-step1,95,56.696080220345195,65083,590,683.6883275508881,-11.332783699035645,0.3958709239959717,11.183344841003418,0.0
65,MetaDrive-gen-step1,95,62.18613639085193,66113,599,695.5263895988464,-12.576493263244629,9.086318969726562,11.925150871276855,0.0
66,MetaDrive-gen-step1,95,65.39429568845954,67025,608,705.440376996994,-13.567119598388672,12.402947425842285,12.936050415039062,0.0
67,MetaDrive-gen-step1,95,69.9766255240373,68122,617,716.9450147151947,,12.127796173095703,13.671371459960938,0.0
68,MetaDrive-gen-step1,94,73.8472601040036,69032,625,728.0720801353455,,1.602013349533081,14.469511032104492,0.0
69,MetaDrive-gen-step1,94,76.86654728413941,70123,636,740.4057424068451,-15.209094047546387,2.0605454444885254,15.160867691040039,0.0
70,MetaDrive-gen-step1,94,79.6949915235599,71050,644,751.7238070964813,,12.062541961669922,15.615283966064453,0.0
71,MetaDrive-gen-step1,94,81.30891950982493,72015,652,762.7613110542297,-16.103843688964844,27.630451202392578,15.040987014770508,0.0
72,MetaDrive-gen-step1,94,80.16100318924799,73039,662,774.5584104061127,-17.332077026367188,2.4131288528442383,16.645526885986328,0.0
73,MetaDrive-gen-step1,94,81.2623103314716,74157,672,787.4447033405304,-18.363338470458984,21.15450668334961,18.03440284729004,0.0
74,MetaDrive-gen-step1,94,80.74672912095498,75025,680,796.4865078926086,-18.65078353881836,18.922992706298828,18.22243881225586,0.0
75,MetaDrive-gen-step1,94,79.84296638423251,76159,691,807.9670915603638,-20.502315521240234,1.0857142210006714,20.03519630432129,0.0
76,MetaDrive-gen-step1,94,80.79027948863086,77042,698,819.5111575126648,,15.694090843200684,19.7393856048584,0.0
77,MetaDrive-gen-step1,94,82.78843167318799,78022,706,829.3395137786865,,1.2860487699508667,21.278722763061523,0.0
78,MetaDrive-gen-step1,93,83.79886690407065,79001,714,840.8388659954071,-22.239757537841797,1.6028859615325928,21.585437774658203,0.0
79,MetaDrive-gen-step1,93,81.80325185521562,80037,724,853.3612105846405,-22.27324867248535,1.0241687297821045,21.531375885009766,0.0
80,MetaDrive-gen-step1,93,84.67010469417022,81077,730,867.5979027748108,-22.57929801940918,2.555063247680664,22.76158905029297,0.01
81,MetaDrive-gen-step1,93,85.54932210337333,82078,731,878.8912425041199,,1.3912774324417114,23.066513061523438,0.01
82,MetaDrive-gen-step1,92,88.34308746234741,83079,732,898.3278391361237,-24.779922485351562,20.974063873291016,24.209714889526367,0.01
83,MetaDrive-gen-step1,92,94.65189590367146,84373,734,912.6641137599945,-25.10495376586914,1.2859578132629395,24.585037231445312,0.03
84,MetaDrive-gen-step1,91,95.69609934652753,85374,735,928.0065195560455,,1.7843900918960571,26.53942108154297,0.03
85,MetaDrive-gen-step1,91,99.97717287678907,86309,737,938.9782457351685,-25.615896224975586,2.1446409225463867,25.26570701599121,0.04
86,MetaDrive-gen-step1,91,100.05087934072351,87310,738,952.6752972602844,,45.91262435913086,25.333450317382812,0.04
87,MetaDrive-gen-step1,91,104.76265443731289,88369,740,965.4009592533112,-28.858821868896484,1.8274695873260498,28.322052001953125,0.06
88,MetaDrive-gen-step1,91,110.74776687415424,89482,742,977.519296169281,,2.1242942810058594,27.967077255249023,0.08
89,MetaDrive-gen-step1,91,113.88896086642912,90208,743,987.3079798221588,,17.244298934936523,26.86700439453125,0.09
90,MetaDrive-gen-step1,90,118.31624449793092,91986,748,1012.7716426849365,,5.38881778717041,27.691877365112305,0.1
91,MetaDrive-gen-step1,90,118.15928175465758,92069,749,1013.7573425769806,-29.583507537841797,32.757286071777344,29.239742279052734,0.1
92,MetaDrive-gen-step1,90,122.2880016712883,93525,752,1034.9581234455109,-29.358970642089844,2.108832597732544,29.456161499023438,0.12
93,MetaDrive-gen-step1,90,124.69366652974381,94165,753,1043.9677658081055,-30.099382400512695,16.86788558959961,29.51597785949707,0.13
94,MetaDrive-gen-step1,90,127.69228259764543,95159,755,1054.5103914737701,-32.718292236328125,3.3596739768981934,32.250022888183594,0.14
95,MetaDrive-gen-step1,89,134.306124863961,96644,758,1076.347439289093,,2.433182716369629,31.016433715820312,0.16
96,MetaDrive-gen-step1,89,137.05476132204157,97274,759,1083.087639093399,,3.3862054347991943,34.04451370239258,0.17
97,MetaDrive-gen-step1,89,140.17013067077096,98328,763,1095.5687012672424,,6.215281009674072,30.667070388793945,0.17
98,MetaDrive-gen-step1,89,146.57268617918646,99467,766,1108.187379360199,-34.363624572753906,3.843198299407959,33.85038757324219,0.19
99,MetaDrive-gen-step1,89,149.74089526565655,100428,769,1118.4828426837921,,5.081317901611328,34.11857986450195,0.2
100,MetaDrive-gen-step1,89,150.47344052843218,101429,770,1134.2290880680084,-30.95817756652832,6.160521030426025,30.573843002319336,0.2
101,MetaDrive-gen-step1,89,152.92216372301894,102053,771,1142.6167731285095,-34.86288070678711,5.038091659545898,34.348026275634766,0.21
102,MetaDrive-gen-step1,89,155.66819354819245,103267,773,1158.6164109706879,-35.68457794189453,2.318709135055542,34.77106475830078,0.22
103,MetaDrive-gen-step1,88,159.04212660365351,104172,774,1171.3311417102814,,6.350302219390869,32.05475997924805,0.23
104,MetaDrive-gen-step1,88,162.43967567203958,105012,775,1183.0291261672974,,3.474008083343506,36.10846710205078,0.24
105,MetaDrive-gen-step1,88,169.51357072041876,106255,778,1195.0492644309998,-35.392112731933594,5.673696517944336,35.32716369628906,0.27
106,MetaDrive-gen-step1,88,174.6547372924601,107296,782,1206.884262561798,,5.494518756866455,33.88080978393555,0.28
107,MetaDrive-gen-step1,88,176.90864947120681,108061,784,1216.4033484458923,-36.178306579589844,25.312055587768555,34.8679313659668,0.29
108,MetaDrive-gen-step1,88,182.72751204016137,109457,786,1235.7444941997528,-34.562503814697266,12.629565238952637,34.58125305175781,0.3
109,MetaDrive-gen-step1,88,186.06848626872855,110061,787,1242.6828343868256,-38.23340606689453,23.143095016479492,38.21398162841797,0.31
110,MetaDrive-gen-step1,88,191.0620694702392,111185,790,1257.5239608287811,-36.98635482788086,3.7087812423706055,38.27827453613281,0.32
111,MetaDrive-gen-step1,88,192.69460934777294,112243,793,1271.1240756511688,-36.186058044433594,3.8530125617980957,35.712120056152344,0.33
112,MetaDrive-gen-step1,88,196.03727560045417,113991,796,1291.8232328891754,-36.704986572265625,10.632989883422852,37.16963195800781,0.34
113,MetaDrive-gen-step1,88,199.86231936075671,114643,797,1299.2717688083649,-37.70269012451172,5.669078350067139,37.362831115722656,0.35
114,MetaDrive-gen-step1,88,201.84127709259477,115147,798,1305.4163172245026,-34.155216217041016,9.811044692993164,34.79380416870117,0.35
115,MetaDrive-gen-step1,88,206.85782147094935,116466,801,1319.6363546848297,,8.78392219543457,37.23284912109375,0.37
116,MetaDrive-gen-step1,87,208.39542201080596,117467,802,1336.8963191509247,-34.08620071411133,42.279518127441406,33.60504913330078,0.37
117,MetaDrive-gen-step1,87,212.55751886414473,118468,803,1353.118210554123,,70.9525146484375,37.078704833984375,0.37
118,MetaDrive-gen-step1,87,213.69118688369656,119002,806,1360.1376421451569,,9.462854385375977,36.14643859863281,0.37
119,MetaDrive-gen-step1,87,219.53952216236743,120280,809,1374.8937849998474,,6.172249794006348,37.56544876098633,0.39
120,MetaDrive-gen-step1,87,221.9658320973614,121432,813,1386.467841386795,,39.95828628540039,35.284332275390625,0.4
121,MetaDrive-gen-step1,87,225.47661654340573,122462,815,1398.7718605995178,,6.258814811706543,37.32482147216797,0.41
122,MetaDrive-gen-step1,87,230.41024611736665,123521,817,1413.615693807602,-39.104248046875,4.5648722648620605,38.69612121582031,0.42
123,MetaDrive-gen-step1,87,233.84292929199992,124494,821,1424.9942135810852,,37.041587829589844,38.655738830566406,0.43
124,MetaDrive-gen-step1,87,235.40287516472026,125363,826,1433.4123039245605,-39.35552215576172,2.209878444671631,39.2659912109375,0.44
125,MetaDrive-gen-step1,87,236.21657062956936,126163,828,1443.7952463626862,-39.82046127319336,5.375361919403076,39.767879486083984,0.44
126,MetaDrive-gen-step1,87,237.0729843454102,127164,829,1455.812067747116,,5.711512565612793,38.49272918701172,0.44
127,MetaDrive-gen-step1,87,241.6496660713625,128257,831,1469.2307512760162,-39.024314880371094,72.06773376464844,37.805931091308594,0.46
128,MetaDrive-gen-step1,87,241.06974066142203,129011,833,1479.3215119838715,-37.684078216552734,10.63838005065918,37.01911163330078,0.45
129,MetaDrive-gen-step1,87,239.2090630175573,130012,834,1494.185931444168,,7.187333583831787,37.46842575073242,0.44
130,MetaDrive-gen-step1,86,239.32583184735475,131301,837,1510.5195217132568,-42.319793701171875,6.326986312866211,41.30925369262695,0.44
131,MetaDrive-gen-step1,86,239.5112192272437,132149,839,1519.8453266620636,-42.29511260986328,6.097086429595947,41.471500396728516,0.44
132,MetaDrive-gen-step1,86,241.41342216524026,133508,841,1537.5806605815887,,6.144282341003418,38.8962516784668,0.44
133,MetaDrive-gen-step1,86,240.38257003489824,134004,842,1543.4908595085144,,7.213436126708984,36.76097106933594,0.44
134,MetaDrive-gen-step1,86,241.16000325192033,135221,844,1560.366346359253,-41.92127990722656,45.728912353515625,41.365928649902344,0.44
135,MetaDrive-gen-step1,86,244.4668473081912,136326,847,1573.0092856884003,,5.033334732055664,40.699867248535156,0.45
136,MetaDrive-gen-step1,86,246.83169363726265,137813,849,1595.585037946701,-39.970027923583984,12.857232093811035,39.185298919677734,0.46
137,MetaDrive-gen-step1,86,246.95767553500653,138400,850,1601.6447925567627,,10.362503051757812,42.7748908996582,0.46
138,MetaDrive-gen-step1,86,250.03120982058576,139321,851,1611.7959501743317,-41.924102783203125,33.894935607910156,40.67210006713867,0.47
139,MetaDrive-gen-step1,86,249.16468451873882,140059,852,1623.8222255706787,-43.42181396484375,14.769390106201172,42.43540573120117,0.47
140,MetaDrive-gen-step1,86,245.09196677361643,141509,857,1641.304324388504,-40.95925521850586,44.410850524902344,40.726043701171875,0.45
141,MetaDrive-gen-step1,86,245.22540519680106,142149,858,1650.093141078949,-41.763153076171875,11.730112075805664,42.07986831665039,0.45
142,MetaDrive-gen-step1,85,247.46804551236636,143613,860,1674.6481065750122,-42.385093688964844,3.71763277053833,42.18397521972656,0.45
143,MetaDrive-gen-step1,85,250.7950407557332,144376,861,1684.8091366291046,,6.017030239105225,45.82722854614258,0.46
144,MetaDrive-gen-step1,85,252.57834892708928,145126,863,1691.7439334392548,,55.738616943359375,40.37677001953125,0.48
145,MetaDrive-gen-step1,85,249.323347466584,146025,866,1702.0091593265533,-42.124176025390625,8.467928886413574,41.71464538574219,0.46
146,MetaDrive-gen-step1,85,250.71439778159893,147376,869,1717.295129776001,,24.474435806274414,42.84226989746094,0.46
147,MetaDrive-gen-step1,85,249.1403274785848,148054,871,1726.5034985542297,,9.735550880432129,42.93204116821289,0.45
148,MetaDrive-gen-step1,85,247.53229468476223,149113,874,1736.4682338237762,-42.963050842285156,6.882498264312744,42.19813919067383,0.46
149,MetaDrive-gen-step1,85,237.1356731190138,150133,879,1748.2693622112274,-44.59566879272461,75.07646179199219,43.25165939331055,0.42
150,MetaDrive-gen-step1,85,240.3419078597661,151888,882,1769.9305393695831,,9.215185165405273,41.83128356933594,0.44
151,MetaDrive-gen-step1,85,241.95142535441855,152562,883,1778.7491204738617,,44.882225036621094,41.46160888671875,0.44
152,MetaDrive-gen-step1,85,242.99297429192916,153563,884,1789.4248390197754,-43.13285446166992,79.190185546875,41.98805618286133,0.44
153,MetaDrive-gen-step1,85,243.57870190923953,154015,885,1794.5883140563965,-48.41056823730469,5.807175636291504,48.48118591308594,0.44
154,MetaDrive-gen-step1,85,241.18698494416753,155016,887,1809.7959594726562,,9.861175537109375,44.403053283691406,0.44
155,MetaDrive-gen-step1,85,245.00418924117716,156449,889,1832.311442375183,-44.8486328125,4.151309967041016,44.375816345214844,0.44
156,MetaDrive-gen-step1,85,245.05117879142264,157450,890,1847.6693277359009,,29.279701232910156,44.580963134765625,0.44
157,MetaDrive-gen-step1,85,245.0164426904362,158451,891,1861.7017710208893,-43.080352783203125,44.12437438964844,41.71405792236328,0.43
158,MetaDrive-gen-step1,85,248.43945310613333,159410,893,1872.8990259170532,,9.654435157775879,48.06024932861328,0.45
159,MetaDrive-gen-step1,85,246.92961061329711,160411,894,1883.6669931411743,-42.73241424560547,28.968366622924805,41.468963623046875,0.44
160,MetaDrive-gen-step1,85,245.89901649856645,161119,897,1891.6029353141785,-45.673423767089844,6.709798812866211,45.089515686035156,0.44
161,MetaDrive-gen-step1,85,246.93973206378556,162388,899,1905.284009695053,,5.3736572265625,45.9344482421875,0.45
162,MetaDrive-gen-step1,85,247.3584014822676,163703,902,1922.0430059432983,-41.696285247802734,7.379217147827148,42.00251388549805,0.46
163,MetaDrive-gen-step1,85,244.40672510560228,164180,904,1927.1192071437836,,8.783632278442383,45.446895599365234,0.47
164,MetaDrive-gen-step1,85,252.21525433370817,165626,907,1947.7110419273376,,5.2339253425598145,43.988502502441406,0.49
165,MetaDrive-gen-step1,85,248.98178471805974,166261,909,1955.8964686393738,-46.13086700439453,9.42054271697998,45.91363525390625,0.48
166,MetaDrive-gen-step1,85,251.97314089287286,167309,912,1967.145260334015,-44.8866081237793,4.465567111968994,44.65766906738281,0.48
167,MetaDrive-gen-step1,85,250.5858573146753,168293,915,1977.8721446990967,-46.99005889892578,3.121945858001709,46.358272552490234,0.47
168,MetaDrive-gen-step1,85,250.41077533493544,169292,917,1988.6790907382965,,46.60609436035156,45.0894775390625,0.47
169,MetaDrive-gen-step1,84,253.88615720396348,170022,918,2000.6299998760223,,32.89617156982422,42.84395217895508,0.48
170,MetaDrive-gen-step1,84,255.5801628593576,171023,919,2015.199696779251,-49.165122985839844,5.396256446838379,48.593345642089844,0.48
171,MetaDrive-gen-step1,84,259.04321410963144,172236,921,2027.3085806369781,,9.328004837036133,48.34156799316406,0.49
172,MetaDrive-gen-step1,84,261.72009014168907,173097,924,2036.6530034542084,-46.637306213378906,6.544717788696289,46.912933349609375,0.5
173,MetaDrive-gen-step1,84,263.7658895071973,174012,926,2047.236178636551,,44.136192321777344,45.67373275756836,0.51
174,MetaDrive-gen-step1,85,266.263018981327,175205,929,2060.911682844162,-45.573299407958984,116.54010772705078,44.340614318847656,0.53
175,MetaDrive-gen-step1,85,264.02569225745873,176546,932,2076.471424818039,,3.256572723388672,46.76740264892578,0.53
176,MetaDrive-gen-step1,85,263.9829638006776,177483,934,2087.2948813438416,-46.38470458984375,6.40305233001709,46.1075439453125,0.55
177,MetaDrive-gen-step1,85,260.2750292724754,178071,937,2093.20729970932,-48.98534393310547,5.863290786743164,48.95598602294922,0.55
178,MetaDrive-gen-step1,85,259.4210727930583,179072,938,2106.0462517738342,,6.851624488830566,47.022491455078125,0.54
179,MetaDrive-gen-step1,84,257.2719921354012,180754,941,2134.0200293064117,,9.331204414367676,45.635658264160156,0.53
180,MetaDrive-gen-step1,84,256.32204518979506,181073,942,2137.687427043915,-48.64113998413086,6.987809181213379,48.90299987792969,0.52
181,MetaDrive-gen-step1,84,257.51388117423784,182115,944,2150.3124284744263,-47.02139663696289,72.44635009765625,46.16279220581055,0.53
182,MetaDrive-gen-step1,84,259.10227784124584,183248,946,2163.844053506851,,8.147856712341309,49.92198181152344,0.53
183,MetaDrive-gen-step1,84,258.94822612104855,184225,948,2176.8123078346252,-46.94537353515625,6.314177513122559,46.55247497558594,0.53
184,MetaDrive-gen-step1,84,257.6359770858719,185226,949,2191.659828901291,,29.426746368408203,46.14139938354492,0.53
185,MetaDrive-gen-step1,84,256.8813621289522,186750,951,2215.3331389427185,,8.468412399291992,39.02006530761719,0.51
186,MetaDrive-gen-step1,84,255.26585858363416,187046,952,2217.9823808670044,,71.27510070800781,48.72991180419922,0.51
187,MetaDrive-gen-step1,84,255.97276070917044,188070,956,2228.896879196167,,20.989532470703125,46.557159423828125,0.51
188,MetaDrive-gen-step1,84,248.90124549894955,189236,960,2240.943578481674,,8.913816452026367,47.66887283325195,0.49
189,MetaDrive-gen-step1,84,250.00832391946707,190059,961,2254.023690223694,-49.53767395019531,8.737274169921875,47.689697265625,0.49
190,MetaDrive-gen-step1,84,248.8718374568425,191107,964,2266.3119671344757,-48.82984161376953,5.510878086090088,48.044349670410156,0.47
191,MetaDrive-gen-step1,84,249.09256509087257,192184,966,2280.987659215927,,6.955242156982422,49.5905647277832,0.48
192,MetaDrive-gen-step1,84,254.89376349140994,193698,968,2304.6883492469788,,30.517658233642578,47.64424514770508,0.5
193,MetaDrive-gen-step1,84,254.6119588853426,194191,969,2309.464103937149,-44.16532516479492,57.44712829589844,43.235084533691406,0.5
194,MetaDrive-gen-step1,84,256.8699698900481,195126,971,2318.566243171692,,7.414063930511475,46.758941650390625,0.52
195,MetaDrive-gen-step1,84,255.93800635463379,196370,974,2333.492372751236,,3.5224132537841797,45.384002685546875,0.51
196,MetaDrive-gen-step1,84,259.8541755769296,197011,975,2340.505865573883,-51.35219192504883,8.029199600219727,51.30650329589844,0.52
197,MetaDrive-gen-step1,84,264.65921858933837,198608,977,2360.3944070339203,,4.718095302581787,47.65431213378906,0.53
198,MetaDrive-gen-step1,83,266.3697364645223,199609,978,2379.5883815288544,-44.69969940185547,62.70636749267578,44.03843688964844,0.53
199,MetaDrive-gen-step1,83,266.61692858018085,200610,979,2390.8479845523834,,5.772915840148926,50.76557159423828,0.53
200,MetaDrive-gen-step1,83,264.94211837919215,201611,980,2401.6986145973206,-45.694419860839844,14.305906295776367,46.70409393310547,0.52
201,MetaDrive-gen-step1,83,265.291468587146,202238,981,2409.558382511139,,6.902647495269775,45.851348876953125,0.52
202,MetaDrive-gen-step1,83,267.2629590770041,203050,982,2420.373670578003,,4.7394304275512695,48.207366943359375,0.53
203,MetaDrive-gen-step1,83,262.4276672509642,204013,986,2431.662027359009,-47.078609466552734,95.59652709960938,46.015533447265625,0.51
204,MetaDrive-gen-step1,83,256.0844487389324,205340,988,2448.6868624687195,,13.251110076904297,47.09519577026367,0.49
205,MetaDrive-gen-step1,83,252.9897164268273,206742,991,2463.956999540329,,58.20064926147461,47.92880630493164,0.5
206,MetaDrive-gen-step1,83,253.12966186976763,207406,992,2472.638533592224,,10.21025562286377,43.586570739746094,0.5
207,MetaDrive-gen-step1,83,253.48259500728193,208263,993,2481.551995754242,-47.19772720336914,10.732786178588867,47.041534423828125,0.5
208,MetaDrive-gen-step1,83,255.59785894649548,209264,994,2500.258524656296,,5.95825719833374,48.870994567871094,0.5
209,MetaDrive-gen-step1,83,256.756674178676,210040,997,2509.50825548172,,4.489153861999512,49.550785064697266,0.5
210,MetaDrive-gen-step1,83,256.3156525551869,211218,999,2522.44123005867,,10.77334976196289,50.26218032836914,0.5
211,MetaDrive-gen-step1,83,259.3613736745846,212244,1001,2532.286384820938,,6.454387664794922,50.489227294921875,0.51
212,MetaDrive-gen-step1,83,258.33647935283955,213110,1003,2542.353408575058,,19.03585433959961,48.38726806640625,0.51
213,MetaDrive-gen-step1,83,259.0469286081564,214317,1005,2556.066450357437,-49.119544982910156,4.153018951416016,49.242244720458984,0.51
214,MetaDrive-gen-step1,83,260.0716189814949,215045,1006,2565.2852210998535,-51.0772705078125,5.213951110839844,50.2821044921875,0.52
215,MetaDrive-gen-step1,83,261.21286541468186,216429,1008,2583.5871806144714,-46.78649139404297,5.147061347961426,46.14513397216797,0.52
216,MetaDrive-gen-step1,83,260.94221369248385,217078,1009,2592.069585084915,,28.511886596679688,48.19523620605469,0.52
217,MetaDrive-gen-step1,83,264.5020987288692,218917,1012,2615.5638983249664,-52.36451721191406,149.83912658691406,51.20990753173828,0.52
218,MetaDrive-gen-step1,83,263.9325051821809,219130,1013,2617.9441294670105,,12.089011192321777,48.22883605957031,0.52
219,MetaDrive-gen-step1,83,259.8880840048743,220093,1017,2629.0302505493164,-48.16289138793945,6.365146636962891,48.36737823486328,0.51
220,MetaDrive-gen-step1,83,259.27026224270105,221094,1018,2643.894288301468,,7.620615005493164,49.02601623535156,0.5
221,MetaDrive-gen-step1,83,254.68388138123996,222002,1022,2653.2719173431396,,6.288023948669434,51.10974884033203,0.49
222,MetaDrive-gen-step1,83,255.30731999537602,223299,1025,2665.786868095398,-49.61485290527344,107.84161376953125,48.42637634277344,0.49
223,MetaDrive-gen-step1,83,257.89879590422316,224778,1027,2688.327176094055,,4.158918857574463,47.795021057128906,0.49
224,MetaDrive-gen-step1,83,258.43873844310014,225420,1028,2699.388512611389,,9.848579406738281,46.632102966308594,0.48
225,MetaDrive-gen-step1,83,260.4465373489389,226967,1031,2722.298585176468,-49.1562614440918,7.517386436462402,50.068485260009766,0.47
226,MetaDrive-gen-step1,83,259.21206820905354,227274,1032,2726.208952665329,,7.875304698944092,48.89745330810547,0.46
227,MetaDrive-gen-step1,83,260.222906526978,228701,1034,2742.908988237381,-50.60926055908203,4.4876708984375,51.11637496948242,0.46
228,MetaDrive-gen-step1,83,261.98839230598014,229020,1035,2745.508229494095,,9.401074409484863,49.03033447265625,0.47
229,MetaDrive-gen-step1,83,265.5584817858554,230071,1037,2754.8546583652496,-48.49794006347656,5.571197509765625,48.33806228637695,0.48
230,MetaDrive-gen-step1,83,264.8563196147982,231515,1041,2770.8401758670807,-50.2755012512207,7.61887264251709,49.94356155395508,0.49
231,MetaDrive-gen-step1,83,266.6569036391488,232205,1042,2779.6567356586456,-48.42213439941406,161.045166015625,48.015167236328125,0.5
232,MetaDrive-gen-step1,83,268.2527765869559,233003,1043,2790.6568591594696,-48.08213806152344,47.101768493652344,46.753971099853516,0.49
233,MetaDrive-gen-step1,83,264.40826888583933,234345,1046,2808.54141330719,-47.80058670043945,27.63359832763672,47.557838439941406,0.48
234,MetaDrive-gen-step1,83,264.06801137570534,235071,1047,2817.637307167053,-50.09194564819336,3.981882095336914,49.26429748535156,0.48
235,MetaDrive-gen-step1,83,266.76372085447053,236444,1049,2833.131140232086,,13.75054931640625,45.75696563720703,0.49
236,MetaDrive-gen-step1,83,264.712671008113,237162,1051,2840.3914952278137,,6.051002502441406,46.749732971191406,0.5
237,MetaDrive-gen-step1,83,267.9320346724387,238987,1055,2869.686817407608,-49.98780059814453,125.63218688964844,49.69599914550781,0.5
238,MetaDrive-gen-step1,83,269.07638380003743,239678,1056,2877.977396965027,,18.94557762145996,50.45104217529297,0.51
239,MetaDrive-gen-step1,83,269.82263041225235,240277,1058,2884.7014243602753,-48.70989990234375,11.61402416229248,49.03874206542969,0.52
240,MetaDrive-gen-step1,83,269.62770679925984,241049,1060,2893.1803374290466,-50.80680847167969,51.01177215576172,50.13983917236328,0.52
241,MetaDrive-gen-step1,83,272.2656605309678,242484,1062,2911.4642362594604,,11.940774917602539,47.453712463378906,0.52
242,MetaDrive-gen-step1,83,273.57081694879196,243444,1064,2922.1752004623413,,9.923422813415527,47.28739929199219,0.54
243,MetaDrive-gen-step1,83,272.8418582817336,244627,1067,2936.9164967536926,-48.352699279785156,9.217813491821289,47.516700744628906,0.54
244,MetaDrive-gen-step1,83,268.3211043245585,245300,1069,2945.6669623851776,,43.09373474121094,49.36522674560547,0.53
245,MetaDrive-gen-step1,83,268.42231456312163,246176,1070,2956.0529692173004,,10.336621284484863,47.551490783691406,0.53
246,MetaDrive-gen-step1,83,269.05818570012093,247016,1071,2966.537103652954,,16.075145721435547,49.94709396362305,0.53
247,MetaDrive-gen-step1,83,269.21568168962426,248191,1074,2978.9386687278748,-47.316226959228516,4.212211608886719,47.63861846923828,0.53
248,MetaDrive-gen-step1,83,268.4538990232059,249625,1076,3001.0234653949738,-49.52843475341797,12.573171615600586,49.326622009277344,0.52
249,MetaDrive-gen-step1,83,268.3220641323532,250171,1077,3007.664912223816,-51.68573760986328,6.373202800750732,50.91417694091797,0.52
250,MetaDrive-gen-step1,83,270.6136626896447,251187,1079,3020.1616871356964,-47.97517776489258,7.822783946990967,47.321937561035156,0.53
251,MetaDrive-gen-step1,83,267.98750553488594,252036,1082,3028.81143784523,,12.37434196472168,44.587013244628906,0.52
252,MetaDrive-gen-step1,83,271.2954061733221,253037,1083,3042.5354578495026,-49.015716552734375,6.273174285888672,47.951576232910156,0.52
253,MetaDrive-gen-step1,83,272.88473023413053,254095,1085,3056.34481048584,-49.080474853515625,9.63748550415039,49.11767578125,0.53
254,MetaDrive-gen-step1,83,276.02638015776307,255635,1088,3077.401511192322,-49.62736511230469,4.621387481689453,49.064292907714844,0.55
255,MetaDrive-gen-step1,83,276.6261452063866,256207,1090,3082.597015142441,-47.655601501464844,40.91408920288086,46.8914794921875,0.55
256,MetaDrive-gen-step1,83,276.0928265039228,257035,1091,3091.759864091873,-47.63917541503906,8.294897079467773,47.050811767578125,0.56
257,MetaDrive-gen-step1,83,272.5953149137577,258394,1094,3108.287927389145,,34.48336410522461,47.67534637451172,0.56
258,MetaDrive-gen-step1,82,273.67011615207105,259395,1095,3125.4996247291565,-46.96853256225586,5.114212989807129,46.55499267578125,0.55
259,MetaDrive-gen-step1,83,278.2436229490916,260538,1097,3137.775013923645,,8.981405258178711,47.05455017089844,0.57
260,MetaDrive-gen-step1,83,277.3718954439843,261390,1098,3146.9807929992676,,61.025794982910156,47.97349548339844,0.56
261,MetaDrive-gen-step1,82,278.67210405155606,262391,1099,3161.777982711792,-50.24134063720703,7.360250473022461,48.84812927246094,0.55
262,MetaDrive-gen-step1,82,279.30063533769703,263026,1100,3170.862365961075,,8.068504333496094,47.96735382080078,0.55
263,MetaDrive-gen-step1,82,282.504047361511,264008,1102,3182.8186984062195,,11.492138862609863,50.67782974243164,0.56
264,MetaDrive-gen-step1,82,282.44226433532486,265820,1105,3210.4817612171173,,6.7978410720825195,44.92771911621094,0.54
265,MetaDrive-gen-step1,82,282.38533579583657,266455,1106,3218.8766174316406,-49.07959747314453,38.273414611816406,48.33598709106445,0.54
266,MetaDrive-gen-step1,82,280.9532246701829,267215,1108,3225.4572930336,-49.1719970703125,6.97489070892334,48.78070831298828,0.55
267,MetaDrive-gen-step1,82,275.4605128503365,268095,1111,3240.2932114601135,-48.54827880859375,16.751785278320312,48.20399475097656,0.53
268,MetaDrive-gen-step1,82,276.24303222045944,269422,1114,3259.392528772354,,6.476940631866455,46.95975112915039,0.54
269,MetaDrive-gen-step1,82,279.6527328646328,270109,1115,3266.8051624298096,-47.79685592651367,68.30424499511719,45.93915557861328,0.55
270,MetaDrive-gen-step1,82,282.70036370032386,271367,1117,3281.7120444774628,-49.83496856689453,20.554279327392578,48.51425552368164,0.56
271,MetaDrive-gen-step1,82,282.0092799170922,272133,1118,3292.2921328544617,-48.076072692871094,50.97383117675781,48.375186920166016,0.57
272,MetaDrive-gen-step1,82,286.3192744868309,273630,1120,3311.808974981308,,7.651458263397217,49.38652038574219,0.57
273,MetaDrive-gen-step1,82,287.7076404717798,274282,1122,3318.9790596961975,,10.98917007446289,45.96501922607422,0.58
274,MetaDrive-gen-step1,82,290.41779060425824,275754,1124,3339.8743205070496,,15.416271209716797,47.65332794189453,0.57
275,MetaDrive-gen-step1,82,290.0657832239151,276068,1125,3344.4057359695435,,5.996164321899414,48.715736389160156,0.56
276,MetaDrive-gen-step1,82,286.5115919638655,277112,1127,3355.6738884449005,,28.31451416015625,48.41366195678711,0.56
277,MetaDrive-gen-step1,82,282.7609327536124,278576,1131,3371.090615749359,,11.085841178894043,43.84561538696289,0.57
278,MetaDrive-gen-step1,82,281.3795000043432,279185,1133,3378.3255031108856,-47.70258331298828,6.49825382232666,46.55405807495117,0.56
279,MetaDrive-gen-step1,82,280.31891427268613,280103,1135,3388.300890684128,-49.24303436279297,11.284770965576172,49.19341278076172,0.55
280,MetaDrive-gen-step1,82,282.9694668388709,281021,1136,3403.006826400757,-47.07796859741211,7.951385974884033,47.772281646728516,0.55
281,MetaDrive-gen-step1,82,285.27880634569044,282515,1139,3421.886710882187,-46.24915313720703,18.866121292114258,46.827476501464844,0.56
282,MetaDrive-gen-step1,82,282.72593546542475,283151,1141,3427.676643848419,-53.192134857177734,6.903253555297852,51.57740783691406,0.55
283,MetaDrive-gen-step1,82,280.88682131978067,284152,1142,3441.72393655777,,12.279699325561523,50.52580642700195,0.54
284,MetaDrive-gen-step1,82,281.77073359868524,285113,1144,3451.240718603134,-49.52815246582031,129.8965606689453,48.456687927246094,0.55
285,MetaDrive-gen-step1,82,281.98375083113643,286445,1147,3466.1826977729797,-50.251304626464844,5.337407112121582,49.525657653808594,0.56
286,MetaDrive-gen-step1,82,282.3106606155356,287111,1148,3472.216572523117,-44.56853485107422,7.713320255279541,44.97040557861328,0.56
287,MetaDrive-gen-step1,82,282.35774390355414,288166,1150,3483.376106262207,,51.74028778076172,51.861968994140625,0.57
288,MetaDrive-gen-step1,82,287.4254471117881,289389,1152,3497.803202152252,-49.83507537841797,8.097753524780273,49.59141540527344,0.58
289,MetaDrive-gen-step1,82,287.7188235378149,290489,1154,3512.3954808712006,-50.79254150390625,162.28163146972656,49.54299545288086,0.58
290,MetaDrive-gen-step1,82,286.32945157161015,291674,1156,3528.8684339523315,,28.505516052246094,46.185848236083984,0.58
291,MetaDrive-gen-step1,82,288.78785708297585,292132,1157,3534.495843410492,,7.249915599822998,47.34794616699219,0.59
292,MetaDrive-gen-step1,82,290.93767112594566,293589,1159,3553.643958568573,-49.26427459716797,2.761934280395508,49.509498596191406,0.6
293,MetaDrive-gen-step1,82,282.5813598009665,294028,1162,3558.640995502472,,6.073208808898926,49.234046936035156,0.58
294,MetaDrive-gen-step1,82,280.0688985369135,295030,1165,3569.6702609062195,,4.103654384613037,48.86628341674805,0.55
295,MetaDrive-gen-step1,82,281.9440095735163,296286,1167,3584.6661982536316,,6.7222137451171875,49.02634048461914,0.56
296,MetaDrive-gen-step1,82,285.7304479776465,297077,1168,3594.4480357170105,-46.40987014770508,84.35488891601562,46.39369583129883,0.57
297,MetaDrive-gen-step1,82,284.4048321369682,298941,1171,3622.531545162201,-48.66600036621094,80.85641479492188,46.982635498046875,0.55
298,MetaDrive-gen-step1,82,286.57712587914614,299463,1172,3628.512587070465,-48.370033264160156,9.456901550292969,48.508079528808594,0.56
299,MetaDrive-gen-step1,82,283.28641180368885,300098,1174,3634.6963477134705,,6.62725830078125,47.735328674316406,0.54
300,MetaDrive-gen-step1,82,278.39128416992935,301402,1177,3653.553478240967,,5.706388473510742,51.925968170166016,0.53
301,MetaDrive-gen-step1,82,278.98298306220073,302138,1178,3663.05122756958,,11.230217933654785,48.04524612426758,0.54
302,MetaDrive-gen-step1,82,279.6055680712192,303244,1181,3674.0823147296906,,6.3045973777771,42.602256774902344,0.54
303,MetaDrive-gen-step1,82,279.948621352861,304245,1182,3689.1314055919647,-48.09920883178711,150.50790405273438,49.138484954833984,0.54
304,MetaDrive-gen-step1,82,279.60890072252806,305246,1183,3705.7756431102753,,5.743453025817871,48.54307556152344,0.54
305,MetaDrive-gen-step1,82,277.99499129845134,306314,1185,3718.353526830673,,156.9659423828125,46.80693054199219,0.53
306,MetaDrive-gen-step1,82,281.64095226630053,307020,1186,3726.373914718628,,13.862194061279297,47.87676239013672,0.54
307,MetaDrive-gen-step1,82,278.739784612422,308265,1189,3743.6643993854523,-48.03492736816406,11.466525077819824,46.756656646728516,0.53
308,MetaDrive-gen-step1,82,278.18734964896794,309318,1191,3757.756673336029,,39.52205276489258,46.686187744140625,0.52
309,MetaDrive-gen-step1,82,279.5563393179824,310073,1192,3767.288595676422,-50.921058654785156,6.241074562072754,50.320335388183594,0.52
310,MetaDrive-gen-step1,82,271.48698235423154,311377,1197,3781.7153766155243,-46.43928146362305,18.033044815063477,45.502418518066406,0.51
311,MetaDrive-gen-step1,82,269.8132824351177,312746,1199,3799.244918346405,,6.496522903442383,51.209293365478516,0.51
312,MetaDrive-gen-step1,82,268.98703237610545,313396,1200,3808.6098988056183,,7.049838542938232,49.005462646484375,0.5
313,MetaDrive-gen-step1,82,266.91047802237955,314397,1201,3820.7826075553894,-48.79716110229492,13.948113441467285,48.765098571777344,0.49
314,MetaDrive-gen-step1,82,267.0326161121231,315216,1202,3831.500852584839,,6.091999053955078,48.42167663574219,0.49
315,MetaDrive-gen-step1,82,257.4756908483257,316301,1207,3843.4239513874054,-48.10419464111328,4.892555236816406,47.82618713378906,0.46
316,MetaDrive-gen-step1,82,259.71656947486014,317247,1209,3854.119458913803,-50.93436813354492,11.858575820922852,49.78349685668945,0.46
317,MetaDrive-gen-step1,82,262.10687908223014,318301,1211,3866.1401205062866,-46.212432861328125,16.97011947631836,46.34593200683594,0.48
318,MetaDrive-gen-step1,82,263.57846597749716,319328,1213,3877.001314640045,,8.847448348999023,50.290321350097656,0.49
319,MetaDrive-gen-step1,82,264.56079815042796,320004,1214,3883.8852541446686,,13.076506614685059,44.153709411621094,0.5
320,MetaDrive-gen-step1,82,263.6846631570868,321147,1216,3895.399046897888,-48.146934509277344,12.718381881713867,48.67955780029297,0.5
321,MetaDrive-gen-step1,82,264.16346092154004,322552,1218,3912.2108874320984,,9.614675521850586,46.97346496582031,0.51
322,MetaDrive-gen-step1,82,266.1630318269695,323493,1219,3924.788416624069,-47.887733459472656,7.024771213531494,47.401283264160156,0.52
323,MetaDrive-gen-step1,82,266.15576632831994,324071,1220,3931.0974156856537,-45.87388229370117,8.117144584655762,45.596412658691406,0.52
324,MetaDrive-gen-step1,82,262.01028329641355,325436,1224,3946.8973665237427,,12.512855529785156,46.80170440673828,0.53
325,MetaDrive-gen-step1,82,261.4623031352805,326240,1226,3956.085923910141,,6.682041168212891,49.30762481689453,0.52
326,MetaDrive-gen-step1,82,264.50664789866835,327349,1228,3969.5759258270264,-51.414981842041016,5.700037479400635,50.84061050415039,0.53
327,MetaDrive-gen-step1,82,265.87895466332174,328058,1230,3977.6911268234253,,9.818195343017578,47.00971221923828,0.53
328,MetaDrive-gen-step1,82,267.3990319689236,329257,1232,3990.2993421554565,-45.80979919433594,33.56507110595703,45.553077697753906,0.54
329,MetaDrive-gen-step1,82,266.96490502215084,330905,1235,4009.096925497055,-49.42533874511719,80.27153015136719,47.09556579589844,0.54
330,MetaDrive-gen-step1,82,264.2406478946138,331373,1236,4013.9961574077606,-48.880123138427734,6.835287094116211,48.92936325073242,0.54
331,MetaDrive-gen-step1,82,265.3278657915899,332854,1238,4033.7511298656464,,21.660924911499023,51.15923309326172,0.54
332,MetaDrive-gen-step1,82,263.58926743791244,333335,1239,4038.460143327713,-49.794921875,44.13964080810547,49.12504196166992,0.54
333,MetaDrive-gen-step1,82,266.0222503845487,334403,1241,4049.6858258247375,-47.47149658203125,7.913782119750977,48.37168502807617,0.55
334,MetaDrive-gen-step1,82,266.62348315536764,335472,1243,4061.5723462104797,,5.3141961097717285,49.41240692138672,0.56
335,MetaDrive-gen-step1,82,264.8808690409393,336134,1245,4068.7980530261993,,5.244444847106934,49.44761276245117,0.55
336,MetaDrive-gen-step1,82,264.48900049909605,337182,1247,4081.5146210193634,,14.15032958984375,46.5423583984375,0.55
337,MetaDrive-gen-step1,82,264.22208110607687,338001,1249,4090.215585708618,-53.091529846191406,9.964000701904297,52.57279968261719,0.54
338,MetaDrive-gen-step1,82,263.180208993137,339567,1251,4110.497128725052,-47.550994873046875,7.210273742675781,47.295654296875,0.53
339,MetaDrive-gen-step1,82,264.07338074725567,340177,1252,4116.917857885361,-50.07951354980469,7.296596527099609,49.39368438720703,0.53
340,MetaDrive-gen-step1,82,265.6843331818107,341275,1254,4129.243449449539,-47.131317138671875,96.63497924804688,46.53839111328125,0.54
341,MetaDrive-gen-step1,82,266.42375451015187,342083,1255,4139.795247554779,-51.34859085083008,7.045145034790039,50.353946685791016,0.54
342,MetaDrive-gen-step1,82,269.2767867595844,343585,1257,4160.981129407883,-49.66272735595703,12.953697204589844,50.11316680908203,0.54
343,MetaDrive-gen-step1,82,264.9817588103988,344053,1259,4166.10725235939,-46.760894775390625,7.248693466186523,46.38943099975586,0.52
344,MetaDrive-gen-step1,82,270.73227388344037,345085,1261,4175.820964813232,-46.76914978027344,12.431842803955078,47.24561309814453,0.54
345,MetaDrive-gen-step1,82,274.0302171119028,346183,1263,4188.52049446106,-50.16569137573242,15.933363914489746,49.0748291015625,0.56
346,MetaDrive-gen-step1,82,275.4318833863033,347660,1265,4206.578727960587,,5.559516906738281,46.35825729370117,0.57
347,MetaDrive-gen-step1,82,271.3504770972811,348760,1267,4219.323374032974,,4.018476963043213,50.54438400268555,0.55
348,MetaDrive-gen-step1,82,271.57069475295197,349620,1268,4231.967835187912,,6.5693864822387695,44.78460693359375,0.55
349,MetaDrive-gen-step1,82,271.55977176671894,350512,1270,4241.708473443985,,6.4811859130859375,50.384605407714844,0.55
350,MetaDrive-gen-step1,82,270.1770884717626,351480,1272,4251.940952062607,,5.762454509735107,47.612022399902344,0.56
351,MetaDrive-gen-step1,82,273.4138532661261,352652,1274,4264.236764192581,,6.782377243041992,45.32230758666992,0.58
352,MetaDrive-gen-step1,82,275.5878043352062,353021,1275,4267.386882305145,-42.930538177490234,107.8431396484375,42.29491424560547,0.59
353,MetaDrive-gen-step1,82,275.7921536322679,354313,1277,4280.470497131348,-46.378623962402344,11.978039741516113,45.262489318847656,0.6
354,MetaDrive-gen-step1,82,275.21584135227096,355197,1278,4290.786128997803,-48.60856628417969,6.397258281707764,48.42819595336914,0.6
355,MetaDrive-gen-step1,82,277.77653710154476,356502,1280,4305.809942245483,,8.129255294799805,45.64521789550781,0.6
356,MetaDrive-gen-step1,82,280.81225392166436,357744,1282,4321.500792264938,,5.935428619384766,47.489707946777344,0.61
357,MetaDrive-gen-step1,82,278.74710197704337,358745,1283,4333.113296031952,-48.27638244628906,5.667706489562988,46.91675567626953,0.61
358,MetaDrive-gen-step1,82,279.77019983031664,359118,1284,4336.537462234497,,4.006451606750488,47.9846076965332,0.62
359,MetaDrive-gen-step1,82,282.44525303558584,360119,1285,4352.360752820969,-50.13480758666992,11.123348236083984,50.37742233276367,0.62
360,MetaDrive-gen-step1,82,281.9346077079452,361546,1288,4371.226470708847,,6.508201599121094,45.787513732910156,0.61
361,MetaDrive-gen-step1,82,280.5645971261779,362709,1290,4385.257915735245,-52.2093620300293,6.6428422927856445,52.683509826660156,0.61
362,MetaDrive-gen-step1,82,277.2857843828988,363302,1292,4392.109131813049,,7.972116947174072,50.606849670410156,0.61
363,MetaDrive-gen-step1,82,279.2287413330734,364131,1294,4402.012893199921,-48.92144012451172,11.71646499633789,48.34809875488281,0.6
364,MetaDrive-gen-step1,82,282.00059471641026,365641,1297,4419.08648276329,-47.14235305786133,9.750885963439941,45.958316802978516,0.61
365,MetaDrive-gen-step1,82,283.5076536677586,366236,1298,4426.422766923904,,9.456204414367676,44.188262939453125,0.62
366,MetaDrive-gen-step1,82,285.08512708958847,367840,1300,4449.822237491608,,16.293519973754883,48.693172454833984,0.63
367,MetaDrive-gen-step1,82,286.9343987345748,368438,1301,4455.9738557338715,,9.443912506103516,46.58858871459961,0.64
368,MetaDrive-gen-step1,82,285.6367185410782,369264,1304,4463.5163033008575,,14.095088958740234,48.39881134033203,0.64
369,MetaDrive-gen-step1,82,288.44705312461844,370549,1307,4478.384302616119,-48.617088317871094,10.878436088562012,47.347557067871094,0.66
370,MetaDrive-gen-step1,82,287.20448456682846,371321,1309,4485.990257978439,-48.3258056640625,5.735630989074707,47.86875534057617,0.66
371,MetaDrive-gen-step1,82,288.2286731021491,372790,1311,4504.155841827393,,10.477209091186523,50.17034912109375,0.66
372,MetaDrive-gen-step1,82,287.99026012879284,373262,1312,4510.157524347305,,116.72052001953125,44.770599365234375,0.65
373,MetaDrive-gen-step1,82,285.167682256372,374174,1314,4520.807065010071,,14.023942947387695,43.140174865722656,0.64
374,MetaDrive-gen-step1,82,285.46182100588504,375140,1315,4535.808335542679,,4.908055782318115,47.001487731933594,0.64
375,MetaDrive-gen-step1,82,286.64318728731456,376141,1316,4553.212068319321,-44.685142517089844,10.12316608428955,44.72124099731445,0.63
376,MetaDrive-gen-step1,82,284.7423991476594,377347,1318,4566.862151622772,-45.07680892944336,87.79639434814453,43.846763610839844,0.63
377,MetaDrive-gen-step1,82,282.03132407853684,378060,1319,4575.721712112427,,10.918731689453125,45.817230224609375,0.63
378,MetaDrive-gen-step1,82,282.0477314941922,379332,1322,4589.656234025955,,51.262428283691406,44.72377014160156,0.63
379,MetaDrive-gen-step1,82,282.24802337670053,380223,1324,4600.839787721634,-48.86356735229492,10.769678115844727,47.92695236206055,0.62
380,MetaDrive-gen-step1,82,283.00462680732215,381833,1326,4622.012415647507,-50.20656204223633,7.86509895324707,49.82743453979492,0.63
381,MetaDrive-gen-step1,82,282.5573111027383,382336,1327,4627.959113121033,,8.091367721557617,46.69921875,0.63
382,MetaDrive-gen-step1,82,282.9190553722744,383417,1329,4640.4169335365295,-46.50636672973633,17.51358985900879,45.71547317504883,0.63
383,MetaDrive-gen-step1,82,284.4898720607159,384127,1330,4649.970207691193,-48.576805114746094,16.414207458496094,47.68572235107422,0.64
384,MetaDrive-gen-step1,82,284.489980491647,385289,1332,4664.0626764297485,-47.09545135498047,42.83479309082031,46.55039596557617,0.64
385,MetaDrive-gen-step1,82,286.8750414065372,386198,1333,4675.057861089706,,21.34266471862793,48.76679229736328,0.65
386,MetaDrive-gen-step1,82,288.06767379025626,387315,1335,4687.4016456604,-49.583587646484375,6.148555278778076,49.11964416503906,0.66
387,MetaDrive-gen-step1,82,283.83002627559523,388070,1338,4695.497801780701,,5.7353386878967285,49.01276397705078,0.65
388,MetaDrive-gen-step1,82,280.99767552688127,389251,1341,4707.93479180336,-45.831451416015625,15.891128540039062,46.19029998779297,0.64
389,MetaDrive-gen-step1,82,284.0768843577105,390037,1342,4718.923903465271,-50.774627685546875,11.759531021118164,50.87377166748047,0.65
390,MetaDrive-gen-step1,82,283.09488407442325,391035,1343,4728.99588394165,-51.68749237060547,9.578187942504883,49.42063903808594,0.65
391,MetaDrive-gen-step1,82,285.8931460237933,392101,1345,4740.173363447189,-46.190460205078125,7.242551803588867,46.662696838378906,0.66
392,MetaDrive-gen-step1,82,283.8282112952664,393308,1347,4754.968829393387,,77.60921478271484,47.18077087402344,0.64
393,MetaDrive-gen-step1,82,284.6513582508875,394442,1349,4767.234607696533,,9.57073974609375,48.62571716308594,0.64
394,MetaDrive-gen-step1,82,284.26217859422957,395443,1350,4778.932420969009,-47.073490142822266,7.972670078277588,47.4613037109375,0.63
395,MetaDrive-gen-step1,82,283.0772240974001,396657,1352,4793.155144691467,-48.021297454833984,5.456615447998047,48.042564392089844,0.63
396,MetaDrive-gen-step1,82,283.47564756724756,397237,1353,4800.350811243057,-44.948604583740234,11.229090690612793,44.93812942504883,0.63
397,MetaDrive-gen-step1,82,278.004512195581,398528,1356,4817.637712717056,,7.820046424865723,49.37855529785156,0.62
398,MetaDrive-gen-step1,82,277.431071170156,399207,1357,4826.183025836945,-47.31904220581055,10.147401809692383,46.37453079223633,0.62
399,MetaDrive-gen-step1,82,281.0654585560184,400247,1359,4838.059163570404,-47.47549819946289,4.121846675872803,47.86396408081055,0.63
400,MetaDrive-gen-step1,82,280.55991371396544,401323,1361,4850.601780414581,-44.90509033203125,6.6102728843688965,44.6033935546875,0.63
401,MetaDrive-gen-step1,82,281.3873852358018,402454,1363,4864.8511843681335,,6.038144111633301,49.080604553222656,0.63
402,MetaDrive-gen-step1,82,283.27507938135057,403165,1364,4872.1496703624725,-50.424217224121094,21.741504669189453,48.64445877075195,0.64
403,MetaDrive-gen-step1,82,284.510837293953,404454,1366,4887.6087601184845,,6.593307018280029,52.00177764892578,0.64
404,MetaDrive-gen-step1,82,283.3394155554913,405946,1368,4907.317857980728,,23.631328582763672,50.417259216308594,0.64
405,MetaDrive-gen-step1,82,282.51829849688596,406201,1369,4909.694306135178,-46.39247131347656,12.970100402832031,46.00229263305664,0.64
406,MetaDrive-gen-step1,82,281.0275757368417,407182,1371,4922.53383398056,,9.43056583404541,46.81089782714844,0.63
407,MetaDrive-gen-step1,82,279.5736428362603,408123,1373,4933.015219926834,-45.13016128540039,8.987899780273438,45.5086669921875,0.62
408,MetaDrive-gen-step1,82,278.8454415405563,409198,1375,4945.191755771637,,10.483415603637695,51.02345275878906,0.62
409,MetaDrive-gen-step1,82,279.04649790423616,410368,1377,4957.771537065506,,7.909317493438721,44.22918701171875,0.62
410,MetaDrive-gen-step1,82,277.91361469869565,411267,1379,4966.736707210541,-50.47394561767578,7.187711715698242,49.83449935913086,0.62
411,MetaDrive-gen-step1,82,276.2206426055582,412332,1381,4978.677997112274,,20.470457077026367,42.15634536743164,0.62
412,MetaDrive-gen-step1,82,275.2724200857256,413333,1382,4997.731021642685,-48.31541442871094,16.722578048706055,47.69837188720703,0.61
413,MetaDrive-gen-step1,82,271.43282990773434,414035,1385,5005.430253744125,-49.82830810546875,10.493865966796875,50.41993713378906,0.6
414,MetaDrive-gen-step1,82,275.90843017719163,415007,1386,5020.528301954269,-45.04999542236328,34.82666778564453,44.42316818237305,0.61
415,MetaDrive-gen-step1,82,276.45325609592,416313,1388,5033.97026014328,-44.48408508300781,120.57878875732422,43.975154876708984,0.62
416,MetaDrive-gen-step1,82,275.8842471404743,417072,1391,5041.588777065277,,12.535807609558105,52.19173049926758,0.62
417,MetaDrive-gen-step1,82,276.7852381268492,418734,1393,5064.993083238602,,12.629514694213867,45.90711975097656,0.62
418,MetaDrive-gen-step1,82,277.2894179591688,419165,1394,5069.718174695969,-46.816871643066406,10.38641357421875,46.25897979736328,0.63
419,MetaDrive-gen-step1,82,280.602751443327,420293,1396,5081.214823484421,-47.0450439453125,8.503634452819824,46.26593017578125,0.64
420,MetaDrive-gen-step1,82,277.6314235808253,421294,1397,5092.480498552322,,7.499560356140137,47.14103698730469,0.63
421,MetaDrive-gen-step1,82,277.4127073472323,422009,1398,5100.347958803177,-47.50714874267578,4.908998489379883,47.29754638671875,0.63
422,MetaDrive-gen-step1,82,278.26876942258343,423600,1400,5123.143960237503,,11.492122650146484,41.83491516113281,0.64
423,MetaDrive-gen-step1,82,277.91861383024167,424022,1401,5126.799060344696,,18.47353744506836,49.39033508300781,0.64
424,MetaDrive-gen-step1,82,282.20553241279026,425069,1403,5137.431906461716,-44.213134765625,6.619356632232666,43.87517547607422,0.66
425,MetaDrive-gen-step1,82,284.0614306555872,426541,1406,5152.903156995773,-49.066192626953125,7.7981743812561035,48.49279022216797,0.66
426,MetaDrive-gen-step1,82,284.0494834347046,427012,1407,5157.47114443779,,12.032609939575195,50.832862854003906,0.66
427,MetaDrive-gen-step1,82,285.64491880088,428013,1408,5171.713614940643,-48.624210357666016,9.239076614379883,48.62720489501953,0.66
428,MetaDrive-gen-step1,82,285.19868321749925,429143,1410,5182.508404016495,-47.564353942871094,9.09180736541748,48.250701904296875,0.66
429,MetaDrive-gen-step1,82,286.402059917428,430682,1412,5203.059903621674,,8.618634223937988,49.37621307373047,0.66
430,MetaDrive-gen-step1,82,291.3082970018948,431643,1413,5219.964117527008,-50.01905822753906,9.528948783874512,49.45289611816406,0.67
431,MetaDrive-gen-step1,82,291.3756624564665,432278,1414,5227.077470302582,,11.597633361816406,43.9840087890625,0.67
432,MetaDrive-gen-step1,82,287.3867752617202,433411,1417,5239.39226269722,-49.295650482177734,6.695636749267578,49.21454620361328,0.67
433,MetaDrive-gen-step1,82,285.8208226090545,434335,1419,5248.66072845459,-43.29536056518555,13.465283393859863,42.17164993286133,0.66
434,MetaDrive-gen-step1,82,289.7433083991954,435637,1421,5262.110578298569,-45.498680114746094,13.772098541259766,45.276065826416016,0.67
435,MetaDrive-gen-step1,82,288.67944755126166,436009,1422,5265.563973903656,-48.77466583251953,5.319928169250488,48.61738586425781,0.67
436,MetaDrive-gen-step1,82,289.21558795460123,437362,1424,5279.034878253937,,6.040912628173828,49.566741943359375,0.67
437,MetaDrive-gen-step1,82,290.0605343814075,438467,1426,5289.600714921951,-50.075321197509766,8.155342102050781,49.22115707397461,0.68
438,MetaDrive-gen-step1,82,286.2683635789726,439056,1428,5296.7541847229,,8.600984573364258,45.92486572265625,0.66
439,MetaDrive-gen-step1,82,283.5617262608884,440333,1431,5309.091037750244,-43.83366012573242,8.968546867370605,43.994773864746094,0.65
440,MetaDrive-gen-step1,82,276.9034314619193,441667,1434,5327.5938947200775,-47.82521438598633,8.126883506774902,46.963233947753906,0.62
441,MetaDrive-gen-step1,82,276.94971485188483,442270,1435,5333.505706310272,,4.268246650695801,47.794307708740234,0.62
442,MetaDrive-gen-step1,82,279.3925682984136,443356,1437,5347.47057056427,,7.336900234222412,47.79643249511719,0.62
443,MetaDrive-gen-step1,82,279.96373396705786,444798,1439,5367.301276683807,,14.512859344482422,47.76148223876953,0.61
444,MetaDrive-gen-step1,82,284.1202017409825,445799,1440,5384.297258615494,-47.45037841796875,24.660064697265625,47.537635803222656,0.61
445,MetaDrive-gen-step1,82,283.9773336000859,446409,1441,5389.643877029419,-46.94384765625,8.710644721984863,46.065093994140625,0.61
446,MetaDrive-gen-step1,82,282.3946479779338,447021,1442,5396.60155582428,-51.64337158203125,8.405823707580566,51.04021072387695,0.61
447,MetaDrive-gen-step1,82,280.98688886687125,448584,1444,5421.571347951889,,12.58117961883545,47.91904067993164,0.6
448,MetaDrive-gen-step1,82,282.0862390913684,449484,1445,5433.253730297089,,7.020334243774414,49.412452697753906,0.6
449,MetaDrive-gen-step1,82,283.1475622246169,450195,1446,5440.285435914993,-44.314231872558594,7.626562118530273,43.52397918701172,0.61
450,MetaDrive-gen-step1,82,284.41912806431526,451446,1448,5453.76526594162,,7.4905500411987305,48.08624267578125,0.63
451,MetaDrive-gen-step1,82,280.7883907756566,452528,1450,5467.293992996216,,11.463857650756836,46.721954345703125,0.62
452,MetaDrive-gen-step1,82,278.3225777773638,453300,1452,5474.810973644257,,21.746532440185547,49.06047821044922,0.62
453,MetaDrive-gen-step1,82,276.16642584991064,454552,1454,5490.536057949066,,8.08069896697998,49.11182403564453,0.61
454,MetaDrive-gen-step1,82,278.5263880237019,455165,1455,5497.004390954971,-48.57301712036133,9.110797882080078,48.24180221557617,0.62
455,MetaDrive-gen-step1,82,278.9629060015319,456043,1456,5509.863280057907,-51.55073547363281,8.3521728515625,50.101341247558594,0.62
456,MetaDrive-gen-step1,82,276.97790701595596,457259,1459,5522.567727804184,-48.08416748046875,11.330099105834961,47.087074279785156,0.62
457,MetaDrive-gen-step1,82,276.6228794539211,458260,1460,5532.7925770282745,,27.471689224243164,48.46662902832031,0.61
458,MetaDrive-gen-step1,82,276.2904313882298,459515,1462,5543.648586034775,-48.32545852661133,5.361317157745361,47.94059753417969,0.61
459,MetaDrive-gen-step1,82,272.54103797721433,460348,1464,5552.0124888420105,,6.088963985443115,52.12510681152344,0.6
460,MetaDrive-gen-step1,82,275.5386607499261,461349,1465,5564.784098625183,-48.02736282348633,12.307555198669434,47.67675018310547,0.6
461,MetaDrive-gen-step1,82,271.83290899624177,462359,1468,5575.168342351913,-48.03649139404297,12.695920944213867,47.970603942871094,0.59
462,MetaDrive-gen-step1,82,274.05521862514126,463137,1470,5582.668085813522,-52.27756881713867,14.30575180053711,50.907196044921875,0.6
463,MetaDrive-gen-step1,82,274.3710048334334,464054,1471,5596.730940103531,,8.93790340423584,48.49518966674805,0.6
464,MetaDrive-gen-step1,82,275.04117164916215,465655,1474,5614.192179918289,-44.859012603759766,6.010828971862793,45.0921630859375,0.6
465,MetaDrive-gen-step1,82,273.5478422836762,466078,1475,5619.56278014183,,3.6475284099578857,43.35177230834961,0.59
466,MetaDrive-gen-step1,82,271.8571414041287,467095,1477,5628.89280128479,-50.30220031738281,123.27693176269531,49.52976608276367,0.58
467,MetaDrive-gen-step1,82,270.6702056102384,468821,1479,5648.500802755356,-47.01300048828125,21.09539794921875,46.177467346191406,0.57
468,MetaDrive-gen-step1,83,270.9835959886798,469229,1480,5652.686518907547,-50.16503143310547,10.922487258911133,50.10540771484375,0.57
469,MetaDrive-gen-step1,82,270.6900292957429,470337,1482,5668.1138570308685,-43.62190246582031,7.412775039672852,44.078128814697266,0.57
470,MetaDrive-gen-step1,82,267.0656168456751,471349,1486,5679.586338758469,-46.914894104003906,10.766077041625977,46.07204818725586,0.56
471,MetaDrive-gen-step1,83,267.3358893187971,472171,1487,5687.608258724213,-48.19356155395508,11.1856107711792,48.189571380615234,0.56
472,MetaDrive-gen-step1,83,268.98315016354246,473313,1489,5698.001676559448,-45.81226348876953,7.143980026245117,45.239524841308594,0.55
473,MetaDrive-gen-step1,83,270.17034289333515,474170,1491,5707.238365888596,,10.010773658752441,47.632057189941406,0.55
474,MetaDrive-gen-step1,83,268.73559718390624,475681,1493,5724.053048849106,-41.874412536621094,3.838498592376709,41.94737243652344,0.55
475,MetaDrive-gen-step1,83,268.66131388196226,476188,1494,5728.046125173569,,5.60005521774292,45.6252555847168,0.55
476,MetaDrive-gen-step1,83,267.2280634731087,477276,1496,5738.295781612396,,4.993747234344482,47.48811340332031,0.55
477,MetaDrive-gen-step1,83,268.1667836362137,478539,1498,5750.762769699097,-48.67408752441406,80.76165008544922,47.75444030761719,0.55
478,MetaDrive-gen-step1,83,266.57999786267703,479791,1500,5764.661067724228,-44.688907623291016,8.972225189208984,44.046173095703125,0.55
479,MetaDrive-gen-step1,83,266.09173636532995,480490,1501,5769.967237234116,,20.442035675048828,47.63452911376953,0.55
480,MetaDrive-gen-step1,83,264.77125177627704,481310,1503,5778.263081073761,,5.105401039123535,46.94181823730469,0.54
481,MetaDrive-gen-step1,83,265.8658469273658,482586,1505,5797.583233594894,,9.817091941833496,47.594154357910156,0.53
482,MetaDrive-gen-step1,83,264.0135391780903,483489,1507,5808.340105772018,-48.34869384765625,21.188316345214844,47.96514892578125,0.52
483,MetaDrive-gen-step1,83,263.1035429443998,484490,1508,5815.46968793869,,6.292294979095459,47.54511260986328,0.52
484,MetaDrive-gen-step1,83,260.46309084823366,485753,1511,5832.541209220886,-50.08289337158203,7.150372505187988,49.22876739501953,0.51
485,MetaDrive-gen-step1,83,260.61871614946926,486507,1512,5841.679961681366,-49.18769836425781,3.959784507751465,49.79277038574219,0.51
486,MetaDrive-gen-step1,83,258.420763394663,487072,1513,5846.768242120743,,35.19546890258789,48.69511032104492,0.51
487,MetaDrive-gen-step1,83,257.43812908075006,488836,1516,5865.449974775314,,17.398456573486328,46.86040496826172,0.5
488,MetaDrive-gen-step1,83,256.2740519507563,489396,1517,5871.16962480545,,10.656745910644531,41.17490768432617,0.5
489,MetaDrive-gen-step1,83,257.3521607196033,490067,1518,5882.104263782501,-46.40570831298828,7.61104679107666,46.310333251953125,0.49
490,MetaDrive-gen-step1,83,253.85404566020878,491135,1521,5892.893969774246,-44.82450485229492,6.876543998718262,45.17010498046875,0.49
491,MetaDrive-gen-step1,83,255.18542779383216,492012,1522,5903.019575119019,,5.967325210571289,49.16990661621094,0.49
492,MetaDrive-gen-step1,83,257.0340909513139,493011,1523,5913.960312366486,-48.378170013427734,6.103835582733154,48.08100128173828,0.49
493,MetaDrive-gen-step1,83,255.88233998182153,494138,1525,5929.820648193359,,12.369346618652344,45.91753387451172,0.49
494,MetaDrive-gen-step1,83,258.6287250983729,495432,1528,5943.029278278351,,5.5542402267456055,50.01652908325195,0.5
495,MetaDrive-gen-step1,83,260.71359788896535,496072,1529,5950.22221827507,,132.31837463378906,48.07431411743164,0.51
496,MetaDrive-gen-step1,83,262.0820384702969,497533,1532,5964.785448551178,-49.1745491027832,5.209399223327637,48.71586608886719,0.51
497,MetaDrive-gen-step1,83,264.5652725175253,498405,1533,5972.625419139862,-48.049591064453125,10.086657524108887,47.950050354003906,0.52
498,MetaDrive-gen-step1,83,266.00676843431097,499086,1534,5979.698619365692,,12.249994277954102,47.8343505859375,0.53
499,MetaDrive-gen-step1,83,265.3328721842997,500488,1537,5993.447083711624,,6.695639133453369,50.59754180908203,0.54
500,MetaDrive-gen-step1,83,266.2986470377234,501399,1538,6004.516010761261,-48.817543029785156,15.388216018676758,48.143829345703125,0.55
501,MetaDrive-gen-step1,83,260.8375184556213,502101,1540,6011.944487333298,-48.87870407104492,47.916419982910156,48.29035186767578,0.55
502,MetaDrive-gen-step1,83,260.7768331018001,503098,1542,6022.780222892761,,7.555917263031006,44.548675537109375,0.54
503,MetaDrive-gen-step1,83,259.8429629575518,504142,1544,6037.403758049011,,12.083844184875488,46.61223602294922,0.53
504,MetaDrive-gen-step1,83,259.4862818017843,505703,1546,6053.326508760452,-46.02122497558594,10.646842002868652,45.66566848754883,0.52
505,MetaDrive-gen-step1,83,259.9075901310758,506383,1547,6061.803216934204,-47.788856506347656,3.7679104804992676,47.40059280395508,0.52
506,MetaDrive-gen-step1,83,261.03821732401013,507659,1549,6078.822932958603,-47.310707092285156,8.030142784118652,46.850032806396484,0.51
507,MetaDrive-gen-step1,83,264.14746292494755,508660,1550,6095.507932186127,,11.595230102539062,46.507598876953125,0.51
508,MetaDrive-gen-step1,83,267.2688972148082,509661,1551,6108.246871232986,-49.7857666015625,8.809455871582031,49.67910385131836,0.51
509,MetaDrive-gen-step1,83,268.6742074718597,510640,1552,6117.621094465256,,8.912848472595215,44.869140625,0.51
510,MetaDrive-gen-step1,83,271.15127206222803,511457,1553,6127.177636146545,-47.685523986816406,5.692920207977295,47.31169128417969,0.52
511,MetaDrive-gen-step1,83,272.1741482321338,512329,1554,6135.924770116806,-45.653175354003906,7.674510955810547,44.98349380493164,0.53
512,MetaDrive-gen-step1,83,271.1047504446617,513330,1555,6144.131015539169,,18.20611572265625,43.19096374511719,0.52
513,MetaDrive-gen-step1,83,270.4146228881415,514610,1557,6156.154340982437,,7.482366561889648,47.10306167602539,0.51
514,MetaDrive-gen-step1,83,270.4645797156782,515161,1558,6161.683076381683,-44.40839767456055,71.26463317871094,44.06346893310547,0.51
515,MetaDrive-gen-step1,83,269.998022341071,516435,1560,6176.136719703674,-47.308773040771484,114.24208068847656,45.93463897705078,0.52
516,MetaDrive-gen-step1,83,268.4516446510455,517436,1561,6188.272577047348,,21.82799530029297,48.034385681152344,0.51
517,MetaDrive-gen-step1,83,268.16192686770006,518326,1563,6198.603709936142,,9.697111129760742,43.29280471801758,0.51
518,MetaDrive-gen-step1,83,270.09081956220655,519327,1564,6215.72194814682,-44.868370056152344,8.1617431640625,44.067718505859375,0.5
519,MetaDrive-gen-step1,83,270.7502536143186,520826,1566,6228.357565641403,,128.9021453857422,45.76003646850586,0.51
520,MetaDrive-gen-step1,83,271.6601067941001,521398,1567,6234.130738735199,,11.920433044433594,48.622467041015625,0.52
521,MetaDrive-gen-step1,83,272.75068947905726,522924,1569,6251.4732921123505,,8.077693939208984,48.89978790283203,0.52
522,MetaDrive-gen-step1,83,272.56077393605597,523554,1570,6258.854034662247,,4.9634599685668945,45.53839111328125,0.51
523,MetaDrive-gen-step1,83,271.97170240461764,524555,1571,6278.513123750687,-44.11105728149414,11.262962341308594,44.60395812988281,0.5
524,MetaDrive-gen-step1,83,273.11188991864225,525293,1572,6285.302086830139,-49.0412712097168,7.453041076660156,48.637413024902344,0.51
525,MetaDrive-gen-step1,83,274.2812516573954,526843,1574,6309.182366847992,-46.6482048034668,6.3679962158203125,46.3609619140625,0.49
526,MetaDrive-gen-step1,83,277.4555343426751,527844,1575,6322.990816831589,,13.156991958618164,46.74652099609375,0.49
527,MetaDrive-gen-step1,83,276.825280717233,528102,1576,6326.259583473206,,9.018048286437988,47.739036560058594,0.48
528,MetaDrive-gen-step1,83,278.4934797420708,529103,1577,6339.709326267242,-48.6616325378418,10.205158233642578,47.8885612487793,0.48
529,MetaDrive-gen-step1,83,277.0239331790433,530104,1578,6354.391058921814,,6.255100727081299,42.84712219238281,0.47
530,MetaDrive-gen-step1,83,278.90478030540186,531035,1579,6362.891209602356,-43.194358825683594,56.40068817138672,42.5816650390625,0.48
531,MetaDrive-gen-step1,83,278.9542530573643,532109,1581,6376.263929367065,-45.24680709838867,30.156965255737305,45.24015808105469,0.49
532,MetaDrive-gen-step1,83,278.7667951086389,533075,1584,6385.9960923194885,-45.31346130371094,5.059946537017822,44.48796081542969,0.48
533,MetaDrive-gen-step1,83,280.64595434443015,534536,1586,6399.681277751923,,11.624858856201172,42.53553771972656,0.49
534,MetaDrive-gen-step1,83,280.9572762058469,535566,1588,6411.530195951462,,5.255380630493164,41.25303649902344,0.49
535,MetaDrive-gen-step1,83,278.9249619587783,536567,1589,6424.347625255585,-45.59344482421875,4.73473596572876,45.87358856201172,0.49
536,MetaDrive-gen-step1,83,280.94837058904045,537529,1590,6435.5718586444855,-48.982330322265625,4.310028076171875,48.663780212402344,0.5
537,MetaDrive-gen-step1,83,281.081446293474,538222,1591,6443.554481506348,,11.190679550170898,47.816070556640625,0.5
538,MetaDrive-gen-step1,83,279.9414331787139,539223,1592,6457.019289016724,-46.51605987548828,18.370548248291016,46.70170593261719,0.49
539,MetaDrive-gen-step1,83,282.1607853256364,540699,1594,6471.282654047012,-43.53363800048828,23.545446395874023,43.29595184326172,0.5
540,MetaDrive-gen-step1,83,282.59288041059295,541238,1595,6476.540385723114,,16.386743545532227,45.26070785522461,0.5
541,MetaDrive-gen-step1,83,280.92023612999805,542059,1597,6483.859669923782,-44.50214767456055,132.92941284179688,43.627288818359375,0.5
542,MetaDrive-gen-step1,83,280.08159981398006,543060,1599,6495.5111293792725,,10.327779769897461,47.73577117919922,0.49
543,MetaDrive-gen-step1,83,278.6408645012124,544061,1600,6511.319863319397,-48.38523483276367,9.666221618652344,49.20699691772461,0.48
544,MetaDrive-gen-step1,83,281.41077506226515,545226,1602,6523.587501049042,,8.159348487854004,45.154666900634766,0.49
545,MetaDrive-gen-step1,83,281.1223540019561,546227,1603,6533.048617839813,-45.31120300292969,6.049575328826904,45.64661407470703,0.48
546,MetaDrive-gen-step1,83,281.44747319550345,547499,1605,6545.870582580566,-44.97509765625,5.974157333374023,44.93207931518555,0.49
547,MetaDrive-gen-step1,83,282.64991799295075,548500,1606,6554.79838347435,,10.66314697265625,45.86932373046875,0.49
548,MetaDrive-gen-step1,83,282.1289263055814,549124,1607,6563.822743177414,,9.245465278625488,45.6649169921875,0.48
549,MetaDrive-gen-step1,83,283.08203261522806,550043,1608,6572.019810438156,-45.440895080566406,4.757693767547607,45.77037811279297,0.49
550,MetaDrive-gen-step1,83,283.88808367185413,551592,1611,6591.067282438278,,6.190957546234131,42.13030242919922,0.5
551,MetaDrive-gen-step1,83,284.33166910718637,552556,1612,6604.954105377197,,6.297417163848877,47.749996185302734,0.5
552,MetaDrive-gen-step1,83,284.5254201463755,553152,1613,6611.117838382721,,4.6114091873168945,46.42180252075195,0.5
553,MetaDrive-gen-step1,83,286.60342336629924,554153,1614,6626.062981843948,-45.775882720947266,9.853434562683105,45.04997253417969,0.5
554,MetaDrive-gen-step1,83,287.141825910842,555154,1615,6639.92112493515,,7.2983222007751465,46.99910354614258,0.49
555,MetaDrive-gen-step1,83,288.23240633751504,556446,1617,6658.358199357986,,14.458011627197266,41.92995071411133,0.49
556,MetaDrive-gen-step1,83,287.7131736000108,557748,1619,6678.889302015305,,5.223422050476074,47.39592742919922,0.49
557,MetaDrive-gen-step1,83,289.4522599924947,558738,1620,6687.849236965179,,11.516046524047852,44.55427169799805,0.49
558,MetaDrive-gen-step1,83,289.513123130191,559626,1621,6698.441266536713,,7.662744522094727,44.459815979003906,0.49
559,MetaDrive-gen-step1,83,288.74404473136724,560186,1622,6703.170107841492,,4.732954025268555,40.0982666015625,0.49
560,MetaDrive-gen-step1,83,288.5570317366944,561291,1624,6713.853931188583,-42.735023498535156,10.730585098266602,42.828033447265625,0.5
561,MetaDrive-gen-step1,83,285.8524588942505,562068,1626,6721.349286317825,,15.394510269165039,45.037742614746094,0.48
562,MetaDrive-gen-step1,83,287.53886245137994,563069,1627,6732.469403505325,-43.34175109863281,7.708024501800537,43.071632385253906,0.48
563,MetaDrive-gen-step1,83,287.65795110453985,564070,1628,6740.965794801712,,7.656735897064209,44.92672348022461,0.47
564,MetaDrive-gen-step1,83,284.8584749180989,565108,1631,6752.394913196564,,7.295879364013672,43.763790130615234,0.46
565,MetaDrive-gen-step1,83,281.8558363306419,566511,1634,6767.400821208954,-44.651397705078125,5.691622734069824,44.65555191040039,0.44
566,MetaDrive-gen-step1,83,281.6843539132439,567025,1635,6771.917192697525,-43.55388259887695,7.10321044921875,43.03319549560547,0.44
567,MetaDrive-gen-step1,83,285.7090408832419,568026,1636,6784.268795490265,,7.069164276123047,43.09947967529297,0.44
568,MetaDrive-gen-step1,83,282.56911333780334,569280,1638,6800.337583780289,,7.159175872802734,46.34492492675781,0.42
569,MetaDrive-gen-step1,83,285.06660636283755,570901,1641,6814.023511648178,-42.17564392089844,15.440317153930664,42.24142837524414,0.42
570,MetaDrive-gen-step1,83,282.52147001557717,571095,1642,6816.837918996811,-47.04647445678711,9.856131553649902,47.472713470458984,0.41
571,MetaDrive-gen-step1,83,283.64803441030244,572184,1644,6832.001448631287,,7.893353462219238,44.38050079345703,0.42
572,MetaDrive-gen-step1,83,282.37991729059735,573220,1646,6841.552571296692,,6.005772590637207,47.415260314941406,0.42
573,MetaDrive-gen-step1,83,282.9418910986687,574465,1648,6856.035950183868,-46.078880310058594,6.682063102722168,46.422054290771484,0.43
574,MetaDrive-gen-step1,83,284.0025965619667,575096,1649,6863.677852630615,,8.423701286315918,48.23384475708008,0.44
575,MetaDrive-gen-step1,83,279.46129923938327,576007,1651,6872.809106826782,-44.27745056152344,8.964533805847168,44.1458740234375,0.45
576,MetaDrive-gen-step1,83,278.6497125841553,577426,1653,6888.072048425674,,5.62880277633667,41.69417953491211,0.45
577,MetaDrive-gen-step1,83,279.3196419944645,578129,1654,6894.620123624802,-44.39683532714844,6.635061264038086,44.488197326660156,0.45
578,MetaDrive-gen-step1,83,281.4144048020249,579035,1656,6905.1226308345795,-44.121543884277344,80.68878173828125,43.80823516845703,0.46
579,MetaDrive-gen-step1,83,278.9148837252553,580373,1659,6920.083283662796,-45.159385681152344,15.078014373779297,44.119327545166016,0.45
580,MetaDrive-gen-step1,83,277.8985269522507,581465,1661,6936.564925432205,-45.32377624511719,12.8499174118042,44.609771728515625,0.44
581,MetaDrive-gen-step1,83,282.27065979159244,582320,1662,6947.285470247269,,10.633337020874023,38.125701904296875,0.45
582,MetaDrive-gen-step1,83,278.26929334740225,583303,1664,6955.963667869568,-49.45764923095703,10.075780868530273,48.18061065673828,0.45
583,MetaDrive-gen-step1,83,279.5866150693362,584751,1666,6974.211042165756,-44.33713150024414,7.134839057922363,44.033164978027344,0.46
584,MetaDrive-gen-step1,83,279.79000872978804,585292,1667,6979.41791844368,,11.455459594726562,41.08692932128906,0.46
585,MetaDrive-gen-step1,83,280.3087170668659,586293,1668,6993.091724395752,-44.53881072998047,9.365898132324219,44.62888717651367,0.45
586,MetaDrive-gen-step1,83,282.32500633331915,587200,1669,7006.34438252449,,12.3054838180542,45.460914611816406,0.46
587,MetaDrive-gen-step1,83,282.91259736173976,588201,1670,7024.062727212906,-42.12173080444336,6.756261825561523,41.20072937011719,0.46
588,MetaDrive-gen-step1,83,283.9124045864012,589061,1671,7033.382975578308,-41.80474853515625,8.66712760925293,41.10376739501953,0.47
589,MetaDrive-gen-step1,83,279.4171860209072,590641,1674,7049.88763999939,-44.6324462890625,14.318351745605469,43.89866638183594,0.47
590,MetaDrive-gen-step1,83,278.6887287005196,591306,1675,7057.406449317932,,62.42912292480469,43.65784454345703,0.48
591,MetaDrive-gen-step1,83,280.2756979453555,592071,1676,7064.530338048935,-46.076499938964844,10.384660720825195,44.765228271484375,0.49
592,MetaDrive-gen-step1,83,279.6689350153523,593072,1677,7073.441633224487,,6.908071041107178,42.830684661865234,0.49
593,MetaDrive-gen-step1,83,280.86402919701646,594307,1679,7085.616667509079,-44.8543701171875,16.195873260498047,45.82261657714844,0.5
594,MetaDrive-gen-step1,83,282.4453776828417,595846,1681,7109.0186150074005,,20.19406509399414,46.606868743896484,0.49
595,MetaDrive-gen-step1,83,284.59239081718124,596693,1682,7117.946071147919,-44.492069244384766,8.50221061706543,44.47191619873047,0.5
596,MetaDrive-gen-step1,83,286.00682112615766,597094,1683,7124.114668607712,,28.985488891601562,49.99818420410156,0.5
597,MetaDrive-gen-step1,83,287.1075589184899,598447,1685,7138.547580718994,-42.09133529663086,5.519813060760498,41.81888961791992,0.5
598,MetaDrive-gen-step1,83,286.8132163683982,599448,1686,7157.056497335434,,18.227500915527344,48.43327331542969,0.5
599,MetaDrive-gen-step1,83,287.6779374512173,600189,1687,7163.0520277023315,-43.7764892578125,6.9656877517700195,43.53025817871094,0.51
600,MetaDrive-gen-step1,83,285.0752870113465,601283,1690,7173.480357408524,-43.108665466308594,8.825393676757812,43.5363883972168,0.51
601,MetaDrive-gen-step1,83,284.38488736214,602518,1693,7186.289764165878,,11.149849891662598,43.149993896484375,0.51
602,MetaDrive-gen-step1,83,283.2788192387309,603703,1695,7202.029361009598,-38.15723419189453,17.429378509521484,38.86798858642578,0.51
603,MetaDrive-gen-step1,83,285.0288945878037,604454,1696,7214.389472961426,,9.021953582763672,46.302223205566406,0.51
604,MetaDrive-gen-step1,83,280.53082369189445,605575,1700,7227.256830215454,-50.413330078125,11.172035217285156,49.37676239013672,0.5
605,MetaDrive-gen-step1,83,281.1730021576693,606217,1701,7233.472964048386,-41.26342010498047,15.95498275756836,41.36566925048828,0.5
606,MetaDrive-gen-step1,83,279.44738192798053,607047,1703,7241.92346906662,-46.331382751464844,9.061788558959961,45.76275634765625,0.51
607,MetaDrive-gen-step1,83,278.9004697148124,608048,1704,7253.489235639572,,4.534785270690918,42.42872619628906,0.5
608,MetaDrive-gen-step1,83,275.9942488989246,609172,1706,7270.303813457489,,21.512367248535156,40.90376663208008,0.5
609,MetaDrive-gen-step1,83,275.9914423677839,610050,1708,7278.917445421219,,7.849046230316162,41.25325012207031,0.51
610,MetaDrive-gen-step1,83,281.40842808766496,611539,1710,7296.082831859589,-38.26274108886719,8.93010425567627,38.79432678222656,0.51
611,MetaDrive-gen-step1,83,278.15770101028846,612485,1712,7308.556761026382,-45.322914123535156,9.891683578491211,45.660118103027344,0.5
612,MetaDrive-gen-step1,83,278.2660660564571,613206,1713,7316.146377086639,,8.580303192138672,42.671142578125,0.5
613,MetaDrive-gen-step1,83,275.4875344214415,614207,1714,7327.299758911133,-44.72917938232422,9.654386520385742,44.9127197265625,0.5
614,MetaDrive-gen-step1,83,277.4841080822278,615607,1716,7341.060896873474,-40.93522644042969,4.526963233947754,41.45085144042969,0.52
615,MetaDrive-gen-step1,83,276.9639926075828,616269,1717,7348.24081492424,-40.82548522949219,30.804134368896484,41.06522750854492,0.52
616,MetaDrive-gen-step1,83,282.14329421492005,617686,1719,7365.379950046539,,37.029300689697266,40.62187194824219,0.54
617,MetaDrive-gen-step1,83,277.6596050128912,618273,1721,7371.668137788773,-46.78596115112305,83.41719055175781,45.48017883300781,0.53
618,MetaDrive-gen-step1,83,279.03499702723093,619090,1722,7383.8105483055115,,3.856433868408203,42.59474182128906,0.53
619,MetaDrive-gen-step1,83,281.2374253498915,620500,1724,7400.727439403534,,5.37147331237793,41.723167419433594,0.54
620,MetaDrive-gen-step1,83,282.7181915500636,621084,1725,7407.185053110123,,8.141763687133789,44.453636169433594,0.55
621,MetaDrive-gen-step1,83,284.0332578407986,622016,1726,7416.302480697632,,7.267757415771484,45.43080520629883,0.56
622,MetaDrive-gen-step1,83,284.050935359826,623242,1728,7429.477607011795,,6.110723495483398,41.701263427734375,0.57
623,MetaDrive-gen-step1,83,282.8152194765078,624020,1729,7437.709961414337,,8.805632591247559,48.395416259765625,0.57
624,MetaDrive-gen-step1,83,286.89478878026904,625219,1731,7452.584046363831,-45.67108917236328,8.174991607666016,45.84172821044922,0.58
625,MetaDrive-gen-step1,83,288.98843951799057,626456,1733,7467.131531238556,,5.632969379425049,40.14515686035156,0.6
626,MetaDrive-gen-step1,83,289.0086900819525,627063,1734,7474.480853796005,-40.122779846191406,8.341341972351074,39.555755615234375,0.6
627,MetaDrive-gen-step1,83,287.5049793015496,628194,1736,7485.625505208969,,10.61709976196289,47.01756286621094,0.61
628,MetaDrive-gen-step1,83,288.0103555810976,629267,1738,7496.573505401611,-46.33997344970703,5.078661918640137,46.37481689453125,0.62
629,MetaDrive-gen-step1,83,290.9426270477485,630586,1740,7509.923817157745,,6.808143138885498,45.36469268798828,0.63
630,MetaDrive-gen-step1,83,289.7037157052994,631154,1741,7516.026772022247,,8.335830688476562,46.64748001098633,0.64
631,MetaDrive-gen-step1,83,287.6616368512683,632107,1744,7526.147627353668,-45.46379852294922,9.145488739013672,44.757781982421875,0.64
632,MetaDrive-gen-step1,83,288.52823917771735,633339,1746,7540.688394546509,-42.109588623046875,4.738635063171387,42.350189208984375,0.64
633,MetaDrive-gen-step1,84,288.47486573316104,634762,1748,7555.783332109451,,4.643314361572266,43.178409576416016,0.64
634,MetaDrive-gen-step1,84,288.2954160899286,635704,1749,7566.993439912796,,6.513104438781738,40.7530517578125,0.64
635,MetaDrive-gen-step1,84,287.70769798379547,636161,1750,7571.981151819229,-40.291542053222656,6.934475898742676,39.923011779785156,0.64
636,MetaDrive-gen-step1,84,287.5233697728347,637053,1751,7578.4852912425995,-42.49435806274414,6.906551361083984,42.722862243652344,0.64
637,MetaDrive-gen-step1,84,284.8017037124055,638054,1752,7589.468405723572,,7.260582447052002,45.645721435546875,0.63
638,MetaDrive-gen-step1,84,283.66138454798636,639154,1754,7602.779194355011,,5.773726940155029,37.627899169921875,0.62
639,MetaDrive-gen-step1,84,281.81486456756954,640317,1757,7615.236168622971,-38.58137512207031,7.363872528076172,38.54456329345703,0.62
640,MetaDrive-gen-step1,84,283.95670136341835,641625,1759,7628.713188171387,-42.491783142089844,4.8704833984375,42.334632873535156,0.63
641,MetaDrive-gen-step1,84,285.87862023763194,642019,1760,7632.169474124908,-39.05089569091797,68.60344696044922,39.06648635864258,0.64
642,MetaDrive-gen-step1,84,284.4895784736119,643646,1762,7652.037608623505,,11.401217460632324,49.20823669433594,0.64
643,MetaDrive-gen-step1,84,285.1470272022469,644150,1763,7656.129539966583,,9.014379501342773,37.95201873779297,0.65
644,MetaDrive-gen-step1,84,286.51069220574266,645151,1764,7676.501293182373,-42.01523971557617,11.965510368347168,41.299129486083984,0.64
645,MetaDrive-gen-step1,84,282.6115008157569,646140,1767,7687.082302808762,,6.002746105194092,45.26253128051758,0.62
646,MetaDrive-gen-step1,84,279.74995343395824,647256,1769,7700.131762266159,,13.463083267211914,38.69611358642578,0.62
647,MetaDrive-gen-step1,84,279.3743366674264,648839,1771,7718.344269752502,-41.270816802978516,7.905976295471191,40.45857620239258,0.63
648,MetaDrive-gen-step1,84,280.04579582213637,649805,1772,7728.241640806198,-46.76679611206055,125.50927734375,45.345970153808594,0.63
649,MetaDrive-gen-step1,84,284.84449673095577,650806,1773,7745.792523145676,,7.092268943786621,39.39463424682617,0.63
650,MetaDrive-gen-step1,84,286.48526200472844,651807,1774,7757.489991188049,-41.857643127441406,74.08719635009766,42.32953643798828,0.63
651,MetaDrive-gen-step1,84,286.9471313218123,652490,1775,7764.3895971775055,,14.27210521697998,42.21353530883789,0.63
652,MetaDrive-gen-step1,84,287.86712288635863,653096,1776,7769.929496526718,,7.434133529663086,39.87898254394531,0.63
653,MetaDrive-gen-step1,84,282.02482402123115,654430,1780,7783.307989120483,,5.276390552520752,42.83925247192383,0.62
654,MetaDrive-gen-step1,84,280.9392166989994,655386,1782,7792.749144077301,,7.585803508758545,41.0590705871582,0.63
655,MetaDrive-gen-step1,84,281.23602382533596,656387,1783,7803.9834451675415,-41.07666778564453,5.2172651290893555,41.02861404418945,0.63
656,MetaDrive-gen-step1,84,280.5916174783267,657312,1784,7815.312972545624,,8.934072494506836,43.47138595581055,0.63
657,MetaDrive-gen-step1,84,278.9095931928693,658225,1786,7825.15331697464,-44.629150390625,13.23824691772461,43.84370422363281,0.64
658,MetaDrive-gen-step1,84,280.08818773259577,659592,1788,7842.221314668655,,9.41439437866211,40.75445556640625,0.64
659,MetaDrive-gen-step1,84,283.90137792077934,660223,1789,7848.702034473419,-39.0202751159668,8.831846237182617,39.032203674316406,0.65
660,MetaDrive-gen-step1,84,284.9465394027583,661672,1791,7866.9232223033905,,4.338048458099365,43.29131317138672,0.64
661,MetaDrive-gen-step1,84,286.4997575098921,662136,1792,7871.763786077499,,8.770044326782227,36.33025360107422,0.65
662,MetaDrive-gen-step1,84,287.7603563201751,663273,1794,7884.378531932831,-39.759456634521484,6.824936866760254,39.31695556640625,0.65
663,MetaDrive-gen-step1,84,286.61499256076144,664266,1796,7895.022685289383,,7.00587272644043,41.431705474853516,0.65
664,MetaDrive-gen-step1,84,287.05369048994146,665267,1797,7906.367659807205,-38.06742858886719,28.636493682861328,38.45397186279297,0.65
665,MetaDrive-gen-step1,84,292.01578102755525,666644,1799,7929.30676984787,,5.465868949890137,36.73509979248047,0.66
666,MetaDrive-gen-step1,84,287.79201258431607,667151,1801,7934.206161975861,-41.02259063720703,5.858476161956787,41.0411262512207,0.65
667,MetaDrive-gen-step1,84,287.53941191295155,668940,1803,7958.212740182877,,8.929681777954102,39.039703369140625,0.64
668,MetaDrive-gen-step1,84,287.9917910951077,669413,1804,7962.512797117233,-40.75766372680664,5.886806011199951,41.07927703857422,0.64
669,MetaDrive-gen-step1,84,290.5264783760369,670003,1805,7968.385764598846,-40.545711517333984,6.649405479431152,40.396202087402344,0.65
670,MetaDrive-gen-step1,84,291.05487292331435,671103,1807,7978.951443195343,-43.9202880859375,7.230520248413086,43.454612731933594,0.66
671,MetaDrive-gen-step1,84,291.4130602732073,672117,1809,7990.01020026207,-39.374847412109375,8.418878555297852,38.86206817626953,0.66
672,MetaDrive-gen-step1,84,290.7573388190777,673378,1811,8003.007056236267,,13.997394561767578,39.524478912353516,0.67
673,MetaDrive-gen-step1,84,291.7752724739464,674589,1813,8015.035451889038,-42.80843734741211,8.669325828552246,42.517127990722656,0.67
674,MetaDrive-gen-step1,84,293.3483576584047,675057,1814,8019.77117061615,-44.2150993347168,8.143303871154785,44.11859130859375,0.67
675,MetaDrive-gen-step1,84,289.9472677567286,676135,1817,8031.799880981445,-42.947227478027344,8.155216217041016,42.837547302246094,0.65
676,MetaDrive-gen-step1,84,287.58615141736556,677113,1819,8042.45077252388,-42.08201217651367,3.2284560203552246,41.6789665222168,0.65
677,MetaDrive-gen-step1,84,284.85003016958905,678142,1822,8053.9782457351685,,16.576431274414062,43.20765686035156,0.64
678,MetaDrive-gen-step1,84,287.10959359043824,679114,1823,8066.937516450882,,15.307077407836914,42.845542907714844,0.64
679,MetaDrive-gen-step1,84,284.5331629498649,680568,1825,8084.094360113144,,18.169340133666992,43.57682800292969,0.63
680,MetaDrive-gen-step1,84,284.14455642921115,681921,1827,8100.322500705719,-39.41584777832031,23.839954376220703,37.41963577270508,0.63
681,MetaDrive-gen-step1,84,284.37303564838555,682875,1828,8111.23157787323,-44.10617446899414,18.699493408203125,44.037567138671875,0.63
682,MetaDrive-gen-step1,84,284.0557375324642,683876,1829,8122.501976966858,,6.507325649261475,37.91270446777344,0.62
683,MetaDrive-gen-step1,84,285.9669060986032,684877,1830,8136.305212974548,-41.69594955444336,25.289161682128906,41.32231140136719,0.62
684,MetaDrive-gen-step1,84,285.7989312018878,685878,1831,8149.614122629166,,12.148582458496094,44.076690673828125,0.61
685,MetaDrive-gen-step1,84,285.309167386285,686269,1832,8153.218407154083,-35.73686599731445,8.625055313110352,36.09355163574219,0.6
686,MetaDrive-gen-step1,84,285.25676756053235,687270,1833,8167.3098175525665,,5.929866790771484,41.696014404296875,0.59
687,MetaDrive-gen-step1,84,281.61376735698167,688679,1836,8185.899881601334,-43.169403076171875,6.351710796356201,43.131935119628906,0.56
688,MetaDrive-gen-step1,84,283.5064434776127,689581,1837,8194.871140480042,-39.66044616699219,8.98167896270752,40.770172119140625,0.57
689,MetaDrive-gen-step1,84,283.26153622374864,690582,1838,8207.526457309723,,5.917771339416504,38.66587829589844,0.56
690,MetaDrive-gen-step1,84,283.48499468948813,691375,1839,8216.919683933258,-41.47831726074219,6.699014663696289,41.146568298339844,0.56
691,MetaDrive-gen-step1,84,284.0261333492211,692328,1840,8230.621225595474,,11.306734085083008,45.781349182128906,0.56
692,MetaDrive-gen-step1,84,284.1118955258822,693329,1841,8250.03223323822,-42.583370208740234,8.722366333007812,43.021148681640625,0.55
693,MetaDrive-gen-step1,84,286.186894162102,694330,1842,8258.155392169952,,7.178784370422363,39.492347717285156,0.55
694,MetaDrive-gen-step1,84,283.72919021006436,695375,1845,8271.02596616745,-37.51126480102539,60.844383239746094,36.95964050292969,0.54
695,MetaDrive-gen-step1,84,282.9191716746496,696432,1847,8284.263773202896,,10.846779823303223,40.472877502441406,0.53
696,MetaDrive-gen-step1,84,284.14155172463916,697095,1848,8292.730011940002,-41.288639068603516,7.646260738372803,41.00076675415039,0.53
697,MetaDrive-gen-step1,84,286.11972382760933,698612,1850,8314.678214788437,,10.299152374267578,40.220458984375,0.53
698,MetaDrive-gen-step1,83,286.4859107178254,699613,1851,8329.351429700851,-44.87120056152344,4.758039474487305,44.38810348510742,0.52
699,MetaDrive-gen-step1,83,282.15150113249615,700154,1854,8335.504345655441,,8.628856658935547,38.08296203613281,0.51
700,MetaDrive-gen-step1,84,286.158699507833,701222,1856,8347.188861370087,,11.09712028503418,37.14732360839844,0.52
701,MetaDrive-gen-step1,84,282.0721250588496,702181,1859,8357.740732431412,-38.22224807739258,14.804798126220703,36.94598388671875,0.51
702,MetaDrive-gen-step1,83,279.78374618431087,703300,1861,8378.679853916168,,4.547889709472656,43.7194938659668,0.49
703,MetaDrive-gen-step1,83,273.3201172245428,704253,1864,8388.840777635574,-39.99699783325195,26.489797592163086,39.058467864990234,0.48
704,MetaDrive-gen-step1,83,274.59136781207263,705088,1865,8397.389745473862,,7.6118364334106445,37.86335372924805,0.49
705,MetaDrive-gen-step1,83,275.985769142425,706135,1867,8407.901311397552,-37.718040466308594,10.532371520996094,38.777435302734375,0.5
706,MetaDrive-gen-step1,83,268.7337829052532,707004,1871,8417.270111322403,,7.659817695617676,39.75905227661133,0.48
707,MetaDrive-gen-step1,83,267.0081784604176,708429,1873,8434.96157836914,-39.263648986816406,20.529125213623047,38.7209587097168,0.49
708,MetaDrive-gen-step1,84,265.03261289780585,709615,1875,8446.559202671051,-35.65251922607422,7.712568759918213,35.3704948425293,0.5
709,MetaDrive-gen-step1,83,264.1215214318173,710616,1876,8465.928711891174,,8.991486549377441,38.08245849609375,0.49
710,MetaDrive-gen-step1,83,266.51874016570866,711584,1877,8479.113983392715,,8.20513916015625,41.36749267578125,0.5
711,MetaDrive-gen-step1,83,268.31094340358965,712325,1878,8485.559693813324,-40.925453186035156,15.373090744018555,40.629150390625,0.51
712,MetaDrive-gen-step1,83,272.20133791763664,713534,1880,8497.415665864944,,5.8932695388793945,42.429222106933594,0.52
713,MetaDrive-gen-step1,83,273.0636401947275,714188,1881,8505.232033014297,,11.182636260986328,37.36971664428711,0.52
714,MetaDrive-gen-step1,83,272.8155700133133,715189,1882,8521.298426151276,-44.93256759643555,10.281259536743164,44.885520935058594,0.51
715,MetaDrive-gen-step1,83,274.6302531221871,716014,1883,8531.910370826721,,12.041675567626953,43.37876892089844,0.52
716,MetaDrive-gen-step1,83,272.5206426287794,717498,1886,8552.22342467308,,8.597471237182617,44.024696350097656,0.5
717,MetaDrive-gen-step1,83,271.9435109672388,718149,1887,8558.828196525574,-35.7207145690918,12.336715698242188,35.34476089477539,0.5
718,MetaDrive-gen-step1,83,272.4966674865479,719093,1888,8569.66057229042,-44.25129318237305,5.798755168914795,44.390464782714844,0.49
719,MetaDrive-gen-step1,83,272.91636311845724,720094,1889,8585.645177841187,,6.289264678955078,41.513771057128906,0.48
720,MetaDrive-gen-step1,83,266.5410538515116,721852,1893,8604.901114463806,,6.356728553771973,36.849098205566406,0.46
721,MetaDrive-gen-step1,83,267.6136812687266,722492,1894,8611.819499731064,,7.647928714752197,41.024322509765625,0.46
722,MetaDrive-gen-step1,83,267.8427821908114,723030,1895,8617.500605106354,,19.236677169799805,41.438079833984375,0.46
723,MetaDrive-gen-step1,83,271.84568075188247,724426,1897,8633.89206624031,,5.410432815551758,38.9290885925293,0.48
724,MetaDrive-gen-step1,83,271.1910091664759,725135,1899,8640.127811908722,-37.543067932128906,10.693336486816406,37.418556213378906,0.48
725,MetaDrive-gen-step1,83,271.57576156184894,726194,1902,8650.923803567886,,6.878582954406738,40.33418273925781,0.47
726,MetaDrive-gen-step1,83,272.93752313927826,727076,1903,8662.371715784073,,10.835762023925781,41.942352294921875,0.48
727,MetaDrive-gen-step1,83,272.8190072150455,728077,1904,8678.563728570938,-33.43305206298828,121.65589904785156,32.26088333129883,0.48
728,MetaDrive-gen-step1,83,270.02411059770833,729087,1906,8687.08337688446,-37.91515350341797,15.921192169189453,37.780548095703125,0.47
729,MetaDrive-gen-step1,83,270.09129246622757,730504,1908,8699.59698009491,,7.254766464233398,39.52816390991211,0.47
730,MetaDrive-gen-step1,83,272.0575232755168,731505,1909,8713.361486673355,-37.140281677246094,5.228000164031982,36.669029235839844,0.46
731,MetaDrive-gen-step1,83,271.1371038644707,732282,1910,8720.829082250595,,7.114889144897461,41.98793029785156,0.46
732,MetaDrive-gen-step1,83,272.74778777143035,733026,1911,8731.090034008026,,19.263843536376953,39.387901306152344,0.46
733,MetaDrive-gen-step1,83,271.1839434137653,734386,1913,8746.677898406982,,6.708387851715088,41.81147766113281,0.45
734,MetaDrive-gen-step1,83,274.3043216056825,735815,1915,8763.709604740143,-39.34828186035156,9.230935096740723,38.5894775390625,0.47
735,MetaDrive-gen-step1,83,275.0627550092668,736303,1916,8768.599380016327,-43.57242965698242,12.839046478271484,43.061012268066406,0.47
736,MetaDrive-gen-step1,83,276.5177088842322,737165,1917,8777.175470590591,-39.32258605957031,5.610428810119629,38.64927673339844,0.48
737,MetaDrive-gen-step1,84,275.3204055993813,738306,1919,8787.724214315414,,15.475774765014648,39.22951889038086,0.48
738,MetaDrive-gen-step1,84,277.75076785983606,739369,1921,8799.165009737015,-40.774322509765625,10.263290405273438,39.99044418334961,0.49
739,MetaDrive-gen-step1,84,277.465771026072,740943,1923,8817.790544748306,-38.8007698059082,6.415312767028809,39.01624298095703,0.49
740,MetaDrive-gen-step1,84,274.96287319917343,741020,1924,8818.656054735184,,7.577463626861572,34.445735931396484,0.48
741,MetaDrive-gen-step1,84,273.9052914190238,742390,1927,8836.031420469284,,9.801957130432129,37.64295196533203,0.48
742,MetaDrive-gen-step1,84,274.0903732678309,743837,1929,8850.47991657257,-41.700050354003906,9.048873901367188,41.637962341308594,0.47
743,MetaDrive-gen-step1,84,272.6848396799624,744150,1930,8853.704267263412,,6.097104549407959,36.65251922607422,0.47
744,MetaDrive-gen-step1,84,272.9498675032106,745844,1932,8875.864507198334,,6.13491678237915,39.87748718261719,0.48
745,MetaDrive-gen-step1,84,272.9103342993992,746619,1933,8884.107128858566,-36.47731399536133,19.59820556640625,35.92937469482422,0.49
746,MetaDrive-gen-step1,84,273.05648837339356,747016,1934,8889.480481386185,,5.5115742683410645,43.0491943359375,0.49
747,MetaDrive-gen-step1,84,276.00202042241466,748519,1936,8902.479171514511,-39.42036437988281,11.224983215332031,39.625640869140625,0.51
748,MetaDrive-gen-step1,84,273.2870999465033,749281,1938,8913.00030708313,-34.9146728515625,10.564423561096191,34.05782699584961,0.5
749,MetaDrive-gen-step1,84,274.26240801521493,750206,1939,8921.787060499191,,6.319897174835205,39.015296936035156,0.5
750,MetaDrive-gen-step1,84,272.7211641817082,751400,1941,8937.56095290184,,11.893030166625977,40.19959259033203,0.5
751,MetaDrive-gen-step1,84,274.504981113693,752401,1942,8950.18786406517,-40.57421112060547,9.185893058776855,39.279388427734375,0.5
752,MetaDrive-gen-step1,84,275.76154160767635,753402,1943,8957.85987329483,,13.301701545715332,41.215576171875,0.5
753,MetaDrive-gen-step1,84,278.64807436141524,754539,1945,8973.640690803528,-39.35768127441406,17.039567947387695,39.05523681640625,0.51
754,MetaDrive-gen-step1,84,279.84186131045516,755063,1946,8979.446571826935,-36.072444915771484,6.033717155456543,36.03855895996094,0.52
755,MetaDrive-gen-step1,84,276.18411184950446,756844,1949,8998.9232006073,,6.688375473022461,38.49916076660156,0.49
756,MetaDrive-gen-step1,84,274.507770337017,757845,1950,9010.291456222534,-38.40031814575195,7.894229412078857,38.059669494628906,0.49
757,MetaDrive-gen-step1,84,272.596527358119,758175,1951,9013.544137239456,-38.99787902832031,30.61612319946289,36.84851837158203,0.49
758,MetaDrive-gen-step1,84,275.2622048668335,759023,1953,9022.838352680206,-41.83412170410156,9.054521560668945,41.462005615234375,0.49
759,MetaDrive-gen-step1,84,275.37147684601183,760905,1955,9046.278641462326,-41.0574951171875,9.012750625610352,41.24189758300781,0.49
760,MetaDrive-gen-step1,84,273.71431677543995,761141,1956,9049.196028709412,-39.547706604003906,48.23591613769531,39.216434478759766,0.49
761,MetaDrive-gen-step1,84,276.17452748473227,762008,1957,9062.139183044434,,7.145388126373291,38.590484619140625,0.49
762,MetaDrive-gen-step1,84,279.1924726838546,763009,1958,9074.423834562302,-34.48058319091797,45.54365921020508,33.85540008544922,0.49
763,MetaDrive-gen-step1,84,278.8687144965691,764010,1959,9085.829045057297,,7.72601318359375,35.80065155029297,0.48
764,MetaDrive-gen-step1,84,279.9912571221879,765308,1962,9098.867921590805,,125.155029296875,37.72562789916992,0.49
765,MetaDrive-gen-step1,84,283.73213940776475,766256,1963,9112.375143051147,,3.6559953689575195,37.731285095214844,0.49
766,MetaDrive-gen-step1,84,286.37795905450656,767017,1964,9120.616109371185,-41.892635345458984,5.110931396484375,42.12023162841797,0.5
767,MetaDrive-gen-step1,84,282.97787353370387,768248,1967,9134.699780702591,,8.266122817993164,37.00611877441406,0.48
768,MetaDrive-gen-step1,84,285.14337668066327,769247,1969,9147.861644983292,-40.9803352355957,13.15880298614502,41.62530517578125,0.48
769,MetaDrive-gen-step1,84,289.43503689451876,770378,1971,9159.953762292862,,8.108896255493164,35.05491256713867,0.5
770,MetaDrive-gen-step1,84,290.9404912189404,771332,1972,9174.436875581741,,8.583234786987305,37.441959381103516,0.5
771,MetaDrive-gen-step1,84,289.6845119132309,772333,1973,9187.608107805252,-37.33800506591797,8.821310043334961,36.85895538330078,0.49
772,MetaDrive-gen-step1,84,285.9451703842922,773436,1976,9200.564536809921,,10.039484977722168,38.00343322753906,0.48
773,MetaDrive-gen-step1,84,286.2988145319581,774096,1977,9206.571459770203,,18.688709259033203,42.76474380493164,0.48
774,MetaDrive-gen-step1,84,286.14253297448795,775743,1979,9233.408128976822,-38.13454818725586,9.109334945678711,38.134159088134766,0.47
775,MetaDrive-gen-step1,84,285.2482211696133,776388,1980,9239.17595911026,,11.953900337219238,38.22675704956055,0.47
776,MetaDrive-gen-step1,84,286.23606395722715,777274,1981,9249.374687194824,,4.887324333190918,35.384071350097656,0.47
777,MetaDrive-gen-step1,84,282.25717188001823,778113,1983,9259.148295879364,-39.52861785888672,5.814874649047852,40.00096130371094,0.47
778,MetaDrive-gen-step1,84,285.0894129954006,779114,1985,9271.056630849838,,26.719554901123047,42.05168914794922,0.48
779,MetaDrive-gen-step1,83,285.80532539515855,780115,1986,9290.253335475922,-34.19554901123047,5.431060791015625,33.44092559814453,0.48
780,MetaDrive-gen-step1,83,286.0973321093325,781508,1988,9306.5506670475,,126.67898559570312,39.59844970703125,0.49
781,MetaDrive-gen-step1,83,284.93996086494366,782409,1990,9315.54283952713,-37.12232971191406,6.238555908203125,37.1128044128418,0.5
782,MetaDrive-gen-step1,83,289.28641313730395,783274,1991,9326.568613052368,,11.36124324798584,42.451866149902344,0.51
783,MetaDrive-gen-step1,84,288.1870501821369,784257,1993,9336.074397563934,-40.560089111328125,35.171653747558594,41.587791442871094,0.51
