TanmayH/CS269-RL-project-code/MetaDrive-td3combine-expt_with_safe-leaky-adamw-in-q-weighted-corrected/MetaDrive-Gen-Next-v2/td3/progress.csv
,log_dir,frame_per_second,episode_reward,total_steps,total_episodes,total_time,actor_loss,critic_loss,target_q,success_rate
0,MetaDrive-td3combine-expt_with_safe-leaky-adamw-in-q-weighted-corrected,209,164.44381782856794,1601,2,7.6572558879852295,-51.000980377197266,2.4027767181396484,50.52938461303711,0.5
1,MetaDrive-td3combine-expt_with_safe-leaky-adamw-in-q-weighted-corrected,153,281.5069711806464,2187,3,14.293572187423706,-50.30498123168945,4.6651201248168945,49.177066802978516,0.6666666666666666
2,MetaDrive-td3combine-expt_with_safe-leaky-adamw-in-q-weighted-corrected,124,275.7944381806962,3131,6,25.139621019363403,-48.787574768066406,18.446922302246094,47.84956741333008,0.5
3,MetaDrive-td3combine-expt_with_safe-leaky-adamw-in-q-weighted-corrected,113,274.32641935810256,4088,9,36.074846029281616,,32.880760192871094,49.06482696533203,0.3333333333333333
4,MetaDrive-td3combine-expt_with_safe-leaky-adamw-in-q-weighted-corrected,106,258.90425909140055,5651,11,53.19033408164978,-45.752471923828125,5.291207313537598,46.01066207885742,0.36363636363636365
5,MetaDrive-td3combine-expt_with_safe-leaky-adamw-in-q-weighted-corrected,105,263.75435748398286,6149,12,58.45810103416443,-50.40913009643555,8.077008247375488,49.36869430541992,0.4166666666666667
6,MetaDrive-td3combine-expt_with_safe-leaky-adamw-in-q-weighted-corrected,101,242.25791937701337,7084,17,69.70331287384033,,10.932517051696777,47.12553787231445,0.29411764705882354
7,MetaDrive-td3combine-expt_with_safe-leaky-adamw-in-q-weighted-corrected,99,235.54172211962785,8113,21,81.69869494438171,-46.870361328125,3.738219738006592,46.73406982421875,0.2857142857142857
8,MetaDrive-td3combine-expt_with_safe-leaky-adamw-in-q-weighted-corrected,98,227.18812037111084,9225,23,93.72350120544434,-46.185218811035156,9.075766563415527,46.234928131103516,0.2608695652173913
9,MetaDrive-td3combine-expt_with_safe-leaky-adamw-in-q-weighted-corrected,97,219.20886757352218,10039,26,103.09435510635376,-49.75193405151367,7.0695343017578125,50.739776611328125,0.23076923076923078
10,MetaDrive-td3combine-expt_with_safe-leaky-adamw-in-q-weighted-corrected,95,213.51482084112374,11144,31,116.13076615333557,,3.928304672241211,55.16192626953125,0.1935483870967742
11,MetaDrive-td3combine-expt_with_safe-leaky-adamw-in-q-weighted-corrected,95,214.48020689151633,12036,34,126.25873112678528,,32.50907897949219,52.8575439453125,0.17647058823529413
12,MetaDrive-td3combine-expt_with_safe-leaky-adamw-in-q-weighted-corrected,94,215.7077286659028,13549,37,143.74457812309265,-53.397987365722656,3.7779040336608887,53.49756622314453,0.1891891891891892
13,MetaDrive-td3combine-expt_with_safe-leaky-adamw-in-q-weighted-corrected,93,217.29404915501618,14357,40,153.05629706382751,-51.47770690917969,8.09798526763916,51.919898986816406,0.175
14,MetaDrive-td3combine-expt_with_safe-leaky-adamw-in-q-weighted-corrected,93,211.05598365619377,15111,44,161.87478828430176,-50.557090759277344,6.227177619934082,50.55077362060547,0.1590909090909091
15,MetaDrive-td3combine-expt_with_safe-leaky-adamw-in-q-weighted-corrected,93,209.3096285026839,16208,46,173.822163105011,,4.879299640655518,51.29937744140625,0.15217391304347827
16,MetaDrive-td3combine-expt_with_safe-leaky-adamw-in-q-weighted-corrected,93,205.17195384389595,17120,48,183.99494910240173,,10.470685958862305,52.57445526123047,0.14583333333333334
17,MetaDrive-td3combine-expt_with_safe-leaky-adamw-in-q-weighted-corrected,92,203.5784937691735,18121,49,194.90763902664185,-46.544044494628906,7.121581077575684,46.94554138183594,0.14285714285714285
18,MetaDrive-td3combine-expt_with_safe-leaky-adamw-in-q-weighted-corrected,92,200.24379172358215,19102,54,206.34790706634521,,5.416172504425049,52.42399215698242,0.16666666666666666
19,MetaDrive-td3combine-expt_with_safe-leaky-adamw-in-q-weighted-corrected,92,187.9727995341474,20058,62,217.6043450832367,,23.576904296875,49.064701080322266,0.16129032258064516
20,MetaDrive-td3combine-expt_with_safe-leaky-adamw-in-q-weighted-corrected,91,180.232170082024,21163,69,230.18370699882507,-50.473480224609375,8.786101341247559,50.51116943359375,0.15942028985507245
21,MetaDrive-td3combine-expt_with_safe-leaky-adamw-in-q-weighted-corrected,91,174.76888330262236,22277,76,243.59413886070251,-50.42194366455078,52.30362319946289,49.90157699584961,0.15789473684210525
22,MetaDrive-td3combine-expt_with_safe-leaky-adamw-in-q-weighted-corrected,91,173.01637314538343,23957,81,262.2916359901428,-51.77040481567383,9.176019668579102,51.72295379638672,0.14814814814814814
23,MetaDrive-td3combine-expt_with_safe-leaky-adamw-in-q-weighted-corrected,91,171.82714685508174,24056,82,263.50322699546814,,8.309076309204102,52.488868713378906,0.14634146341463414
24,MetaDrive-td3combine-expt_with_safe-leaky-adamw-in-q-weighted-corrected,91,169.15012870813783,25035,88,275.0981111526489,-48.04881286621094,5.246429443359375,48.23484802246094,0.13636363636363635
25,MetaDrive-td3combine-expt_with_safe-leaky-adamw-in-q-weighted-corrected,90,171.23070967064905,26097,93,287.51183009147644,-57.447776794433594,6.780160427093506,57.18252944946289,0.13978494623655913
26,MetaDrive-td3combine-expt_with_safe-leaky-adamw-in-q-weighted-corrected,90,173.77894236788003,27085,96,298.61803126335144,-51.980491638183594,8.778310775756836,51.47014617919922,0.14583333333333334
27,MetaDrive-td3combine-expt_with_safe-leaky-adamw-in-q-weighted-corrected,90,174.64477331360243,28594,99,316.3549609184265,,7.8578948974609375,47.13410568237305,0.1414141414141414
28,MetaDrive-td3combine-expt_with_safe-leaky-adamw-in-q-weighted-corrected,90,178.51369780194509,29148,101,322.6601212024689,,8.946687698364258,51.496986389160156,0.15
29,MetaDrive-td3combine-expt_with_safe-leaky-adamw-in-q-weighted-corrected,90,176.7393933950057,30149,102,333.6544451713562,-49.313602447509766,6.167741775512695,49.253753662109375,0.14
30,MetaDrive-td3combine-expt_with_safe-leaky-adamw-in-q-weighted-corrected,90,167.141952636729,31724,107,351.870658159256,,7.815282821655273,43.81338119506836,0.12
31,MetaDrive-td3combine-expt_with_safe-leaky-adamw-in-q-weighted-corrected,90,165.25778944457173,32113,109,356.25774216651917,-55.23199462890625,18.706798553466797,55.849342346191406,0.13
32,MetaDrive-td3combine-expt_with_safe-leaky-adamw-in-q-weighted-corrected,90,166.39790540630932,33003,112,366.6756110191345,-46.396827697753906,18.61502456665039,46.36199951171875,0.11
33,MetaDrive-td3combine-expt_with_safe-leaky-adamw-in-q-weighted-corrected,89,166.33511620449758,34004,113,377.99217319488525,,10.445989608764648,53.592288970947266,0.11
34,MetaDrive-td3combine-expt_with_safe-leaky-adamw-in-q-weighted-corrected,89,168.7283947045166,35386,115,393.6569449901581,,7.458376407623291,46.341773986816406,0.11
35,MetaDrive-td3combine-expt_with_safe-leaky-adamw-in-q-weighted-corrected,89,167.19086757070508,36230,117,402.9567492008209,,16.818864822387695,49.088077545166016,0.12
36,MetaDrive-td3combine-expt_with_safe-leaky-adamw-in-q-weighted-corrected,89,165.44078562502492,37914,122,421.61073422431946,,18.55685043334961,53.11967086791992,0.11
37,MetaDrive-td3combine-expt_with_safe-leaky-adamw-in-q-weighted-corrected,89,164.4082146410497,38419,123,426.9878342151642,-47.88655090332031,54.69278335571289,46.614776611328125,0.11
38,MetaDrive-td3combine-expt_with_safe-leaky-adamw-in-q-weighted-corrected,90,165.553150191162,39138,126,434.76083302497864,,41.383399963378906,53.02627944946289,0.13
39,MetaDrive-td3combine-expt_with_safe-leaky-adamw-in-q-weighted-corrected,90,163.6560961749035,40600,130,450.77542996406555,,8.976024627685547,44.48542404174805,0.14
40,MetaDrive-td3combine-expt_with_safe-leaky-adamw-in-q-weighted-corrected,90,165.77717859936703,41601,131,461.5721879005432,-41.129547119140625,33.69371032714844,41.237876892089844,0.14
41,MetaDrive-td3combine-expt_with_safe-leaky-adamw-in-q-weighted-corrected,90,168.68904221214848,42070,132,466.78688311576843,,11.238861083984375,53.84775161743164,0.15
42,MetaDrive-td3combine-expt_with_safe-leaky-adamw-in-q-weighted-corrected,90,166.59401854541898,43071,133,477.59771704673767,-47.775726318359375,12.615190505981445,47.8118896484375,0.15
43,MetaDrive-td3combine-expt_with_safe-leaky-adamw-in-q-weighted-corrected,90,172.3429700224138,44135,136,489.26116609573364,-43.9900016784668,7.187813758850098,43.97530746459961,0.17
44,MetaDrive-td3combine-expt_with_safe-leaky-adamw-in-q-weighted-corrected,90,172.64353722205047,45580,140,505.16744804382324,,10.373672485351562,53.54405975341797,0.2
45,MetaDrive-td3combine-expt_with_safe-leaky-adamw-in-q-weighted-corrected,90,175.19487685934314,46529,141,515.4974150657654,-46.25349426269531,42.71634292602539,46.15934753417969,0.21
46,MetaDrive-td3combine-expt_with_safe-leaky-adamw-in-q-weighted-corrected,90,174.98217966882692,47260,145,524.0932989120483,,10.489160537719727,54.83972930908203,0.22
47,MetaDrive-td3combine-expt_with_safe-leaky-adamw-in-q-weighted-corrected,90,177.83940133651555,48695,147,540.129714012146,-40.18286895751953,21.62255859375,40.96500778198242,0.23
48,MetaDrive-td3combine-expt_with_safe-leaky-adamw-in-q-weighted-corrected,90,179.91530417672698,49037,148,543.8385338783264,-46.94070816040039,4.426172256469727,47.74861526489258,0.24
49,MetaDrive-td3combine-expt_with_safe-leaky-adamw-in-q-weighted-corrected,90,183.45317049747402,50065,150,554.9644870758057,-50.531341552734375,7.5947065353393555,49.80530548095703,0.25
50,MetaDrive-td3combine-expt_with_safe-leaky-adamw-in-q-weighted-corrected,90,184.0504064029866,51066,151,565.9655711650848,,24.052757263183594,41.06010818481445,0.25
51,MetaDrive-td3combine-expt_with_safe-leaky-adamw-in-q-weighted-corrected,90,186.0842157950409,52004,154,576.5333340167999,,52.06837463378906,43.14179611206055,0.25
52,MetaDrive-td3combine-expt_with_safe-leaky-adamw-in-q-weighted-corrected,90,186.59017156150813,53005,155,587.5498461723328,-58.56664276123047,11.414558410644531,58.609962463378906,0.25
53,MetaDrive-td3combine-expt_with_safe-leaky-adamw-in-q-weighted-corrected,90,192.8296926824526,54023,157,598.4963550567627,-43.81855010986328,26.359603881835938,42.52582550048828,0.26
54,MetaDrive-td3combine-expt_with_safe-leaky-adamw-in-q-weighted-corrected,90,197.70661696628719,55074,160,610.1359150409698,,37.813941955566406,45.32148742675781,0.28
55,MetaDrive-td3combine-expt_with_safe-leaky-adamw-in-q-weighted-corrected,90,196.83680914648474,56075,161,620.6882240772247,-45.74464797973633,11.761438369750977,44.753387451171875,0.28
56,MetaDrive-td3combine-expt_with_safe-leaky-adamw-in-q-weighted-corrected,90,205.25030682677632,57436,164,635.8704030513763,,20.52063751220703,41.97044372558594,0.29
57,MetaDrive-td3combine-expt_with_safe-leaky-adamw-in-q-weighted-corrected,90,207.4991476355178,58159,167,644.1769049167633,-43.720008850097656,38.818572998046875,44.71635437011719,0.28
58,MetaDrive-td3combine-expt_with_safe-leaky-adamw-in-q-weighted-corrected,90,210.38123136298225,59024,171,654.2211861610413,,10.54088020324707,48.7796745300293,0.28
59,MetaDrive-td3combine-expt_with_safe-leaky-adamw-in-q-weighted-corrected,90,214.25744160343964,60450,173,669.2160289287567,,28.886390686035156,47.22742462158203,0.29
60,MetaDrive-td3combine-expt_with_safe-leaky-adamw-in-q-weighted-corrected,90,218.9284138264286,61776,175,683.7224600315094,,22.019672393798828,48.78382873535156,0.29
61,MetaDrive-td3combine-expt_with_safe-leaky-adamw-in-q-weighted-corrected,90,218.13947262488534,62777,176,694.6596109867096,-52.72048568725586,22.058908462524414,52.019866943359375,0.28
62,MetaDrive-td3combine-expt_with_safe-leaky-adamw-in-q-weighted-corrected,90,219.42474741227142,63178,177,699.0878460407257,,11.502799034118652,48.22724533081055,0.29
63,MetaDrive-td3combine-expt_with_safe-leaky-adamw-in-q-weighted-corrected,90,221.23644420184698,64587,180,714.3604421615601,-50.75676345825195,32.800437927246094,50.8621940612793,0.3
64,MetaDrive-td3combine-expt_with_safe-leaky-adamw-in-q-weighted-corrected,90,221.43682844582915,65588,181,725.0658462047577,,9.723409652709961,48.29963302612305,0.3
65,MetaDrive-td3combine-expt_with_safe-leaky-adamw-in-q-weighted-corrected,90,222.59550904617953,66087,182,731.0840919017792,-38.21028518676758,69.14830017089844,37.85231399536133,0.3
66,MetaDrive-td3combine-expt_with_safe-leaky-adamw-in-q-weighted-corrected,90,221.49171675354245,67175,184,742.6418089866638,-55.78534698486328,140.65573120117188,54.41152572631836,0.3
67,MetaDrive-td3combine-expt_with_safe-leaky-adamw-in-q-weighted-corrected,90,219.7743938852692,68176,185,753.4736320972443,,16.5729923248291,49.70169448852539,0.3
68,MetaDrive-td3combine-expt_with_safe-leaky-adamw-in-q-weighted-corrected,90,227.11931200617244,69468,188,767.9163870811462,,30.055038452148438,46.66769790649414,0.32
69,MetaDrive-td3combine-expt_with_safe-leaky-adamw-in-q-weighted-corrected,90,229.94038160070474,70041,189,774.3226561546326,-46.75724411010742,15.374107360839844,45.418758392333984,0.33
70,MetaDrive-td3combine-expt_with_safe-leaky-adamw-in-q-weighted-corrected,90,228.01360070032803,71738,193,792.6753580570221,,18.081010818481445,54.60231018066406,0.33
71,MetaDrive-td3combine-expt_with_safe-leaky-adamw-in-q-weighted-corrected,90,226.2616259147187,72044,194,795.9350669384003,,63.495208740234375,45.711517333984375,0.33
72,MetaDrive-td3combine-expt_with_safe-leaky-adamw-in-q-weighted-corrected,90,227.63282207675468,73345,198,810.3769011497498,-56.65607452392578,24.394527435302734,56.299198150634766,0.34
73,MetaDrive-td3combine-expt_with_safe-leaky-adamw-in-q-weighted-corrected,90,227.426547625961,74346,199,821.285206079483,,14.165603637695312,54.86023712158203,0.34
74,MetaDrive-td3combine-expt_with_safe-leaky-adamw-in-q-weighted-corrected,90,224.55546534205575,75030,202,829.0460529327393,,14.226016998291016,51.48810577392578,0.33
75,MetaDrive-td3combine-expt_with_safe-leaky-adamw-in-q-weighted-corrected,90,228.03568734685706,76188,205,842.4796869754791,,17.319416046142578,48.52726745605469,0.33
76,MetaDrive-td3combine-expt_with_safe-leaky-adamw-in-q-weighted-corrected,90,227.85829960209085,77189,206,854.0601420402527,-54.946388244628906,32.708011627197266,53.367679595947266,0.33
77,MetaDrive-td3combine-expt_with_safe-leaky-adamw-in-q-weighted-corrected,90,233.79484851630042,78406,208,868.0695350170135,,18.845378875732422,43.434513092041016,0.34
78,MetaDrive-td3combine-expt_with_safe-leaky-adamw-in-q-weighted-corrected,90,233.89036204497214,79990,210,885.2988429069519,,56.15827178955078,55.17595291137695,0.35
79,MetaDrive-td3combine-expt_with_safe-leaky-adamw-in-q-weighted-corrected,90,234.12574480299074,80329,211,889.1908621788025,-49.25968933105469,11.31735610961914,48.84764862060547,0.35
80,MetaDrive-td3combine-expt_with_safe-leaky-adamw-in-q-weighted-corrected,90,235.2023638245899,81330,212,899.8309681415558,,18.206024169921875,50.537445068359375,0.35
81,MetaDrive-td3combine-expt_with_safe-leaky-adamw-in-q-weighted-corrected,90,234.43400964451564,82331,213,910.9165050983429,-45.038578033447266,11.088556289672852,45.32624816894531,0.35
82,MetaDrive-td3combine-expt_with_safe-leaky-adamw-in-q-weighted-corrected,90,234.73165307978087,83024,214,918.953115940094,,14.55640983581543,56.24747085571289,0.35
83,MetaDrive-td3combine-expt_with_safe-leaky-adamw-in-q-weighted-corrected,90,235.73420280670524,84490,216,935.74365401268,,9.682376861572266,44.04696273803711,0.35
84,MetaDrive-td3combine-expt_with_safe-leaky-adamw-in-q-weighted-corrected,90,238.050596882654,85174,218,943.3712708950043,,14.292801856994629,52.48851013183594,0.35
85,MetaDrive-td3combine-expt_with_safe-leaky-adamw-in-q-weighted-corrected,90,241.34590986427898,86204,221,954.7501828670502,,71.00643920898438,46.77463912963867,0.38
86,MetaDrive-td3combine-expt_with_safe-leaky-adamw-in-q-weighted-corrected,90,241.15258723078037,87291,223,966.4488470554352,-46.740150451660156,19.537206649780273,47.505897521972656,0.38
87,MetaDrive-td3combine-expt_with_safe-leaky-adamw-in-q-weighted-corrected,90,245.96391923525348,88274,225,977.8606610298157,,16.3387508392334,45.74080276489258,0.38
88,MetaDrive-td3combine-expt_with_safe-leaky-adamw-in-q-weighted-corrected,90,245.13970903513507,89275,226,988.7154839038849,-52.17829895019531,19.250534057617188,51.161537170410156,0.37
89,MetaDrive-td3combine-expt_with_safe-leaky-adamw-in-q-weighted-corrected,90,245.30660001985808,90276,227,999.9842791557312,,11.218350410461426,51.58887481689453,0.37
90,MetaDrive-td3combine-expt_with_safe-leaky-adamw-in-q-weighted-corrected,90,245.27785748490783,91048,230,1009.1390271186829,,20.048030853271484,54.964359283447266,0.36
91,MetaDrive-td3combine-expt_with_safe-leaky-adamw-in-q-weighted-corrected,90,238.86679486578106,92502,233,1024.5816099643707,,9.287252426147461,51.7121467590332,0.35
92,MetaDrive-td3combine-expt_with_safe-leaky-adamw-in-q-weighted-corrected,90,236.75660511011756,93503,234,1035.345232963562,-50.73454284667969,18.511363983154297,49.221927642822266,0.34
93,MetaDrive-td3combine-expt_with_safe-leaky-adamw-in-q-weighted-corrected,90,236.2569685661436,94504,235,1046.187707901001,,13.138041496276855,46.36693572998047,0.33
94,MetaDrive-td3combine-expt_with_safe-leaky-adamw-in-q-weighted-corrected,90,235.16084505927182,95505,236,1057.1423301696777,-56.40177917480469,18.23484992980957,57.20492935180664,0.32
95,MetaDrive-td3combine-expt_with_safe-leaky-adamw-in-q-weighted-corrected,90,234.16037783327826,96506,237,1067.7838771343231,,19.24996566772461,55.000144958496094,0.32
96,MetaDrive-td3combine-expt_with_safe-leaky-adamw-in-q-weighted-corrected,90,234.2581916100588,97467,239,1078.2873721122742,-55.59638977050781,25.919498443603516,55.158592224121094,0.31
97,MetaDrive-td3combine-expt_with_safe-leaky-adamw-in-q-weighted-corrected,90,234.85530373294378,98520,241,1089.928081035614,,12.913521766662598,51.4918098449707,0.31
98,MetaDrive-td3combine-expt_with_safe-leaky-adamw-in-q-weighted-corrected,90,238.14313346328984,99072,242,1095.9544920921326,,17.338359832763672,47.206329345703125,0.32
99,MetaDrive-td3combine-expt_with_safe-leaky-adamw-in-q-weighted-corrected,90,238.12102437902405,100324,246,1110.128543138504,,11.70258903503418,55.73019027709961,0.32
100,MetaDrive-td3combine-expt_with_safe-leaky-adamw-in-q-weighted-corrected,90,237.75921285731386,101325,247,1121.3468561172485,-53.66307830810547,17.742050170898438,53.52549743652344,0.32
101,MetaDrive-td3combine-expt_with_safe-leaky-adamw-in-q-weighted-corrected,90,237.7523877175246,102078,249,1129.7612869739532,,12.666089057922363,55.27690887451172,0.32
102,MetaDrive-td3combine-expt_with_safe-leaky-adamw-in-q-weighted-corrected,90,237.5368108314072,103079,250,1141.2970650196075,-54.99790573120117,19.07342529296875,56.056976318359375,0.31
103,MetaDrive-td3combine-expt_with_safe-leaky-adamw-in-q-weighted-corrected,90,239.84580646481376,104448,253,1156.6839690208435,,11.8991060256958,49.72857666015625,0.3
104,MetaDrive-td3combine-expt_with_safe-leaky-adamw-in-q-weighted-corrected,90,238.74296446972528,105449,254,1167.7531678676605,-50.02226257324219,16.431026458740234,48.81554412841797,0.3
105,MetaDrive-td3combine-expt_with_safe-leaky-adamw-in-q-weighted-corrected,90,239.51219379792474,106450,255,1179.4794671535492,,12.991714477539062,47.889556884765625,0.3
106,MetaDrive-td3combine-expt_with_safe-leaky-adamw-in-q-weighted-corrected,90,239.56550753192437,107457,257,1190.3985559940338,-45.43133544921875,17.137189865112305,43.859580993652344,0.31
107,MetaDrive-td3combine-expt_with_safe-leaky-adamw-in-q-weighted-corrected,90,236.78086918137632,108575,259,1202.7423119544983,-51.27235794067383,16.875267028808594,52.191341400146484,0.3
108,MetaDrive-td3combine-expt_with_safe-leaky-adamw-in-q-weighted-corrected,90,238.03082230988127,109074,260,1208.5990860462189,,116.27455139160156,52.12257385253906,0.29
109,MetaDrive-td3combine-expt_with_safe-leaky-adamw-in-q-weighted-corrected,90,238.88855853848872,110075,261,1219.542988061905,-58.17112350463867,39.2782096862793,58.719886779785156,0.29
110,MetaDrive-td3combine-expt_with_safe-leaky-adamw-in-q-weighted-corrected,90,239.2504568176742,111631,263,1236.4631810188293,-46.03164291381836,15.6398344039917,45.21961212158203,0.3
111,MetaDrive-td3combine-expt_with_safe-leaky-adamw-in-q-weighted-corrected,90,236.19732420742676,112214,265,1243.1482729911804,,14.135693550109863,44.891971588134766,0.29
112,MetaDrive-td3combine-expt_with_safe-leaky-adamw-in-q-weighted-corrected,90,234.94051864993344,113141,268,1253.439337015152,-47.24453353881836,33.93650817871094,48.979434967041016,0.3
113,MetaDrive-td3combine-expt_with_safe-leaky-adamw-in-q-weighted-corrected,90,235.6145503574552,114142,269,1264.790032863617,,11.699064254760742,54.419395446777344,0.3
114,MetaDrive-td3combine-expt_with_safe-leaky-adamw-in-q-weighted-corrected,90,238.59084404584016,115235,271,1276.8331520557404,-46.30870819091797,19.558666229248047,45.57135772705078,0.3
115,MetaDrive-td3combine-expt_with_safe-leaky-adamw-in-q-weighted-corrected,90,238.45214719457815,116329,273,1289.2686269283295,-50.86424255371094,11.15894603729248,50.00682830810547,0.31
116,MetaDrive-td3combine-expt_with_safe-leaky-adamw-in-q-weighted-corrected,90,237.35299022069137,117330,274,1300.4204411506653,,48.46067428588867,51.703582763671875,0.31
117,MetaDrive-td3combine-expt_with_safe-leaky-adamw-in-q-weighted-corrected,90,233.95615174236227,118302,276,1311.3223869800568,,22.952537536621094,45.5432243347168,0.32
118,MetaDrive-td3combine-expt_with_safe-leaky-adamw-in-q-weighted-corrected,90,234.46731079143402,119303,277,1322.6971888542175,-52.82183074951172,14.51530647277832,52.4573974609375,0.31
119,MetaDrive-td3combine-expt_with_safe-leaky-adamw-in-q-weighted-corrected,90,233.3770989513094,120124,279,1332.3867888450623,,13.550873756408691,46.34627151489258,0.31
120,MetaDrive-td3combine-expt_with_safe-leaky-adamw-in-q-weighted-corrected,90,238.14675794792922,121356,282,1346.5372638702393,,187.3394012451172,46.23686981201172,0.32
121,MetaDrive-td3combine-expt_with_safe-leaky-adamw-in-q-weighted-corrected,90,241.1886426817726,122776,284,1362.295865058899,,13.80538272857666,53.52791976928711,0.32
122,MetaDrive-td3combine-expt_with_safe-leaky-adamw-in-q-weighted-corrected,90,243.68792225437974,123269,285,1368.0515739917755,-38.97648239135742,14.692079544067383,38.36083221435547,0.33
123,MetaDrive-td3combine-expt_with_safe-leaky-adamw-in-q-weighted-corrected,90,245.6056085294604,124222,287,1379.5628769397736,,17.771936416625977,49.272342681884766,0.34
124,MetaDrive-td3combine-expt_with_safe-leaky-adamw-in-q-weighted-corrected,90,244.37224605446846,125223,288,1391.060574054718,-52.61738204956055,17.282825469970703,51.858612060546875,0.33
125,MetaDrive-td3combine-expt_with_safe-leaky-adamw-in-q-weighted-corrected,90,241.1768585497289,126178,289,1401.481957912445,,13.43556022644043,50.065345764160156,0.32
126,MetaDrive-td3combine-expt_with_safe-leaky-adamw-in-q-weighted-corrected,90,243.419801773863,127088,291,1411.7551419734955,,20.447978973388672,52.10236740112305,0.32
127,MetaDrive-td3combine-expt_with_safe-leaky-adamw-in-q-weighted-corrected,90,245.90980676564456,128317,294,1424.8309488296509,-41.38332748413086,22.22734832763672,41.261104583740234,0.33
128,MetaDrive-td3combine-expt_with_safe-leaky-adamw-in-q-weighted-corrected,90,246.980818676154,129281,297,1435.2266471385956,-47.021209716796875,24.18747329711914,48.59355163574219,0.33
129,MetaDrive-td3combine-expt_with_safe-leaky-adamw-in-q-weighted-corrected,90,249.77292306473504,130197,299,1445.3831570148468,-48.885318756103516,33.82352066040039,48.710350036621094,0.34
130,MetaDrive-td3combine-expt_with_safe-leaky-adamw-in-q-weighted-corrected,90,249.74959601141526,131023,300,1454.5651750564575,-48.923866271972656,22.96430206298828,47.42190933227539,0.34
131,MetaDrive-td3combine-expt_with_safe-leaky-adamw-in-q-weighted-corrected,90,255.26015320555928,132714,303,1472.944708108902,,8.031940460205078,40.438804626464844,0.35
132,MetaDrive-td3combine-expt_with_safe-leaky-adamw-in-q-weighted-corrected,90,252.37587259219606,133099,305,1477.2455570697784,-50.922767639160156,11.438436508178711,49.488136291503906,0.36
133,MetaDrive-td3combine-expt_with_safe-leaky-adamw-in-q-weighted-corrected,90,254.5682001612882,134088,307,1488.1124329566956,,22.162025451660156,44.73328399658203,0.37
134,MetaDrive-td3combine-expt_with_safe-leaky-adamw-in-q-weighted-corrected,90,249.82507064433545,135136,310,1499.7782111167908,,10.147729873657227,55.603389739990234,0.36
135,MetaDrive-td3combine-expt_with_safe-leaky-adamw-in-q-weighted-corrected,90,251.6510638430664,136006,312,1509.2062680721283,,23.683887481689453,44.13603973388672,0.38
136,MetaDrive-td3combine-expt_with_safe-leaky-adamw-in-q-weighted-corrected,90,253.12945779191955,137170,314,1521.8123281002045,,22.911266326904297,53.08964538574219,0.39
137,MetaDrive-td3combine-expt_with_safe-leaky-adamw-in-q-weighted-corrected,90,256.0103366950776,138951,317,1540.8177630901337,-46.38127899169922,11.337906837463379,46.153778076171875,0.4
138,MetaDrive-td3combine-expt_with_safe-leaky-adamw-in-q-weighted-corrected,90,254.63393359729255,139952,318,1552.3084211349487,,23.04892349243164,48.06858825683594,0.39
139,MetaDrive-td3combine-expt_with_safe-leaky-adamw-in-q-weighted-corrected,90,255.64761498028417,140406,319,1557.319077014923,,13.981429100036621,37.16714859008789,0.39
140,MetaDrive-td3combine-expt_with_safe-leaky-adamw-in-q-weighted-corrected,90,252.58769007926585,141331,321,1567.0965991020203,-59.22467041015625,16.798215866088867,60.12002182006836,0.37
141,MetaDrive-td3combine-expt_with_safe-leaky-adamw-in-q-weighted-corrected,90,255.04876842880745,142620,323,1580.8132932186127,,17.41493034362793,49.630149841308594,0.37
142,MetaDrive-td3combine-expt_with_safe-leaky-adamw-in-q-weighted-corrected,90,255.903632198365,143205,324,1587.5335402488708,-41.67486572265625,13.754127502441406,40.630069732666016,0.38
143,MetaDrive-td3combine-expt_with_safe-leaky-adamw-in-q-weighted-corrected,90,251.89385330534202,144680,327,1603.7022080421448,,11.216533660888672,40.72480010986328,0.37
144,MetaDrive-td3combine-expt_with_safe-leaky-adamw-in-q-weighted-corrected,90,250.12665888950735,145681,328,1614.5254349708557,-47.841224670410156,13.164783477783203,47.20256042480469,0.37
145,MetaDrive-td3combine-expt_with_safe-leaky-adamw-in-q-weighted-corrected,90,251.49470275537652,146682,329,1625.4636960029602,,18.86182403564453,38.8980827331543,0.37
146,MetaDrive-td3combine-expt_with_safe-leaky-adamw-in-q-weighted-corrected,90,253.41990545288806,147974,331,1639.4882371425629,,47.17747497558594,47.65384292602539,0.37
147,MetaDrive-td3combine-expt_with_safe-leaky-adamw-in-q-weighted-corrected,90,256.7517788488904,148975,332,1650.3979849815369,-43.65802764892578,21.95018196105957,43.08576583862305,0.37
148,MetaDrive-td3combine-expt_with_safe-leaky-adamw-in-q-weighted-corrected,90,258.9419102678452,149359,333,1654.6298580169678,-32.24663543701172,22.878442764282227,30.953060150146484,0.38
149,MetaDrive-td3combine-expt_with_safe-leaky-adamw-in-q-weighted-corrected,90,259.1913390888199,150360,334,1665.9750940799713,,12.396780014038086,47.202388763427734,0.38
150,MetaDrive-td3combine-expt_with_safe-leaky-adamw-in-q-weighted-corrected,90,258.4960677119385,151361,335,1677.0218608379364,-39.861106872558594,19.711692810058594,38.41604232788086,0.38
151,MetaDrive-td3combine-expt_with_safe-leaky-adamw-in-q-weighted-corrected,90,260.8567899128596,152731,337,1692.3243489265442,-46.96963882446289,22.15692138671875,46.021827697753906,0.38
152,MetaDrive-td3combine-expt_with_safe-leaky-adamw-in-q-weighted-corrected,90,261.2500565236382,153278,338,1698.316794872284,,28.680147171020508,49.483177185058594,0.38
153,MetaDrive-td3combine-expt_with_safe-leaky-adamw-in-q-weighted-corrected,90,260.8231530807705,154279,339,1709.0139770507812,-47.0848388671875,28.338733673095703,47.31098937988281,0.38
154,MetaDrive-td3combine-expt_with_safe-leaky-adamw-in-q-weighted-corrected,90,258.4873839649215,155280,340,1719.7492480278015,,7.1345977783203125,45.4460334777832,0.37
155,MetaDrive-td3combine-expt_with_safe-leaky-adamw-in-q-weighted-corrected,90,255.59932952885967,156651,342,1734.4684481620789,-38.690574645996094,15.067785263061523,38.91394805908203,0.36
156,MetaDrive-td3combine-expt_with_safe-leaky-adamw-in-q-weighted-corrected,90,255.7141000762278,157652,343,1745.5832991600037,,10.389924049377441,46.31162643432617,0.36
157,MetaDrive-td3combine-expt_with_safe-leaky-adamw-in-q-weighted-corrected,90,259.2909330343681,158244,344,1752.7239260673523,,12.507425308227539,44.17424774169922,0.36
158,MetaDrive-td3combine-expt_with_safe-leaky-adamw-in-q-weighted-corrected,90,257.01598878987994,159786,347,1769.6982579231262,,27.197132110595703,41.50211715698242,0.35
159,MetaDrive-td3combine-expt_with_safe-leaky-adamw-in-q-weighted-corrected,90,256.2348610885093,160787,348,1780.2516450881958,-39.27059555053711,7.740015029907227,39.19865417480469,0.35
160,MetaDrive-td3combine-expt_with_safe-leaky-adamw-in-q-weighted-corrected,90,255.53863602177742,161114,349,1783.9591732025146,,19.38256072998047,43.9150505065918,0.35
161,MetaDrive-td3combine-expt_with_safe-leaky-adamw-in-q-weighted-corrected,90,258.11785653146586,162201,351,1796.2150399684906,-38.44117736816406,11.610566139221191,37.93170166015625,0.36
162,MetaDrive-td3combine-expt_with_safe-leaky-adamw-in-q-weighted-corrected,90,259.96802134942493,163503,353,1811.6109340190887,-34.12962341308594,21.76845932006836,32.90513610839844,0.37
163,MetaDrive-td3combine-expt_with_safe-leaky-adamw-in-q-weighted-corrected,90,259.5326011432155,164504,354,1823.131334066391,,34.86073303222656,41.06436538696289,0.37
164,MetaDrive-td3combine-expt_with_safe-leaky-adamw-in-q-weighted-corrected,90,259.35765204103683,165379,355,1833.6291370391846,-40.957618713378906,20.291149139404297,39.746002197265625,0.37
165,MetaDrive-td3combine-expt_with_safe-leaky-adamw-in-q-weighted-corrected,90,256.26879862756897,166380,356,1844.923525094986,,21.936893463134766,44.10102081298828,0.36
166,MetaDrive-td3combine-expt_with_safe-leaky-adamw-in-q-weighted-corrected,90,253.36257726373927,167381,357,1856.0674450397491,-51.19035339355469,16.693031311035156,49.66401672363281,0.35
167,MetaDrive-td3combine-expt_with_safe-leaky-adamw-in-q-weighted-corrected,90,252.93401419655618,168742,359,1871.0485670566559,,11.694074630737305,55.63716125488281,0.35
168,MetaDrive-td3combine-expt_with_safe-leaky-adamw-in-q-weighted-corrected,90,252.26372003674732,169184,360,1875.8316731452942,,18.359302520751953,42.670833587646484,0.36
169,MetaDrive-td3combine-expt_with_safe-leaky-adamw-in-q-weighted-corrected,90,252.92418828256316,170989,363,1897.447130203247,-39.57596206665039,14.978233337402344,39.24848556518555,0.35
170,MetaDrive-td3combine-expt_with_safe-leaky-adamw-in-q-weighted-corrected,90,254.268752010438,171323,364,1901.4916579723358,-34.27309799194336,11.654029846191406,34.019317626953125,0.35
171,MetaDrive-td3combine-expt_with_safe-leaky-adamw-in-q-weighted-corrected,90,252.58934751255742,172324,365,1912.9258320331573,,14.52901840209961,36.72453308105469,0.35
172,MetaDrive-td3combine-expt_with_safe-leaky-adamw-in-q-weighted-corrected,90,256.056714025837,173122,366,1922.7368562221527,,23.23238182067871,50.00455856323242,0.36
173,MetaDrive-td3combine-expt_with_safe-leaky-adamw-in-q-weighted-corrected,90,255.75990121789266,174395,368,1937.3658480644226,-41.538238525390625,9.370397567749023,40.613338470458984,0.35
174,MetaDrive-td3combine-expt_with_safe-leaky-adamw-in-q-weighted-corrected,89,258.8219937261931,175221,370,1946.916004896164,-34.79118728637695,10.955314636230469,35.422183990478516,0.36
175,MetaDrive-td3combine-expt_with_safe-leaky-adamw-in-q-weighted-corrected,89,254.70547937118036,176222,371,1958.2280399799347,,22.25885009765625,35.91679382324219,0.36
176,MetaDrive-td3combine-expt_with_safe-leaky-adamw-in-q-weighted-corrected,89,254.50791167715877,177475,373,1972.9713311195374,-39.03846740722656,9.766658782958984,39.136146545410156,0.35
177,MetaDrive-td3combine-expt_with_safe-leaky-adamw-in-q-weighted-corrected,89,259.03414533809826,178874,375,1988.2421991825104,,24.023296356201172,36.99588394165039,0.36
178,MetaDrive-td3combine-expt_with_safe-leaky-adamw-in-q-weighted-corrected,89,260.32630068860954,179302,376,1993.0995788574219,,8.380785942077637,37.420963287353516,0.36
179,MetaDrive-td3combine-expt_with_safe-leaky-adamw-in-q-weighted-corrected,89,259.7699122635555,180303,377,2004.2027740478516,-47.45969772338867,17.588083267211914,48.25922393798828,0.36
180,MetaDrive-td3combine-expt_with_safe-leaky-adamw-in-q-weighted-corrected,89,259.6172991742325,181304,378,2015.956433057785,,17.830467224121094,44.423912048339844,0.35
181,MetaDrive-td3combine-expt_with_safe-leaky-adamw-in-q-weighted-corrected,89,262.6316072077558,182302,381,2028.4195551872253,,12.797489166259766,39.53996276855469,0.36
182,MetaDrive-td3combine-expt_with_safe-leaky-adamw-in-q-weighted-corrected,89,262.1485026271588,183421,383,2041.2611620426178,-48.15660095214844,14.651142120361328,47.06144332885742,0.37
183,MetaDrive-td3combine-expt_with_safe-leaky-adamw-in-q-weighted-corrected,89,264.21846194682587,184477,385,2054.3717880249023,-34.98228073120117,8.495299339294434,34.73793029785156,0.38
184,MetaDrive-td3combine-expt_with_safe-leaky-adamw-in-q-weighted-corrected,89,265.4078489889334,185057,386,2061.0741651058197,-35.71591567993164,5.594464302062988,35.16545104980469,0.37
185,MetaDrive-td3combine-expt_with_safe-leaky-adamw-in-q-weighted-corrected,89,262.04321164420463,186058,387,2072.235386133194,,13.26242446899414,39.95357131958008,0.36
186,MetaDrive-td3combine-expt_with_safe-leaky-adamw-in-q-weighted-corrected,89,261.5741846015894,187726,390,2090.9507830142975,,14.563264846801758,45.85318374633789,0.37
187,MetaDrive-td3combine-expt_with_safe-leaky-adamw-in-q-weighted-corrected,89,262.02591924888816,188194,391,2096.330402135849,,17.167160034179688,39.906436920166016,0.37
188,MetaDrive-td3combine-expt_with_safe-leaky-adamw-in-q-weighted-corrected,89,259.53329713677243,189715,393,2114.425192117691,-43.65835189819336,15.630033493041992,44.04982376098633,0.36
189,MetaDrive-td3combine-expt_with_safe-leaky-adamw-in-q-weighted-corrected,89,259.5666326317025,190716,394,2126.4865741729736,,19.751022338867188,46.681129455566406,0.36
190,MetaDrive-td3combine-expt_with_safe-leaky-adamw-in-q-weighted-corrected,89,257.0465730033334,191717,395,2137.993854045868,-45.24755096435547,10.924623489379883,44.447898864746094,0.36
191,MetaDrive-td3combine-expt_with_safe-leaky-adamw-in-q-weighted-corrected,89,259.11152677464025,192718,396,2150.7155821323395,,31.85019302368164,42.057281494140625,0.36
192,MetaDrive-td3combine-expt_with_safe-leaky-adamw-in-q-weighted-corrected,89,259.19132904074553,193690,397,2161.8319771289825,,13.85338020324707,41.84889221191406,0.36
193,MetaDrive-td3combine-expt_with_safe-leaky-adamw-in-q-weighted-corrected,89,258.608825234682,194691,398,2175.53883600235,-43.1781120300293,7.098061561584473,43.27372741699219,0.36
194,MetaDrive-td3combine-expt_with_safe-leaky-adamw-in-q-weighted-corrected,89,258.1384266300853,195183,399,2181.6634559631348,-42.46187973022461,19.24665641784668,43.03285217285156,0.36
195,MetaDrive-td3combine-expt_with_safe-leaky-adamw-in-q-weighted-corrected,89,258.74919656460787,196184,400,2193.885421037674,,32.81203842163086,33.54887008666992,0.36
196,MetaDrive-td3combine-expt_with_safe-leaky-adamw-in-q-weighted-corrected,89,257.5815866098082,197185,401,2209.1310069561005,-36.190155029296875,12.373318672180176,35.577476501464844,0.36
197,MetaDrive-td3combine-expt_with_safe-leaky-adamw-in-q-weighted-corrected,89,257.0057482965893,198186,402,2222.1272311210632,,14.894723892211914,33.77759552001953,0.35
198,MetaDrive-td3combine-expt_with_safe-leaky-adamw-in-q-weighted-corrected,89,260.5429933274976,199224,404,2234.88237118721,,13.343852043151855,36.81837463378906,0.37
199,MetaDrive-td3combine-expt_with_safe-leaky-adamw-in-q-weighted-corrected,89,259.96265063861426,200384,406,2250.3012170791626,,17.566200256347656,26.946516036987305,0.37
200,MetaDrive-td3combine-expt_with_safe-leaky-adamw-in-q-weighted-corrected,88,259.55380197226197,201215,407,2261.1693539619446,-47.30685043334961,24.724573135375977,47.19660568237305,0.37
201,MetaDrive-td3combine-expt_with_safe-leaky-adamw-in-q-weighted-corrected,88,260.13340621024986,202216,408,2273.964826107025,,7.433562278747559,41.46409606933594,0.37
202,MetaDrive-td3combine-expt_with_safe-leaky-adamw-in-q-weighted-corrected,88,257.9136760318531,203217,409,2286.5177841186523,-42.697021484375,14.617291450500488,43.15568923950195,0.36
203,MetaDrive-td3combine-expt_with_safe-leaky-adamw-in-q-weighted-corrected,88,260.9345379232299,204088,411,2298.445498228073,,152.3176727294922,40.59563446044922,0.36
204,MetaDrive-td3combine-expt_with_safe-leaky-adamw-in-q-weighted-corrected,88,260.5858943427198,205089,412,2312.212772846222,-41.30059051513672,38.83482360839844,40.94138717651367,0.35
205,MetaDrive-td3combine-expt_with_safe-leaky-adamw-in-q-weighted-corrected,88,263.23079166789756,206791,415,2335.668606042862,-38.85519027709961,9.738439559936523,38.16969299316406,0.37
206,MetaDrive-td3combine-expt_with_safe-leaky-adamw-in-q-weighted-corrected,88,262.9946432927393,207301,416,2342.2151958942413,-35.113059997558594,11.351594924926758,34.54426956176758,0.37
207,MetaDrive-td3combine-expt_with_safe-leaky-adamw-in-q-weighted-corrected,88,264.25856503992566,208830,418,2361.7068989276886,,12.443878173828125,46.78235626220703,0.38
208,MetaDrive-td3combine-expt_with_safe-leaky-adamw-in-q-weighted-corrected,88,263.9520923582622,209324,419,2367.93834900856,,18.12118148803711,36.56142807006836,0.38
209,MetaDrive-td3combine-expt_with_safe-leaky-adamw-in-q-weighted-corrected,88,266.0473537404418,210136,421,2377.7118570804596,,15.703672409057617,46.27068328857422,0.39
210,MetaDrive-td3combine-expt_with_safe-leaky-adamw-in-q-weighted-corrected,88,265.083492341447,211437,423,2394.5321769714355,-34.606163024902344,7.967774391174316,34.41146469116211,0.39
211,MetaDrive-td3combine-expt_with_safe-leaky-adamw-in-q-weighted-corrected,88,266.5387991172896,212097,424,2403.62655210495,-35.455604553222656,4.9823198318481445,35.94498825073242,0.39
212,MetaDrive-td3combine-expt_with_safe-leaky-adamw-in-q-weighted-corrected,88,267.07911749298825,213098,425,2416.492208957672,,12.649181365966797,33.91954040527344,0.39
213,MetaDrive-td3combine-expt_with_safe-leaky-adamw-in-q-weighted-corrected,88,269.354715634438,214193,429,2431.315400123596,-42.65900421142578,95.83806610107422,42.39219665527344,0.4
214,MetaDrive-td3combine-expt_with_safe-leaky-adamw-in-q-weighted-corrected,88,268.3778919184199,215194,430,2443.0012500286102,,62.395931243896484,45.44681167602539,0.4
215,MetaDrive-td3combine-expt_with_safe-leaky-adamw-in-q-weighted-corrected,88,270.89235796416796,216444,432,2459.013025999069,,9.573647499084473,38.47801208496094,0.42
216,MetaDrive-td3combine-expt_with_safe-leaky-adamw-in-q-weighted-corrected,87,272.25178094200965,217456,434,2472.4692821502686,,14.144166946411133,36.81996536254883,0.43
217,MetaDrive-td3combine-expt_with_safe-leaky-adamw-in-q-weighted-corrected,87,272.49549895074153,218951,436,2492.4576630592346,-43.19904327392578,21.114089965820312,43.47800064086914,0.44
218,MetaDrive-td3combine-expt_with_safe-leaky-adamw-in-q-weighted-corrected,87,273.0701419963567,219516,437,2498.929953098297,,9.270072937011719,43.913394927978516,0.45
219,MetaDrive-td3combine-expt_with_safe-leaky-adamw-in-q-weighted-corrected,87,270.4875296673555,220273,438,2508.5580110549927,-44.28731155395508,27.463542938232422,43.99313735961914,0.44
220,MetaDrive-td3combine-expt_with_safe-leaky-adamw-in-q-weighted-corrected,87,274.4408599141961,221387,440,2523.744793176651,-29.344406127929688,7.750606536865234,28.88353729248047,0.45
221,MetaDrive-td3combine-expt_with_safe-leaky-adamw-in-q-weighted-corrected,87,277.4953722920797,222163,441,2534.281009912491,-33.86033630371094,14.226242065429688,33.02665328979492,0.45
222,MetaDrive-td3combine-expt_with_safe-leaky-adamw-in-q-weighted-corrected,87,278.36525121120286,223164,442,2547.285306930542,,9.250277519226074,43.32262420654297,0.45
223,MetaDrive-td3combine-expt_with_safe-leaky-adamw-in-q-weighted-corrected,87,279.7192089722679,224165,443,2561.0676879882812,-35.449100494384766,8.17555046081543,35.846290588378906,0.45
224,MetaDrive-td3combine-expt_with_safe-leaky-adamw-in-q-weighted-corrected,87,278.7363315422164,225059,445,2572.5999071598053,-39.90798568725586,22.33928108215332,39.89936828613281,0.46
225,MetaDrive-td3combine-expt_with_safe-leaky-adamw-in-q-weighted-corrected,87,281.5445754754816,226130,448,2587.5428302288055,,13.883880615234375,44.382789611816406,0.48
226,MetaDrive-td3combine-expt_with_safe-leaky-adamw-in-q-weighted-corrected,87,278.665528948548,227323,451,2602.610746860504,-40.454254150390625,8.756717681884766,40.01329040527344,0.47
227,MetaDrive-td3combine-expt_with_safe-leaky-adamw-in-q-weighted-corrected,87,274.72549474697064,228324,452,2616.802819252014,,5.5931315422058105,34.197349548339844,0.46
228,MetaDrive-td3combine-expt_with_safe-leaky-adamw-in-q-weighted-corrected,87,273.7317425195826,229230,453,2631.9504079818726,,15.732765197753906,46.18824768066406,0.45
229,MetaDrive-td3combine-expt_with_safe-leaky-adamw-in-q-weighted-corrected,86,278.6223572968918,230360,455,2652.2326679229736,,14.236007690429688,38.072322845458984,0.46
230,MetaDrive-td3combine-expt_with_safe-leaky-adamw-in-q-weighted-corrected,86,278.88790976829364,231361,456,2669.8819839954376,-33.687713623046875,28.15878677368164,34.918235778808594,0.46
231,MetaDrive-td3combine-expt_with_safe-leaky-adamw-in-q-weighted-corrected,86,281.0516985924478,232362,457,2687.6625831127167,,17.74627113342285,37.2671012878418,0.46
232,MetaDrive-td3combine-expt_with_safe-leaky-adamw-in-q-weighted-corrected,86,283.51928252035117,233954,459,2715.148555994034,,12.480619430541992,40.088218688964844,0.46
233,MetaDrive-td3combine-expt_with_safe-leaky-adamw-in-q-weighted-corrected,86,284.75712504900605,234604,460,2726.8855838775635,,21.37030601501465,36.813011169433594,0.46
234,MetaDrive-td3combine-expt_with_safe-leaky-adamw-in-q-weighted-corrected,85,286.4482035510061,235259,461,2737.8154270648956,-47.13048553466797,16.64380645751953,45.51022720336914,0.47
235,MetaDrive-td3combine-expt_with_safe-leaky-adamw-in-q-weighted-corrected,85,287.30649303855125,236063,463,2751.094480037689,-42.00741958618164,51.97339630126953,41.17022705078125,0.48
236,MetaDrive-td3combine-expt_with_safe-leaky-adamw-in-q-weighted-corrected,85,290.9311298608461,237145,465,2768.8194060325623,-34.89258575439453,10.442399978637695,34.18428039550781,0.5
237,MetaDrive-td3combine-expt_with_safe-leaky-adamw-in-q-weighted-corrected,85,292.65802275632615,238430,467,2792.7837629318237,,11.815632820129395,44.86915588378906,0.51
238,MetaDrive-td3combine-expt_with_safe-leaky-adamw-in-q-weighted-corrected,85,291.5260317967114,239577,469,2813.819556236267,-46.686424255371094,19.78480339050293,45.00466537475586,0.52
239,MetaDrive-td3combine-expt_with_safe-leaky-adamw-in-q-weighted-corrected,85,291.0570346757698,240001,470,2821.5440640449524,-39.31397247314453,12.151905059814453,40.470428466796875,0.52
240,MetaDrive-td3combine-expt_with_safe-leaky-adamw-in-q-weighted-corrected,84,293.53691284097323,241797,472,2852.591288089752,-35.47203826904297,12.734445571899414,35.406822204589844,0.53
241,MetaDrive-td3combine-expt_with_safe-leaky-adamw-in-q-weighted-corrected,84,295.30646142133463,242798,473,2871.6707520484924,,11.10622787475586,28.329132080078125,0.52
242,MetaDrive-td3combine-expt_with_safe-leaky-adamw-in-q-weighted-corrected,84,296.6217672927042,243547,474,2885.3238921165466,-36.705352783203125,14.15336799621582,36.67549133300781,0.52
243,MetaDrive-td3combine-expt_with_safe-leaky-adamw-in-q-weighted-corrected,84,295.8330855849301,244023,475,2895.109205007553,-49.15091323852539,15.780631065368652,48.26581573486328,0.52
244,MetaDrive-td3combine-expt_with_safe-leaky-adamw-in-q-weighted-corrected,84,292.77333403010425,245456,477,2920.077431201935,,11.277345657348633,37.75159454345703,0.51
245,MetaDrive-td3combine-expt_with_safe-leaky-adamw-in-q-weighted-corrected,83,290.9390566377799,246457,478,2941.419141292572,-35.77888488769531,109.03323364257812,35.771541595458984,0.51
246,MetaDrive-td3combine-expt_with_safe-leaky-adamw-in-q-weighted-corrected,83,292.97024980530034,247050,479,2953.6825420856476,,8.119531631469727,32.3985595703125,0.52
247,MetaDrive-td3combine-expt_with_safe-leaky-adamw-in-q-weighted-corrected,83,289.2153051131772,248693,482,2984.33500123024,-35.21350860595703,25.531984329223633,35.21744918823242,0.51
248,MetaDrive-td3combine-expt_with_safe-leaky-adamw-in-q-weighted-corrected,83,289.14059594918155,249295,483,2995.1465921401978,-37.97568893432617,9.522590637207031,38.018489837646484,0.51
249,MetaDrive-td3combine-expt_with_safe-leaky-adamw-in-q-weighted-corrected,83,287.4028790483193,250185,485,3011.445620059967,-40.16509246826172,26.80276870727539,41.4837646484375,0.5
250,MetaDrive-td3combine-expt_with_safe-leaky-adamw-in-q-weighted-corrected,82,283.6188892444308,251320,489,3030.2997891902924,,15.747303009033203,37.83034896850586,0.5
251,MetaDrive-td3combine-expt_with_safe-leaky-adamw-in-q-weighted-corrected,82,284.06263610422724,252321,490,3047.2246091365814,-33.74718475341797,17.287899017333984,32.66722106933594,0.5
252,MetaDrive-td3combine-expt_with_safe-leaky-adamw-in-q-weighted-corrected,82,281.7353034583969,253754,492,3074.424241065979,,41.0335693359375,41.84147644042969,0.49
253,MetaDrive-td3combine-expt_with_safe-leaky-adamw-in-q-weighted-corrected,82,285.09102908036834,254888,494,3096.6536951065063,,12.263741493225098,42.24565124511719,0.5
254,MetaDrive-td3combine-expt_with_safe-leaky-adamw-in-q-weighted-corrected,82,287.1595598373179,255530,495,3108.1290209293365,,9.172996520996094,31.7835636138916,0.51
255,MetaDrive-td3combine-expt_with_safe-leaky-adamw-in-q-weighted-corrected,82,283.65235209089855,256754,497,3129.2043058872223,,14.21323013305664,46.299034118652344,0.5
256,MetaDrive-td3combine-expt_with_safe-leaky-adamw-in-q-weighted-corrected,81,285.61878905761336,257557,498,3143.039741039276,-38.68738555908203,9.212674140930176,38.224361419677734,0.5
257,MetaDrive-td3combine-expt_with_safe-leaky-adamw-in-q-weighted-corrected,81,286.0569238171748,258249,499,3154.526237010956,-41.13616943359375,10.746682167053223,41.61840057373047,0.5
258,MetaDrive-td3combine-expt_with_safe-leaky-adamw-in-q-weighted-corrected,81,285.9578126585586,259731,501,3178.2024278640747,-39.09200668334961,13.928169250488281,39.13175964355469,0.51
259,MetaDrive-td3combine-expt_with_safe-leaky-adamw-in-q-weighted-corrected,81,283.42943712923585,260904,503,3200.9487879276276,,22.185752868652344,33.86753845214844,0.5
260,MetaDrive-td3combine-expt_with_safe-leaky-adamw-in-q-weighted-corrected,81,283.32357809432006,261391,504,3209.8510200977325,-39.38782501220703,7.9670562744140625,39.84383010864258,0.5
261,MetaDrive-td3combine-expt_with_safe-leaky-adamw-in-q-weighted-corrected,81,285.63800396330583,262094,505,3223.148815870285,,10.540267944335938,44.28266906738281,0.5
262,MetaDrive-td3combine-expt_with_safe-leaky-adamw-in-q-weighted-corrected,81,284.4797573759626,263121,507,3242.5637531280518,-31.391321182250977,33.712738037109375,31.518234252929688,0.49
263,MetaDrive-td3combine-expt_with_safe-leaky-adamw-in-q-weighted-corrected,81,283.08472951301155,264816,510,3264.8959119319916,,16.35830307006836,37.00010299682617,0.49
264,MetaDrive-td3combine-expt_with_safe-leaky-adamw-in-q-weighted-corrected,81,283.3670546993897,265817,511,3277.744917154312,-37.02927780151367,20.856128692626953,36.13486099243164,0.49
265,MetaDrive-td3combine-expt_with_safe-leaky-adamw-in-q-weighted-corrected,81,283.0827440254386,266540,513,3287.4557309150696,,25.940549850463867,36.91252136230469,0.49
266,MetaDrive-td3combine-expt_with_safe-leaky-adamw-in-q-weighted-corrected,81,278.1542933434279,267173,515,3295.435333251953,-36.2811393737793,13.392854690551758,35.64053726196289,0.48
267,MetaDrive-td3combine-expt_with_safe-leaky-adamw-in-q-weighted-corrected,81,277.35893079412637,268174,516,3308.232355117798,,20.453781127929688,39.851966857910156,0.47
268,MetaDrive-td3combine-expt_with_safe-leaky-adamw-in-q-weighted-corrected,81,276.4877130179116,269335,519,3323.339424133301,-41.65045166015625,15.883346557617188,40.70759963989258,0.46
269,MetaDrive-td3combine-expt_with_safe-leaky-adamw-in-q-weighted-corrected,81,279.8253282552789,270350,521,3335.9941980838776,,19.603660583496094,39.01469421386719,0.47
270,MetaDrive-td3combine-expt_with_safe-leaky-adamw-in-q-weighted-corrected,81,279.9074422103228,271351,522,3347.78533411026,-36.49378204345703,14.224679946899414,35.86491012573242,0.47
271,MetaDrive-td3combine-expt_with_safe-leaky-adamw-in-q-weighted-corrected,81,282.7181220869471,272047,523,3356.7218890190125,-45.55653762817383,25.68604278564453,45.225929260253906,0.47
272,MetaDrive-td3combine-expt_with_safe-leaky-adamw-in-q-weighted-corrected,81,280.1236984607235,273048,524,3368.6321952342987,,56.220062255859375,37.871952056884766,0.46
273,MetaDrive-td3combine-expt_with_safe-leaky-adamw-in-q-weighted-corrected,81,282.02207400300034,274085,526,3381.1472709178925,-47.291507720947266,12.609286308288574,46.62717056274414,0.48
274,MetaDrive-td3combine-expt_with_safe-leaky-adamw-in-q-weighted-corrected,81,286.4934286497826,275287,528,3397.0739500522614,-37.505611419677734,16.42182159423828,36.34150695800781,0.49
275,MetaDrive-td3combine-expt_with_safe-leaky-adamw-in-q-weighted-corrected,80,286.5817998667952,276288,529,3414.2742879390717,,10.11318588256836,39.24340057373047,0.49
276,MetaDrive-td3combine-expt_with_safe-leaky-adamw-in-q-weighted-corrected,80,290.82251631741644,277467,531,3431.291310071945,-37.87995147705078,10.013879776000977,36.98951721191406,0.5
277,MetaDrive-td3combine-expt_with_safe-leaky-adamw-in-q-weighted-corrected,80,288.1350501884137,278018,532,3440.570275068283,,6.485701084136963,32.904266357421875,0.5
278,MetaDrive-td3combine-expt_with_safe-leaky-adamw-in-q-weighted-corrected,80,286.1407550452406,279019,533,3453.735431909561,-30.321887969970703,12.594207763671875,31.200740814208984,0.49
279,MetaDrive-td3combine-expt_with_safe-leaky-adamw-in-q-weighted-corrected,80,287.369127777089,280297,536,3470.7604229450226,-39.95289611816406,11.990314483642578,39.503170013427734,0.49
280,MetaDrive-td3combine-expt_with_safe-leaky-adamw-in-q-weighted-corrected,80,292.2181574814755,281722,538,3488.8030359745026,,21.95917510986328,36.50825119018555,0.49
281,MetaDrive-td3combine-expt_with_safe-leaky-adamw-in-q-weighted-corrected,80,294.81827613360156,282314,539,3496.7028942108154,,16.043277740478516,44.42612075805664,0.49
282,MetaDrive-td3combine-expt_with_safe-leaky-adamw-in-q-weighted-corrected,80,290.98601114363447,283150,541,3508.946671962738,,46.57630157470703,53.21127700805664,0.48
283,MetaDrive-td3combine-expt_with_safe-leaky-adamw-in-q-weighted-corrected,80,291.74549549024823,284308,543,3529.296720981598,,20.557727813720703,38.40731430053711,0.49
284,MetaDrive-td3combine-expt_with_safe-leaky-adamw-in-q-weighted-corrected,80,289.0936337715048,285309,544,3544.0081689357758,-52.43281173706055,22.831438064575195,51.935142517089844,0.48
285,MetaDrive-td3combine-expt_with_safe-leaky-adamw-in-q-weighted-corrected,80,289.6369522533696,286084,545,3554.3750898838043,,19.127452850341797,41.44957733154297,0.48
286,MetaDrive-td3combine-expt_with_safe-leaky-adamw-in-q-weighted-corrected,80,291.7507455584034,287085,546,3566.235598087311,-32.01190185546875,21.608694076538086,32.044593811035156,0.48
287,MetaDrive-td3combine-expt_with_safe-leaky-adamw-in-q-weighted-corrected,80,290.1317234220462,288086,547,3578.195479154587,,4.088662147521973,36.731502532958984,0.47
288,MetaDrive-td3combine-expt_with_safe-leaky-adamw-in-q-weighted-corrected,80,288.24384572602935,289087,548,3589.9433250427246,-33.143028259277344,8.65350341796875,33.021507263183594,0.46
289,MetaDrive-td3combine-expt_with_safe-leaky-adamw-in-q-weighted-corrected,80,286.40980757472397,290088,549,3602.0714480876923,,10.718091011047363,40.799068450927734,0.45
290,MetaDrive-td3combine-expt_with_safe-leaky-adamw-in-q-weighted-corrected,80,291.4913152066563,291781,551,3626.947620868683,-40.13219451904297,11.278209686279297,40.648311614990234,0.47
291,MetaDrive-td3combine-expt_with_safe-leaky-adamw-in-q-weighted-corrected,80,293.31526319515933,292306,552,3634.880164861679,,11.956148147583008,40.08372116088867,0.47
292,MetaDrive-td3combine-expt_with_safe-leaky-adamw-in-q-weighted-corrected,80,289.63661035131696,293506,555,3649.304904937744,,6.877992630004883,31.947998046875,0.48
293,MetaDrive-td3combine-expt_with_safe-leaky-adamw-in-q-weighted-corrected,80,291.1417011882412,294017,556,3654.948574066162,-43.27491760253906,16.05572509765625,44.67280960083008,0.49
294,MetaDrive-td3combine-expt_with_safe-leaky-adamw-in-q-weighted-corrected,80,287.689624138382,295310,558,3670.0180490016937,,10.487150192260742,48.051422119140625,0.48
295,MetaDrive-td3combine-expt_with_safe-leaky-adamw-in-q-weighted-corrected,80,289.66221953077434,296134,559,3680.363936185837,,17.780696868896484,44.15278625488281,0.48
296,MetaDrive-td3combine-expt_with_safe-leaky-adamw-in-q-weighted-corrected,80,286.9039379925466,297088,561,3692.3632810115814,,14.086835861206055,44.77448272705078,0.47
297,MetaDrive-td3combine-expt_with_safe-leaky-adamw-in-q-weighted-corrected,80,282.8885468795983,298089,562,3704.2496581077576,-37.5435676574707,12.934808731079102,37.34645080566406,0.46
298,MetaDrive-td3combine-expt_with_safe-leaky-adamw-in-q-weighted-corrected,80,287.5515700136425,299659,564,3722.844824075699,-37.56831359863281,27.486738204956055,37.73273468017578,0.46
299,MetaDrive-td3combine-expt_with_safe-leaky-adamw-in-q-weighted-corrected,80,286.9115658409635,300129,565,3728.388844013214,-43.77879333496094,23.509178161621094,45.1677131652832,0.46
300,MetaDrive-td3combine-expt_with_safe-leaky-adamw-in-q-weighted-corrected,80,286.60526986713364,301363,567,3743.6502442359924,-41.84667205810547,6.679425239562988,41.808433532714844,0.46
301,MetaDrive-td3combine-expt_with_safe-leaky-adamw-in-q-weighted-corrected,80,286.9647835987746,302071,569,3752.8269851207733,-42.85954284667969,8.533244132995605,43.29998779296875,0.45
302,MetaDrive-td3combine-expt_with_safe-leaky-adamw-in-q-weighted-corrected,80,288.9608397415992,303072,570,3764.9947381019592,,20.29924774169922,34.74720001220703,0.44
303,MetaDrive-td3combine-expt_with_safe-leaky-adamw-in-q-weighted-corrected,80,286.95342576143963,304089,573,3777.2179770469666,-32.95586395263672,11.886775970458984,32.837867736816406,0.44
304,MetaDrive-td3combine-expt_with_safe-leaky-adamw-in-q-weighted-corrected,80,284.08838081398864,305646,575,3795.8082711696625,,5.1440582275390625,45.592918395996094,0.43
305,MetaDrive-td3combine-expt_with_safe-leaky-adamw-in-q-weighted-corrected,80,286.83567535586315,306234,576,3802.9009079933167,,48.6374397277832,44.945037841796875,0.44
306,MetaDrive-td3combine-expt_with_safe-leaky-adamw-in-q-weighted-corrected,80,289.6661250172558,307196,577,3814.235449075699,,13.340936660766602,38.461734771728516,0.45
307,MetaDrive-td3combine-expt_with_safe-leaky-adamw-in-q-weighted-corrected,80,292.2695538449069,308814,579,3833.6261088848114,,9.79555606842041,41.80778503417969,0.46
308,MetaDrive-td3combine-expt_with_safe-leaky-adamw-in-q-weighted-corrected,80,295.37173034411734,309815,580,3845.8246569633484,-39.90743637084961,13.37547492980957,38.97475051879883,0.46
309,MetaDrive-td3combine-expt_with_safe-leaky-adamw-in-q-weighted-corrected,80,296.1401067147387,310541,581,3854.7880079746246,-36.6516227722168,5.879632472991943,35.857933044433594,0.46
310,MetaDrive-td3combine-expt_with_safe-leaky-adamw-in-q-weighted-corrected,80,295.7181342046885,311542,582,3866.5997750759125,,7.077248573303223,39.35255432128906,0.46
311,MetaDrive-td3combine-expt_with_safe-leaky-adamw-in-q-weighted-corrected,80,296.4603316308991,312128,583,3873.47118806839,,11.993705749511719,36.056976318359375,0.46
312,MetaDrive-td3combine-expt_with_safe-leaky-adamw-in-q-weighted-corrected,80,298.60529853932024,313129,584,3886.4017469882965,-38.34540939331055,20.95358657836914,37.9217414855957,0.46
313,MetaDrive-td3combine-expt_with_safe-leaky-adamw-in-q-weighted-corrected,80,297.964622924256,314130,585,3902.238426208496,,19.29279136657715,42.40312576293945,0.45
314,MetaDrive-td3combine-expt_with_safe-leaky-adamw-in-q-weighted-corrected,80,302.53696164742513,315054,587,3919.267585039139,,13.122145652770996,32.42351531982422,0.46
315,MetaDrive-td3combine-expt_with_safe-leaky-adamw-in-q-weighted-corrected,80,304.4282049993857,316412,589,3942.614393234253,,11.24576473236084,41.778709411621094,0.46
316,MetaDrive-td3combine-expt_with_safe-leaky-adamw-in-q-weighted-corrected,80,308.6242908590251,317373,590,3958.2662699222565,-45.793060302734375,7.9835896492004395,45.27277374267578,0.47
317,MetaDrive-td3combine-expt_with_safe-leaky-adamw-in-q-weighted-corrected,80,309.89330410036223,318431,592,3975.666694879532,-38.9644889831543,12.873388290405273,40.575687408447266,0.47
318,MetaDrive-td3combine-expt_with_safe-leaky-adamw-in-q-weighted-corrected,80,309.7410045107127,319337,594,3990.141433238983,-46.23850631713867,13.837331771850586,45.629150390625,0.47
319,MetaDrive-td3combine-expt_with_safe-leaky-adamw-in-q-weighted-corrected,80,309.89179914753987,320075,596,3999.935255050659,-42.053497314453125,18.97500228881836,41.635047912597656,0.47
320,MetaDrive-td3combine-expt_with_safe-leaky-adamw-in-q-weighted-corrected,79,311.6555374051925,321445,598,4018.7866020202637,-41.50734329223633,11.044692039489746,40.88308334350586,0.48
321,MetaDrive-td3combine-expt_with_safe-leaky-adamw-in-q-weighted-corrected,79,310.40565062148573,322558,601,4035.2102110385895,,9.460945129394531,38.4144401550293,0.47
322,MetaDrive-td3combine-expt_with_safe-leaky-adamw-in-q-weighted-corrected,79,312.53358964121276,323244,602,4046.2403020858765,,10.591910362243652,43.48563003540039,0.48
323,MetaDrive-td3combine-expt_with_safe-leaky-adamw-in-q-weighted-corrected,79,306.24073240590843,324038,605,4060.465921163559,,12.346536636352539,42.63779067993164,0.47
324,MetaDrive-td3combine-expt_with_safe-leaky-adamw-in-q-weighted-corrected,79,307.24029784301047,325001,607,4076.989732980728,-32.94923400878906,10.267593383789062,33.56437683105469,0.48
325,MetaDrive-td3combine-expt_with_safe-leaky-adamw-in-q-weighted-corrected,79,307.33323612042227,326002,608,4093.58091711998,,18.62674331665039,41.3110466003418,0.48
326,MetaDrive-td3combine-expt_with_safe-leaky-adamw-in-q-weighted-corrected,79,310.11272438934026,327067,610,4109.731043100357,-46.117610931396484,16.412870407104492,45.856075286865234,0.48
327,MetaDrive-td3combine-expt_with_safe-leaky-adamw-in-q-weighted-corrected,79,311.4130963113289,328475,613,4127.406585216522,-35.97462463378906,21.059288024902344,35.59168243408203,0.48
328,MetaDrive-td3combine-expt_with_safe-leaky-adamw-in-q-weighted-corrected,79,314.69120832414654,329271,614,4137.14471411705,-37.55106735229492,12.696949005126953,36.83454513549805,0.48
329,MetaDrive-td3combine-expt_with_safe-leaky-adamw-in-q-weighted-corrected,79,315.0996330870507,330272,615,4148.762640953064,,9.66081428527832,44.09597396850586,0.47
330,MetaDrive-td3combine-expt_with_safe-leaky-adamw-in-q-weighted-corrected,79,313.06122026207987,331736,618,4164.610274076462,,33.20838928222656,43.138362884521484,0.46
331,MetaDrive-td3combine-expt_with_safe-leaky-adamw-in-q-weighted-corrected,79,313.095959923825,332013,619,4167.948481082916,-38.03407287597656,7.145577430725098,37.65821838378906,0.46
332,MetaDrive-td3combine-expt_with_safe-leaky-adamw-in-q-weighted-corrected,79,311.8437785407199,333014,620,4179.927929162979,,17.43248748779297,44.82038879394531,0.45
333,MetaDrive-td3combine-expt_with_safe-leaky-adamw-in-q-weighted-corrected,79,311.07286612822486,334210,623,4193.960798025131,,12.476953506469727,43.00259017944336,0.47
334,MetaDrive-td3combine-expt_with_safe-leaky-adamw-in-q-weighted-corrected,79,313.22515775727044,335140,625,4204.744450092316,,29.46939468383789,33.27710723876953,0.48
335,MetaDrive-td3combine-expt_with_safe-leaky-adamw-in-q-weighted-corrected,79,311.76622840700134,336141,626,4216.721389055252,-36.539520263671875,11.841381072998047,35.68402862548828,0.47
336,MetaDrive-td3combine-expt_with_safe-leaky-adamw-in-q-weighted-corrected,79,309.4785287613769,337758,629,4235.4670650959015,,6.130308151245117,40.21784973144531,0.45
337,MetaDrive-td3combine-expt_with_safe-leaky-adamw-in-q-weighted-corrected,79,308.4643655457908,338643,630,4245.377140045166,-44.52921676635742,10.23765754699707,43.8476448059082,0.45
338,MetaDrive-td3combine-expt_with_safe-leaky-adamw-in-q-weighted-corrected,79,307.407442797372,339009,631,4249.483042001724,-42.5482292175293,10.991413116455078,42.470706939697266,0.44
339,MetaDrive-td3combine-expt_with_safe-leaky-adamw-in-q-weighted-corrected,79,307.02682685280695,340126,635,4261.71062207222,,17.361164093017578,46.309207916259766,0.43
340,MetaDrive-td3combine-expt_with_safe-leaky-adamw-in-q-weighted-corrected,79,306.1434523729112,341034,637,4271.719711065292,,141.38299560546875,32.0986328125,0.44
341,MetaDrive-td3combine-expt_with_safe-leaky-adamw-in-q-weighted-corrected,79,299.5327043827575,342221,640,4284.343549966812,-43.24135971069336,27.292049407958984,40.61225128173828,0.45
342,MetaDrive-td3combine-expt_with_safe-leaky-adamw-in-q-weighted-corrected,79,302.23314307223643,343100,642,4294.536772251129,,12.066116333007812,38.50905227661133,0.45
343,MetaDrive-td3combine-expt_with_safe-leaky-adamw-in-q-weighted-corrected,79,301.40602637038455,344289,647,4308.634216070175,-42.67597198486328,11.725618362426758,42.56601333618164,0.46
344,MetaDrive-td3combine-expt_with_safe-leaky-adamw-in-q-weighted-corrected,79,307.5217419412921,345276,649,4321.119204998016,,25.318401336669922,38.844139099121094,0.47
345,MetaDrive-td3combine-expt_with_safe-leaky-adamw-in-q-weighted-corrected,79,304.1433557265116,346612,652,4337.36948800087,,11.407596588134766,42.10969543457031,0.47
346,MetaDrive-td3combine-expt_with_safe-leaky-adamw-in-q-weighted-corrected,79,309.2686705950151,347613,653,4349.987556219101,-40.39298629760742,37.57585906982422,40.4349250793457,0.47
347,MetaDrive-td3combine-expt_with_safe-leaky-adamw-in-q-weighted-corrected,79,307.06826139374715,348614,654,4361.277960062027,,7.516326904296875,34.32106399536133,0.46
348,MetaDrive-td3combine-expt_with_safe-leaky-adamw-in-q-weighted-corrected,79,308.42654716272204,349163,655,4367.730184078217,-42.908748626708984,38.855342864990234,42.186363220214844,0.46
349,MetaDrive-td3combine-expt_with_safe-leaky-adamw-in-q-weighted-corrected,79,307.3229039389958,350185,659,4380.1786160469055,-46.169517517089844,15.015180587768555,45.443092346191406,0.46
350,MetaDrive-td3combine-expt_with_safe-leaky-adamw-in-q-weighted-corrected,79,309.7703399391818,351892,662,4399.066978216171,,12.437397956848145,46.83000183105469,0.46
351,MetaDrive-td3combine-expt_with_safe-leaky-adamw-in-q-weighted-corrected,79,307.5406243613641,352078,663,4401.0836789608,,58.94265365600586,38.188655853271484,0.45
352,MetaDrive-td3combine-expt_with_safe-leaky-adamw-in-q-weighted-corrected,80,303.31510261124475,353305,667,4413.811279058456,-34.14998245239258,18.193361282348633,33.60417175292969,0.45
353,MetaDrive-td3combine-expt_with_safe-leaky-adamw-in-q-weighted-corrected,80,304.26848879202976,354235,670,4424.098612070084,-43.20060348510742,11.177656173706055,43.156410217285156,0.47
354,MetaDrive-td3combine-expt_with_safe-leaky-adamw-in-q-weighted-corrected,80,302.42881853374513,355236,671,4434.663347005844,,41.05325698852539,40.02426528930664,0.47
355,MetaDrive-td3combine-expt_with_safe-leaky-adamw-in-q-weighted-corrected,80,301.24616658980705,356082,674,4444.600320100784,,13.446870803833008,47.31896209716797,0.47
356,MetaDrive-td3combine-expt_with_safe-leaky-adamw-in-q-weighted-corrected,80,295.2096200682929,357009,678,4455.527096033096,-37.717376708984375,14.308929443359375,37.36552047729492,0.44
357,MetaDrive-td3combine-expt_with_safe-leaky-adamw-in-q-weighted-corrected,80,292.05982199575743,358076,681,4469.380178928375,,19.45569610595703,49.44137954711914,0.44
358,MetaDrive-td3combine-expt_with_safe-leaky-adamw-in-q-weighted-corrected,80,293.05904736296577,359077,682,4481.634495973587,-40.41523361206055,5.826447486877441,39.759544372558594,0.44
359,MetaDrive-td3combine-expt_with_safe-leaky-adamw-in-q-weighted-corrected,80,284.4417692740437,360065,687,4494.118972063065,-44.254417419433594,15.673116683959961,44.064083099365234,0.43
360,MetaDrive-td3combine-expt_with_safe-leaky-adamw-in-q-weighted-corrected,80,277.41388333060354,361414,692,4509.1700229644775,,20.8015079498291,44.23714828491211,0.41
361,MetaDrive-td3combine-expt_with_safe-leaky-adamw-in-q-weighted-corrected,80,276.66229356404926,362176,695,4517.396807909012,,12.137983322143555,43.05611038208008,0.4
362,MetaDrive-td3combine-expt_with_safe-leaky-adamw-in-q-weighted-corrected,80,276.28502034707265,363290,698,4529.042021989822,,12.937862396240234,42.89047622680664,0.41
363,MetaDrive-td3combine-expt_with_safe-leaky-adamw-in-q-weighted-corrected,80,276.507629724234,364044,701,4537.146968126297,,15.658506393432617,36.610782623291016,0.41
364,MetaDrive-td3combine-expt_with_safe-leaky-adamw-in-q-weighted-corrected,80,276.98945757000615,365144,706,4548.7178320884705,,7.428176403045654,47.18585205078125,0.39
365,MetaDrive-td3combine-expt_with_safe-leaky-adamw-in-q-weighted-corrected,80,272.9257812167141,366057,709,4558.104478120804,-43.38051986694336,22.606611251831055,43.484169006347656,0.37
366,MetaDrive-td3combine-expt_with_safe-leaky-adamw-in-q-weighted-corrected,80,267.9356102309486,367529,714,4573.240024089813,-41.378448486328125,13.87396240234375,39.781288146972656,0.38
367,MetaDrive-td3combine-expt_with_safe-leaky-adamw-in-q-weighted-corrected,80,267.4242625221222,368702,716,4585.125319004059,,13.92096996307373,37.69541931152344,0.38
368,MetaDrive-td3combine-expt_with_safe-leaky-adamw-in-q-weighted-corrected,80,266.4853481932832,369088,718,4589.104962110519,,15.818668365478516,39.870113372802734,0.38
369,MetaDrive-td3combine-expt_with_safe-leaky-adamw-in-q-weighted-corrected,80,263.5931550409585,370023,721,4598.9686670303345,-37.95191192626953,9.794827461242676,36.652496337890625,0.38
370,MetaDrive-td3combine-expt_with_safe-leaky-adamw-in-q-weighted-corrected,80,258.16049004293103,371292,726,4612.081052064896,,13.198627471923828,39.206573486328125,0.35
371,MetaDrive-td3combine-expt_with_safe-leaky-adamw-in-q-weighted-corrected,80,259.4482239628642,372353,728,4623.263005971909,-38.60493469238281,10.570453643798828,38.59320831298828,0.36
372,MetaDrive-td3combine-expt_with_safe-leaky-adamw-in-q-weighted-corrected,80,258.41928896767473,373204,732,4632.395002126694,,41.79052734375,51.57549285888672,0.35
373,MetaDrive-td3combine-expt_with_safe-leaky-adamw-in-q-weighted-corrected,80,253.9951235327266,374061,736,4641.5424609184265,-41.939918518066406,21.436676025390625,41.86507034301758,0.34
374,MetaDrive-td3combine-expt_with_safe-leaky-adamw-in-q-weighted-corrected,80,251.1155713745842,375690,739,4658.5188601017,,6.589378356933594,42.13120651245117,0.32
375,MetaDrive-td3combine-expt_with_safe-leaky-adamw-in-q-weighted-corrected,80,249.78990784502824,376213,741,4664.058886051178,-39.045654296875,32.91117858886719,39.58908462524414,0.31
376,MetaDrive-td3combine-expt_with_safe-leaky-adamw-in-q-weighted-corrected,80,246.57580896544212,377056,744,4673.21031498909,,28.668916702270508,36.29448318481445,0.3
377,MetaDrive-td3combine-expt_with_safe-leaky-adamw-in-q-weighted-corrected,80,237.8765109689936,378198,750,4685.436667919159,,10.679851531982422,47.879905700683594,0.28
378,MetaDrive-td3combine-expt_with_safe-leaky-adamw-in-q-weighted-corrected,80,240.48716543034453,379223,752,4696.454004049301,-41.92262649536133,18.254873275756836,43.091739654541016,0.28
379,MetaDrive-td3combine-expt_with_safe-leaky-adamw-in-q-weighted-corrected,80,241.2426184995835,380003,754,4704.560972213745,-40.83626174926758,15.92398738861084,39.953182220458984,0.28
380,MetaDrive-td3combine-expt_with_safe-leaky-adamw-in-q-weighted-corrected,80,241.51913950529527,381066,757,4715.1403839588165,,7.5518388748168945,44.335758209228516,0.28
381,MetaDrive-td3combine-expt_with_safe-leaky-adamw-in-q-weighted-corrected,80,236.49166987941211,382280,763,4727.884557008743,,22.706825256347656,44.26747512817383,0.26
382,MetaDrive-td3combine-expt_with_safe-leaky-adamw-in-q-weighted-corrected,80,231.61605243446178,383092,767,4736.364264011383,,17.27227020263672,44.27274703979492,0.23
383,MetaDrive-td3combine-expt_with_safe-leaky-adamw-in-q-weighted-corrected,80,229.14593201761102,384225,770,4748.057028055191,-40.18479919433594,11.492161750793457,40.30973434448242,0.21
384,MetaDrive-td3combine-expt_with_safe-leaky-adamw-in-q-weighted-corrected,80,228.2016126159823,385179,775,4758.274099111557,-46.04568099975586,25.120134353637695,46.61833953857422,0.2
385,MetaDrive-td3combine-expt_with_safe-leaky-adamw-in-q-weighted-corrected,81,226.37348362907852,386990,779,4776.729927062988,,15.706133842468262,45.14075469970703,0.2
386,MetaDrive-td3combine-expt_with_safe-leaky-adamw-in-q-weighted-corrected,81,224.32779204523698,387143,780,4778.210545063019,-41.66680908203125,17.47061538696289,41.496315002441406,0.19
387,MetaDrive-td3combine-expt_with_safe-leaky-adamw-in-q-weighted-corrected,81,224.6648698306447,388343,782,4790.4353811740875,-48.33187484741211,17.916561126708984,48.07212829589844,0.19
388,MetaDrive-td3combine-expt_with_safe-leaky-adamw-in-q-weighted-corrected,81,227.35550334431937,389085,785,4798.233482122421,-43.11770248413086,13.576611518859863,43.275535583496094,0.19
389,MetaDrive-td3combine-expt_with_safe-leaky-adamw-in-q-weighted-corrected,81,230.5766615352516,390099,788,4808.930682897568,-43.74211502075195,22.708707809448242,43.738670349121094,0.2
390,MetaDrive-td3combine-expt_with_safe-leaky-adamw-in-q-weighted-corrected,81,228.598265002692,391100,789,4818.876533031464,,8.249002456665039,42.755496978759766,0.2
391,MetaDrive-td3combine-expt_with_safe-leaky-adamw-in-q-weighted-corrected,81,229.9735313961126,392226,792,4830.3083600997925,,12.904146194458008,38.5049934387207,0.2
392,MetaDrive-td3combine-expt_with_safe-leaky-adamw-in-q-weighted-corrected,81,226.9828504266412,393360,797,4842.181041002274,,9.037147521972656,34.270137786865234,0.19
393,MetaDrive-td3combine-expt_with_safe-leaky-adamw-in-q-weighted-corrected,81,224.50541448082143,394173,801,4850.762630939484,-41.601966857910156,10.180427551269531,41.884727478027344,0.18
394,MetaDrive-td3combine-expt_with_safe-leaky-adamw-in-q-weighted-corrected,81,224.9498288529901,395112,805,4860.298358201981,,18.372732162475586,45.882843017578125,0.18
395,MetaDrive-td3combine-expt_with_safe-leaky-adamw-in-q-weighted-corrected,81,225.4961265876879,396173,809,4871.681323051453,-39.454715728759766,12.32240104675293,39.89134216308594,0.19
396,MetaDrive-td3combine-expt_with_safe-leaky-adamw-in-q-weighted-corrected,81,224.6722667215682,397080,813,4881.462114095688,,9.013994216918945,43.37666320800781,0.18
397,MetaDrive-td3combine-expt_with_safe-leaky-adamw-in-q-weighted-corrected,81,225.61021092747217,398069,817,4891.527578830719,-43.407997131347656,11.719985961914062,42.42924118041992,0.19
398,MetaDrive-td3combine-expt_with_safe-leaky-adamw-in-q-weighted-corrected,81,226.09764699755692,399239,822,4903.96053814888,-46.032711029052734,17.351625442504883,46.93313217163086,0.19
