TanmayH/CS269-RL-project-code/MetaDrive-td3combine-expt3/MetaDrive-Gen-v0/td3/progress.csv
,log_dir,frame_per_second,episode_reward,total_steps,total_episodes,total_time,target_q,actor_loss,critic_loss,success_rate
0,MetaDrive-td3combine-expt3,225,2.9051323434532397,2001,2,8.864131689071655,,,,0.0
1,MetaDrive-td3combine-expt3,223,3.209627084713933,3002,3,13.406873941421509,,,,0.0
2,MetaDrive-td3combine-expt3,245,3.117431783057179,4003,4,16.307498693466187,,,,0.0
3,MetaDrive-td3combine-expt3,262,3.3097380376618575,5004,5,19.071834325790405,,,,0.0
4,MetaDrive-td3combine-expt3,275,3.158299592352749,6005,6,21.788703680038452,,,,0.0
5,MetaDrive-td3combine-expt3,279,3.152047266616237,7006,7,25.054337739944458,,,,0.0
6,MetaDrive-td3combine-expt3,279,3.1128267900675057,8007,8,28.620569229125977,,,,0.0
7,MetaDrive-td3combine-expt3,289,3.0195671692637154,9008,9,31.099875688552856,,,,0.0
8,MetaDrive-td3combine-expt3,293,3.008906623115366,10009,10,34.053906202316284,-0.04828143119812012,0.10182031989097595,0.0025073387660086155,0.0
9,MetaDrive-td3combine-expt3,214,-1.5674740930954363,11560,41,53.82515907287598,-0.021250616759061813,,0.005324141588062048,0.0
10,MetaDrive-td3combine-expt3,205,-1.678362788686782,12040,42,58.67829442024231,-0.06718698143959045,,0.7407495975494385,0.0
11,MetaDrive-td3combine-expt3,194,-1.6848811085010242,13041,43,66.89757657051086,-0.041476860642433167,-0.024918105453252792,0.7438775300979614,0.0
12,MetaDrive-td3combine-expt3,186,-1.7596157138567732,14161,45,75.83644032478333,0.048390377312898636,-0.046532660722732544,0.004134161863476038,0.0
13,MetaDrive-td3combine-expt3,177,-1.8376112413503347,15314,47,86.45876717567444,0.05533960089087486,,0.0020915893837809563,0.0
14,MetaDrive-td3combine-expt3,171,-2.020383180847548,16190,49,94.16167068481445,0.05243510752916336,,0.006385626271367073,0.0
15,MetaDrive-td3combine-expt3,166,-2.045216527831169,17434,51,104.71460437774658,-0.017466116696596146,,0.8125150203704834,0.0
16,MetaDrive-td3combine-expt3,160,-1.4230227554676151,18023,68,112.51948046684265,0.05466734990477562,-0.019944705069065094,0.0034539182670414448,0.0
17,MetaDrive-td3combine-expt3,150,0.5169901121983198,19034,98,126.32623672485352,0.0015666969120502472,,0.8251960873603821,0.0
18,MetaDrive-td3combine-expt3,141,1.2107079251628725,20009,131,140.94352960586548,0.09062062203884125,-0.17160534858703613,0.8638919591903687,0.0
19,MetaDrive-td3combine-expt3,135,3.0029259272547675,21017,161,154.99895858764648,0.27351200580596924,-0.30521059036254883,0.025120427832007408,0.0
20,MetaDrive-td3combine-expt3,130,4.029453154805431,22048,190,168.97601890563965,0.33407318592071533,,0.9440687894821167,0.0
21,MetaDrive-td3combine-expt3,127,4.714953877521856,23005,214,180.93111181259155,0.6941534280776978,-0.5476958751678467,0.0929526835680008,0.0
22,MetaDrive-td3combine-expt3,123,6.919211478386609,24008,240,194.07137441635132,0.9570547342300415,,0.056572046130895615,0.0
23,MetaDrive-td3combine-expt3,121,8.059573950562458,25042,266,206.81050419807434,1.320287823677063,,0.03657723590731621,0.0
24,MetaDrive-td3combine-expt3,119,7.928480027334818,26020,291,218.35951137542725,1.3505358695983887,,4.956303596496582,0.0
25,MetaDrive-td3combine-expt3,117,7.805657745349193,27021,316,230.73226404190063,2.159864664077759,-2.1532325744628906,0.1479482650756836,0.0
26,MetaDrive-td3combine-expt3,115,8.64719995474672,28034,338,242.5692057609558,2.356022357940674,,1.683196783065796,0.0
27,MetaDrive-td3combine-expt3,114,10.936323989553777,29061,357,254.36823892593384,2.9352803230285645,-3.1499552726745605,0.07834126055240631,0.0
28,MetaDrive-td3combine-expt3,112,12.884193910555048,30079,375,266.2751111984253,3.2382497787475586,-3.4425911903381348,0.16456809639930725,0.0
29,MetaDrive-td3combine-expt3,111,15.143503526438595,31065,393,279.19353222846985,3.5612375736236572,-3.8971471786499023,1.7398635149002075,0.0
30,MetaDrive-td3combine-expt3,110,18.02302153497793,32041,409,290.146853685379,4.090803146362305,-4.304540634155273,2.726677417755127,0.0
31,MetaDrive-td3combine-expt3,109,21.94825593253602,33061,423,301.56250834465027,4.5320587158203125,-4.595888614654541,0.33570295572280884,0.0
32,MetaDrive-td3combine-expt3,108,26.500215661766465,34025,434,312.62235951423645,4.719888210296631,-5.059277534484863,7.718498229980469,0.0
33,MetaDrive-td3combine-expt3,108,31.686190469978346,35018,444,323.2852554321289,5.370245456695557,,3.9815516471862793,0.0
34,MetaDrive-td3combine-expt3,107,37.563848312103715,36085,454,334.61145281791687,6.0942840576171875,-6.447683334350586,4.909343719482422,0.0
35,MetaDrive-td3combine-expt3,107,43.8136555748445,37045,463,345.6759834289551,6.732151031494141,-7.106967926025391,0.4209420084953308,0.0
36,MetaDrive-td3combine-expt3,106,48.57288205211459,38057,472,356.16840052604675,7.316399097442627,-7.565645694732666,5.733804702758789,0.0
37,MetaDrive-td3combine-expt3,106,55.10903785683296,39095,480,368.1908714771271,8.392342567443848,-8.734149932861328,0.5910541415214539,0.0
38,MetaDrive-td3combine-expt3,105,60.65873315720298,40080,488,378.34757232666016,8.837923049926758,,5.986749649047852,0.0
39,MetaDrive-td3combine-expt3,105,66.4588512883155,41024,496,388.82283186912537,9.289876937866211,,0.45138072967529297,0.0
40,MetaDrive-td3combine-expt3,104,71.49367140503284,42079,505,401.50623846054077,9.360054016113281,-9.61666488647461,0.8029148578643799,0.0
41,MetaDrive-td3combine-expt3,104,77.08883067490018,43128,513,413.09704065322876,10.713863372802734,,8.41706657409668,0.0
42,MetaDrive-td3combine-expt3,103,81.07377101967478,44052,521,424.65640807151794,11.096729278564453,,17.442405700683594,0.0
43,MetaDrive-td3combine-expt3,103,82.81359866897036,45046,529,435.88311195373535,12.07618522644043,,1.7743322849273682,0.0
44,MetaDrive-td3combine-expt3,102,89.1178621813804,46274,533,453.2449080944061,12.97406005859375,,12.727514266967773,0.0
45,MetaDrive-td3combine-expt3,101,93.86935227586672,47382,535,466.5786416530609,12.927770614624023,,14.862663269042969,0.01
46,MetaDrive-td3combine-expt3,101,97.47492983887774,48381,541,476.44135880470276,14.448893547058105,-14.765682220458984,2.570220470428467,0.02
47,MetaDrive-td3combine-expt3,101,99.78621731140187,49005,543,483.39666533470154,15.590950012207031,-15.837658882141113,2.1089799404144287,0.03
48,MetaDrive-td3combine-expt3,100,103.57199597362366,50330,547,500.2096309661865,16.959688186645508,,2.497922897338867,0.04
49,MetaDrive-td3combine-expt3,99,108.16743524662132,51232,549,514.4393413066864,16.76258087158203,,2.983920097351074,0.05
50,MetaDrive-td3combine-expt3,99,110.93834607696829,52166,553,524.6812515258789,16.86174201965332,,12.449560165405273,0.05
51,MetaDrive-td3combine-expt3,98,114.96811915161102,53424,555,541.6067306995392,18.491580963134766,,4.397841453552246,0.07
52,MetaDrive-td3combine-expt3,98,116.86315313241285,54108,559,548.4594442844391,18.959537506103516,,1.8593727350234985,0.08
53,MetaDrive-td3combine-expt3,97,119.43375968704797,55147,561,564.8491094112396,19.259479522705078,-19.630701065063477,1.9871227741241455,0.08
54,MetaDrive-td3combine-expt3,97,122.46844336931282,56076,565,574.5437488555908,20.581470489501953,,4.173811912536621,0.09
55,MetaDrive-td3combine-expt3,97,121.96086698223597,57191,573,587.3838982582092,18.681564331054688,-19.105802536010742,32.70041275024414,0.09
56,MetaDrive-td3combine-expt3,97,126.97449299922573,58036,575,596.4639658927917,21.429458618164062,,1.872978925704956,0.11
57,MetaDrive-td3combine-expt3,96,130.6618106257802,59318,579,613.2783935070038,22.16446876525879,,14.392579078674316,0.12
58,MetaDrive-td3combine-expt3,96,133.56670489255166,60276,582,625.0114855766296,23.141313552856445,,5.257046699523926,0.14
59,MetaDrive-td3combine-expt3,96,136.61578310620567,61809,585,641.1556165218353,21.618061065673828,-22.08489227294922,17.444782257080078,0.15
60,MetaDrive-td3combine-expt3,96,136.78114107633036,62120,587,644.5798456668854,24.129261016845703,,15.18701171875,0.15
61,MetaDrive-td3combine-expt3,95,138.9107630755758,63032,589,657.326625585556,25.352741241455078,,3.1608080863952637,0.16
62,MetaDrive-td3combine-expt3,95,141.71861740586147,64124,592,673.5670864582062,23.255868911743164,,14.3658447265625,0.16
63,MetaDrive-td3combine-expt3,95,146.37466263468187,65180,595,685.9905397891998,26.432863235473633,,3.295062780380249,0.17
64,MetaDrive-td3combine-expt3,94,145.37515520313553,66006,599,696.0217709541321,26.091842651367188,,6.560880661010742,0.17
65,MetaDrive-td3combine-expt3,94,150.0627674157209,67257,606,710.4376351833344,26.620460510253906,-27.969806671142578,5.518461227416992,0.18
66,MetaDrive-td3combine-expt3,94,152.94497723925716,68285,610,722.0870454311371,29.20889663696289,-29.02854347229004,2.218658208847046,0.19
67,MetaDrive-td3combine-expt3,94,153.8047056717114,69367,612,734.420464515686,27.04702377319336,-27.720142364501953,30.169727325439453,0.19
68,MetaDrive-td3combine-expt3,94,154.30745035050188,70020,615,743.5975902080536,27.796709060668945,,50.73863983154297,0.19
69,MetaDrive-td3combine-expt3,93,158.05367557072722,71609,621,763.771232843399,27.004152297973633,-27.576866149902344,53.395912170410156,0.2
70,MetaDrive-td3combine-expt3,93,161.14747712572716,72422,625,773.4565382003784,31.070873260498047,,4.519518852233887,0.21
71,MetaDrive-td3combine-expt3,93,161.0241239405293,73065,629,780.1812784671783,30.54401397705078,-29.787620544433594,6.14168643951416,0.21
72,MetaDrive-td3combine-expt3,93,152.70719461727168,74401,635,796.3646607398987,33.27273941040039,-33.33985137939453,4.490592956542969,0.2
73,MetaDrive-td3combine-expt3,93,155.18770249280567,75066,639,803.8384790420532,29.640384674072266,,7.035375595092773,0.2
74,MetaDrive-td3combine-expt3,93,152.36209076677022,76061,643,815.5351264476776,31.40522003173828,-31.37746810913086,4.634455680847168,0.19
75,MetaDrive-td3combine-expt3,93,155.78933267909656,77355,646,830.2742068767548,33.03608703613281,-34.00220489501953,29.271778106689453,0.19
76,MetaDrive-td3combine-expt3,92,153.37845133076448,78465,649,844.9495408535004,32.03638458251953,-33.41822814941406,9.960851669311523,0.18
77,MetaDrive-td3combine-expt3,92,155.33995664959863,79107,650,852.8206031322479,30.20406723022461,-30.895872116088867,32.150291442871094,0.19
78,MetaDrive-td3combine-expt3,92,148.41914789915563,80067,655,866.0823454856873,30.747310638427734,-32.41162872314453,9.2284574508667,0.17
79,MetaDrive-td3combine-expt3,92,150.74144871947723,81066,658,877.7892646789551,32.79171371459961,,7.066722393035889,0.17
80,MetaDrive-td3combine-expt3,92,150.37940812577435,82387,662,890.9906594753265,36.325469970703125,-37.26384353637695,6.3342084884643555,0.17
81,MetaDrive-td3combine-expt3,92,151.99697324774502,83175,666,899.7523992061615,34.10858917236328,-34.186458587646484,15.558067321777344,0.18
82,MetaDrive-td3combine-expt3,92,156.03816036235347,84081,669,910.1438596248627,32.856201171875,-33.315025329589844,5.29620361328125,0.18
83,MetaDrive-td3combine-expt3,92,154.89194639742584,85052,674,921.9261445999146,35.46943664550781,,31.289871215820312,0.18
84,MetaDrive-td3combine-expt3,92,155.12829009799012,86010,678,932.7115681171417,36.056427001953125,,4.144515037536621,0.18
85,MetaDrive-td3combine-expt3,92,149.56212625717512,87108,683,945.6961674690247,35.531070709228516,,9.410955429077148,0.15
86,MetaDrive-td3combine-expt3,92,151.45024678216453,88030,686,955.9864585399628,40.68745422363281,,8.715048789978027,0.16
87,MetaDrive-td3combine-expt3,92,151.1172384032544,89086,689,967.1697788238525,37.60466766357422,,4.341626167297363,0.16
88,MetaDrive-td3combine-expt3,92,146.37568785962605,90271,695,979.0019748210907,37.188621520996094,-37.86608123779297,3.492406129837036,0.17
89,MetaDrive-td3combine-expt3,91,147.82627801628374,91396,698,994.1033818721771,37.81815719604492,,5.37190055847168,0.17
90,MetaDrive-td3combine-expt3,92,151.01385774606894,92179,701,1001.7781944274902,40.32501983642578,-40.63589859008789,5.022268295288086,0.18
91,MetaDrive-td3combine-expt3,91,152.30528174332355,93009,703,1012.7202837467194,37.63178634643555,-37.98855972290039,4.500231742858887,0.18
92,MetaDrive-td3combine-expt3,91,149.45517545642645,94015,707,1023.2568287849426,38.916446685791016,-39.71512222290039,5.113984107971191,0.17
93,MetaDrive-td3combine-expt3,91,152.55477119255664,95090,711,1034.7436060905457,37.18228530883789,,10.04928970336914,0.19
94,MetaDrive-td3combine-expt3,91,156.88335999100164,96745,714,1052.688554763794,39.11116027832031,-39.47244644165039,5.680129051208496,0.2
95,MetaDrive-td3combine-expt3,91,156.7587621891932,97121,715,1056.6312727928162,35.95967102050781,-36.66107177734375,111.14839172363281,0.2
96,MetaDrive-td3combine-expt3,92,158.96056650365503,98406,719,1069.3694925308228,40.867271423339844,,6.786893367767334,0.22
97,MetaDrive-td3combine-expt3,91,158.6951412823532,99158,722,1079.0522282123566,41.290870666503906,,11.162805557250977,0.21
98,MetaDrive-td3combine-expt3,91,159.63550226536475,100372,727,1093.044439792633,40.98678970336914,,53.879173278808594,0.21
99,MetaDrive-td3combine-expt3,91,161.52661770625113,101072,729,1101.9927999973297,37.552696228027344,,7.683136940002441,0.22
100,MetaDrive-td3combine-expt3,91,168.37928399321407,102410,731,1118.6363484859467,42.23615646362305,,61.16847229003906,0.24
101,MetaDrive-td3combine-expt3,91,173.07922232723757,103693,733,1134.9822390079498,38.730262756347656,-39.579071044921875,74.23872375488281,0.26
102,MetaDrive-td3combine-expt3,90,173.4636361119002,104712,735,1150.8668303489685,41.79090881347656,,28.344823837280273,0.26
103,MetaDrive-td3combine-expt3,90,172.3558428651064,105808,737,1164.629843711853,40.445228576660156,,30.482446670532227,0.26
104,MetaDrive-td3combine-expt3,90,170.36656896872245,106572,740,1173.3669247627258,40.11225128173828,,17.958457946777344,0.25
105,MetaDrive-td3combine-expt3,90,175.12597054615765,107780,742,1187.4057042598724,40.25402069091797,,7.987454891204834,0.26
106,MetaDrive-td3combine-expt3,90,177.77641811732468,108274,743,1193.1097807884216,41.352569580078125,,18.21609115600586,0.27
107,MetaDrive-td3combine-expt3,90,178.86193771607412,109128,744,1204.9447824954987,38.519859313964844,,61.24385452270508,0.28
108,MetaDrive-td3combine-expt3,90,173.60777153734375,110069,749,1214.75483584404,43.262481689453125,-44.65773391723633,90.77204895019531,0.27
109,MetaDrive-td3combine-expt3,90,175.41807704151347,111130,751,1229.2932991981506,40.6371955871582,,11.004969596862793,0.27
110,MetaDrive-td3combine-expt3,90,177.3963606867441,112079,755,1240.9481959342957,43.71393585205078,-44.43082046508789,2.34765625,0.28
111,MetaDrive-td3combine-expt3,90,176.06782926982044,113032,759,1249.977777004242,41.71983337402344,,18.295068740844727,0.28
112,MetaDrive-td3combine-expt3,90,175.83627724211476,114033,760,1260.7888531684875,42.33145523071289,-42.78907012939453,4.932953357696533,0.28
113,MetaDrive-td3combine-expt3,90,175.46691048474528,115078,763,1275.5861909389496,43.25108337402344,,3.5312893390655518,0.28
114,MetaDrive-td3combine-expt3,90,175.6347432274887,116391,767,1289.2010326385498,43.31912612915039,-43.842376708984375,2.6415159702301025,0.27
115,MetaDrive-td3combine-expt3,90,177.3655985217379,117357,770,1299.0638508796692,39.589378356933594,-40.4409294128418,11.647701263427734,0.29
116,MetaDrive-td3combine-expt3,90,176.36354855643538,118006,773,1305.7896330356598,41.12477493286133,,6.907886505126953,0.28
117,MetaDrive-td3combine-expt3,90,179.44786530249058,119838,775,1327.661921262741,43.27586364746094,,7.949400901794434,0.29
118,MetaDrive-td3combine-expt3,90,178.04561472524713,120177,776,1331.0435543060303,42.16815948486328,-42.4033203125,13.323201179504395,0.28
119,MetaDrive-td3combine-expt3,90,178.5490278255362,121147,778,1344.0331327915192,44.848541259765625,-45.18756103515625,3.608107328414917,0.27
120,MetaDrive-td3combine-expt3,90,179.30632352935166,122439,780,1357.1862411499023,46.24502182006836,-47.17717742919922,4.836566925048828,0.27
121,MetaDrive-td3combine-expt3,90,179.9330841907957,123011,782,1362.9503364562988,42.33199691772461,-42.295204162597656,8.942547798156738,0.27
122,MetaDrive-td3combine-expt3,90,177.522146471313,124114,787,1375.4453678131104,41.01020812988281,,6.996115684509277,0.27
123,MetaDrive-td3combine-expt3,90,177.87040814558316,125019,789,1385.6255865097046,41.773094177246094,-42.29643249511719,21.721240997314453,0.26
124,MetaDrive-td3combine-expt3,90,182.38148712434733,126082,792,1398.3332188129425,41.21504592895508,,3.75253963470459,0.27
125,MetaDrive-td3combine-expt3,90,179.37858440742804,127154,797,1409.6467587947845,40.37156677246094,,70.2618408203125,0.25
126,MetaDrive-td3combine-expt3,90,181.12431772219728,128028,798,1419.098158121109,43.863609313964844,,10.321748733520508,0.26
127,MetaDrive-td3combine-expt3,90,182.3670777358992,129087,800,1431.416000366211,42.22472381591797,-42.80732727050781,6.792299747467041,0.26
128,MetaDrive-td3combine-expt3,90,186.39421476451776,130153,802,1443.04234623909,39.370323181152344,-40.355987548828125,47.23892593383789,0.28
129,MetaDrive-td3combine-expt3,90,185.6214230265117,131315,804,1457.4156246185303,41.97883224487305,-42.26936340332031,3.339251756668091,0.28
130,MetaDrive-td3combine-expt3,90,187.8987913114192,132041,806,1464.8705365657806,41.53564453125,-43.081016540527344,8.637124061584473,0.29
131,MetaDrive-td3combine-expt3,89,188.4274049434103,133451,808,1487.1433131694794,42.43672180175781,-42.220436096191406,50.4344482421875,0.28
132,MetaDrive-td3combine-expt3,89,185.80025664108953,134986,812,1505.463841676712,44.822349548339844,,8.233197212219238,0.26
133,MetaDrive-td3combine-expt3,89,186.54108846162342,135385,813,1509.9879457950592,39.86534118652344,-40.55912399291992,15.855001449584961,0.27
134,MetaDrive-td3combine-expt3,89,185.95992863149678,136272,815,1519.5196080207825,42.0329704284668,,4.677738189697266,0.28
135,MetaDrive-td3combine-expt3,89,186.230456254023,137371,817,1532.460925102234,39.42381286621094,-39.03289031982422,7.057424545288086,0.27
136,MetaDrive-td3combine-expt3,89,188.7619584261499,138343,820,1541.4840166568756,42.935546875,-42.92632293701172,9.859756469726562,0.27
137,MetaDrive-td3combine-expt3,89,190.74891486375188,139692,822,1559.9906024932861,37.72283935546875,,55.01451873779297,0.28
138,MetaDrive-td3combine-expt3,89,193.80112585025378,140641,823,1572.9507853984833,41.96288299560547,-42.548736572265625,3.264211654663086,0.29
139,MetaDrive-td3combine-expt3,89,196.87364956697695,141227,824,1578.719829082489,36.444122314453125,-36.62336730957031,8.813952445983887,0.3
140,MetaDrive-td3combine-expt3,89,199.45193579981452,142349,826,1588.3731031417847,37.740272521972656,-38.740211486816406,11.310442924499512,0.31
141,MetaDrive-td3combine-expt3,89,199.39569776736752,143533,828,1599.408255815506,42.717491149902344,-42.55649185180664,8.193629264831543,0.31
142,MetaDrive-td3combine-expt3,89,201.0730407898485,144534,829,1611.6781985759735,40.10090637207031,,57.62202072143555,0.31
143,MetaDrive-td3combine-expt3,89,198.5567469383909,145535,830,1623.6539988517761,42.92857360839844,-43.85918045043945,9.943477630615234,0.3
144,MetaDrive-td3combine-expt3,89,197.2392457888408,146081,831,1628.4647331237793,44.357303619384766,-44.20106887817383,6.041624069213867,0.3
145,MetaDrive-td3combine-expt3,89,194.44867995087031,147037,833,1637.4747314453125,42.870811462402344,-43.73686218261719,3.986538887023926,0.29
146,MetaDrive-td3combine-expt3,89,198.75937439000865,148823,836,1656.1788551807404,37.459659576416016,-38.23755645751953,93.05915832519531,0.31
147,MetaDrive-td3combine-expt3,89,197.22455503686976,149008,838,1658.0313715934753,39.07483673095703,,9.24136734008789,0.31
148,MetaDrive-td3combine-expt3,89,198.76577870386427,150009,839,1670.0231485366821,41.61906433105469,-42.5440673828125,6.470848560333252,0.31
149,MetaDrive-td3combine-expt3,89,198.74068802407882,151034,841,1680.4898579120636,39.520957946777344,,11.756088256835938,0.32
150,MetaDrive-td3combine-expt3,90,196.3740802532865,152417,843,1693.193472623825,39.73432922363281,-39.56817626953125,8.362613677978516,0.32
151,MetaDrive-td3combine-expt3,90,195.1046262688455,153003,844,1698.8095195293427,45.1968994140625,-45.98922348022461,6.2122297286987305,0.32
152,MetaDrive-td3combine-expt3,90,196.3860982761989,154002,846,1711.010987520218,44.13982009887695,,3.1357712745666504,0.32
153,MetaDrive-td3combine-expt3,90,198.6001119024387,155073,848,1722.4379823207855,42.5751953125,-43.178775787353516,9.557943344116211,0.33
154,MetaDrive-td3combine-expt3,90,203.39473300774895,156944,850,1742.8591771125793,40.65452575683594,,9.798402786254883,0.34
155,MetaDrive-td3combine-expt3,90,202.9115593864772,157708,851,1749.6804733276367,42.51228332519531,,5.47759485244751,0.34
156,MetaDrive-td3combine-expt3,90,205.40102607718757,158397,852,1756.4520626068115,40.1575813293457,-41.187416076660156,70.8604736328125,0.35
157,MetaDrive-td3combine-expt3,90,209.1677168633692,159296,853,1767.8734283447266,39.308021545410156,,7.7162981033325195,0.36
158,MetaDrive-td3combine-expt3,90,208.5716621647746,160079,855,1775.05788064003,41.16628646850586,-40.766441345214844,8.372550964355469,0.36
159,MetaDrive-td3combine-expt3,90,207.76811212571124,161064,858,1785.0681040287018,42.515281677246094,,9.835603713989258,0.36
160,MetaDrive-td3combine-expt3,90,213.310355568534,162953,860,1810.0693852901459,38.75347900390625,-40.25995635986328,52.053932189941406,0.37
161,MetaDrive-td3combine-expt3,90,215.3093068488387,163569,861,1815.6004555225372,39.39845275878906,-41.43595886230469,12.86642074584961,0.38
162,MetaDrive-td3combine-expt3,90,215.89405513462654,164570,862,1827.7758634090424,40.873809814453125,,6.891194820404053,0.37
163,MetaDrive-td3combine-expt3,90,217.27217485883764,165265,863,1835.1733264923096,41.301666259765625,-42.17462921142578,28.58286476135254,0.38
164,MetaDrive-td3combine-expt3,89,221.2416237215773,166266,864,1852.2727193832397,42.67481994628906,,66.27898406982422,0.38
165,MetaDrive-td3combine-expt3,89,221.76783734544617,167600,867,1865.4348359107971,41.8583984375,,13.312379837036133,0.39
166,MetaDrive-td3combine-expt3,89,222.1664601460021,168186,868,1871.8208119869232,39.01792526245117,,3.1341726779937744,0.38
167,MetaDrive-td3combine-expt3,89,225.5749117294764,169643,870,1888.8015813827515,42.35279846191406,-41.922157287597656,6.5870361328125,0.39
168,MetaDrive-td3combine-expt3,89,224.1154741873169,170370,873,1897.056319952011,39.64130401611328,,23.536453247070312,0.39
169,MetaDrive-td3combine-expt3,89,223.7574793122065,171285,874,1905.8198585510254,45.64723205566406,-46.81825256347656,6.049792289733887,0.39
170,MetaDrive-td3combine-expt3,89,222.83067622782815,172097,876,1913.6346580982208,42.711795806884766,-42.443702697753906,3.4638590812683105,0.39
171,MetaDrive-td3combine-expt3,89,224.47374175033926,173098,877,1928.952044725418,36.80942916870117,,12.482077598571777,0.39
172,MetaDrive-td3combine-expt3,89,224.87544204519384,174049,878,1938.8664894104004,41.90998077392578,-41.85932540893555,5.201584339141846,0.4
173,MetaDrive-td3combine-expt3,89,228.0631440590823,175620,880,1954.6560192108154,42.118377685546875,,9.650411605834961,0.41
174,MetaDrive-td3combine-expt3,89,230.148322696789,176621,881,1967.285531759262,40.4134407043457,-40.167236328125,7.64603853225708,0.41
175,MetaDrive-td3combine-expt3,89,231.78236881526757,177622,882,1980.8386554718018,41.763641357421875,,5.701834678649902,0.41
176,MetaDrive-td3combine-expt3,89,232.70353769946462,178487,884,1988.8906235694885,41.95634460449219,-41.47074890136719,9.791156768798828,0.42
177,MetaDrive-td3combine-expt3,89,235.34986545995756,179371,885,1998.5643589496613,38.68798065185547,-38.55203628540039,6.547792434692383,0.43
178,MetaDrive-td3combine-expt3,89,238.38291727285707,180372,886,2015.1037936210632,37.69610595703125,,6.909460067749023,0.43
179,MetaDrive-td3combine-expt3,89,239.72395882443573,181235,887,2026.5129914283752,38.58277893066406,-39.13983154296875,34.2401123046875,0.43
180,MetaDrive-td3combine-expt3,89,239.34586293188525,182364,889,2037.508424282074,44.28809356689453,,5.235501289367676,0.44
181,MetaDrive-td3combine-expt3,89,237.60664059726656,183710,891,2052.3586678504944,40.670013427734375,,4.12322473526001,0.43
182,MetaDrive-td3combine-expt3,89,239.30039716839087,184711,892,2064.584231376648,38.86486053466797,-38.69347381591797,12.00131893157959,0.43
183,MetaDrive-td3combine-expt3,89,240.558985427243,185413,893,2071.284787416458,41.666412353515625,-42.39952087402344,6.626297950744629,0.44
184,MetaDrive-td3combine-expt3,89,242.2460190771744,186119,894,2077.7371916770935,39.39842224121094,-39.65575408935547,1.8389651775360107,0.45
185,MetaDrive-td3combine-expt3,89,245.14457047960613,187457,897,2091.1115415096283,39.62579345703125,-40.2620849609375,4.752790927886963,0.46
186,MetaDrive-td3combine-expt3,89,243.28394324952941,188090,898,2099.4740467071533,43.33373260498047,,30.879562377929688,0.45
187,MetaDrive-td3combine-expt3,89,240.3373034331301,189116,901,2109.978109359741,37.6658935546875,,3.8972840309143066,0.44
188,MetaDrive-td3combine-expt3,89,239.27763977665913,190020,903,2117.6346957683563,38.6811408996582,,2.524186849594116,0.45
189,MetaDrive-td3combine-expt3,89,238.49380910591492,191532,906,2137.10125541687,37.012245178222656,,9.211624145507812,0.43
190,MetaDrive-td3combine-expt3,89,239.8984578351272,192288,907,2145.814163208008,37.005889892578125,,16.113636016845703,0.44
191,MetaDrive-td3combine-expt3,89,240.85393132639908,193363,910,2155.353933572769,39.47022247314453,-39.49666213989258,4.859290599822998,0.46
192,MetaDrive-td3combine-expt3,89,242.65938633492217,194441,913,2165.427340745926,41.68572998046875,-41.869911193847656,2.5360491275787354,0.47
193,MetaDrive-td3combine-expt3,89,242.67481642242313,195442,914,2175.0770134925842,38.88463592529297,,7.683977127075195,0.47
194,MetaDrive-td3combine-expt3,89,243.32439497723055,196443,915,2194.614467382431,41.20743179321289,-41.14502716064453,12.490830421447754,0.46
195,MetaDrive-td3combine-expt3,89,245.12223644561627,197195,916,2202.8093852996826,43.117889404296875,-42.496734619140625,8.106742858886719,0.47
196,MetaDrive-td3combine-expt3,89,243.7495601852579,198921,920,2221.9504101276398,39.83000564575195,-40.00348663330078,3.267210006713867,0.47
197,MetaDrive-td3combine-expt3,89,245.6484399767843,199575,921,2229.5965762138367,37.197818756103516,-38.03183364868164,9.614238739013672,0.48
198,MetaDrive-td3combine-expt3,89,240.48653324584086,200234,923,2237.50546169281,40.117218017578125,,5.034109115600586,0.47
199,MetaDrive-td3combine-expt3,89,238.57449477846825,201806,925,2258.3980419635773,40.50920867919922,,11.75013256072998,0.47
200,MetaDrive-td3combine-expt3,89,237.3087021176668,202807,926,2272.571926832199,37.04189682006836,-37.295265197753906,3.5781545639038086,0.46
201,MetaDrive-td3combine-expt3,89,237.24547266342424,203175,927,2275.8837370872498,40.61653518676758,-40.645931243896484,4.7668657302856445,0.46
202,MetaDrive-td3combine-expt3,89,237.05057485870284,204686,930,2294.7928812503815,40.284095764160156,,2.707845687866211,0.46
203,MetaDrive-td3combine-expt3,89,233.275090784143,205363,932,2305.5683805942535,35.52971267700195,-34.95319366455078,7.277978897094727,0.44
204,MetaDrive-td3combine-expt3,89,236.13018758003548,206490,934,2318.304622411728,41.798484802246094,,3.297861337661743,0.45
205,MetaDrive-td3combine-expt3,89,237.93211882316572,207083,935,2325.178363084793,36.795745849609375,-38.088783264160156,61.02861022949219,0.46
206,MetaDrive-td3combine-expt3,89,238.16915221474355,208151,937,2338.5473008155823,39.642330169677734,-39.84257507324219,9.899005889892578,0.45
207,MetaDrive-td3combine-expt3,88,242.0601171342339,209310,939,2354.2909858226776,40.588722229003906,,3.859485626220703,0.46
208,MetaDrive-td3combine-expt3,88,241.0931314941498,210089,942,2361.6051964759827,40.11625289916992,-39.86221694946289,6.047267436981201,0.45
209,MetaDrive-td3combine-expt3,88,236.96172103541562,211242,946,2375.2895905971527,42.43875503540039,,4.193780899047852,0.44
210,MetaDrive-td3combine-expt3,88,237.9794605974618,212365,948,2386.981097459793,38.45313262939453,-39.123207092285156,17.90323829650879,0.44
211,MetaDrive-td3combine-expt3,88,237.9370224063653,213873,950,2408.6657078266144,41.43339538574219,-42.40156936645508,8.326520919799805,0.44
212,MetaDrive-td3combine-expt3,88,235.8824491933184,214874,951,2419.4753346443176,37.14088439941406,,6.335692405700684,0.43
213,MetaDrive-td3combine-expt3,88,235.10296104562474,215388,952,2424.896313428879,38.35439682006836,,9.362890243530273,0.42
214,MetaDrive-td3combine-expt3,88,231.0765312247584,216128,955,2432.705194711685,42.040565490722656,,3.3546576499938965,0.4
215,MetaDrive-td3combine-expt3,88,229.28147578390002,217357,959,2446.3618535995483,37.75316619873047,-38.48835754394531,66.2580337524414,0.39
216,MetaDrive-td3combine-expt3,88,226.14313239121253,218597,962,2460.496361017227,40.25159454345703,-40.70823669433594,6.167559623718262,0.4
217,MetaDrive-td3combine-expt3,88,226.23893399224784,219289,963,2467.592362642288,36.86725616455078,-36.591041564941406,3.900204658508301,0.4
218,MetaDrive-td3combine-expt3,88,225.89782822095788,220028,965,2476.5564727783203,41.34857940673828,,2.7957210540771484,0.41
219,MetaDrive-td3combine-expt3,88,225.76578525370968,221019,967,2486.82714343071,41.77647399902344,-42.71630859375,84.60626220703125,0.41
220,MetaDrive-td3combine-expt3,88,223.91449948279728,222143,969,2502.262261390686,39.95042419433594,-40.14375305175781,67.76634216308594,0.4
221,MetaDrive-td3combine-expt3,88,224.22505701018403,223492,973,2523.3588922023773,40.34934997558594,,3.1172327995300293,0.39
222,MetaDrive-td3combine-expt3,88,225.1626241188246,224400,976,2533.9246740341187,39.96705627441406,,3.8604207038879395,0.39
223,MetaDrive-td3combine-expt3,88,223.00626889371168,225350,979,2544.042806148529,43.53342819213867,,20.472665786743164,0.38
224,MetaDrive-td3combine-expt3,88,220.35230697607957,226145,981,2553.6764960289,40.270164489746094,-40.4786491394043,6.545772075653076,0.39
225,MetaDrive-td3combine-expt3,88,222.14524080675494,227486,984,2569.1938002109528,36.27728271484375,,10.992725372314453,0.4
226,MetaDrive-td3combine-expt3,88,220.3132368149319,228415,986,2579.619233608246,40.26383972167969,-39.968894958496094,3.362971067428589,0.41
227,MetaDrive-td3combine-expt3,88,221.41222113357574,229175,988,2587.0971689224243,40.827430725097656,-40.384952545166016,4.66703987121582,0.42
228,MetaDrive-td3combine-expt3,88,219.8377708381533,230078,991,2598.216331720352,40.8906364440918,,2.9529101848602295,0.42
229,MetaDrive-td3combine-expt3,88,218.06100770928725,231561,994,2613.1190519332886,37.37220001220703,-38.500709533691406,7.221840858459473,0.42
230,MetaDrive-td3combine-expt3,88,215.02798605999251,232341,998,2621.749917984009,41.818729400634766,-41.98854064941406,5.859317779541016,0.41
231,MetaDrive-td3combine-expt3,88,212.4811783355388,233002,1002,2628.210819721222,37.46961212158203,,5.4547200202941895,0.4
232,MetaDrive-td3combine-expt3,88,214.44926228755597,234003,1003,2641.1095843315125,41.07579803466797,-41.283111572265625,5.7549591064453125,0.39
233,MetaDrive-td3combine-expt3,88,214.82537797276618,235044,1006,2651.0008893013,41.25004959106445,,6.665767669677734,0.41
234,MetaDrive-td3combine-expt3,88,214.9666639794899,236039,1009,2662.227243423462,41.180538177490234,-41.852294921875,11.654359817504883,0.4
235,MetaDrive-td3combine-expt3,88,213.4450326353743,237103,1012,2677.80451631546,40.269203186035156,-40.9007453918457,3.6770339012145996,0.39
236,MetaDrive-td3combine-expt3,88,213.3332605514537,238104,1014,2691.5524678230286,37.28752136230469,,11.093893051147461,0.39
237,MetaDrive-td3combine-expt3,88,212.45401907948926,239503,1018,2707.614247083664,38.33254623413086,-38.77096939086914,4.445293426513672,0.39
238,MetaDrive-td3combine-expt3,88,211.84752393552878,240777,1021,2722.571573495865,40.98612976074219,-40.8596305847168,7.9539289474487305,0.4
239,MetaDrive-td3combine-expt3,88,213.87517991575965,241065,1022,2725.7944898605347,41.820213317871094,-42.32294464111328,3.7706475257873535,0.4
240,MetaDrive-td3combine-expt3,88,214.79398979168047,242109,1024,2737.7302339076996,39.83576965332031,-39.36146545410156,5.091829776763916,0.4
241,MetaDrive-td3combine-expt3,88,216.80039512259052,243947,1028,2758.446126937866,42.269073486328125,-42.6046142578125,32.65637969970703,0.4
242,MetaDrive-td3combine-expt3,88,213.56861462969272,244050,1029,2759.3894324302673,39.465087890625,,5.011244773864746,0.39
243,MetaDrive-td3combine-expt3,88,212.28102787056454,245001,1032,2771.461277961731,39.48444747924805,-40.37089538574219,7.947242736816406,0.4
244,MetaDrive-td3combine-expt3,88,210.20681898694224,246298,1035,2785.1890799999237,38.14901351928711,,4.944414138793945,0.38
245,MetaDrive-td3combine-expt3,88,212.96257244862915,247102,1036,2799.555869579315,42.956298828125,,3.158679962158203,0.39
246,MetaDrive-td3combine-expt3,88,215.7064736233463,248103,1037,2815.201560497284,39.461639404296875,-39.431419372558594,4.8911237716674805,0.39
247,MetaDrive-td3combine-expt3,88,211.93624719851002,249708,1043,2835.8287427425385,42.343055725097656,,41.57551574707031,0.38
248,MetaDrive-td3combine-expt3,88,214.10453645598335,250378,1044,2843.002382040024,38.47846221923828,,24.465286254882812,0.38
249,MetaDrive-td3combine-expt3,88,214.5773535951846,251825,1046,2860.3474848270416,41.05732345581055,-41.057769775390625,5.585965156555176,0.38
250,MetaDrive-td3combine-expt3,88,211.01147593401208,252061,1048,2862.817948818207,38.87456130981445,-38.342918395996094,8.192941665649414,0.37
251,MetaDrive-td3combine-expt3,88,210.30384811734254,253297,1050,2877.1820101737976,41.148712158203125,-40.98943328857422,5.967834949493408,0.38
252,MetaDrive-td3combine-expt3,88,210.76357856958023,254217,1053,2887.8811185359955,42.04254913330078,-42.34547805786133,27.777889251708984,0.39
253,MetaDrive-td3combine-expt3,88,214.64866136746986,255095,1055,2897.050359725952,41.58372497558594,-42.124244689941406,3.6334285736083984,0.41
254,MetaDrive-td3combine-expt3,88,213.895382182946,256110,1059,2906.396384716034,40.25170135498047,,3.759766101837158,0.41
255,MetaDrive-td3combine-expt3,88,207.7858798565561,257037,1064,2915.470148086548,38.17796325683594,-38.601783752441406,8.07071304321289,0.38
256,MetaDrive-td3combine-expt3,88,208.81220239180425,258536,1067,2933.5483486652374,41.289710998535156,,19.287307739257812,0.38
257,MetaDrive-td3combine-expt3,88,209.76332782280778,259537,1068,2946.6675312519073,38.66679382324219,-38.88030242919922,1.7741520404815674,0.38
258,MetaDrive-td3combine-expt3,88,206.91883716417726,260099,1070,2952.2764616012573,38.36323547363281,-39.122413635253906,5.636322021484375,0.39
259,MetaDrive-td3combine-expt3,88,209.96478734696717,261261,1073,2965.5026931762695,41.983070373535156,-42.46177673339844,4.962987899780273,0.4
260,MetaDrive-td3combine-expt3,88,211.8894907705573,262119,1075,2975.1195526123047,38.3255615234375,-38.351478576660156,4.092817783355713,0.41
261,MetaDrive-td3combine-expt3,88,212.64243659620934,263243,1078,2989.3522419929504,42.53008270263672,-42.74348449707031,4.245745658874512,0.41
262,MetaDrive-td3combine-expt3,88,206.39387694327706,264034,1082,2997.5448768138885,37.35662841796875,,8.875490188598633,0.4
263,MetaDrive-td3combine-expt3,88,204.02356885667564,265229,1085,3010.542984485626,41.702064514160156,-42.82550048828125,25.19924545288086,0.38
264,MetaDrive-td3combine-expt3,87,205.3245679689673,266207,1086,3025.2010786533356,38.57541275024414,-39.54533386230469,21.62162208557129,0.38
265,MetaDrive-td3combine-expt3,87,205.50994922313134,267608,1089,3042.9841470718384,38.14181900024414,,118.4490966796875,0.37
266,MetaDrive-td3combine-expt3,87,208.28613064445028,268078,1090,3047.089524269104,40.4385986328125,,2.9211313724517822,0.38
267,MetaDrive-td3combine-expt3,87,206.03808832400537,269380,1094,3061.9940695762634,41.645790100097656,,10.381548881530762,0.37
268,MetaDrive-td3combine-expt3,87,208.30829958123732,270109,1096,3070.364554166794,38.6773796081543,-38.59960174560547,5.634343147277832,0.38
269,MetaDrive-td3combine-expt3,87,210.3943264638812,271314,1100,3083.1947004795074,43.52511978149414,,5.1302266120910645,0.39
270,MetaDrive-td3combine-expt3,88,209.7175288837716,272314,1104,3092.9387526512146,40.51038360595703,,6.187685012817383,0.4
271,MetaDrive-td3combine-expt3,88,210.14874332399492,273466,1106,3107.1016161441803,41.73181915283203,,3.3781700134277344,0.4
272,MetaDrive-td3combine-expt3,88,210.98521133598138,274171,1108,3114.7583770751953,45.2243537902832,-45.612770080566406,7.71670389175415,0.41
273,MetaDrive-td3combine-expt3,87,214.7611686727723,275446,1111,3130.2088117599487,39.31158447265625,,41.756141662597656,0.41
274,MetaDrive-td3combine-expt3,87,214.8612570714092,276096,1112,3138.7884430885315,43.60890197753906,,11.808363914489746,0.41
275,MetaDrive-td3combine-expt3,87,214.56960895656815,277007,1113,3154.1959998607635,40.93424987792969,-41.30756378173828,4.570889472961426,0.4
276,MetaDrive-td3combine-expt3,87,218.47519742418598,278161,1115,3172.024428844452,40.983795166015625,-41.698814392089844,3.0623345375061035,0.4
277,MetaDrive-td3combine-expt3,87,219.63166634920952,279191,1117,3182.2034709453583,39.129417419433594,-38.967979431152344,9.361390113830566,0.39
278,MetaDrive-td3combine-expt3,87,220.40764416729562,280200,1119,3193.0271105766296,40.42567443847656,,6.209427833557129,0.4
279,MetaDrive-td3combine-expt3,87,219.72573306456576,281538,1121,3212.7394444942474,42.02726364135742,,4.53071928024292,0.39
280,MetaDrive-td3combine-expt3,87,220.14189329759716,282169,1122,3221.068032979965,42.78968048095703,-43.25641632080078,11.269743919372559,0.39
281,MetaDrive-td3combine-expt3,87,221.68851600755522,283558,1124,3236.8953773975372,45.02951431274414,,9.091493606567383,0.39
282,MetaDrive-td3combine-expt3,87,223.44715324849594,284014,1125,3242.0532944202423,42.71406173706055,,13.833349227905273,0.39
283,MetaDrive-td3combine-expt3,87,216.93585767990237,285017,1130,3251.8756737709045,44.11019515991211,-45.10118103027344,7.559078216552734,0.37
284,MetaDrive-td3combine-expt3,87,217.39011251248377,286510,1133,3267.133333683014,44.15761947631836,,5.778532981872559,0.37
285,MetaDrive-td3combine-expt3,87,217.59994752985276,287482,1135,3280.6459217071533,45.902610778808594,,5.713003158569336,0.37
286,MetaDrive-td3combine-expt3,87,212.0153350697951,288442,1137,3293.1595010757446,44.14668273925781,,6.721436500549316,0.37
287,MetaDrive-td3combine-expt3,87,215.00438779678535,289339,1140,3302.002955675125,41.00836944580078,-40.840858459472656,4.129587173461914,0.38
288,MetaDrive-td3combine-expt3,87,220.11295069324015,290709,1142,3318.9962430000305,42.003562927246094,-41.90721130371094,6.678933143615723,0.39
289,MetaDrive-td3combine-expt3,87,219.0920618088202,291459,1143,3332.1335999965668,43.804290771484375,-43.468345642089844,6.069931983947754,0.38
290,MetaDrive-td3combine-expt3,87,219.7946332951665,292153,1144,3340.5867912769318,39.70412063598633,-39.525726318359375,14.13058090209961,0.39
291,MetaDrive-td3combine-expt3,87,222.53403408485846,293593,1146,3356.3609342575073,41.860618591308594,-41.87440490722656,4.404540061950684,0.4
292,MetaDrive-td3combine-expt3,87,225.08253763689052,294477,1148,3368.3145139217377,40.71284484863281,-40.692108154296875,3.4806156158447266,0.41
293,MetaDrive-td3combine-expt3,87,223.67522794728325,295388,1150,3377.020971775055,40.98041534423828,,5.09332799911499,0.4
294,MetaDrive-td3combine-expt3,87,226.7197497806374,296539,1152,3390.372790336609,39.754112243652344,-40.368892669677734,5.436129093170166,0.4
295,MetaDrive-td3combine-expt3,87,224.0017643280209,297075,1154,3395.6809010505676,43.27471923828125,-42.974517822265625,4.501479148864746,0.39
296,MetaDrive-td3combine-expt3,87,223.3518204963871,298279,1158,3407.0184886455536,41.42081069946289,-42.3514289855957,7.068829536437988,0.38
297,MetaDrive-td3combine-expt3,87,229.46633842303712,299864,1161,3426.786902666092,42.323204040527344,,5.260504722595215,0.41
298,MetaDrive-td3combine-expt3,87,231.87964402927176,300388,1162,3432.6037945747375,44.4852409362793,,4.920646667480469,0.42
299,MetaDrive-td3combine-expt3,87,232.7125764497362,301681,1165,3445.3014736175537,39.676368713378906,-40.288963317871094,17.416851043701172,0.42
300,MetaDrive-td3combine-expt3,87,229.23143916282402,302759,1168,3456.5150973796844,41.508338928222656,-42.43617248535156,8.258447647094727,0.42
301,MetaDrive-td3combine-expt3,87,232.12730580470748,303337,1169,3463.063218832016,45.4927978515625,-46.433509826660156,62.115665435791016,0.43
302,MetaDrive-td3combine-expt3,87,234.323925601457,304852,1171,3484.6556057929993,40.694271087646484,,7.4435553550720215,0.43
303,MetaDrive-td3combine-expt3,87,235.20029115656328,305853,1172,3503.3986949920654,42.18817901611328,-42.57765579223633,3.504279136657715,0.43
304,MetaDrive-td3combine-expt3,87,233.9623735063991,306263,1173,3506.664587020874,44.339256286621094,-44.28118896484375,3.5029406547546387,0.43
305,MetaDrive-td3combine-expt3,87,230.70384293654374,307051,1176,3514.5165634155273,42.05784606933594,-42.600582122802734,67.37541198730469,0.42
306,MetaDrive-td3combine-expt3,87,234.34290872793744,308339,1178,3529.4763793945312,42.177833557128906,-42.804168701171875,5.422157287597656,0.43
307,MetaDrive-td3combine-expt3,87,239.29366922341433,309422,1180,3541.3594937324524,39.90492248535156,,10.60515022277832,0.45
308,MetaDrive-td3combine-expt3,87,241.95114935933987,310820,1182,3560.2999041080475,44.27646255493164,,43.09294128417969,0.45
309,MetaDrive-td3combine-expt3,87,244.7441960180291,311597,1183,3570.7845673561096,41.74796676635742,-42.95594787597656,16.982362747192383,0.46
310,MetaDrive-td3combine-expt3,87,236.68382345326626,312080,1186,3575.4116332530975,43.467041015625,,6.066198348999023,0.44
311,MetaDrive-td3combine-expt3,87,233.38352380958048,313659,1190,3593.6714675426483,38.48893737792969,-39.473392486572266,42.87428283691406,0.43
312,MetaDrive-td3combine-expt3,87,236.85340452932448,314353,1191,3601.9732711315155,41.444175720214844,-41.980491638183594,7.104448318481445,0.44
313,MetaDrive-td3combine-expt3,87,234.4959182186791,315579,1195,3614.8831276893616,41.25028991699219,-41.284027099609375,7.774649620056152,0.43
314,MetaDrive-td3combine-expt3,87,235.18578777613234,316483,1197,3625.484306335449,41.019371032714844,-41.28371810913086,5.282772541046143,0.43
315,MetaDrive-td3combine-expt3,87,232.0924520221051,317144,1200,3635.2563025951385,42.636634826660156,,3.0533742904663086,0.41
316,MetaDrive-td3combine-expt3,87,235.83636842202634,318416,1203,3648.89381814003,46.11664581298828,,3.874509334564209,0.42
317,MetaDrive-td3combine-expt3,87,235.20903535782472,319042,1204,3659.5620748996735,42.236820220947266,,3.332798957824707,0.41
318,MetaDrive-td3combine-expt3,87,232.3758891770081,320423,1207,3676.451693058014,41.14904022216797,-41.051300048828125,8.309593200683594,0.39
319,MetaDrive-td3combine-expt3,87,233.0671367604032,321109,1209,3682.6288573741913,41.456275939941406,-40.97003173828125,7.346043109893799,0.39
320,MetaDrive-td3combine-expt3,87,233.3355099343113,322041,1211,3691.109162092209,44.46080780029297,-44.79643249511719,6.3952789306640625,0.39
321,MetaDrive-td3combine-expt3,87,228.80775011365185,323356,1215,3703.1276099681854,43.10133361816406,,8.704938888549805,0.41
322,MetaDrive-td3combine-expt3,87,228.4818206999984,324109,1216,3716.6794838905334,43.978004455566406,-44.654937744140625,6.120622158050537,0.41
323,MetaDrive-td3combine-expt3,87,222.32144132340872,325136,1220,3730.221648454666,39.75767517089844,,42.61955642700195,0.38
324,MetaDrive-td3combine-expt3,87,220.2343158377342,326081,1222,3740.60967874527,38.152687072753906,-38.287841796875,3.8377232551574707,0.39
325,MetaDrive-td3combine-expt3,87,220.5290857579443,327082,1223,3753.6479845046997,43.82999038696289,,6.57800817489624,0.38
326,MetaDrive-td3combine-expt3,87,219.24298121451423,328576,1226,3768.5565304756165,38.863037109375,,10.392679214477539,0.39
327,MetaDrive-td3combine-expt3,87,220.70541143818718,329577,1227,3784.6631219387054,39.58943176269531,-39.85692596435547,2.8121418952941895,0.39
328,MetaDrive-td3combine-expt3,87,223.2250897884495,330226,1229,3791.6176114082336,41.54446029663086,,11.559137344360352,0.4
329,MetaDrive-td3combine-expt3,87,228.33686436078372,331274,1231,3803.3382024765015,43.392799377441406,,6.68640661239624,0.42
330,MetaDrive-td3combine-expt3,87,232.5100946939755,332458,1234,3815.3809611797333,43.249916076660156,,3.605168342590332,0.44
331,MetaDrive-td3combine-expt3,87,228.67480998279908,333268,1237,3826.1754474639893,43.27378845214844,,13.341606140136719,0.43
332,MetaDrive-td3combine-expt3,87,230.89173718281975,334269,1238,3837.6202552318573,42.52055358886719,-43.11162567138672,3.6364355087280273,0.43
333,MetaDrive-td3combine-expt3,87,233.64841053604067,335567,1240,3855.5319085121155,39.98313903808594,-39.98887634277344,14.277597427368164,0.43
334,MetaDrive-td3combine-expt3,87,228.72566201553954,336011,1242,3859.9774413108826,40.21649932861328,-40.97365951538086,12.410987854003906,0.42
335,MetaDrive-td3combine-expt3,87,226.32406039212177,337347,1245,3874.0530817508698,42.37503433227539,-42.38230514526367,4.522161483764648,0.42
336,MetaDrive-td3combine-expt3,87,227.35586614749394,338226,1247,3883.639218568802,44.2863655090332,,4.136087894439697,0.43
337,MetaDrive-td3combine-expt3,87,226.77318799995646,339085,1249,3892.47914147377,39.02716064453125,-39.224388122558594,7.311028480529785,0.43
338,MetaDrive-td3combine-expt3,87,222.9825334226255,340256,1252,3906.8459429740906,44.06190490722656,,15.46011734008789,0.43
339,MetaDrive-td3combine-expt3,87,224.18002071656673,341176,1254,3916.337543964386,44.80839157104492,,6.632931709289551,0.43
340,MetaDrive-td3combine-expt3,87,228.40588238843725,342442,1256,3928.6236634254456,40.734474182128906,,4.98175048828125,0.45
341,MetaDrive-td3combine-expt3,87,228.15895442341937,343715,1259,3942.232743740082,39.71171569824219,-39.890647888183594,6.958518981933594,0.45
342,MetaDrive-td3combine-expt3,87,228.1986526131694,344301,1260,3949.509177684784,43.8433837890625,-43.90114212036133,4.4877119064331055,0.44
343,MetaDrive-td3combine-expt3,87,227.54501702466132,345096,1261,3959.7054357528687,46.11640167236328,,7.4902472496032715,0.44
344,MetaDrive-td3combine-expt3,87,228.8423523088426,346040,1263,3969.737552165985,40.89313507080078,,4.727231025695801,0.44
345,MetaDrive-td3combine-expt3,87,231.33577616585208,347175,1266,3981.6257770061493,41.69963836669922,-41.859649658203125,4.110358238220215,0.45
346,MetaDrive-td3combine-expt3,87,235.13804063070256,348509,1268,3998.8434631824493,41.944358825683594,-41.96659851074219,5.634571075439453,0.45
347,MetaDrive-td3combine-expt3,87,231.5142069386051,349369,1271,4006.5155596733093,43.24140167236328,-43.00665283203125,3.8027737140655518,0.44
348,MetaDrive-td3combine-expt3,87,229.08353668110524,350202,1274,4016.23145031929,41.258514404296875,,6.887594223022461,0.43
349,MetaDrive-td3combine-expt3,87,231.23799913929534,351461,1276,4032.790938138962,41.88990020751953,-42.511817932128906,46.866851806640625,0.43
350,MetaDrive-td3combine-expt3,87,230.73388450929357,352161,1277,4041.377126932144,44.247859954833984,-45.03105926513672,5.4265031814575195,0.43
351,MetaDrive-td3combine-expt3,87,229.0584129095304,353361,1280,4052.8917677402496,41.47489547729492,-41.2923583984375,6.8667755126953125,0.42
352,MetaDrive-td3combine-expt3,87,223.29894481198403,354808,1285,4069.011443376541,41.034690856933594,,6.886656761169434,0.41
353,MetaDrive-td3combine-expt3,87,227.50986449385965,355733,1286,4083.299127101898,43.33206558227539,-43.14710235595703,5.95375394821167,0.42
354,MetaDrive-td3combine-expt3,87,227.83600518739993,356175,1287,4087.215824842453,45.41350555419922,-45.83841323852539,3.588022232055664,0.43
355,MetaDrive-td3combine-expt3,87,231.72460788725186,357093,1289,4097.598838567734,43.09462356567383,-43.03184509277344,3.7074708938598633,0.44
356,MetaDrive-td3combine-expt3,87,226.36322686746175,358128,1294,4107.505063295364,41.1625862121582,,25.807649612426758,0.41
357,MetaDrive-td3combine-expt3,87,225.47607125574476,359129,1295,4118.817917108536,41.35406494140625,-41.323158264160156,4.32965087890625,0.41
358,MetaDrive-td3combine-expt3,87,226.7852187513185,360289,1298,4132.972476482391,43.805702209472656,-44.05213165283203,4.8518500328063965,0.41
359,MetaDrive-td3combine-expt3,87,229.04482578206063,361362,1300,4145.124187231064,43.40774917602539,,13.358773231506348,0.42
360,MetaDrive-td3combine-expt3,87,230.2343760074299,362356,1302,4159.411513090134,41.809844970703125,,5.598655700683594,0.42
361,MetaDrive-td3combine-expt3,87,228.82940264074324,363208,1304,4167.601212501526,42.032508850097656,,3.8165578842163086,0.42
362,MetaDrive-td3combine-expt3,87,233.52192559872987,364620,1306,4186.383838653564,40.223472595214844,,10.854759216308594,0.44
363,MetaDrive-td3combine-expt3,87,233.01739409620438,365026,1307,4189.62197136879,40.96185302734375,,55.372657775878906,0.44
364,MetaDrive-td3combine-expt3,87,235.35538768538387,366059,1309,4199.953946113586,43.19214630126953,-42.495182037353516,7.931565284729004,0.46
365,MetaDrive-td3combine-expt3,87,235.2768195970235,367230,1311,4214.379997491837,45.222267150878906,,76.99246215820312,0.46
366,MetaDrive-td3combine-expt3,87,236.59098060798965,368704,1313,4230.201154232025,44.832679748535156,,3.9634368419647217,0.46
367,MetaDrive-td3combine-expt3,87,234.71034596955974,369383,1315,4236.634447097778,39.57185363769531,-39.91044235229492,18.68233871459961,0.45
368,MetaDrive-td3combine-expt3,87,236.346085554251,370187,1316,4247.188273668289,41.582679748535156,-42.529747009277344,5.988180160522461,0.46
369,MetaDrive-td3combine-expt3,87,235.93807041521163,371188,1317,4259.444646835327,40.273651123046875,,8.433111190795898,0.46
370,MetaDrive-td3combine-expt3,87,241.06250243050053,372208,1319,4271.297919511795,42.235748291015625,,7.960685729980469,0.47
371,MetaDrive-td3combine-expt3,87,241.4021306288684,373342,1322,4283.580113649368,38.851829528808594,,10.97750473022461,0.47
372,MetaDrive-td3combine-expt3,87,238.82313075539219,374182,1324,4292.130564212799,44.80889892578125,,7.557332992553711,0.46
373,MetaDrive-td3combine-expt3,87,239.71285824084276,375755,1326,4310.748231887817,42.86910629272461,-42.635101318359375,6.672512531280518,0.46
374,MetaDrive-td3combine-expt3,87,240.78025428370586,376569,1327,4321.156509876251,42.039005279541016,-42.377132415771484,6.6406402587890625,0.47
375,MetaDrive-td3combine-expt3,87,243.66467136251413,377561,1329,4330.245250225067,45.050174713134766,-46.1722412109375,5.38015079498291,0.48
376,MetaDrive-td3combine-expt3,87,241.2335438124244,378051,1331,4335.957410573959,42.02885437011719,-42.602333068847656,4.06851053237915,0.46
377,MetaDrive-td3combine-expt3,87,240.64086922466876,379678,1334,4361.948930740356,41.36445617675781,,4.448564529418945,0.45
378,MetaDrive-td3combine-expt3,87,241.83236734734572,380147,1336,4366.956010341644,43.987953186035156,-44.27916717529297,6.522764205932617,0.45
379,MetaDrive-td3combine-expt3,87,233.11501934591953,381155,1339,4377.89572262764,46.41679000854492,-46.04311752319336,7.740590572357178,0.43
380,MetaDrive-td3combine-expt3,87,235.10359541598322,382156,1340,4391.913739681244,46.14115905761719,,5.268251419067383,0.43
381,MetaDrive-td3combine-expt3,86,239.5317014371357,383238,1342,4405.0866086483,41.916683197021484,,4.837918281555176,0.44
382,MetaDrive-td3combine-expt3,87,242.3596515734502,384566,1344,4420.272731781006,41.00801467895508,,7.95427131652832,0.45
383,MetaDrive-td3combine-expt3,87,240.90317088904726,385079,1345,4425.523357868195,46.614986419677734,-46.55029296875,6.587576866149902,0.45
384,MetaDrive-td3combine-expt3,86,239.74433400477938,386080,1346,4438.066634654999,43.19561004638672,,9.595903396606445,0.44
385,MetaDrive-td3combine-expt3,87,241.32312426084187,387652,1349,4453.192032814026,43.14787292480469,,4.936094284057617,0.45
386,MetaDrive-td3combine-expt3,87,239.99295737721283,388123,1350,4457.5236785411835,41.81962966918945,-42.88288879394531,116.44450378417969,0.44
387,MetaDrive-td3combine-expt3,86,243.3060269967217,389124,1351,4474.245817661285,40.76360321044922,,94.49044799804688,0.44
388,MetaDrive-td3combine-expt3,86,243.97321877078218,390125,1352,4486.390978097916,45.346229553222656,-44.57067108154297,17.943822860717773,0.44
389,MetaDrive-td3combine-expt3,86,246.2723278587091,391553,1354,4502.999283790588,43.17040252685547,-43.06777572631836,4.997941017150879,0.45
390,MetaDrive-td3combine-expt3,86,244.20719210929528,392249,1355,4510.261799812317,41.77421569824219,-41.6587028503418,10.909396171569824,0.44
391,MetaDrive-td3combine-expt3,86,245.47417273462818,393410,1357,4522.280601978302,42.145851135253906,,5.558401107788086,0.45
392,MetaDrive-td3combine-expt3,86,244.47346005991758,394411,1358,4536.2515778541565,41.757747650146484,-41.50075149536133,6.081531524658203,0.44
393,MetaDrive-td3combine-expt3,86,243.5265095689541,395406,1359,4547.985907316208,40.994144439697266,,8.160405158996582,0.43
394,MetaDrive-td3combine-expt3,86,244.77168089146846,396653,1361,4561.728168725967,39.395511627197266,-40.481285095214844,4.283507347106934,0.44
395,MetaDrive-td3combine-expt3,86,246.82219379806776,397268,1362,4568.053676366806,41.899200439453125,,8.112947463989258,0.45
396,MetaDrive-td3combine-expt3,86,245.86291431911616,398658,1364,4586.8794412612915,45.664249420166016,,7.155051231384277,0.45
397,MetaDrive-td3combine-expt3,86,248.0901514529264,399125,1365,4591.50168967247,44.91999435424805,-44.357948303222656,8.475449562072754,0.46
398,MetaDrive-td3combine-expt3,86,248.74042730909596,400633,1367,4610.632148981094,41.431636810302734,-41.82905578613281,5.765708923339844,0.47
399,MetaDrive-td3combine-expt3,86,248.1074932591963,401216,1368,4617.313491821289,46.43777084350586,,4.926857948303223,0.47
400,MetaDrive-td3combine-expt3,86,248.27394553694995,402177,1371,4627.347732543945,47.51837158203125,-46.88337707519531,6.094668388366699,0.47
401,MetaDrive-td3combine-expt3,86,250.97006318510623,403077,1373,4636.218493938446,45.058860778808594,-45.05507278442383,6.453710556030273,0.48
402,MetaDrive-td3combine-expt3,86,249.544570016567,404175,1376,4648.23393535614,43.25139617919922,-43.024192810058594,9.858736038208008,0.49
403,MetaDrive-td3combine-expt3,86,247.75937590945375,405343,1379,4659.849270582199,42.19936752319336,-42.43569564819336,7.654045581817627,0.48
404,MetaDrive-td3combine-expt3,87,248.5424914741676,406007,1381,4666.021187782288,43.231204986572266,-43.84173583984375,4.894779205322266,0.48
405,MetaDrive-td3combine-expt3,86,251.2568710773074,407008,1382,4681.674828290939,42.310142517089844,,5.844265937805176,0.48
406,MetaDrive-td3combine-expt3,86,258.22026290076735,408799,1384,4709.798518419266,43.42597961425781,-43.3798828125,4.778013706207275,0.49
407,MetaDrive-td3combine-expt3,86,258.5962258467088,409396,1385,4714.848871469498,44.11298370361328,,13.533668518066406,0.49
408,MetaDrive-td3combine-expt3,86,258.43891686337656,410264,1386,4727.843863487244,47.19532775878906,,25.13531494140625,0.49
409,MetaDrive-td3combine-expt3,86,256.21629601107406,411430,1389,4741.158362150192,42.700096130371094,,7.5521345138549805,0.48
410,MetaDrive-td3combine-expt3,86,259.03609809970635,412224,1390,4747.991386413574,45.069854736328125,,3.816483974456787,0.49
411,MetaDrive-td3combine-expt3,86,258.5996331691617,413083,1394,4756.944377660751,42.415435791015625,-42.47977066040039,7.204489707946777,0.49
412,MetaDrive-td3combine-expt3,86,258.98270608477276,414376,1397,4773.036596536636,39.713768005371094,,5.623640060424805,0.49
413,MetaDrive-td3combine-expt3,86,254.864343165509,415072,1400,4779.215200185776,42.7149658203125,,5.379971504211426,0.49
414,MetaDrive-td3combine-expt3,86,257.3897365120818,416289,1402,4794.708788394928,39.75730514526367,-39.455421447753906,19.038311004638672,0.49
415,MetaDrive-td3combine-expt3,86,260.31087191279084,417290,1403,4812.581525564194,47.60595703125,,2.2596988677978516,0.49
416,MetaDrive-td3combine-expt3,86,260.10032711562593,418016,1404,4821.779387950897,47.972843170166016,,4.778482437133789,0.49
417,MetaDrive-td3combine-expt3,86,258.7333888352584,419017,1405,4836.659099340439,41.55162811279297,-41.16204833984375,5.878216743469238,0.48
418,MetaDrive-td3combine-expt3,86,257.8469706374944,420018,1406,4849.558972597122,46.01067352294922,,5.303027153015137,0.47
419,MetaDrive-td3combine-expt3,86,257.44857375344196,421540,1409,4866.797343254089,45.98280715942383,,7.065938949584961,0.46
420,MetaDrive-td3combine-expt3,86,258.7554522483726,422143,1410,4874.23028254509,49.65867233276367,-49.3520393371582,6.902939319610596,0.46
421,MetaDrive-td3combine-expt3,86,258.7545204229718,423144,1411,4889.154622554779,43.361507415771484,,8.9453125,0.46
422,MetaDrive-td3combine-expt3,86,259.719505391189,424057,1413,4899.921382427216,42.00216293334961,-42.616485595703125,153.08001708984375,0.46
423,MetaDrive-td3combine-expt3,86,262.1912049996162,425027,1415,4910.170182943344,40.802860260009766,-41.271202087402344,11.411436080932617,0.47
424,MetaDrive-td3combine-expt3,86,256.00016496417066,426590,1421,4925.370396375656,46.844478607177734,,3.1293141841888428,0.46
425,MetaDrive-td3combine-expt3,86,252.56632968203846,427411,1423,4934.800034999847,41.810508728027344,-41.890869140625,6.394998550415039,0.45
426,MetaDrive-td3combine-expt3,86,255.8157618674283,428055,1424,4941.908739566803,49.46294403076172,-49.55834197998047,15.641609191894531,0.46
427,MetaDrive-td3combine-expt3,86,253.20010155649743,429363,1427,4955.2992396354675,42.80174255371094,-42.574493408203125,11.49544906616211,0.45
428,MetaDrive-td3combine-expt3,86,254.9919434534409,430076,1428,4963.800330400467,39.76638412475586,,6.602901458740234,0.45
429,MetaDrive-td3combine-expt3,86,253.76413710685276,431113,1431,4973.278230190277,42.308773040771484,-42.69575500488281,4.483242988586426,0.45
430,MetaDrive-td3combine-expt3,86,254.21488736116203,432228,1433,4990.31304359436,46.2877197265625,,7.163609504699707,0.44
431,MetaDrive-td3combine-expt3,86,254.74093979681962,433181,1434,5005.749349832535,43.5179443359375,-43.91571807861328,6.4320502281188965,0.44
432,MetaDrive-td3combine-expt3,86,258.0842047582017,434098,1435,5017.508702039719,46.92338562011719,,7.001441955566406,0.45
433,MetaDrive-td3combine-expt3,86,258.4852836283452,435393,1437,5030.984132051468,39.360816955566406,-38.61095428466797,12.772472381591797,0.45
434,MetaDrive-td3combine-expt3,86,262.9942425721824,436439,1439,5041.817063093185,42.60552978515625,-42.99580383300781,4.827849388122559,0.47
435,MetaDrive-td3combine-expt3,86,260.21553832112403,437440,1440,5056.006990432739,47.929832458496094,,9.311943054199219,0.47
436,MetaDrive-td3combine-expt3,86,261.9561767546575,438065,1441,5062.244975090027,39.401939392089844,-40.313472747802734,173.26126098632812,0.48
437,MetaDrive-td3combine-expt3,86,258.47374432881907,439249,1443,5074.397673368454,44.44989776611328,-43.90338897705078,18.932456970214844,0.46
438,MetaDrive-td3combine-expt3,86,255.4192961193135,440579,1447,5088.209920406342,43.97252655029297,-43.756248474121094,4.44877815246582,0.45
439,MetaDrive-td3combine-expt3,86,255.67790563839912,441074,1448,5092.780829191208,37.03435516357422,,13.422786712646484,0.45
440,MetaDrive-td3combine-expt3,86,251.8628836150364,442198,1451,5106.391712903976,43.01901626586914,,4.3269853591918945,0.45
441,MetaDrive-td3combine-expt3,86,249.3190538403055,443343,1454,5118.097773313522,49.09893035888672,-49.795875549316406,5.728845119476318,0.44
442,MetaDrive-td3combine-expt3,86,246.92707453085038,444494,1457,5128.8271226882935,41.82802963256836,,6.7966389656066895,0.43
443,MetaDrive-td3combine-expt3,86,249.42575081992914,445406,1458,5140.97678565979,42.596065521240234,,4.705117225646973,0.44
444,MetaDrive-td3combine-expt3,86,246.7101966179841,446050,1460,5148.135355949402,42.344139099121094,,7.614675521850586,0.44
445,MetaDrive-td3combine-expt3,86,242.56974070914504,447305,1463,5161.533540248871,39.641357421875,-39.48890686035156,4.708463191986084,0.42
446,MetaDrive-td3combine-expt3,86,240.6025518658078,448305,1465,5173.733026266098,43.471900939941406,-43.5767707824707,9.773710250854492,0.41
447,MetaDrive-td3combine-expt3,86,232.56278752424015,449246,1469,5182.945773363113,39.76795959472656,,36.551727294921875,0.38
448,MetaDrive-td3combine-expt3,86,236.0417383292808,450663,1472,5197.522917509079,42.112091064453125,-42.42925262451172,9.610795974731445,0.4
449,MetaDrive-td3combine-expt3,86,236.19800035215547,451328,1473,5204.001699209213,45.908119201660156,,6.041407585144043,0.4
450,MetaDrive-td3combine-expt3,86,237.07211706707244,452230,1474,5214.860229730606,42.2892951965332,,6.305105209350586,0.4
451,MetaDrive-td3combine-expt3,86,237.74195973627033,453359,1476,5229.988787651062,44.39934539794922,-43.962486267089844,15.456212043762207,0.4
452,MetaDrive-td3combine-expt3,86,239.00189175335908,454066,1478,5236.8503494262695,44.98820495605469,,5.822942733764648,0.41
453,MetaDrive-td3combine-expt3,86,238.14356369590874,455132,1480,5247.231472492218,42.81669998168945,,6.415606498718262,0.41
454,MetaDrive-td3combine-expt3,86,238.48442431145995,456106,1482,5258.708807229996,40.73895263671875,,6.5427775382995605,0.42
455,MetaDrive-td3combine-expt3,86,230.14910621199996,457663,1486,5276.104169130325,41.42776870727539,-42.77403259277344,11.575494766235352,0.4
456,MetaDrive-td3combine-expt3,86,232.0999507453498,458161,1488,5281.154986858368,40.26530075073242,-39.652183532714844,14.19505500793457,0.4
457,MetaDrive-td3combine-expt3,86,226.7659003455912,459181,1492,5290.757292747498,43.936607360839844,-44.00400924682617,8.42205810546875,0.38
458,MetaDrive-td3combine-expt3,86,230.88529919843066,460922,1494,5310.453927278519,42.62321472167969,,65.59519958496094,0.38
459,MetaDrive-td3combine-expt3,86,232.73993526553105,461406,1495,5314.635949134827,47.1973762512207,,5.765655517578125,0.39
460,MetaDrive-td3combine-expt3,86,230.2099179786137,462369,1498,5324.23409986496,42.628501892089844,-43.102325439453125,24.7902774810791,0.38
461,MetaDrive-td3combine-expt3,86,233.44201679569738,463315,1500,5333.320423364639,43.203670501708984,-43.55638885498047,3.6647419929504395,0.39
462,MetaDrive-td3combine-expt3,86,229.1914910047346,464394,1503,5343.971956253052,40.154258728027344,,7.189536094665527,0.41
463,MetaDrive-td3combine-expt3,86,225.9628941356499,465026,1505,5353.279576539993,43.20218276977539,,2.6149163246154785,0.4
464,MetaDrive-td3combine-expt3,86,225.89948009276122,466028,1507,5366.459711551666,44.71265411376953,,6.0245680809021,0.41
465,MetaDrive-td3combine-expt3,86,223.04458639825353,467426,1510,5383.68518948555,42.6632080078125,,7.039074897766113,0.39
466,MetaDrive-td3combine-expt3,86,223.63156566883197,468326,1511,5396.647746801376,40.660125732421875,,7.258474826812744,0.4
467,MetaDrive-td3combine-expt3,86,220.14976324258566,469165,1514,5405.114117383957,40.969810485839844,-41.39192199707031,11.865615844726562,0.38
468,MetaDrive-td3combine-expt3,86,220.17903964177523,470033,1516,5415.5361223220825,39.746620178222656,-39.78668212890625,15.454529762268066,0.37
469,MetaDrive-td3combine-expt3,86,226.0281316648544,471541,1520,5432.848342895508,44.26191329956055,-43.53050994873047,15.944659233093262,0.38
470,MetaDrive-td3combine-expt3,86,226.0302575273649,472373,1521,5445.288614034653,45.51210021972656,-46.167335510253906,5.642822265625,0.38
471,MetaDrive-td3combine-expt3,86,226.5087392084963,473153,1523,5453.3337495327,46.018856048583984,-46.4193115234375,3.9412946701049805,0.39
472,MetaDrive-td3combine-expt3,86,224.63379338139956,474315,1526,5465.046195983887,44.117462158203125,-43.83176040649414,14.576498985290527,0.39
473,MetaDrive-td3combine-expt3,86,224.64993581466481,475306,1528,5474.78196644783,37.78120422363281,,16.517704010009766,0.4
474,MetaDrive-td3combine-expt3,86,224.19420256180507,476369,1530,5487.037782430649,43.82876968383789,-43.71826934814453,10.510390281677246,0.4
475,MetaDrive-td3combine-expt3,86,229.25400222571602,477388,1532,5497.598022699356,44.49022674560547,,7.972868919372559,0.42
476,MetaDrive-td3combine-expt3,86,224.82765017277754,478868,1535,5519.536803722382,41.12398910522461,,7.292245388031006,0.42
477,MetaDrive-td3combine-expt3,86,226.0587231903518,479300,1536,5524.347815990448,40.323299407958984,,7.4315056800842285,0.43
478,MetaDrive-td3combine-expt3,86,228.6384864627692,480072,1537,5532.285397768021,45.118431091308594,,8.41568374633789,0.44
479,MetaDrive-td3combine-expt3,86,226.43894533690766,481054,1540,5543.343384027481,41.31208038330078,,4.024820327758789,0.43
480,MetaDrive-td3combine-expt3,86,224.08174471329153,482147,1543,5558.5696358680725,44.07085037231445,-44.46874237060547,11.349512100219727,0.42
481,MetaDrive-td3combine-expt3,86,224.70350677428732,483300,1545,5574.000356197357,46.61712646484375,,5.012940406799316,0.41
482,MetaDrive-td3combine-expt3,86,228.75019922752807,484292,1546,5589.535538673401,40.621368408203125,,4.432126045227051,0.42
483,MetaDrive-td3combine-expt3,86,228.42669394788393,485619,1549,5605.056276082993,39.00455093383789,-38.945892333984375,6.0458807945251465,0.41
484,MetaDrive-td3combine-expt3,86,227.5764084409974,486426,1551,5613.64017033577,41.829673767089844,,5.948366641998291,0.41
485,MetaDrive-td3combine-expt3,86,230.67544273814173,487312,1553,5622.977937936783,41.21937942504883,,20.237323760986328,0.42
486,MetaDrive-td3combine-expt3,86,228.92222516165145,488058,1555,5631.454663038254,38.101043701171875,,2.5674967765808105,0.41
487,MetaDrive-td3combine-expt3,86,226.83711892933195,489649,1560,5651.013508558273,43.469215393066406,-44.527061462402344,80.74392700195312,0.4
488,MetaDrive-td3combine-expt3,86,224.480780240936,490066,1562,5655.9181432724,43.15705871582031,,5.55032205581665,0.39
489,MetaDrive-td3combine-expt3,86,223.54103470338885,491497,1566,5671.736733198166,42.88444137573242,-42.57221984863281,12.710508346557617,0.38
490,MetaDrive-td3combine-expt3,86,225.15391583030498,492307,1567,5683.092548370361,43.498130798339844,-43.88368225097656,56.413169860839844,0.38
491,MetaDrive-td3combine-expt3,86,226.53614805970835,493067,1569,5694.707969427109,40.166900634765625,-40.363487243652344,6.275360107421875,0.38
492,MetaDrive-td3combine-expt3,86,223.38851633336785,494052,1572,5706.300533056259,36.50212860107422,,10.387968063354492,0.36
493,MetaDrive-td3combine-expt3,86,222.10666896179907,495104,1575,5716.278645038605,41.55056381225586,,9.251721382141113,0.35
494,MetaDrive-td3combine-expt3,86,219.3150110459352,496055,1577,5726.457173585892,42.89739227294922,-43.19235610961914,6.699585914611816,0.35
495,MetaDrive-td3combine-expt3,86,220.9998274634223,497076,1579,5741.176017999649,41.234657287597656,,6.469151496887207,0.35
496,MetaDrive-td3combine-expt3,86,218.25187462671255,498766,1582,5763.640416622162,34.56813049316406,,6.960607528686523,0.33
497,MetaDrive-td3combine-expt3,86,216.76028700662536,499993,1585,5776.577224493027,43.702491760253906,-44.134300231933594,5.858865737915039,0.33
