TanmayH/CS269-RL-project-code/MetaDrive-gen-step2/td3/progress.csv
,log_dir,frame_per_second,episode_reward,total_steps,total_episodes,total_time,actor_loss,critic_loss,target_q,success_rate
0,MetaDrive-gen-step2,79,201.76874316802392,1601,2,20.13318967819214,-35.65370178222656,3.7397234439849854,35.665504455566406,0.0
1,MetaDrive-gen-step2,71,163.1021509166957,2402,3,33.672683000564575,,3.1981217861175537,40.77014923095703,0.0
2,MetaDrive-gen-step2,72,158.58845493063848,3203,4,44.146395444869995,-40.5899658203125,16.189279556274414,39.993812561035156,0.0
3,MetaDrive-gen-step2,75,156.15390127918948,4004,5,53.32822275161743,,2.091503143310547,38.84651184082031,0.0
4,MetaDrive-gen-step2,73,128.93557465893832,5651,8,76.93964195251465,-35.600486755371094,3.0135865211486816,35.91321563720703,0.0
5,MetaDrive-gen-step2,73,81.98610265033365,6008,14,82.21567916870117,,1.4749153852462769,39.16591262817383,0.0
6,MetaDrive-gen-step2,73,73.92749778104664,7345,20,100.11613988876343,-35.817996978759766,4.371732234954834,36.006614685058594,0.0
7,MetaDrive-gen-step2,68,74.12247524747958,8419,23,123.02730536460876,-39.03844451904297,5.536567687988281,39.026302337646484,0.0
8,MetaDrive-gen-step2,69,73.79347450943713,9220,24,133.14650917053223,,3.5882740020751953,35.91367721557617,0.0
9,MetaDrive-gen-step2,70,76.99289205535939,10125,26,142.64654326438904,-35.74717712402344,5.668603897094727,36.002010345458984,0.0
10,MetaDrive-gen-step2,71,79.59404353317903,11727,28,163.7576048374176,-35.05943298339844,2.970289707183838,34.364036560058594,0.0
11,MetaDrive-gen-step2,72,83.4495535557712,12528,29,171.75199151039124,,3.671539783477783,35.64794158935547,0.0
12,MetaDrive-gen-step2,70,84.74212506896365,13329,30,189.36625790596008,-35.17202377319336,3.0588560104370117,34.95552062988281,0.0
13,MetaDrive-gen-step2,70,86.65180112439465,14130,31,201.76797485351562,,3.188314914703369,32.75319290161133,0.0
14,MetaDrive-gen-step2,70,91.95768270132547,15486,33,219.2255940437317,,3.394923686981201,31.060009002685547,0.0
15,MetaDrive-gen-step2,70,91.74680586775872,16242,35,229.16500878334045,,9.68647575378418,33.67757034301758,0.0
16,MetaDrive-gen-step2,70,93.08584637093045,17043,36,240.62051939964294,-32.49103546142578,3.7460579872131348,32.55275344848633,0.0
17,MetaDrive-gen-step2,69,95.1995229945627,18645,38,268.2032084465027,-31.296932220458984,2.3373637199401855,30.768409729003906,0.0
18,MetaDrive-gen-step2,69,93.32847431197042,19688,40,283.26951003074646,,3.2333884239196777,27.58899688720703,0.0
19,MetaDrive-gen-step2,69,93.90582427900364,20489,41,296.16552448272705,-29.46969223022461,87.39286804199219,28.813364028930664,0.0
20,MetaDrive-gen-step2,69,99.6801196778403,21768,43,311.35517716407776,,18.68377685546875,24.566532135009766,0.0
21,MetaDrive-gen-step2,69,96.97544123000112,22013,44,316.52809834480286,-28.945171356201172,4.5078535079956055,28.830595016479492,0.0
22,MetaDrive-gen-step2,69,95.67339083528245,23076,46,334.4083499908447,,4.089628219604492,26.9089298248291,0.0
23,MetaDrive-gen-step2,70,102.90164705566197,24447,48,348.9637928009033,-27.591995239257812,4.635581016540527,27.222169876098633,0.020833333333333332
24,MetaDrive-gen-step2,68,103.0295900618669,25168,49,365.8842387199402,,2.002979278564453,27.156965255737305,0.02040816326530612
25,MetaDrive-gen-step2,67,102.37904179398673,26007,51,384.2690224647522,-24.287193298339844,8.689144134521484,24.027685165405273,0.0196078431372549
26,MetaDrive-gen-step2,67,101.5667761953171,27050,54,400.1169972419739,,6.238180160522461,25.066089630126953,0.018518518518518517
27,MetaDrive-gen-step2,68,99.36452606311144,28774,57,422.690580368042,,4.617753982543945,25.94907569885254,0.017543859649122806
28,MetaDrive-gen-step2,68,99.08490548892985,29079,58,425.8142640590668,-26.14974021911621,3.4177653789520264,25.935518264770508,0.017241379310344827
29,MetaDrive-gen-step2,67,98.35205462467754,30681,60,451.7596938610077,-25.794937133789062,3.581468343734741,25.631345748901367,0.016666666666666666
30,MetaDrive-gen-step2,67,99.48047221552356,31732,62,468.24383211135864,,2.706266403198242,22.401012420654297,0.016129032258064516
31,MetaDrive-gen-step2,67,99.44192225408781,32533,63,480.7828438282013,-25.600975036621094,8.699125289916992,24.592199325561523,0.015873015873015872
32,MetaDrive-gen-step2,68,102.76600594504366,33410,65,489.72841572761536,,5.3552656173706055,27.321269989013672,0.03076923076923077
33,MetaDrive-gen-step2,68,104.82767878969285,34211,66,497.92846179008484,-23.660594940185547,5.136444091796875,23.22791290283203,0.030303030303030304
34,MetaDrive-gen-step2,68,104.58830108348931,35012,67,509.27375626564026,,5.549405097961426,20.956180572509766,0.029850746268656716
35,MetaDrive-gen-step2,68,103.44277327746468,36021,69,527.2714400291443,-23.894412994384766,4.9188761711120605,24.250295639038086,0.028985507246376812
36,MetaDrive-gen-step2,68,106.75501243834834,37591,71,550.5914950370789,-18.6033878326416,7.622171401977539,17.808828353881836,0.04225352112676056
37,MetaDrive-gen-step2,68,108.04639368217175,38392,72,559.2323496341705,,5.379363536834717,24.34423828125,0.041666666666666664
38,MetaDrive-gen-step2,68,107.99262310056459,39193,73,571.5490548610687,-18.4130859375,4.348177909851074,17.94620704650879,0.0410958904109589
39,MetaDrive-gen-step2,69,111.55073823138251,40555,75,585.1799986362457,-21.56319808959961,7.84202766418457,21.445085525512695,0.04
40,MetaDrive-gen-step2,68,112.19807031111021,41356,76,602.6403377056122,,3.5252318382263184,22.66616439819336,0.039473684210526314
41,MetaDrive-gen-step2,68,113.26954192882516,42553,78,619.2686140537262,-24.79183578491211,8.915289878845215,24.212635040283203,0.038461538461538464
42,MetaDrive-gen-step2,68,115.53094474560625,43354,79,629.3667352199554,,9.93403434753418,19.831043243408203,0.0379746835443038
43,MetaDrive-gen-step2,68,115.0497955323372,44305,81,642.8340051174164,-21.164913177490234,4.986085891723633,21.417356491088867,0.037037037037037035
44,MetaDrive-gen-step2,68,114.22167879856723,45106,82,655.2016551494598,,4.95158576965332,19.161029815673828,0.036585365853658534
45,MetaDrive-gen-step2,68,116.54498456651821,46008,84,666.8267540931702,,3.5085463523864746,19.74284553527832,0.047619047619047616
46,MetaDrive-gen-step2,68,116.88694535938617,47007,86,690.3089029788971,-17.85991859436035,4.4548468589782715,17.766305923461914,0.046511627906976744
47,MetaDrive-gen-step2,67,116.56928614965402,48767,90,721.4039447307587,-18.759563446044922,1.9077637195587158,18.761245727539062,0.044444444444444446
48,MetaDrive-gen-step2,67,118.68039907756484,49531,91,732.419842004776,-15.89236068725586,7.270055770874023,15.416927337646484,0.04395604395604396
49,MetaDrive-gen-step2,66,119.93864685672918,50332,92,751.7670035362244,,9.185864448547363,17.817729949951172,0.043478260869565216
50,MetaDrive-gen-step2,66,119.8817580834091,51133,93,764.9873046875,-13.392454147338867,11.405013084411621,13.062191009521484,0.043010752688172046
51,MetaDrive-gen-step2,67,121.5531201931305,52437,95,779.0180282592773,-18.033367156982422,16.20505142211914,18.283178329467773,0.042105263157894736
52,MetaDrive-gen-step2,67,121.33115977417378,53238,96,789.4321174621582,,4.252429008483887,18.71822166442871,0.041666666666666664
53,MetaDrive-gen-step2,67,121.31292278770081,54431,98,804.027322769165,-16.926870346069336,4.610980987548828,17.044147491455078,0.04081632653061224
54,MetaDrive-gen-step2,67,121.05957119955274,55453,100,816.6558349132538,-17.547237396240234,7.7102789878845215,17.612314224243164,0.04
55,MetaDrive-gen-step2,67,120.91453705494105,56254,101,828.6430439949036,,6.356651782989502,17.06304168701172,0.04
56,MetaDrive-gen-step2,67,120.55170097436152,57055,102,840.6773152351379,-17.509769439697266,5.726426124572754,18.204402923583984,0.04
57,MetaDrive-gen-step2,67,121.64006557685329,58657,104,863.2752645015717,-16.635690689086914,4.892823219299316,16.648574829101562,0.04
58,MetaDrive-gen-step2,67,119.27477199908493,59567,106,878.4468011856079,-20.05312728881836,5.841073036193848,19.429218292236328,0.04
59,MetaDrive-gen-step2,67,120.26599286331462,60368,107,889.2487905025482,,4.204639434814453,19.317691802978516,0.04
60,MetaDrive-gen-step2,68,123.7023692825662,61443,109,901.3132722377777,-17.128198623657227,3.5052640438079834,17.023292541503906,0.05
61,MetaDrive-gen-step2,68,126.61672895126102,62609,111,920.6568200588226,-12.281005859375,8.368972778320312,11.895308494567871,0.05
62,MetaDrive-gen-step2,68,127.53637824776513,63336,112,929.7226839065552,,19.482194900512695,16.1656436920166,0.05
63,MetaDrive-gen-step2,68,128.39988880398707,64243,114,941.1038038730621,-17.23596954345703,5.638433933258057,16.707807540893555,0.05
64,MetaDrive-gen-step2,68,130.2992774209562,65322,116,957.6608209609985,,4.579165935516357,14.499635696411133,0.05
65,MetaDrive-gen-step2,68,132.79402179359596,66507,118,973.4177377223969,-16.32421875,2.342775583267212,16.017932891845703,0.05
66,MetaDrive-gen-step2,68,131.8387763770058,67308,119,983.6367621421814,,4.164807319641113,13.610213279724121,0.05
67,MetaDrive-gen-step2,68,134.56392101423094,68665,121,999.1389989852905,-14.826189041137695,4.755782127380371,15.08797836303711,0.06
68,MetaDrive-gen-step2,68,137.01764163789358,69103,122,1004.3154950141907,-14.776864051818848,2.534823417663574,14.055778503417969,0.07
69,MetaDrive-gen-step2,68,137.92804574163964,70028,124,1024.1644439697266,,5.3995232582092285,16.04940414428711,0.07
70,MetaDrive-gen-step2,68,139.03608656080394,71397,127,1045.214916229248,-14.578693389892578,4.098768711090088,14.559730529785156,0.07
71,MetaDrive-gen-step2,68,138.50696268799237,72198,128,1057.3938484191895,,4.044516086578369,14.444747924804688,0.07
72,MetaDrive-gen-step2,68,140.55372732208855,73800,130,1080.7729227542877,,6.107940196990967,18.384401321411133,0.07
73,MetaDrive-gen-step2,68,139.48900061918,74601,131,1089.9845926761627,-16.475486755371094,3.7059528827667236,17.176729202270508,0.07
74,MetaDrive-gen-step2,68,139.3816310628426,75131,132,1097.5850312709808,-18.129972457885742,3.121164321899414,17.92236328125,0.07
75,MetaDrive-gen-step2,68,138.8477733472966,76253,134,1116.565595149994,-14.615473747253418,7.041260719299316,14.664200782775879,0.07
76,MetaDrive-gen-step2,68,138.05556394537237,77420,136,1131.936309337616,,8.581955909729004,12.29118537902832,0.07
77,MetaDrive-gen-step2,68,138.61832824011339,78221,137,1141.425442457199,-15.217944145202637,3.240082263946533,14.906307220458984,0.07
78,MetaDrive-gen-step2,68,138.33143160939704,79022,138,1150.1130919456482,,4.634330749511719,15.405489921569824,0.07
79,MetaDrive-gen-step2,68,141.81250980990006,80229,140,1169.068395614624,-13.409409523010254,8.213166236877441,13.320687294006348,0.07
80,MetaDrive-gen-step2,68,142.07945463574356,81177,142,1183.6275737285614,-12.568726539611816,2.1963906288146973,12.238468170166016,0.07
81,MetaDrive-gen-step2,68,143.8605939235366,82388,145,1200.9292681217194,,2.6327805519104004,12.503073692321777,0.09
82,MetaDrive-gen-step2,68,146.77253505456352,83087,146,1209.1078221797943,-15.764211654663086,2.106963872909546,15.735067367553711,0.1
83,MetaDrive-gen-step2,68,142.61053864326288,84305,148,1229.3795206546783,-12.7623291015625,2.7147040367126465,12.8047456741333,0.09
84,MetaDrive-gen-step2,68,144.23622124267075,85275,150,1240.6153609752655,-14.506097793579102,6.768571853637695,13.492181777954102,0.1
85,MetaDrive-gen-step2,68,146.96107505422341,86428,152,1259.180613040924,,2.8868823051452637,15.360967636108398,0.1
86,MetaDrive-gen-step2,68,148.35231892092378,87192,153,1270.0951228141785,,3.5483310222625732,17.859325408935547,0.1
87,MetaDrive-gen-step2,68,150.01970829752534,88794,155,1300.5999338626862,,2.501483917236328,15.144445419311523,0.1
88,MetaDrive-gen-step2,68,150.87782484082322,89595,156,1308.3820097446442,-12.305257797241211,3.499281167984009,12.273253440856934,0.1
89,MetaDrive-gen-step2,68,152.79998425718432,90390,158,1320.6216776371002,,5.349388122558594,14.431325912475586,0.1
90,MetaDrive-gen-step2,68,156.1946190942447,91084,159,1331.053775548935,,3.2379684448242188,13.428766250610352,0.11
91,MetaDrive-gen-step2,68,157.88008917302304,92686,161,1350.86345911026,,4.775325298309326,11.320066452026367,0.11
92,MetaDrive-gen-step2,68,157.8673506944268,93408,163,1364.8149464130402,,3.5097641944885254,13.542488098144531,0.11
93,MetaDrive-gen-step2,68,159.19663076772085,94209,164,1378.7366769313812,-15.105831146240234,4.055567741394043,14.80720329284668,0.11
94,MetaDrive-gen-step2,68,156.7309554755475,95010,165,1390.7468094825745,,2.5527455806732178,13.56002140045166,0.1
95,MetaDrive-gen-step2,68,156.5089294986001,96564,169,1408.4527580738068,,3.5754218101501465,13.776805877685547,0.1
96,MetaDrive-gen-step2,68,153.90260670663577,97342,171,1417.6377227306366,,6.524202346801758,10.455973625183105,0.1
97,MetaDrive-gen-step2,68,148.67324539238413,98578,177,1435.0927217006683,,3.0632028579711914,14.610925674438477,0.1
98,MetaDrive-gen-step2,68,148.76702134610736,99379,178,1444.6616115570068,-13.886100769042969,2.9873054027557373,13.592045783996582,0.1
99,MetaDrive-gen-step2,68,146.96115785312176,100101,180,1455.5281229019165,-14.536569595336914,3.722184658050537,14.172890663146973,0.1
100,MetaDrive-gen-step2,68,149.06886662247376,101703,182,1474.8411951065063,-9.774161338806152,13.259639739990234,9.350431442260742,0.1
101,MetaDrive-gen-step2,69,144.21235326281817,102720,184,1487.072726726532,,5.002233982086182,10.597394943237305,0.09
102,MetaDrive-gen-step2,68,143.20385707119837,103582,186,1506.2238063812256,,4.067897796630859,9.380417823791504,0.09
103,MetaDrive-gen-step2,68,143.2600567990203,104383,187,1516.3762266635895,-11.875617980957031,3.892606496810913,11.245542526245117,0.09
104,MetaDrive-gen-step2,68,143.38988118549523,105164,190,1530.424514055252,,3.42034912109375,16.44961929321289,0.09
105,MetaDrive-gen-step2,68,140.78808374794357,106217,192,1549.0585525035858,-15.205448150634766,2.458746910095215,14.99630355834961,0.09
106,MetaDrive-gen-step2,68,141.45129706811494,107018,193,1560.880892276764,,8.100200653076172,11.112289428710938,0.09
107,MetaDrive-gen-step2,68,139.4789910595273,108098,195,1572.4666912555695,,2.5420033931732178,15.04491901397705,0.09
108,MetaDrive-gen-step2,68,141.51694116614055,109289,197,1584.427139043808,-14.682048797607422,4.05668830871582,14.390308380126953,0.1
109,MetaDrive-gen-step2,68,142.15585433047,110349,199,1601.091880083084,-12.578174591064453,3.6510698795318604,12.210786819458008,0.1
110,MetaDrive-gen-step2,68,141.66202330977293,111149,200,1613.07736825943,-10.90639877319336,2.876997709274292,10.758466720581055,0.1
111,MetaDrive-gen-step2,68,140.54952645947324,112043,203,1624.719242811203,-13.775279998779297,2.7314672470092773,14.26545524597168,0.1
112,MetaDrive-gen-step2,69,140.78220111197368,113239,206,1637.0970575809479,-9.939067840576172,4.807666778564453,10.330102920532227,0.1
113,MetaDrive-gen-step2,69,143.2623837654371,114172,208,1647.0763964653015,,4.76185417175293,13.938789367675781,0.11
114,MetaDrive-gen-step2,69,141.14276650555863,115078,212,1663.106657743454,,5.192718505859375,8.482621192932129,0.11
115,MetaDrive-gen-step2,69,144.29014976028284,116178,214,1676.1999537944794,,3.0074949264526367,12.600598335266113,0.11
116,MetaDrive-gen-step2,69,141.38745497998138,117004,218,1687.4051072597504,,3.538802146911621,12.346120834350586,0.11
117,MetaDrive-gen-step2,69,142.9910246713957,118217,220,1703.6072630882263,-10.61211109161377,2.2108054161071777,10.574604034423828,0.11
118,MetaDrive-gen-step2,69,144.6748437893218,119018,221,1720.7746160030365,,5.2083821296691895,13.649595260620117,0.11
119,MetaDrive-gen-step2,68,142.25077006279952,120113,224,1740.852103471756,-9.656980514526367,11.124242782592773,9.333890914916992,0.1
120,MetaDrive-gen-step2,68,141.8467368527942,121129,226,1761.019847869873,-16.20942497253418,6.328813552856445,15.700302124023438,0.1
121,MetaDrive-gen-step2,68,139.62723807525046,122148,228,1771.512217760086,,7.156412124633789,10.625548362731934,0.1
122,MetaDrive-gen-step2,68,137.05383342130534,123190,230,1789.4917347431183,,4.196328163146973,12.475446701049805,0.1
123,MetaDrive-gen-step2,68,136.8089856982912,124219,233,1810.4814655780792,-10.053199768066406,3.4683189392089844,10.345715522766113,0.1
124,MetaDrive-gen-step2,68,137.50247971502012,125020,234,1818.2866644859314,,4.851578712463379,9.666285514831543,0.1
125,MetaDrive-gen-step2,68,137.8711964391439,126118,237,1838.0101146697998,,2.850241184234619,11.115900993347168,0.1
126,MetaDrive-gen-step2,68,139.8733132692694,127549,239,1859.2650620937347,-15.42194938659668,4.3771586418151855,15.513372421264648,0.1
127,MetaDrive-gen-step2,68,138.38790801708583,128350,240,1870.1579763889313,,8.148273468017578,6.631659984588623,0.1
128,MetaDrive-gen-step2,68,139.6303894364635,129288,242,1882.3991074562073,,4.488563537597656,11.057531356811523,0.1
129,MetaDrive-gen-step2,68,136.09306744849843,130631,246,1903.7210185527802,-13.618978500366211,3.572944164276123,13.163718223571777,0.07
130,MetaDrive-gen-step2,68,136.86994934266255,131770,248,1918.7815434932709,,5.431218147277832,13.892642974853516,0.07
131,MetaDrive-gen-step2,68,137.22636815644665,132571,249,1928.7786164283752,-13.657543182373047,11.998104095458984,12.894026756286621,0.06
132,MetaDrive-gen-step2,68,137.33610035705667,133372,250,1939.9861829280853,,4.184150695800781,10.202188491821289,0.06
133,MetaDrive-gen-step2,68,138.5756429121259,134173,251,1953.760829925537,-13.378700256347656,5.905516624450684,13.428595542907715,0.06
134,MetaDrive-gen-step2,68,140.6493452163711,135377,253,1966.6467454433441,-6.444447994232178,6.500073432922363,6.120848655700684,0.08
135,MetaDrive-gen-step2,68,139.66084683732325,136178,254,1975.1601965427399,,3.726728677749634,12.329933166503906,0.08
136,MetaDrive-gen-step2,69,135.74173277628918,137522,258,1991.058583021164,,4.474270820617676,9.739087104797363,0.08
137,MetaDrive-gen-step2,69,133.1037924986079,138323,259,1999.1536765098572,-10.768932342529297,4.681775093078613,10.192741394042969,0.07
138,MetaDrive-gen-step2,69,131.9022985774048,139441,262,2009.3736922740936,-12.256105422973633,3.6194517612457275,11.931965827941895,0.07
139,MetaDrive-gen-step2,69,131.73914430359375,140755,264,2033.454496383667,-13.776253700256348,5.04521369934082,14.102527618408203,0.07
140,MetaDrive-gen-step2,69,131.64032603297267,141700,266,2047.392025232315,,4.538780212402344,10.822006225585938,0.07
141,MetaDrive-gen-step2,69,131.84258283145323,142115,268,2053.541650056839,-9.978062629699707,4.41400146484375,10.416435241699219,0.07
142,MetaDrive-gen-step2,69,132.3304679224471,143290,273,2067.0264291763306,,4.496055603027344,11.24264907836914,0.07
143,MetaDrive-gen-step2,69,131.99121848436099,144490,276,2081.581745862961,,4.998312950134277,14.2490234375,0.07
144,MetaDrive-gen-step2,69,130.11589431556848,145744,279,2101.8751935958862,,4.909039497375488,15.945008277893066,0.07
145,MetaDrive-gen-step2,69,129.66929953092273,146256,281,2108.3672194480896,,4.045025825500488,10.152151107788086,0.07
146,MetaDrive-gen-step2,69,131.21881872599633,147057,282,2118.7055270671844,-8.346183776855469,3.8030872344970703,8.159443855285645,0.07
147,MetaDrive-gen-step2,69,135.576256896753,148253,284,2142.496635913849,-11.082196235656738,5.799312591552734,10.726554870605469,0.07
148,MetaDrive-gen-step2,69,135.46409347870323,149133,286,2154.996776342392,-9.462794303894043,6.897058963775635,8.897361755371094,0.07
149,MetaDrive-gen-step2,69,135.74771910860863,150069,288,2170.2024354934692,-12.528876304626465,4.412737846374512,11.931587219238281,0.07
150,MetaDrive-gen-step2,69,138.2212412417577,151042,291,2181.4783411026,,6.674926280975342,9.82851505279541,0.09
151,MetaDrive-gen-step2,69,137.50564543551934,152075,293,2197.636234998703,-12.744518280029297,5.92341423034668,12.219918251037598,0.09
152,MetaDrive-gen-step2,69,136.5830463891126,153053,297,2210.3723227977753,-11.519723892211914,5.873198986053467,11.151512145996094,0.08
153,MetaDrive-gen-step2,69,137.28338190357425,154323,299,2224.688542366028,-11.623003005981445,4.108058929443359,10.932317733764648,0.08
154,MetaDrive-gen-step2,69,137.0897220310326,155124,300,2236.852440595627,,5.563063144683838,10.925787925720215,0.08
155,MetaDrive-gen-step2,69,137.355746422865,156564,303,2256.0283708572388,,29.99422264099121,9.596941947937012,0.08
156,MetaDrive-gen-step2,69,138.44455510785997,157365,304,2268.7787461280823,-8.715662956237793,5.68458366394043,8.47369384765625,0.08
157,MetaDrive-gen-step2,69,138.44275500875582,158166,305,2280.1066133975983,,3.676114559173584,10.647003173828125,0.08
158,MetaDrive-gen-step2,69,137.9821055723323,159166,307,2294.4379513263702,,4.443212985992432,11.540326118469238,0.07
159,MetaDrive-gen-step2,69,135.56821123877293,160202,310,2309.7625041007996,,3.4457552433013916,8.160768508911133,0.06
160,MetaDrive-gen-step2,69,135.83692249298258,161003,311,2324.355217933655,-12.409595489501953,5.0028581619262695,12.594381332397461,0.06
161,MetaDrive-gen-step2,69,137.37264141574948,162575,315,2346.2151238918304,-10.230997085571289,2.278797149658203,10.249683380126953,0.06
162,MetaDrive-gen-step2,69,140.30811255622268,163351,317,2357.870789051056,-10.767616271972656,6.262673377990723,10.810293197631836,0.07
163,MetaDrive-gen-step2,69,142.20109609549235,164152,318,2369.61904501915,,2.9403302669525146,11.69912338256836,0.07
164,MetaDrive-gen-step2,69,141.35888976655852,165202,320,2385.3025121688843,,6.645085334777832,8.455249786376953,0.06
165,MetaDrive-gen-step2,69,141.81203307579753,166003,321,2398.3146693706512,-10.747431755065918,5.419230937957764,10.93362045288086,0.06
166,MetaDrive-gen-step2,69,142.4129719244021,167009,325,2410.7285974025726,-13.226526260375977,5.105803489685059,12.734394073486328,0.06
167,MetaDrive-gen-step2,69,144.02298933584763,168231,329,2423.7926568984985,-13.264766693115234,10.375072479248047,12.714406967163086,0.06
168,MetaDrive-gen-step2,69,145.67730288724297,169448,333,2446.5202078819275,,3.791203022003174,10.839168548583984,0.06
169,MetaDrive-gen-step2,69,145.58110281792264,170184,335,2455.677807569504,,1.3300431966781616,9.143579483032227,0.06
170,MetaDrive-gen-step2,69,146.78246139606932,171433,337,2474.292421102524,-13.853615760803223,2.3609330654144287,13.831451416015625,0.06
171,MetaDrive-gen-step2,69,146.88724283339948,172234,338,2483.619807958603,,1.6490404605865479,10.358970642089844,0.06
172,MetaDrive-gen-step2,69,143.92132047262393,173208,341,2498.6323297023773,,2.285062789916992,11.989128112792969,0.06
173,MetaDrive-gen-step2,69,142.03052692796544,174009,342,2507.8666462898254,-11.402021408081055,3.913888454437256,10.988981246948242,0.06
174,MetaDrive-gen-step2,69,139.67197297512877,175223,346,2522.6087675094604,-12.377941131591797,7.143452167510986,12.141565322875977,0.06
175,MetaDrive-gen-step2,69,138.85005026657086,176085,348,2532.8341772556305,-13.623661041259766,5.021227836608887,13.449434280395508,0.06
176,MetaDrive-gen-step2,69,138.00510243782784,177225,350,2552.9910748004913,-10.843934059143066,4.603343963623047,10.875560760498047,0.06
177,MetaDrive-gen-step2,69,137.95877006614015,178026,351,2560.4078381061554,,6.49498176574707,11.120038986206055,0.06
178,MetaDrive-gen-step2,69,135.04840401715836,179098,355,2577.2304039001465,,4.790694236755371,11.506595611572266,0.04
179,MetaDrive-gen-step2,69,138.88596125876197,180700,357,2605.378937482834,,4.011885166168213,9.486695289611816,0.04
180,MetaDrive-gen-step2,69,138.81951125856577,181028,359,2609.779913663864,,8.739725112915039,11.679508209228516,0.04
181,MetaDrive-gen-step2,69,141.51653925437526,182209,361,2630.9671306610107,-9.805800437927246,6.065618515014648,10.198347091674805,0.04
182,MetaDrive-gen-step2,69,140.60644680458628,183104,364,2643.3519372940063,,12.04731273651123,10.084335327148438,0.04
183,MetaDrive-gen-step2,69,140.50163354582799,184696,370,2664.0180366039276,,4.6652326583862305,10.686925888061523,0.04
184,MetaDrive-gen-step2,69,138.4386538151303,185017,374,2669.7930212020874,-13.716093063354492,2.238687038421631,13.82822322845459,0.03
185,MetaDrive-gen-step2,69,140.96653438893034,186619,376,2696.318681240082,-11.738020896911621,3.3834028244018555,11.747018814086914,0.03
186,MetaDrive-gen-step2,69,140.45269786578442,187045,378,2702.2284071445465,-11.01357650756836,3.7802960872650146,11.077342987060547,0.03
187,MetaDrive-gen-step2,69,140.82485617135137,188771,381,2723.6543164253235,-14.240779876708984,7.535168647766113,14.006819725036621,0.03
188,MetaDrive-gen-step2,69,138.06783325877726,189667,383,2737.9183247089386,-8.442054748535156,4.094697952270508,8.062326431274414,0.03
189,MetaDrive-gen-step2,69,139.10541876483302,190341,386,2745.0729804039,-12.841117858886719,7.149416923522949,12.340221405029297,0.04
190,MetaDrive-gen-step2,69,133.1249686177532,191715,392,2765.8796424865723,-11.981228828430176,3.7310497760772705,12.112398147583008,0.02
191,MetaDrive-gen-step2,69,132.26921458820124,192220,394,2772.8352167606354,,4.3785271644592285,11.161910057067871,0.02
192,MetaDrive-gen-step2,69,136.1518869051398,193223,396,2786.1020209789276,-9.731728553771973,3.483461380004883,10.035972595214844,0.03
193,MetaDrive-gen-step2,69,135.22243463569427,194024,397,2798.645648956299,,2.337230682373047,11.029013633728027,0.03
194,MetaDrive-gen-step2,69,136.1124390332627,195396,399,2813.9901151657104,,2.5529112815856934,14.725909233093262,0.03
195,MetaDrive-gen-step2,69,136.35765003543332,196414,401,2836.931081056595,,6.311968803405762,14.25341796875,0.03
196,MetaDrive-gen-step2,69,135.06148850071355,197605,404,2853.127962589264,-14.23487663269043,4.746803283691406,13.897245407104492,0.03
197,MetaDrive-gen-step2,69,133.19033422841824,198664,406,2869.400456905365,,4.199726581573486,9.526762008666992,0.03
198,MetaDrive-gen-step2,69,132.88775276653055,199355,408,2880.4339957237244,-13.361235618591309,4.357122898101807,13.082284927368164,0.03
199,MetaDrive-gen-step2,69,133.93090738086596,200798,411,2904.2881224155426,,2.3846755027770996,10.22086238861084,0.03
200,MetaDrive-gen-step2,69,132.80047049128288,201078,413,2907.8735072612762,,7.3154520988464355,14.34957504272461,0.03
201,MetaDrive-gen-step2,69,127.65161056898147,202604,418,2936.019688844681,,10.045446395874023,8.200956344604492,0.02
202,MetaDrive-gen-step2,68,127.4014789408857,203405,419,2948.8402936458588,-10.199718475341797,7.031033039093018,10.172809600830078,0.02
203,MetaDrive-gen-step2,69,126.64194377702279,204206,420,2956.98126578331,,3.425074338912964,9.451014518737793,0.02
204,MetaDrive-gen-step2,69,126.29678688770939,205041,423,2968.405646085739,-11.902166366577148,12.935850143432617,11.406469345092773,0.02
205,MetaDrive-gen-step2,69,126.5240150500974,206771,426,2993.199830055237,-12.543253898620605,2.951780319213867,12.327713012695312,0.02
206,MetaDrive-gen-step2,69,130.31366058331503,207475,427,3001.418108224869,-14.180913925170898,2.719334125518799,13.881393432617188,0.03
207,MetaDrive-gen-step2,69,132.1488880048923,208626,430,3020.799474954605,,20.4157772064209,12.726707458496094,0.03
208,MetaDrive-gen-step2,69,134.03550620056794,209159,431,3028.711308002472,-13.94184684753418,5.0025506019592285,13.501943588256836,0.03
209,MetaDrive-gen-step2,69,131.70003399248804,210534,434,3047.7137908935547,,5.38417911529541,10.908653259277344,0.03
210,MetaDrive-gen-step2,69,131.14871227953438,211039,436,3053.227070569992,-13.326723098754883,4.19781494140625,13.21904182434082,0.03
211,MetaDrive-gen-step2,69,131.2084542191459,212171,440,3069.1086242198944,-14.9469633102417,3.7787203788757324,14.759540557861328,0.04
212,MetaDrive-gen-step2,69,133.39057664565195,213768,445,3089.8143508434296,,4.734552383422852,17.06802749633789,0.04
213,MetaDrive-gen-step2,69,132.52710202160134,214569,446,3100.0907485485077,-10.417020797729492,5.533869743347168,10.36454963684082,0.04
214,MetaDrive-gen-step2,69,132.12720763728922,215136,449,3107.57950425148,,18.044660568237305,11.605781555175781,0.04
215,MetaDrive-gen-step2,69,127.81998767102284,216203,452,3125.7581889629364,-13.672565460205078,7.047325134277344,13.36860466003418,0.04
216,MetaDrive-gen-step2,69,126.23379654593145,217635,456,3146.6000690460205,-13.901487350463867,2.748800277709961,14.212586402893066,0.04
217,MetaDrive-gen-step2,69,124.92721580544232,218555,458,3157.4387435913086,-15.678247451782227,1.878688097000122,15.408613204956055,0.04
218,MetaDrive-gen-step2,69,124.73477840683728,219448,461,3167.862100124359,,6.6571197509765625,11.741893768310547,0.04
219,MetaDrive-gen-step2,69,124.2362631553137,220087,464,3179.0607731342316,-11.620946884155273,3.3291969299316406,11.165236473083496,0.04
220,MetaDrive-gen-step2,69,126.57534819391219,221340,469,3199.8297991752625,,4.7052998542785645,12.712371826171875,0.05
221,MetaDrive-gen-step2,69,127.2108705151023,222156,472,3212.8113119602203,,12.690847396850586,9.800567626953125,0.05
222,MetaDrive-gen-step2,69,128.07605175225117,223549,478,3230.3897154331207,-13.237899780273438,5.53125,13.436098098754883,0.06
223,MetaDrive-gen-step2,69,125.18870381139918,224060,482,3236.27210521698,,3.9110453128814697,13.436948776245117,0.06
224,MetaDrive-gen-step2,69,123.0813475957533,225206,486,3252.750634431839,,8.947954177856445,12.29612922668457,0.05
225,MetaDrive-gen-step2,69,125.02823119494217,226391,492,3266.6532666683197,-15.871997833251953,3.973348617553711,15.98909854888916,0.05
226,MetaDrive-gen-step2,69,124.8040614751804,227292,494,3280.0341041088104,,9.137953758239746,10.305540084838867,0.05
227,MetaDrive-gen-step2,69,118.13618433708457,228096,499,3290.808325767517,,7.833373069763184,12.612679481506348,0.04
228,MetaDrive-gen-step2,69,117.34910493391575,229192,502,3306.5045313835144,,3.5858407020568848,13.063224792480469,0.04
229,MetaDrive-gen-step2,69,119.1162332440089,230154,505,3316.4015917778015,,2.6471288204193115,15.647878646850586,0.05
230,MetaDrive-gen-step2,69,120.83821707510809,231013,508,3328.4042863845825,-13.440682411193848,3.887331247329712,13.185633659362793,0.05
231,MetaDrive-gen-step2,69,121.43071905685032,232052,513,3342.0416560173035,,3.3353657722473145,15.564416885375977,0.06
232,MetaDrive-gen-step2,69,120.15582315585438,233197,516,3363.277275323868,-10.996135711669922,5.808948040008545,10.464734077453613,0.06
233,MetaDrive-gen-step2,69,120.10432861686331,234799,518,3380.557668209076,-13.558319091796875,6.328047752380371,14.046725273132324,0.06
234,MetaDrive-gen-step2,69,117.95276774510538,235060,520,3384.3706364631653,,6.726519584655762,14.102851867675781,0.06
235,MetaDrive-gen-step2,69,119.992839677348,236168,523,3399.7543392181396,,2.8747611045837402,14.821157455444336,0.07
236,MetaDrive-gen-step2,69,119.33629537607573,237220,525,3422.663218975067,,5.855859756469727,13.947725296020508,0.07
237,MetaDrive-gen-step2,69,119.23452471586518,238021,526,3435.3309717178345,-14.609926223754883,2.7866430282592773,14.36910343170166,0.07
238,MetaDrive-gen-step2,69,115.17568060256376,239103,529,3450.1735515594482,-14.434711456298828,3.0942587852478027,14.31580924987793,0.06
239,MetaDrive-gen-step2,69,115.48690659985692,240535,532,3468.4420263767242,-12.133739471435547,6.480456829071045,11.998544692993164,0.08
240,MetaDrive-gen-step2,69,115.30889927723891,241267,533,3481.436315059662,-16.012866973876953,5.930180072784424,16.084407806396484,0.08
241,MetaDrive-gen-step2,69,119.70805984411126,242193,535,3496.0516269207,-14.022157669067383,3.1083972454071045,14.116470336914062,0.09
242,MetaDrive-gen-step2,69,118.60141995749542,243795,537,3528.8270456790924,-11.350719451904297,4.694680213928223,11.482112884521484,0.09
243,MetaDrive-gen-step2,69,117.03073427135809,244053,538,3532.973533630371,-14.18704891204834,3.69461989402771,14.244136810302734,0.08
244,MetaDrive-gen-step2,69,115.94685367087808,245282,541,3545.724212884903,,8.20728588104248,15.39710807800293,0.08
245,MetaDrive-gen-step2,69,116.46986285998602,246083,542,3558.5775277614594,-13.056589126586914,3.535510778427124,12.739429473876953,0.08
246,MetaDrive-gen-step2,69,118.7284767106695,247483,545,3574.380907058716,-10.964293479919434,3.974175214767456,10.876421928405762,0.08
247,MetaDrive-gen-step2,69,119.5417513004355,248431,548,3590.477966785431,-16.51750373840332,2.047581672668457,15.943450927734375,0.08
248,MetaDrive-gen-step2,69,123.50004443248773,249357,551,3601.8246071338654,-14.444721221923828,4.384953022003174,14.119208335876465,0.1
249,MetaDrive-gen-step2,69,121.87824325298416,250490,554,3626.321750640869,,3.3954830169677734,11.477180480957031,0.1
250,MetaDrive-gen-step2,69,124.05165189770445,251198,557,3634.170708656311,,6.506312847137451,9.795774459838867,0.11
251,MetaDrive-gen-step2,68,127.5213215124715,252800,559,3665.8107907772064,,5.392035961151123,15.916523933410645,0.11
252,MetaDrive-gen-step2,69,126.43975516031826,253601,560,3673.9656751155853,-15.386451721191406,4.044471740722656,15.248947143554688,0.11
253,MetaDrive-gen-step2,69,124.69620729088629,254402,561,3686.22456073761,,6.273197174072266,10.182363510131836,0.11
254,MetaDrive-gen-step2,69,125.65769333988115,255176,564,3696.1295952796936,,4.064511299133301,17.664535522460938,0.11
255,MetaDrive-gen-step2,68,126.60441982769692,256294,566,3716.8027880191803,,4.134785175323486,12.258426666259766,0.11
256,MetaDrive-gen-step2,68,124.83220019367425,257102,569,3727.966578245163,,2.8489036560058594,15.93647575378418,0.1
257,MetaDrive-gen-step2,68,126.64874139989801,258199,571,3747.2547821998596,-16.439592361450195,4.244419574737549,16.017719268798828,0.1
258,MetaDrive-gen-step2,68,128.10195227742545,259135,575,3757.1932711601257,-16.01482391357422,13.303628921508789,15.393960952758789,0.11
259,MetaDrive-gen-step2,69,127.46818349813424,260328,578,3770.4011874198914,,5.325472354888916,10.89913558959961,0.11
260,MetaDrive-gen-step2,68,130.70917258888485,261484,581,3794.473780632019,,3.78231143951416,16.940744400024414,0.11
261,MetaDrive-gen-step2,68,131.0858202044587,262285,582,3803.6107366085052,-11.249832153320312,4.516063213348389,11.056785583496094,0.11
262,MetaDrive-gen-step2,69,133.3733839910481,263045,585,3811.9018104076385,-12.795649528503418,12.148796081542969,12.622527122497559,0.12
263,MetaDrive-gen-step2,69,136.61591061781508,264529,587,3829.5725469589233,-14.563457489013672,6.475981712341309,15.200387954711914,0.13
264,MetaDrive-gen-step2,69,137.30054383955138,265610,591,3846.352242231369,,10.204895973205566,13.857208251953125,0.13
265,MetaDrive-gen-step2,69,137.84318212328316,266233,593,3855.497526407242,-13.429388999938965,5.753764629364014,13.034622192382812,0.13
266,MetaDrive-gen-step2,69,140.06706710096267,267126,595,3867.903519153595,,13.061058044433594,14.092107772827148,0.13
267,MetaDrive-gen-step2,69,142.10666178713566,268080,599,3878.492798089981,,17.581966400146484,12.16055679321289,0.14
268,MetaDrive-gen-step2,69,144.62736210524142,269128,602,3891.135359287262,,3.9086341857910156,13.353652954101562,0.15
269,MetaDrive-gen-step2,69,142.9713420956991,270138,604,3906.445042848587,,3.098001003265381,9.905961990356445,0.14
270,MetaDrive-gen-step2,69,144.9366486816591,271090,607,3918.161434650421,,3.3423919677734375,14.150985717773438,0.14
271,MetaDrive-gen-step2,69,145.34612054100933,272004,610,3927.562794446945,,6.832436561584473,13.278989791870117,0.15
272,MetaDrive-gen-step2,69,145.14971460281177,273474,615,3947.0687704086304,,4.048981666564941,11.571650505065918,0.15
273,MetaDrive-gen-step2,69,145.27545510092287,274275,616,3957.6284024715424,-16.188621520996094,8.1135892868042,15.756583213806152,0.15
274,MetaDrive-gen-step2,69,144.08661835639134,275017,621,3968.392960548401,-16.14341163635254,3.6212363243103027,15.880352973937988,0.15
275,MetaDrive-gen-step2,69,138.7980009715047,276128,626,3985.7915637493134,,6.099767208099365,16.396770477294922,0.14
276,MetaDrive-gen-step2,69,141.6091450830145,277190,628,4004.08216714859,,4.184374809265137,15.703311920166016,0.14
277,MetaDrive-gen-step2,69,143.62835984745624,278347,630,4017.9203386306763,-11.647642135620117,6.230958938598633,11.186429977416992,0.15
278,MetaDrive-gen-step2,69,141.93467260886874,279093,632,4026.9408235549927,-14.76453971862793,3.385373115539551,14.336015701293945,0.14
279,MetaDrive-gen-step2,69,139.20888761807703,280390,636,4042.162071943283,,6.384303092956543,15.05384635925293,0.13
280,MetaDrive-gen-step2,69,139.16218131765527,281108,640,4053.046625852585,,6.742555618286133,12.575937271118164,0.13
281,MetaDrive-gen-step2,69,139.29790992981063,282302,643,4068.537190437317,,9.2496337890625,12.5797119140625,0.13
282,MetaDrive-gen-step2,69,138.56428415386668,283103,644,4075.4221200942993,-15.694782257080078,14.164180755615234,15.341164588928223,0.13
283,MetaDrive-gen-step2,69,137.97507178795973,284129,649,4086.007621049881,-14.698575019836426,3.396052360534668,14.712447166442871,0.13
284,MetaDrive-gen-step2,69,133.46631386628374,285160,652,4099.200449466705,,4.188039779663086,17.97675895690918,0.11
285,MetaDrive-gen-step2,69,128.28564520204205,286379,660,4116.958359003067,-17.376697540283203,5.125425815582275,16.768497467041016,0.1
286,MetaDrive-gen-step2,69,123.92464902080725,287183,665,4127.795286893845,-14.74842643737793,6.748559474945068,14.498912811279297,0.1
287,MetaDrive-gen-step2,69,122.60325593382211,288388,669,4143.7983157634735,,4.479146957397461,16.546937942504883,0.1
288,MetaDrive-gen-step2,69,121.33782449217387,289514,672,4160.246741294861,,10.116626739501953,16.394033432006836,0.1
289,MetaDrive-gen-step2,69,122.46963879889519,290260,674,4169.4682359695435,,33.058387756347656,13.982948303222656,0.09
290,MetaDrive-gen-step2,69,119.6707480323167,291112,677,4182.334154367447,,3.3927218914031982,13.355635643005371,0.08
291,MetaDrive-gen-step2,69,113.21482985136495,292042,686,4194.059357643127,,4.09559965133667,14.15829086303711,0.07
292,MetaDrive-gen-step2,69,109.78264714792503,293007,688,4202.611461877823,-15.75031566619873,3.5066168308258057,15.88047981262207,0.06
293,MetaDrive-gen-step2,69,107.91592902722556,294235,694,4217.551336288452,-15.672775268554688,4.913784027099609,15.468280792236328,0.07
294,MetaDrive-gen-step2,69,108.23270485304776,295036,695,4235.216014862061,,4.395535469055176,12.79234504699707,0.07
295,MetaDrive-gen-step2,69,107.7742152556915,296212,699,4251.883726835251,,5.180688858032227,12.743549346923828,0.06
296,MetaDrive-gen-step2,69,107.61920046552754,297393,702,4267.743669986725,-13.125968933105469,2.7238481044769287,12.92036247253418,0.05
297,MetaDrive-gen-step2,69,106.89542990826777,298389,706,4280.550587177277,-20.03281021118164,7.721249580383301,19.64698028564453,0.05
298,MetaDrive-gen-step2,69,106.85294754836254,299248,709,4293.755384206772,,7.336671352386475,14.152518272399902,0.05
299,MetaDrive-gen-step2,69,108.17198294353474,300405,712,4307.208377361298,-13.685885429382324,4.156003952026367,12.951401710510254,0.05
300,MetaDrive-gen-step2,69,108.0381240819004,301206,713,4317.682026863098,,2.9023091793060303,18.893451690673828,0.05
301,MetaDrive-gen-step2,69,108.16772255293552,302007,714,4327.037771701813,-16.021224975585938,4.587012767791748,16.040430068969727,0.05
302,MetaDrive-gen-step2,69,106.83738075950995,303330,719,4348.6685655117035,,4.542492866516113,13.204493522644043,0.04
303,MetaDrive-gen-step2,69,108.48376508053302,304089,723,4359.785237789154,-16.889684677124023,3.2171177864074707,16.4576473236084,0.04
304,MetaDrive-gen-step2,69,106.6507369313351,305615,727,4380.301226377487,-14.908832550048828,2.4340085983276367,14.953832626342773,0.04
305,MetaDrive-gen-step2,69,107.83276483123308,306109,728,4385.879765510559,-14.143449783325195,9.563997268676758,13.74608039855957,0.05
306,MetaDrive-gen-step2,69,104.92369966675378,307083,731,4402.873194932938,-15.331905364990234,15.925661087036133,14.624752044677734,0.03
307,MetaDrive-gen-step2,69,104.6444979837677,308109,735,4416.92582154274,-15.353837013244629,5.861279487609863,15.980661392211914,0.03
308,MetaDrive-gen-step2,69,105.64003275112712,309182,739,4430.842081308365,,5.764309406280518,9.342981338500977,0.03
309,MetaDrive-gen-step2,69,107.87763878444653,310414,741,4454.02197432518,,4.052972793579102,13.25443172454834,0.03
310,MetaDrive-gen-step2,69,109.95495186603101,311750,743,4480.052156448364,,13.592124938964844,16.786300659179688,0.03
311,MetaDrive-gen-step2,69,110.00646501824161,312551,744,4492.109535455704,-15.435638427734375,16.927907943725586,15.096455574035645,0.03
312,MetaDrive-gen-step2,69,111.66033415105204,313256,746,4502.137910366058,,5.827243804931641,15.829565048217773,0.03
313,MetaDrive-gen-step2,69,111.76814409554532,314206,748,4517.960386514664,,19.626331329345703,14.63932991027832,0.03
314,MetaDrive-gen-step2,69,112.48723496463492,315199,750,4533.0674686431885,-14.54400634765625,25.77836036682129,14.096573829650879,0.03
315,MetaDrive-gen-step2,69,116.44755690068793,316155,753,4549.549250364304,-12.828365325927734,4.990509033203125,12.953125953674316,0.03
316,MetaDrive-gen-step2,69,118.91902709611651,317105,755,4567.155689239502,-21.807327270507812,5.5271992683410645,21.27737045288086,0.03
317,MetaDrive-gen-step2,69,121.11262892571617,318801,758,4596.466222286224,-14.216495513916016,3.9022154808044434,13.968605041503906,0.03
318,MetaDrive-gen-step2,69,121.93439324487133,319045,759,4599.946690320969,-13.567627906799316,9.422200202941895,13.353324890136719,0.03
319,MetaDrive-gen-step2,69,120.41030736056265,320065,761,4617.2859399318695,-15.588179588317871,4.542248725891113,15.122031211853027,0.03
320,MetaDrive-gen-step2,69,122.89216049027546,321124,765,4630.063320159912,,4.09990119934082,12.799893379211426,0.04
321,MetaDrive-gen-step2,69,124.66409894425054,322278,768,4647.694238185883,,5.323714733123779,16.770492553710938,0.04
322,MetaDrive-gen-step2,69,125.25581073791653,323583,770,4667.616555452347,-9.544624328613281,4.227442264556885,9.764925956726074,0.04
323,MetaDrive-gen-step2,69,123.34336520367351,324344,773,4677.593611240387,,31.410938262939453,14.809722900390625,0.04
324,MetaDrive-gen-step2,69,125.06336522508542,325555,775,4696.108252286911,-12.558907508850098,10.439728736877441,12.766936302185059,0.04
325,MetaDrive-gen-step2,69,128.03271441460257,326554,777,4714.808383464813,,3.005133628845215,21.734346389770508,0.04
326,MetaDrive-gen-step2,69,128.58073686009112,327355,778,4725.836682796478,-16.09270477294922,3.1166653633117676,15.669968605041504,0.04
327,MetaDrive-gen-step2,69,130.44556814395762,328156,779,4738.758857727051,,6.469573020935059,17.40873908996582,0.04
328,MetaDrive-gen-step2,69,133.34472433224244,329268,781,4754.453570842743,,12.345880508422852,17.872432708740234,0.04
329,MetaDrive-gen-step2,69,135.3113678301304,330536,785,4774.221791744232,,6.23101282119751,18.981246948242188,0.04
330,MetaDrive-gen-step2,69,137.816662175711,331015,786,4778.624730348587,-20.46720314025879,4.846303939819336,20.092063903808594,0.05
331,MetaDrive-gen-step2,69,141.65844045218213,332690,791,4804.966642856598,,3.92059063911438,20.114154815673828,0.05
332,MetaDrive-gen-step2,69,141.18014525102706,333445,794,4813.151116609573,-14.657532691955566,2.94059681892395,14.043953895568848,0.05
333,MetaDrive-gen-step2,69,139.64506500784088,334788,796,4830.7876262664795,,1.9232592582702637,16.697561264038086,0.05
334,MetaDrive-gen-step2,69,139.31601384541477,335036,798,4834.728729724884,,14.923757553100586,17.531085968017578,0.05
335,MetaDrive-gen-step2,69,139.20690014955372,336611,800,4858.355523109436,-15.261399269104004,6.907352447509766,15.57233715057373,0.05
336,MetaDrive-gen-step2,69,139.86114906285565,337212,801,4872.434256076813,,6.047595977783203,18.532398223876953,0.05
337,MetaDrive-gen-step2,69,140.32319817387702,338598,804,4892.995898723602,,4.16337776184082,17.155670166015625,0.05
338,MetaDrive-gen-step2,69,140.92108590450366,339399,805,4906.109412193298,-16.131954193115234,6.515219688415527,16.07113265991211,0.05
339,MetaDrive-gen-step2,69,135.9139596872229,340360,810,4918.827904224396,,3.545687198638916,14.551981925964355,0.04
340,MetaDrive-gen-step2,69,136.74285409909155,341705,813,4941.817111492157,-16.153278350830078,5.715965747833252,15.89941692352295,0.04
341,MetaDrive-gen-step2,69,137.96682923456513,342138,814,4948.02786397934,,1.985575556755066,15.912108421325684,0.04
342,MetaDrive-gen-step2,69,138.9506544470868,343215,818,4964.163752317429,-13.326342582702637,12.291618347167969,13.433099746704102,0.04
343,MetaDrive-gen-step2,69,139.49988101825846,344478,822,4988.36524605751,,9.046956062316895,16.424907684326172,0.05
344,MetaDrive-gen-step2,68,140.4520062052012,345775,825,5015.34690785408,-15.761077880859375,6.531339645385742,15.732623100280762,0.05
345,MetaDrive-gen-step2,68,140.6093890979358,346391,827,5024.503787755966,-19.59646224975586,8.548380851745605,19.561328887939453,0.05
346,MetaDrive-gen-step2,68,137.43222738486077,347630,829,5040.718009471893,,3.847585678100586,14.66461181640625,0.04
347,MetaDrive-gen-step2,68,137.7044156677721,348597,831,5054.141847610474,-16.644424438476562,4.78236722946167,16.403564453125,0.04
348,MetaDrive-gen-step2,68,139.37818548181184,349057,833,5059.7502546310425,-15.10438346862793,3.355380058288574,14.812728881835938,0.04
349,MetaDrive-gen-step2,69,139.83891780610605,350287,835,5073.718766450882,-15.443995475769043,4.920718193054199,15.804258346557617,0.04
350,MetaDrive-gen-step2,69,139.59369291698846,351279,837,5086.191768884659,-16.496231079101562,3.826129198074341,16.69558334350586,0.04
351,MetaDrive-gen-step2,69,141.1818569443987,352506,839,5104.100502490997,,3.9986696243286133,15.734404563903809,0.04
352,MetaDrive-gen-step2,69,140.11664782317655,353307,840,5115.769145011902,-18.51968765258789,4.270382404327393,18.185523986816406,0.04
353,MetaDrive-gen-step2,69,141.6561306619311,354108,841,5124.2854952812195,,4.682479381561279,11.52977180480957,0.04
354,MetaDrive-gen-step2,69,137.73309196383988,355141,846,5139.1633150577545,-16.60833168029785,6.536240577697754,15.978496551513672,0.04
355,MetaDrive-gen-step2,69,134.04786506987932,356385,852,5159.900041103363,-12.114120483398438,4.3840789794921875,12.231143951416016,0.04
356,MetaDrive-gen-step2,69,133.63891032802087,357062,854,5171.388397455215,,2.939445972442627,15.033367156982422,0.05
357,MetaDrive-gen-step2,69,132.92556842679883,358059,856,5182.187086582184,-13.939956665039062,4.212883472442627,13.967936515808105,0.05
358,MetaDrive-gen-step2,69,132.6198504622742,359294,861,5204.982952594757,,3.364841938018799,14.50145149230957,0.05
359,MetaDrive-gen-step2,69,134.97278252090237,360360,863,5215.862101793289,,2.834604263305664,16.85205841064453,0.06
360,MetaDrive-gen-step2,69,135.76779187353307,361127,866,5225.871110916138,-14.253266334533691,9.301700592041016,13.693087577819824,0.06
361,MetaDrive-gen-step2,69,135.9705379051444,362092,870,5237.4449717998505,,13.036233901977539,16.047046661376953,0.06
362,MetaDrive-gen-step2,69,136.47865401958518,363105,872,5250.646591901779,-17.024555206298828,4.621098518371582,17.794376373291016,0.06
363,MetaDrive-gen-step2,69,134.30560030091468,364222,875,5266.457508802414,,4.627353668212891,16.625591278076172,0.06
364,MetaDrive-gen-step2,69,131.341941700983,365320,879,5280.00243473053,,3.492180824279785,14.68832015991211,0.07
365,MetaDrive-gen-step2,69,131.63902896590378,366339,882,5294.042348146439,-16.738624572753906,15.300533294677734,16.697507858276367,0.07
366,MetaDrive-gen-step2,69,127.3069334545305,367267,886,5306.799948215485,-14.312527656555176,3.4651641845703125,14.409429550170898,0.06
367,MetaDrive-gen-step2,69,128.26078753922613,368005,888,5317.649607181549,-18.714712142944336,4.741283416748047,19.470935821533203,0.06
368,MetaDrive-gen-step2,69,128.90864936496763,369405,891,5340.052104949951,-20.11883544921875,4.976284980773926,20.057048797607422,0.06
369,MetaDrive-gen-step2,69,126.80722028895099,370035,895,5348.427442550659,-19.11789321899414,4.855142593383789,19.4586181640625,0.05
370,MetaDrive-gen-step2,69,130.2390876933873,371576,897,5374.680649995804,,3.3419618606567383,14.915685653686523,0.05
371,MetaDrive-gen-step2,69,130.791744161187,372233,899,5383.2552444934845,-18.67835235595703,3.403254985809326,18.498340606689453,0.05
372,MetaDrive-gen-step2,69,130.48243976123396,373034,900,5401.1923151016235,,9.60411262512207,12.478071212768555,0.05
373,MetaDrive-gen-step2,69,128.9988458655682,374745,903,5423.4436049461365,-15.310982704162598,2.584461212158203,15.018474578857422,0.05
374,MetaDrive-gen-step2,69,128.27450478768057,375321,905,5429.828779697418,-18.192432403564453,3.5589797496795654,17.819725036621094,0.05
375,MetaDrive-gen-step2,69,130.31323327224328,376163,908,5439.369310617447,-15.032503128051758,3.776728868484497,15.070964813232422,0.05
376,MetaDrive-gen-step2,69,130.38399238695527,377084,910,5455.196147203445,,4.671905517578125,18.62594223022461,0.05
377,MetaDrive-gen-step2,69,132.342355552331,378326,912,5472.454350471497,,3.874051094055176,19.115509033203125,0.06
378,MetaDrive-gen-step2,69,132.78158374962513,379265,914,5485.497126817703,-13.904769897460938,4.411979675292969,13.758037567138672,0.06
379,MetaDrive-gen-step2,69,135.31502395692223,380124,916,5499.765970468521,,7.7002458572387695,15.660542488098145,0.06
380,MetaDrive-gen-step2,69,137.87352630065308,381735,919,5530.729798555374,-17.95743751525879,3.071249008178711,17.623884201049805,0.06
381,MetaDrive-gen-step2,69,137.73564571240667,382184,920,5536.022547960281,,2.9376533031463623,14.490690231323242,0.06
382,MetaDrive-gen-step2,69,138.01344412620816,383322,925,5551.669823646545,,2.1059954166412354,19.702560424804688,0.06
383,MetaDrive-gen-step2,69,136.0750252619392,384547,929,5563.54225730896,-17.375808715820312,4.882828235626221,17.250404357910156,0.06
384,MetaDrive-gen-step2,69,135.25537451152658,385480,931,5579.106268405914,,3.962811231613159,15.358924865722656,0.06
385,MetaDrive-gen-step2,69,136.1714900161448,386065,933,5586.5314927101135,-16.2617244720459,5.1388468742370605,16.242420196533203,0.06
386,MetaDrive-gen-step2,69,137.31406298914155,387116,935,5602.482896566391,,5.06503438949585,17.49864959716797,0.06
387,MetaDrive-gen-step2,69,138.81773006819142,388432,937,5622.6192853450775,,3.890740394592285,17.100231170654297,0.07
388,MetaDrive-gen-step2,69,138.7358235187702,389372,940,5634.415544509888,,2.7979259490966797,16.11164665222168,0.08
389,MetaDrive-gen-step2,69,136.48169014848293,390404,942,5645.661290884018,,3.92789888381958,16.859081268310547,0.08
390,MetaDrive-gen-step2,69,136.73574823630784,391121,945,5654.190831422806,-21.208637237548828,4.102283000946045,20.62773895263672,0.08
391,MetaDrive-gen-step2,69,136.83106907963082,392167,947,5670.454263925552,-17.57499122619629,6.277896404266357,17.72972869873047,0.08
392,MetaDrive-gen-step2,69,138.53195534784305,393088,951,5682.059237003326,,7.302616119384766,14.625359535217285,0.08
393,MetaDrive-gen-step2,69,134.85144967853174,394460,955,5698.525655508041,,3.171071767807007,20.479387283325195,0.07
394,MetaDrive-gen-step2,69,136.28465040674283,395193,957,5706.942077159882,-16.007022857666016,3.6695356369018555,16.01431655883789,0.07
395,MetaDrive-gen-step2,69,136.8427473286922,396241,960,5723.793657302856,-15.156171798706055,9.422224044799805,15.135828971862793,0.07
396,MetaDrive-gen-step2,69,133.86452233129546,397381,962,5738.848816394806,-18.017988204956055,2.993600368499756,17.935565948486328,0.06
397,MetaDrive-gen-step2,69,132.69640339344903,398455,964,5758.912546873093,-17.739032745361328,2.588357448577881,17.782663345336914,0.05
398,MetaDrive-gen-step2,69,133.9619863622395,399173,967,5767.642392158508,-17.713104248046875,9.632730484008789,17.138355255126953,0.05
399,MetaDrive-gen-step2,69,133.3508375534394,400217,970,5781.24312543869,-16.523286819458008,4.123528480529785,16.404399871826172,0.05
400,MetaDrive-gen-step2,69,136.96778021327097,401404,973,5800.35310792923,,4.752288818359375,17.66281509399414,0.05
401,MetaDrive-gen-step2,69,139.6823085777992,402547,975,5815.017229557037,-18.257831573486328,4.0822014808654785,17.87858009338379,0.06
402,MetaDrive-gen-step2,69,139.5040538712789,403348,976,5822.447910785675,,11.374008178710938,15.503174781799316,0.06
403,MetaDrive-gen-step2,69,141.6987688925137,404439,978,5835.813132762909,-14.093910217285156,3.106543779373169,13.705428123474121,0.06
404,MetaDrive-gen-step2,69,141.48828626717014,405246,980,5847.6575248241425,,3.979429244995117,16.86817169189453,0.05
405,MetaDrive-gen-step2,69,140.82785034181376,406117,983,5860.573579788208,-15.582598686218262,11.405967712402344,14.94135856628418,0.05
406,MetaDrive-gen-step2,69,140.94096635866634,407041,987,5873.48600435257,-18.55356216430664,4.477197647094727,18.241220474243164,0.05
407,MetaDrive-gen-step2,69,142.34355535432286,408107,990,5889.9484713077545,-17.650379180908203,4.542661190032959,17.545330047607422,0.06
408,MetaDrive-gen-step2,69,143.8140079781586,409089,993,5904.189923524857,-15.368687629699707,3.289611339569092,15.007560729980469,0.06
409,MetaDrive-gen-step2,69,140.03060524340094,410176,996,5919.956019639969,,15.99952220916748,13.767210006713867,0.06
410,MetaDrive-gen-step2,69,142.67718305583287,411334,998,5937.261642694473,,6.952266693115234,19.003028869628906,0.06
411,MetaDrive-gen-step2,69,144.21352732485371,412112,1000,5947.910267829895,,15.91759204864502,15.411502838134766,0.06
412,MetaDrive-gen-step2,69,145.44230101481833,413062,1003,5959.859184265137,,4.103597164154053,16.69646453857422,0.07
413,MetaDrive-gen-step2,69,147.53502318488677,414553,1006,5980.732668161392,-19.257415771484375,3.1610705852508545,18.952627182006836,0.07
414,MetaDrive-gen-step2,69,149.6191005089446,415155,1007,5990.108977794647,-17.272117614746094,3.2745819091796875,17.503339767456055,0.07
415,MetaDrive-gen-step2,69,147.0935837268776,416664,1012,6008.956602811813,,1.8844265937805176,14.72415542602539,0.06
416,MetaDrive-gen-step2,69,147.19829621371264,417465,1013,6022.533421754837,-16.63216781616211,2.738619089126587,16.816314697265625,0.06
417,MetaDrive-gen-step2,69,146.40444455607937,418482,1015,6039.822984695435,,7.6862640380859375,17.90057373046875,0.06
418,MetaDrive-gen-step2,69,145.91302490042645,419539,1018,6052.42631316185,-15.514488220214844,3.421665668487549,15.31696891784668,0.07
419,MetaDrive-gen-step2,69,143.08642283062017,420018,1020,6059.002026796341,,6.960599422454834,15.717395782470703,0.06
420,MetaDrive-gen-step2,69,145.08575836070827,421136,1023,6076.050704240799,,4.439212799072266,14.822239875793457,0.06
421,MetaDrive-gen-step2,69,144.7064226744137,422158,1025,6088.669775724411,,3.520374298095703,18.028934478759766,0.06
422,MetaDrive-gen-step2,69,146.73795280370325,423663,1028,6111.104412555695,-12.958297729492188,5.265945911407471,13.8839111328125,0.06
423,MetaDrive-gen-step2,69,149.06136462346086,424443,1029,6121.861929893494,-18.048316955566406,3.211418628692627,17.808719635009766,0.07
424,MetaDrive-gen-step2,69,151.38784120501353,425175,1031,6132.196115255356,-17.874420166015625,20.761165618896484,17.24822235107422,0.08
425,MetaDrive-gen-step2,69,153.83890073362318,426554,1033,6147.619381904602,,4.7968244552612305,16.059160232543945,0.09
426,MetaDrive-gen-step2,69,151.96585732555596,427014,1035,6155.777184009552,,2.6647191047668457,16.173242568969727,0.09
427,MetaDrive-gen-step2,69,149.730781024453,428264,1037,6170.373081445694,,3.039133310317993,19.6475830078125,0.08
428,MetaDrive-gen-step2,69,150.10231453012733,429065,1038,6183.380328655243,-16.846834182739258,11.43350601196289,17.323394775390625,0.08
429,MetaDrive-gen-step2,69,149.81187933597187,430322,1041,6198.652107954025,,26.295021057128906,14.946252822875977,0.07
430,MetaDrive-gen-step2,69,150.71176888898836,431133,1043,6209.606351852417,-14.709129333496094,18.173160552978516,13.876410484313965,0.07
431,MetaDrive-gen-step2,69,151.659334766661,432734,1046,6231.091073036194,,5.773739814758301,11.11496353149414,0.07
432,MetaDrive-gen-step2,69,152.2697538291858,433535,1047,6249.942021608353,-16.17111587524414,3.8794729709625244,16.007768630981445,0.07
433,MetaDrive-gen-step2,69,151.76589837797036,434013,1050,6257.236919403076,-22.037368774414062,2.9665212631225586,21.71141242980957,0.07
434,MetaDrive-gen-step2,69,151.72430240245185,435615,1052,6277.640102624893,-18.68502426147461,4.53028678894043,18.308916091918945,0.07
435,MetaDrive-gen-step2,69,152.37414841404092,436030,1054,6282.628372907639,,3.407651424407959,15.848498344421387,0.07
436,MetaDrive-gen-step2,69,155.1651207884839,437332,1056,6306.584163427353,,13.576196670532227,18.770618438720703,0.07
437,MetaDrive-gen-step2,69,156.52683299187612,438408,1059,6321.181826353073,,2.6724367141723633,14.35350513458252,0.07
438,MetaDrive-gen-step2,69,155.85866687121248,439390,1061,6335.909840345383,,5.9739909172058105,18.208120346069336,0.07
439,MetaDrive-gen-step2,69,156.97645420030932,440027,1062,6345.829209804535,-16.3543643951416,3.6086812019348145,16.51895523071289,0.07
440,MetaDrive-gen-step2,69,157.48825658612157,441137,1064,6361.4285571575165,-17.565269470214844,5.017268180847168,18.293981552124023,0.07
441,MetaDrive-gen-step2,69,158.1523160764388,442143,1066,6376.594326972961,-12.931770324707031,6.164290904998779,13.015242576599121,0.07
442,MetaDrive-gen-step2,69,161.36585198889046,443479,1069,6392.115485668182,-23.214641571044922,7.519460678100586,23.46101188659668,0.07
443,MetaDrive-gen-step2,69,159.5726660415082,444280,1070,6403.776069164276,,5.222375869750977,16.294496536254883,0.07
444,MetaDrive-gen-step2,69,161.11228090975305,445388,1072,6416.503699064255,,4.304461479187012,18.15507698059082,0.08
445,MetaDrive-gen-step2,69,157.1016558219113,446059,1075,6424.92177772522,-20.10081672668457,5.271908283233643,19.730770111083984,0.07
446,MetaDrive-gen-step2,69,158.76834949259407,447661,1077,6449.346117734909,-18.902740478515625,5.604682445526123,19.41192626953125,0.07
447,MetaDrive-gen-step2,69,156.6659289429698,448091,1079,6454.61003446579,-16.12314224243164,4.523684501647949,16.600854873657227,0.07
448,MetaDrive-gen-step2,69,154.48138935134008,449693,1081,6474.091184854507,-14.09631061553955,4.382966041564941,14.08299732208252,0.07
449,MetaDrive-gen-step2,69,154.71297279913594,450056,1083,6479.748610496521,,4.728553771972656,17.322628021240234,0.07
450,MetaDrive-gen-step2,69,156.71060141940055,451374,1087,6495.126314163208,,32.713523864746094,10.890345573425293,0.08
451,MetaDrive-gen-step2,69,155.5945558112189,452434,1089,6509.70885181427,,5.6846137046813965,21.126741409301758,0.07
452,MetaDrive-gen-step2,69,155.5366388403309,453599,1093,6523.13059091568,-14.599193572998047,3.4389543533325195,14.460147857666016,0.07
453,MetaDrive-gen-step2,69,156.17047972455615,454100,1095,6529.49028801918,,8.304206848144531,18.98723793029785,0.07
454,MetaDrive-gen-step2,69,152.86988518025856,455092,1098,6544.484360933304,,5.727465629577637,17.77823829650879,0.07
455,MetaDrive-gen-step2,69,151.40320324009815,456031,1100,6563.980370283127,-17.97637367248535,4.631257057189941,18.051345825195312,0.07
456,MetaDrive-gen-step2,69,151.06810685030024,457666,1103,6588.219792366028,,11.336928367614746,15.505224227905273,0.06
457,MetaDrive-gen-step2,69,150.99344158410867,458015,1104,6592.789161205292,-17.114425659179688,2.247021436691284,16.985612869262695,0.06
458,MetaDrive-gen-step2,69,148.76289418443318,459033,1106,6607.5684180259705,-10.046188354492188,5.888973236083984,10.347251892089844,0.06
459,MetaDrive-gen-step2,69,149.0965418128057,460212,1109,6623.85039806366,,4.303107261657715,17.651958465576172,0.06
460,MetaDrive-gen-step2,69,148.4328354510909,461343,1113,6639.953936338425,-17.32309913635254,5.000537872314453,16.472633361816406,0.06
461,MetaDrive-gen-step2,69,146.64718295960446,462570,1115,6656.2459416389465,,3.1794216632843018,16.717042922973633,0.06
462,MetaDrive-gen-step2,69,149.65401923334625,463455,1117,6668.552455186844,-18.035863876342773,3.3243284225463867,17.87141990661621,0.07
463,MetaDrive-gen-step2,69,147.5094423127366,464256,1118,6686.159125804901,,5.680476665496826,18.973182678222656,0.06
464,MetaDrive-gen-step2,69,147.10611365757768,465195,1120,6697.762027025223,-18.084064483642578,3.9888854026794434,17.734699249267578,0.06
465,MetaDrive-gen-step2,69,146.03820209067027,466101,1122,6710.262281179428,-14.581229209899902,9.940238952636719,14.085648536682129,0.06
466,MetaDrive-gen-step2,69,144.15268518360722,467222,1124,6726.808597564697,,12.771806716918945,15.992777824401855,0.06
467,MetaDrive-gen-step2,69,144.30129823655022,468146,1126,6743.082986116409,,17.061660766601562,18.86986541748047,0.06
468,MetaDrive-gen-step2,69,143.3991148568748,469029,1128,6754.644030332565,-17.50156593322754,8.091741561889648,17.559494018554688,0.06
469,MetaDrive-gen-step2,69,141.2609644442843,470044,1130,6771.313727378845,,2.4108505249023438,14.514554023742676,0.05
470,MetaDrive-gen-step2,69,140.43239070775965,471418,1132,6790.557813644409,,2.5176048278808594,16.87053680419922,0.05
471,MetaDrive-gen-step2,69,137.95987201410998,472037,1134,6800.122059583664,-9.878715515136719,6.302240371704102,9.485614776611328,0.04
472,MetaDrive-gen-step2,69,138.0209705725355,473059,1136,6814.50523686409,-16.0821590423584,3.6896870136260986,16.108163833618164,0.04
473,MetaDrive-gen-step2,69,137.69313420370756,474279,1140,6829.872346401215,-18.74919891357422,2.910414457321167,19.041601181030273,0.04
474,MetaDrive-gen-step2,69,137.30308656953542,475080,1141,6839.551457643509,,2.5321738719940186,14.654166221618652,0.04
475,MetaDrive-gen-step2,69,136.50645544489453,476058,1145,6852.094445466995,,3.3171238899230957,18.190204620361328,0.04
476,MetaDrive-gen-step2,69,139.6296018072361,477401,1148,6869.60862159729,-19.413524627685547,5.331114768981934,18.533504486083984,0.06
477,MetaDrive-gen-step2,69,139.95763543520522,478496,1150,6882.448776721954,,5.881990432739258,14.244860649108887,0.06
478,MetaDrive-gen-step2,69,140.85167288616714,479297,1151,6892.950706720352,-16.543399810791016,6.885883331298828,15.656381607055664,0.06
479,MetaDrive-gen-step2,69,141.7408096733794,480154,1154,6905.184166431427,,13.701212882995605,12.17593002319336,0.06
480,MetaDrive-gen-step2,69,139.9297215284007,481273,1156,6923.079850912094,-15.826473236083984,5.840991973876953,15.38509464263916,0.06
481,MetaDrive-gen-step2,69,139.22996987855572,482283,1158,6939.188082456589,-16.360111236572266,4.141520977020264,16.229019165039062,0.06
482,MetaDrive-gen-step2,69,138.6096211088896,483626,1161,6956.697459220886,,3.5735530853271484,19.099111557006836,0.06
483,MetaDrive-gen-step2,69,138.51978871996045,484427,1162,6967.078791856766,-15.896889686584473,4.429089546203613,15.735265731811523,0.06
484,MetaDrive-gen-step2,69,138.92272348853075,485200,1164,6979.236038208008,,3.8047986030578613,16.14028549194336,0.06
485,MetaDrive-gen-step2,69,138.44305422730923,486001,1165,6989.30225944519,-18.435558319091797,3.5484228134155273,18.435222625732422,0.06
486,MetaDrive-gen-step2,69,138.78360178558262,487747,1168,7022.9095940589905,-13.285545349121094,5.943141460418701,13.458022117614746,0.06
487,MetaDrive-gen-step2,69,137.84269459042312,488451,1170,7030.090715885162,-17.98226547241211,4.497628211975098,18.41282844543457,0.06
488,MetaDrive-gen-step2,69,134.84020797417946,489149,1172,7038.370370149612,-19.200803756713867,6.0061140060424805,19.188085556030273,0.05
489,MetaDrive-gen-step2,69,136.96064006132173,490793,1175,7060.262097597122,-20.51990509033203,3.066681385040283,19.821916580200195,0.06
490,MetaDrive-gen-step2,69,137.49297748120446,491594,1176,7073.7196662425995,,3.046196937561035,18.743045806884766,0.06
491,MetaDrive-gen-step2,69,138.15378800552568,492149,1177,7080.277539253235,-20.464160919189453,3.575669765472412,19.86878204345703,0.06
492,MetaDrive-gen-step2,69,139.5775002144833,493632,1179,7102.532751083374,,3.3033249378204346,13.835527420043945,0.06
493,MetaDrive-gen-step2,69,139.30431709244704,494433,1180,7120.297418355942,-16.196840286254883,11.30570125579834,15.532394409179688,0.06
494,MetaDrive-gen-step2,69,139.54124631984453,495161,1181,7132.351852178574,-20.69541358947754,4.5370588302612305,20.55268096923828,0.06
495,MetaDrive-gen-step2,69,138.68811259827552,496053,1183,7143.352629184723,-15.328968048095703,10.76026725769043,15.060466766357422,0.06
496,MetaDrive-gen-step2,69,139.81512061466216,497521,1187,7160.694717884064,-20.01676368713379,3.485506534576416,19.72793197631836,0.06
497,MetaDrive-gen-step2,69,138.19166674124136,498445,1190,7174.812406539917,-16.242046356201172,9.615889549255371,15.922358512878418,0.06
498,MetaDrive-gen-step2,69,140.1742396765184,499044,1191,7181.086363077164,,4.77349328994751,10.897886276245117,0.06
