TanmayH/CS269-RL-project-code/MetaDrive-td3combine-expt_with_safe—reuse-rb/MetaDrive-Gen-Next-v0/td3/progress.csv
,log_dir,frame_per_second,episode_reward,total_steps,total_episodes,total_time,actor_loss,critic_loss,target_q,success_rate
0,MetaDrive-td3combine-expt_with_safe—reuse-rb,718,16.353283496231057,1088,2,1.5143952369689941,,0.013590674847364426,0.1820133477449417,0.0
1,MetaDrive-td3combine-expt_with_safe—reuse-rb,165,-1.4546799906004289,2583,24,15.613542079925537,-0.18380789458751678,0.7678278684616089,0.10862315446138382,0.0
2,MetaDrive-td3combine-expt_with_safe—reuse-rb,149,-1.7122319782603088,3896,27,26.055021047592163,,0.009702187031507492,0.2161886990070343,0.0
3,MetaDrive-td3combine-expt_with_safe—reuse-rb,143,-1.8290523026104506,4317,28,30.00560212135315,-0.14991486072540283,0.035444505512714386,0.2254350781440735,0.0
4,MetaDrive-td3combine-expt_with_safe—reuse-rb,139,-1.9129286566144672,5037,29,36.09060001373291,-0.22543473541736603,0.015321435406804085,0.22721870243549347,0.0
5,MetaDrive-td3combine-expt_with_safe—reuse-rb,137,-1.8171012642614601,6038,30,44.046539068222046,,0.007654125336557627,0.18992911279201508,0.0
6,MetaDrive-td3combine-expt_with_safe—reuse-rb,135,-1.7291616043569646,7039,31,52.10319519042969,-0.2240062952041626,0.008219988085329533,0.18745224177837372,0.0
7,MetaDrive-td3combine-expt_with_safe—reuse-rb,133,-1.727075385869181,8040,32,60.12330389022827,,0.5776357650756836,0.08128722757101059,0.0
8,MetaDrive-td3combine-expt_with_safe—reuse-rb,132,-1.7379549369962743,9041,33,68.08220601081848,-0.19743262231349945,0.009032577276229858,0.1686432808637619,0.0
9,MetaDrive-td3combine-expt_with_safe—reuse-rb,132,-1.653931534234633,10042,34,76.03463196754456,,0.01595776155591011,0.1369728446006775,0.0
10,MetaDrive-td3combine-expt_with_safe—reuse-rb,131,-1.602859670273719,11043,35,84.06310510635376,-0.1397356390953064,0.003933685831725597,0.14353148639202118,0.0
11,MetaDrive-td3combine-expt_with_safe—reuse-rb,131,-1.780223642614134,12060,37,91.96530103683472,,0.0011216397397220135,0.13806061446666718,0.0
12,MetaDrive-td3combine-expt_with_safe—reuse-rb,131,-1.707921246153261,13061,38,99.68760013580322,-0.13617496192455292,0.010414475575089455,0.12140774726867676,0.0
13,MetaDrive-td3combine-expt_with_safe—reuse-rb,130,-1.7820365971305159,14051,39,107.27891826629639,-0.11186898499727249,0.0026512560434639454,0.10872618108987808,0.0
14,MetaDrive-td3combine-expt_with_safe—reuse-rb,130,-1.870513468589429,15231,42,116.49012207984924,-0.06675189733505249,0.7227678298950195,0.017482589930295944,0.0
15,MetaDrive-td3combine-expt_with_safe—reuse-rb,130,-1.8138243443952509,16232,43,124.46883988380432,,0.8052483797073364,0.007838609628379345,0.0
16,MetaDrive-td3combine-expt_with_safe—reuse-rb,130,-1.7521915692600074,17233,44,132.49813723564148,-0.10345752537250519,0.002798739355057478,0.07520392537117004,0.0
17,MetaDrive-td3combine-expt_with_safe—reuse-rb,129,-1.6890221072726652,18234,45,140.35018706321716,,0.0005581529112532735,0.05750275403261185,0.0
18,MetaDrive-td3combine-expt_with_safe—reuse-rb,128,-1.8915460276849005,19397,47,150.40942525863647,-0.0591399148106575,0.0032147106248885393,0.05049474537372589,0.0
19,MetaDrive-td3combine-expt_with_safe—reuse-rb,127,-1.977544592353628,20737,49,162.53619813919067,-0.056119926273822784,0.0065073673613369465,0.05685991048812866,0.0
20,MetaDrive-td3combine-expt_with_safe—reuse-rb,126,-1.9098332060895697,21738,50,171.59827709197998,,0.0009495370322838426,0.03648902848362923,0.0
21,MetaDrive-td3combine-expt_with_safe—reuse-rb,126,-1.8374699324777453,22524,51,178.5887942314148,,0.7932454943656921,-0.04077479988336563,0.0
22,MetaDrive-td3combine-expt_with_safe—reuse-rb,124,-1.3166852639917526,23029,68,185.02576804161072,-0.18630102276802063,0.001992715522646904,0.084532231092453,0.0
23,MetaDrive-td3combine-expt_with_safe—reuse-rb,121,-0.9593576722004771,24009,100,197.3897190093994,-0.18970267474651337,0.016851112246513367,0.15021450817584991,0.0
24,MetaDrive-td3combine-expt_with_safe—reuse-rb,120,1.2548304716142693,25038,119,208.60566091537476,,0.004819757770746946,0.27178385853767395,0.0
25,MetaDrive-td3combine-expt_with_safe—reuse-rb,118,3.6046790804481557,26104,143,220.5879681110382,,0.04352264106273651,0.4618435502052307,0.0
26,MetaDrive-td3combine-expt_with_safe—reuse-rb,116,4.611256332141184,27004,164,231.11176705360413,,0.15102636814117432,0.6350959539413452,0.0
27,MetaDrive-td3combine-expt_with_safe—reuse-rb,115,6.858952330459796,28011,187,243.25727105140686,-0.8926471471786499,0.8116755485534668,0.8105272054672241,0.0
28,MetaDrive-td3combine-expt_with_safe—reuse-rb,113,7.305603902959069,29020,209,255.35557198524475,,0.04618878662586212,1.1465471982955933,0.0
29,MetaDrive-td3combine-expt_with_safe—reuse-rb,112,7.311613513174531,30011,231,266.77574610710144,-1.5996499061584473,2.8065571784973145,1.2983572483062744,0.0
30,MetaDrive-td3combine-expt_with_safe—reuse-rb,111,7.736448590482553,31058,250,278.6224751472473,,1.7614362239837646,1.7787415981292725,0.0
31,MetaDrive-td3combine-expt_with_safe—reuse-rb,110,8.464550343361019,32004,265,289.3004400730133,,0.039680302143096924,2.085521697998047,0.0
32,MetaDrive-td3combine-expt_with_safe—reuse-rb,109,9.646330739230654,33060,283,300.96463108062744,,1.083570957183838,2.3399932384490967,0.0
33,MetaDrive-td3combine-expt_with_safe—reuse-rb,109,10.522323605800558,34003,298,311.42658519744873,-2.8047187328338623,0.07964684069156647,2.744640827178955,0.0
34,MetaDrive-td3combine-expt_with_safe—reuse-rb,108,11.704655328675129,35018,314,322.6047842502594,,0.05979102849960327,3.103487968444824,0.0
35,MetaDrive-td3combine-expt_with_safe—reuse-rb,107,13.477336840043467,36077,324,334.1149182319641,-3.4301018714904785,2.2492728233337402,3.246760845184326,0.0
36,MetaDrive-td3combine-expt_with_safe—reuse-rb,107,13.550958446732505,37049,334,345.7959420681,-3.702629327774048,1.348222255706787,3.5551998615264893,0.0
37,MetaDrive-td3combine-expt_with_safe—reuse-rb,106,14.532104662672374,38007,347,357.3223280906677,-4.182828903198242,0.1543620377779007,4.1454243659973145,0.0
38,MetaDrive-td3combine-expt_with_safe—reuse-rb,105,15.143873847950344,39308,352,372.9859902858734,,0.13854575157165527,4.353384971618652,0.0
39,MetaDrive-td3combine-expt_with_safe—reuse-rb,104,15.332366249162046,40083,360,382.104129076004,-4.895727634429932,0.23047780990600586,4.836085319519043,0.0
40,MetaDrive-td3combine-expt_with_safe—reuse-rb,104,16.11509835869266,41085,363,393.3430268764496,-5.092837810516357,3.41845703125,4.991910934448242,0.0
41,MetaDrive-td3combine-expt_with_safe—reuse-rb,104,19.408543225134494,42124,365,404.5301239490509,,0.0727393701672554,5.559753894805908,0.01
42,MetaDrive-td3combine-expt_with_safe—reuse-rb,103,22.95858011031796,43879,371,423.63916420936584,-6.069990158081055,7.132024765014648,5.911896228790283,0.01
43,MetaDrive-td3combine-expt_with_safe—reuse-rb,103,24.077859386342194,44263,373,428.0123510360718,-6.345985412597656,4.316583633422852,6.244050025939941,0.01
44,MetaDrive-td3combine-expt_with_safe—reuse-rb,102,25.11128106986765,45415,376,440.9373219013214,-6.915984153747559,4.503568172454834,6.729769706726074,0.01
45,MetaDrive-td3combine-expt_with_safe—reuse-rb,102,26.53770184412057,46275,377,450.261696100235,-7.273292541503906,0.10758885741233826,7.1133856773376465,0.01
46,MetaDrive-td3combine-expt_with_safe—reuse-rb,102,27.394964735593522,47276,378,461.68220806121826,,0.23004993796348572,7.46682596206665,0.01
47,MetaDrive-td3combine-expt_with_safe—reuse-rb,102,28.93570985916243,48096,380,470.70593309402466,,5.477176666259766,7.8357930183410645,0.01
48,MetaDrive-td3combine-expt_with_safe—reuse-rb,101,29.235315086806835,49097,381,481.76413202285767,-8.469864845275879,0.18519754707813263,8.257852554321289,0.01
49,MetaDrive-td3combine-expt_with_safe—reuse-rb,101,32.455270835543246,50614,384,498.78870820999146,,0.07825518399477005,8.893022537231445,0.01
50,MetaDrive-td3combine-expt_with_safe—reuse-rb,101,32.936430677736595,51044,388,503.71898221969604,,0.9436099529266357,9.097867965698242,0.01
51,MetaDrive-td3combine-expt_with_safe—reuse-rb,101,34.740299843756496,52141,390,515.3520750999451,-9.840943336486816,0.4802339971065521,9.558345794677734,0.01
52,MetaDrive-td3combine-expt_with_safe—reuse-rb,100,38.48743856128818,53416,394,529.0729601383209,,13.902130126953125,9.511530876159668,0.03
53,MetaDrive-td3combine-expt_with_safe—reuse-rb,100,39.94949144435523,54417,395,540.884565114975,-10.763794898986816,0.5704971551895142,10.508442878723145,0.03
54,MetaDrive-td3combine-expt_with_safe—reuse-rb,100,41.25543550976006,55022,396,547.3108658790588,,0.13436955213546753,10.869054794311523,0.04
55,MetaDrive-td3combine-expt_with_safe—reuse-rb,100,43.81149433305625,56024,399,558.0365190505981,,7.787132263183594,10.709463119506836,0.05
56,MetaDrive-td3combine-expt_with_safe—reuse-rb,100,48.48928824080616,57339,401,572.4127321243286,-11.553018569946289,0.32720643281936646,11.328150749206543,0.07
57,MetaDrive-td3combine-expt_with_safe—reuse-rb,99,50.611854606540135,58838,404,588.857223033905,,0.510334312915802,12.305904388427734,0.08
58,MetaDrive-td3combine-expt_with_safe—reuse-rb,99,52.353706720338224,59334,405,594.2961030006409,,6.431468486785889,12.22979736328125,0.09
59,MetaDrive-td3combine-expt_with_safe—reuse-rb,99,53.75715157380203,60055,406,601.9103660583496,-13.04679012298584,0.30212146043777466,12.531119346618652,0.1
60,MetaDrive-td3combine-expt_with_safe—reuse-rb,99,54.86888486577616,61391,408,616.2592601776123,-13.13856315612793,0.45190030336380005,12.882246971130371,0.1
61,MetaDrive-td3combine-expt_with_safe—reuse-rb,99,55.05602746856776,62437,410,627.5930750370026,-13.493768692016602,0.2534123659133911,13.49471664428711,0.1
62,MetaDrive-td3combine-expt_with_safe—reuse-rb,99,56.73483946137231,63025,412,634.001745223999,-13.779284477233887,0.18544340133666992,13.591859817504883,0.11
63,MetaDrive-td3combine-expt_with_safe—reuse-rb,99,57.67491120189496,64162,414,647.0408861637115,,1.1470991373062134,13.239812850952148,0.11
64,MetaDrive-td3combine-expt_with_safe—reuse-rb,98,62.24168787402365,65737,416,665.0303490161896,-14.648974418640137,0.2185937464237213,14.576593399047852,0.12
65,MetaDrive-td3combine-expt_with_safe—reuse-rb,98,62.694944167238745,66738,417,675.7956459522247,,0.669019341468811,14.335809707641602,0.12
66,MetaDrive-td3combine-expt_with_safe—reuse-rb,98,62.99045709729312,67851,419,687.7171971797943,-14.825004577636719,12.629287719726562,14.467713356018066,0.12
67,MetaDrive-td3combine-expt_with_safe—reuse-rb,98,65.40541491766051,68661,421,696.7703330516815,-15.24429702758789,0.2697438895702362,15.14605712890625,0.13
68,MetaDrive-td3combine-expt_with_safe—reuse-rb,98,66.42353770992062,69662,422,707.7271361351013,,0.546379566192627,15.619571685791016,0.13
69,MetaDrive-td3combine-expt_with_safe—reuse-rb,98,66.46242054971967,70773,424,720.2845981121063,-14.101330757141113,0.9161932468414307,14.232405662536621,0.13
70,MetaDrive-td3combine-expt_with_safe—reuse-rb,98,68.08259987498927,71774,425,731.8638589382172,,0.4594104290008545,15.818259239196777,0.13
71,MetaDrive-td3combine-expt_with_safe—reuse-rb,97,67.97452070667946,72775,426,743.5322959423065,-16.012910842895508,0.48291635513305664,16.102645874023438,0.13
72,MetaDrive-td3combine-expt_with_safe—reuse-rb,97,68.17366326833947,73776,427,754.6704142093658,,0.7285891771316528,14.163003921508789,0.13
73,MetaDrive-td3combine-expt_with_safe—reuse-rb,97,68.6921444023943,74777,428,765.4176409244537,-15.580374717712402,1.3508074283599854,15.313348770141602,0.13
74,MetaDrive-td3combine-expt_with_safe—reuse-rb,97,69.99604929247678,75135,429,769.32497215271,-14.506766319274902,9.480817794799805,14.51513671875,0.14
75,MetaDrive-td3combine-expt_with_safe—reuse-rb,97,74.43625317131855,76262,433,781.4570319652557,,0.9393339157104492,17.512710571289062,0.17
76,MetaDrive-td3combine-expt_with_safe—reuse-rb,97,78.62660331008377,77732,435,798.209958076477,,0.6598445177078247,16.076448440551758,0.17
77,MetaDrive-td3combine-expt_with_safe—reuse-rb,97,79.05416177153892,78837,437,810.4317591190338,-17.282663345336914,0.3844701945781708,17.02757453918457,0.17
78,MetaDrive-td3combine-expt_with_safe—reuse-rb,97,79.37104440924962,79967,439,822.7516300678253,-17.150859832763672,2.7891411781311035,17.208843231201172,0.17
79,MetaDrive-td3combine-expt_with_safe—reuse-rb,97,79.7275801531812,80100,440,824.2675619125366,,0.32390257716178894,16.413227081298828,0.17
80,MetaDrive-td3combine-expt_with_safe—reuse-rb,97,80.22933228670182,81101,441,835.3338010311127,-17.620479583740234,0.8203538656234741,17.507930755615234,0.17
81,MetaDrive-td3combine-expt_with_safe—reuse-rb,96,82.74867384352522,82102,442,846.4803221225739,,9.300064086914062,14.982622146606445,0.17
82,MetaDrive-td3combine-expt_with_safe—reuse-rb,96,83.8599348140051,83103,443,857.60950922966,-15.703958511352539,1.813424825668335,16.011329650878906,0.17
83,MetaDrive-td3combine-expt_with_safe—reuse-rb,96,83.52232388901511,84165,446,869.6899290084839,-17.907373428344727,0.9513484835624695,17.923276901245117,0.17
84,MetaDrive-td3combine-expt_with_safe—reuse-rb,96,85.55933843350225,85115,449,880.7046530246735,-15.941408157348633,1.0557773113250732,15.755724906921387,0.18
85,MetaDrive-td3combine-expt_with_safe—reuse-rb,96,86.24332329461573,86116,450,892.146448135376,,1.959320068359375,17.06003189086914,0.18
86,MetaDrive-td3combine-expt_with_safe—reuse-rb,96,86.80305005959107,87117,451,902.8216209411621,-18.14552879333496,17.7850399017334,18.274391174316406,0.18
87,MetaDrive-td3combine-expt_with_safe—reuse-rb,96,87.93191759812862,88212,453,914.8067810535431,,21.411479949951172,18.014659881591797,0.18
88,MetaDrive-td3combine-expt_with_safe—reuse-rb,96,90.5972723526674,89037,455,923.7994449138641,-19.622577667236328,0.8634167909622192,19.32294464111328,0.19
89,MetaDrive-td3combine-expt_with_safe—reuse-rb,96,92.0915901459194,90306,457,937.8149089813232,,1.1004630327224731,16.537599563598633,0.19
90,MetaDrive-td3combine-expt_with_safe—reuse-rb,96,95.45165513856418,91790,459,954.2057862281799,,0.5634211301803589,19.905109405517578,0.2
91,MetaDrive-td3combine-expt_with_safe—reuse-rb,96,97.77614304218042,92299,460,960.2349581718445,-18.38089942932129,1.2584633827209473,17.96259117126465,0.21
92,MetaDrive-td3combine-expt_with_safe—reuse-rb,95,98.30995134401627,93824,463,978.6829271316528,,0.6870347857475281,20.24342155456543,0.21
93,MetaDrive-td3combine-expt_with_safe—reuse-rb,95,97.96609921915075,94004,464,980.7767522335052,,0.9705362915992737,18.90543556213379,0.21
94,MetaDrive-td3combine-expt_with_safe—reuse-rb,95,95.97616989891004,95005,465,992.1965990066528,-19.892885208129883,0.5757910013198853,19.42631721496582,0.2
95,MetaDrive-td3combine-expt_with_safe—reuse-rb,95,96.73963176035555,96006,466,1003.5151381492615,,1.1905487775802612,18.499494552612305,0.2
96,MetaDrive-td3combine-expt_with_safe—reuse-rb,95,98.29649563693853,97843,470,1024.1740732192993,-19.91147232055664,23.5981502532959,19.20316505432129,0.2
97,MetaDrive-td3combine-expt_with_safe—reuse-rb,95,96.53787194325253,98838,471,1034.850749015808,,1.1494152545928955,20.725688934326172,0.2
98,MetaDrive-td3combine-expt_with_safe—reuse-rb,95,97.08006604373044,99839,472,1045.7056031227112,-19.010852813720703,2.220942974090576,18.073963165283203,0.2
99,MetaDrive-td3combine-expt_with_safe—reuse-rb,95,98.5386823574836,100398,474,1052.1041321754456,,27.95668601989746,18.2348690032959,0.2
100,MetaDrive-td3combine-expt_with_safe—reuse-rb,95,99.29905799526274,101061,477,1059.534029006958,-18.765438079833984,0.7577129602432251,18.77450942993164,0.21
101,MetaDrive-td3combine-expt_with_safe—reuse-rb,95,102.01278012179539,102194,481,1072.8889400959015,,2.615082263946533,19.47095489501953,0.22
102,MetaDrive-td3combine-expt_with_safe—reuse-rb,95,102.30692674076433,103325,483,1085.316977262497,-21.686397552490234,18.604759216308594,20.815879821777344,0.22
103,MetaDrive-td3combine-expt_with_safe—reuse-rb,95,100.32102636842775,104326,484,1096.6240229606628,,1.1819242238998413,19.021928787231445,0.22
104,MetaDrive-td3combine-expt_with_safe—reuse-rb,95,101.886547161987,105490,486,1109.6256971359253,,4.428264617919922,18.696155548095703,0.22
105,MetaDrive-td3combine-expt_with_safe—reuse-rb,95,105.17012569201954,106345,488,1119.2203681468964,-18.61138916015625,15.096599578857422,18.23693084716797,0.24
106,MetaDrive-td3combine-expt_with_safe—reuse-rb,94,103.87523165817838,107772,490,1134.994826078415,,1.1661732196807861,21.06020736694336,0.24
107,MetaDrive-td3combine-expt_with_safe—reuse-rb,94,102.30777872059765,108773,491,1146.4525949954987,-22.30901336669922,0.7291194796562195,22.168027877807617,0.23
108,MetaDrive-td3combine-expt_with_safe—reuse-rb,94,103.356025749912,109061,493,1149.896693944931,-19.72294807434082,1.3866090774536133,19.518924713134766,0.23
109,MetaDrive-td3combine-expt_with_safe—reuse-rb,94,102.02359209508968,110062,494,1161.0676789283752,,1.3240773677825928,23.081127166748047,0.22
110,MetaDrive-td3combine-expt_with_safe—reuse-rb,94,104.03842065848903,111855,497,1181.0206048488617,-22.558542251586914,1.7128112316131592,22.592849731445312,0.22
111,MetaDrive-td3combine-expt_with_safe—reuse-rb,94,103.4045481901805,112025,498,1182.9350740909576,-20.69902801513672,0.5515113472938538,20.64359474182129,0.21
112,MetaDrive-td3combine-expt_with_safe—reuse-rb,94,104.29047424511897,113026,499,1194.2575471401215,,22.315380096435547,17.03438949584961,0.21
113,MetaDrive-td3combine-expt_with_safe—reuse-rb,94,102.22340067783782,114027,500,1205.2468001842499,-20.94297218322754,0.7222540378570557,20.78377342224121,0.2
114,MetaDrive-td3combine-expt_with_safe—reuse-rb,94,100.87273755251614,115028,501,1216.0553011894226,,1.9397616386413574,21.95488739013672,0.19
115,MetaDrive-td3combine-expt_with_safe—reuse-rb,94,104.22007217953707,116333,505,1230.5688650608063,-20.88692283630371,35.57402801513672,19.934358596801758,0.2
116,MetaDrive-td3combine-expt_with_safe—reuse-rb,94,105.19334672051421,117982,508,1248.6652171611786,,2.359137535095215,19.452899932861328,0.2
117,MetaDrive-td3combine-expt_with_safe—reuse-rb,94,106.50847187114601,118309,509,1252.0831921100616,-20.823551177978516,0.8696200847625732,20.638559341430664,0.21
118,MetaDrive-td3combine-expt_with_safe—reuse-rb,94,106.45142859325317,119310,510,1263.733614206314,,2.761199951171875,20.320398330688477,0.21
119,MetaDrive-td3combine-expt_with_safe—reuse-rb,94,105.71815269340435,120409,512,1276.1407430171967,-19.357669830322266,1.958925724029541,19.149810791015625,0.2
120,MetaDrive-td3combine-expt_with_safe—reuse-rb,94,108.53882912150449,121869,514,1291.906177997589,-20.972137451171875,2.2412445545196533,20.960344314575195,0.21
121,MetaDrive-td3combine-expt_with_safe—reuse-rb,94,107.55253048084032,122302,515,1296.9600360393524,,4.82003927230835,17.49740982055664,0.21
122,MetaDrive-td3combine-expt_with_safe—reuse-rb,94,110.6565264645338,123969,518,1316.4917089939117,-23.875579833984375,1.5612330436706543,23.3828125,0.22
123,MetaDrive-td3combine-expt_with_safe—reuse-rb,94,110.71858042208801,124970,519,1327.1478872299194,,40.755706787109375,20.40915870666504,0.22
124,MetaDrive-td3combine-expt_with_safe—reuse-rb,94,113.02473133140666,125343,520,1331.2010140419006,-24.277835845947266,11.023870468139648,22.96674346923828,0.23
125,MetaDrive-td3combine-expt_with_safe—reuse-rb,94,110.67181692133343,126892,524,1348.053041934967,,1.69883131980896,18.027219772338867,0.22
126,MetaDrive-td3combine-expt_with_safe—reuse-rb,94,110.71003639667026,127243,525,1351.8420929908752,-22.85137176513672,2.290926933288574,22.486421585083008,0.23
127,MetaDrive-td3combine-expt_with_safe—reuse-rb,94,110.61314565901354,128244,526,1362.4012310504913,,2.7314956188201904,22.518138885498047,0.23
128,MetaDrive-td3combine-expt_with_safe—reuse-rb,94,112.83443353511024,129546,528,1376.8462011814117,,38.62557601928711,19.58837127685547,0.23
129,MetaDrive-td3combine-expt_with_safe—reuse-rb,94,112.92803965050189,130547,529,1387.3788530826569,-21.422943115234375,9.799688339233398,20.96586799621582,0.22
130,MetaDrive-td3combine-expt_with_safe—reuse-rb,94,112.44742401152723,131548,530,1398.0270221233368,,1.7293332815170288,20.194547653198242,0.21
131,MetaDrive-td3combine-expt_with_safe—reuse-rb,94,111.46515590527899,132671,532,1409.835598230362,-20.71477699279785,41.255252838134766,19.793834686279297,0.2
132,MetaDrive-td3combine-expt_with_safe—reuse-rb,94,111.47502004093477,133672,533,1421.0901250839233,,1.2676746845245361,17.095808029174805,0.19
133,MetaDrive-td3combine-expt_with_safe—reuse-rb,94,111.65623160406982,134205,534,1426.833930015564,-17.92043685913086,2.624434471130371,18.179025650024414,0.2
134,MetaDrive-td3combine-expt_with_safe—reuse-rb,94,111.94571581408196,135666,536,1442.6409809589386,,3.49086594581604,21.83307456970215,0.21
135,MetaDrive-td3combine-expt_with_safe—reuse-rb,94,113.70447957283653,136667,537,1453.2406301498413,-22.540624618530273,3.0867273807525635,22.72291374206543,0.21
136,MetaDrive-td3combine-expt_with_safe—reuse-rb,94,113.74122905837204,137423,538,1461.3326201438904,-21.905189514160156,45.01417922973633,21.386571884155273,0.21
137,MetaDrive-td3combine-expt_with_safe—reuse-rb,93,115.8118597416464,138584,541,1474.4047961235046,,2.1654396057128906,21.380605697631836,0.22
138,MetaDrive-td3combine-expt_with_safe—reuse-rb,93,112.95374213225035,139803,544,1488.0206470489502,-19.192012786865234,25.99397087097168,18.852304458618164,0.22
139,MetaDrive-td3combine-expt_with_safe—reuse-rb,93,112.67120026377403,140804,545,1499.055503129959,,2.9840195178985596,18.391681671142578,0.22
140,MetaDrive-td3combine-expt_with_safe—reuse-rb,93,114.19221841349777,141984,547,1511.9361131191254,,33.829063415527344,22.380584716796875,0.22
141,MetaDrive-td3combine-expt_with_safe—reuse-rb,93,116.3855885774145,142582,548,1518.546494960785,,26.302322387695312,18.952415466308594,0.23
142,MetaDrive-td3combine-expt_with_safe—reuse-rb,93,116.00634817582892,143583,549,1529.1885418891907,-21.914880752563477,37.527408599853516,21.252464294433594,0.22
143,MetaDrive-td3combine-expt_with_safe—reuse-rb,93,116.60765668787435,144687,551,1541.1566269397736,-21.606327056884766,40.057762145996094,21.23247528076172,0.22
144,MetaDrive-td3combine-expt_with_safe—reuse-rb,93,116.17097747777865,145843,553,1553.3470799922943,-19.48611068725586,1.7062339782714844,18.7874813079834,0.22
145,MetaDrive-td3combine-expt_with_safe—reuse-rb,93,116.88580915075404,146844,554,1564.3021910190582,,2.722353458404541,21.499433517456055,0.22
146,MetaDrive-td3combine-expt_with_safe—reuse-rb,93,115.77861496485608,147402,555,1570.616592168808,,2.6320223808288574,21.144285202026367,0.22
147,MetaDrive-td3combine-expt_with_safe—reuse-rb,93,115.92567229235743,148403,556,1581.6005339622498,-21.2828426361084,1.3909170627593994,21.245391845703125,0.22
148,MetaDrive-td3combine-expt_with_safe—reuse-rb,93,115.82169645037713,149404,557,1592.1729590892792,,22.30596160888672,20.800649642944336,0.22
149,MetaDrive-td3combine-expt_with_safe—reuse-rb,93,112.00002960536227,150189,561,1601.0441541671753,-17.845516204833984,2.32747745513916,17.744728088378906,0.21
150,MetaDrive-td3combine-expt_with_safe—reuse-rb,93,111.90268049914388,151304,563,1612.825114250183,,1.937441110610962,21.078533172607422,0.21
151,MetaDrive-td3combine-expt_with_safe—reuse-rb,93,113.71376727012351,152849,565,1629.6666460037231,-19.14476776123047,1.8022704124450684,19.082286834716797,0.21
152,MetaDrive-td3combine-expt_with_safe—reuse-rb,93,115.08227086733967,153850,566,1640.40008020401,,3.8528523445129395,19.663209915161133,0.21
153,MetaDrive-td3combine-expt_with_safe—reuse-rb,93,112.96452210207117,154034,568,1642.4813282489777,,3.029491901397705,21.792434692382812,0.21
154,MetaDrive-td3combine-expt_with_safe—reuse-rb,93,112.98908663133649,155035,569,1653.4122970104218,-22.08420753479004,3.3120274543762207,22.477779388427734,0.21
155,MetaDrive-td3combine-expt_with_safe—reuse-rb,93,113.83216893950593,156176,571,1666.0416040420532,,2.20173978805542,20.713417053222656,0.21
156,MetaDrive-td3combine-expt_with_safe—reuse-rb,93,110.36231103072858,157580,575,1681.0002009868622,,1.7815771102905273,22.982206344604492,0.2
157,MetaDrive-td3combine-expt_with_safe—reuse-rb,93,111.07215160370676,158581,576,1691.9382169246674,-17.983993530273438,1.543440341949463,17.671340942382812,0.2
158,MetaDrive-td3combine-expt_with_safe—reuse-rb,93,111.85175851556492,159582,577,1702.6558809280396,,32.55138397216797,24.733055114746094,0.2
159,MetaDrive-td3combine-expt_with_safe—reuse-rb,93,110.8927219829154,160583,578,1713.563283920288,-20.792987823486328,1.1199939250946045,20.57272720336914,0.2
160,MetaDrive-td3combine-expt_with_safe—reuse-rb,93,110.89449323206036,161584,579,1724.457507133484,,2.355954170227051,17.36414337158203,0.2
161,MetaDrive-td3combine-expt_with_safe—reuse-rb,93,107.54150974462544,162792,582,1737.7979710102081,,0.7203221321105957,17.091997146606445,0.19
162,MetaDrive-td3combine-expt_with_safe—reuse-rb,93,107.11936802605098,163044,583,1740.7689232826233,,3.2128751277923584,20.21027374267578,0.19
163,MetaDrive-td3combine-expt_with_safe—reuse-rb,93,106.70654917990508,164045,584,1751.8020641803741,-19.862850189208984,1.5194566249847412,19.38323974609375,0.19
164,MetaDrive-td3combine-expt_with_safe—reuse-rb,93,107.11379911811711,165405,586,1766.3908250331879,-21.084836959838867,6.023488998413086,20.2713565826416,0.2
165,MetaDrive-td3combine-expt_with_safe—reuse-rb,93,106.44079060072013,166055,588,1773.8971419334412,-15.873444557189941,5.735358715057373,15.799805641174316,0.18
166,MetaDrive-td3combine-expt_with_safe—reuse-rb,93,108.25339353040982,167618,592,1790.6476511955261,,6.254889488220215,22.958759307861328,0.18
167,MetaDrive-td3combine-expt_with_safe—reuse-rb,93,105.63385052803257,168237,596,1797.7618911266327,-19.237247467041016,4.068399429321289,19.238325119018555,0.17
168,MetaDrive-td3combine-expt_with_safe—reuse-rb,93,104.15414376803923,169238,597,1808.465471982956,,3.0948009490966797,24.807376861572266,0.17
169,MetaDrive-td3combine-expt_with_safe—reuse-rb,93,103.4678701076178,170239,598,1819.184142112732,-18.302419662475586,1.68221116065979,18.062255859375,0.17
170,MetaDrive-td3combine-expt_with_safe—reuse-rb,93,103.19931009106762,171240,599,1830.057755947113,,42.55414581298828,18.46373176574707,0.17
171,MetaDrive-td3combine-expt_with_safe—reuse-rb,93,104.36120670057606,172241,600,1840.62757396698,-20.21892547607422,2.1568069458007812,20.032886505126953,0.17
172,MetaDrive-td3combine-expt_with_safe—reuse-rb,93,103.95443782767336,173242,601,1852.0826301574707,,6.237494468688965,23.725574493408203,0.17
173,MetaDrive-td3combine-expt_with_safe—reuse-rb,93,103.48936235986386,174025,604,1860.5482530593872,-19.78160285949707,2.0934619903564453,19.49089241027832,0.15
174,MetaDrive-td3combine-expt_with_safe—reuse-rb,93,101.78414900711485,175211,606,1873.5649919509888,-18.13214111328125,3.5026469230651855,18.639894485473633,0.14
175,MetaDrive-td3combine-expt_with_safe—reuse-rb,93,99.62481760445252,176997,608,1893.2672100067139,-18.43994140625,1.9918931722640991,18.049190521240234,0.13
176,MetaDrive-td3combine-expt_with_safe—reuse-rb,93,98.40024304420372,177611,609,1899.7259590625763,-23.797836303710938,104.02178955078125,22.609678268432617,0.12
177,MetaDrive-td3combine-expt_with_safe—reuse-rb,93,99.87797529485096,178002,610,1903.9604620933533,,23.091842651367188,17.986888885498047,0.13
178,MetaDrive-td3combine-expt_with_safe—reuse-rb,93,100.4768931455328,179003,611,1914.8105871677399,-19.248130798339844,2.2318830490112305,19.20538902282715,0.13
179,MetaDrive-td3combine-expt_with_safe—reuse-rb,93,97.03855147300905,180515,614,1931.6829450130463,-19.634403228759766,1.7393406629562378,19.493972778320312,0.12
180,MetaDrive-td3combine-expt_with_safe—reuse-rb,93,93.92412351987092,181592,616,1943.118693113327,,4.0708699226379395,22.49968147277832,0.1
181,MetaDrive-td3combine-expt_with_safe—reuse-rb,93,92.9869550090394,182593,617,1954.3728351593018,-17.633296966552734,56.503379821777344,17.40338134765625,0.1
182,MetaDrive-td3combine-expt_with_safe—reuse-rb,93,91.30725907495527,183839,620,1967.7485492229462,-13.011167526245117,2.206277847290039,12.158687591552734,0.09
183,MetaDrive-td3combine-expt_with_safe—reuse-rb,93,91.78173852848619,184311,621,1972.8597991466522,-18.330671310424805,2.2968592643737793,17.78403663635254,0.09
184,MetaDrive-td3combine-expt_with_safe—reuse-rb,93,91.4989032894603,185184,622,1982.2268660068512,,4.0674333572387695,17.49371337890625,0.09
185,MetaDrive-td3combine-expt_with_safe—reuse-rb,93,92.12838985624705,186400,624,1995.3581891059875,,6.253491401672363,15.654264450073242,0.09
186,MetaDrive-td3combine-expt_with_safe—reuse-rb,93,90.9242169107616,187500,626,2007.4414010047913,,2.3098506927490234,15.22540283203125,0.08
187,MetaDrive-td3combine-expt_with_safe—reuse-rb,93,90.52825716100322,188053,628,2013.5797650814056,-13.52287769317627,3.0807971954345703,13.16148853302002,0.08
188,MetaDrive-td3combine-expt_with_safe—reuse-rb,93,90.89624106370158,189054,629,2024.1584470272064,,39.66808319091797,18.46661376953125,0.08
189,MetaDrive-td3combine-expt_with_safe—reuse-rb,93,90.57801683553343,190055,630,2035.204586982727,-18.663061141967773,8.88833999633789,18.34133529663086,0.08
190,MetaDrive-td3combine-expt_with_safe—reuse-rb,93,90.33868583407684,191056,631,2045.8412761688232,,1.7053560018539429,18.0831356048584,0.08
191,MetaDrive-td3combine-expt_with_safe—reuse-rb,93,90.17615732287233,192221,633,2058.4312319755554,-13.89823055267334,1.90312659740448,14.195735931396484,0.08
192,MetaDrive-td3combine-expt_with_safe—reuse-rb,93,88.36374171735686,193222,634,2069.4436161518097,,14.335914611816406,13.195003509521484,0.07
193,MetaDrive-td3combine-expt_with_safe—reuse-rb,93,86.74968347922841,194223,635,2080.5303711891174,-14.407082557678223,30.662002563476562,13.97293472290039,0.06
194,MetaDrive-td3combine-expt_with_safe—reuse-rb,93,85.76950869092958,195556,638,2095.090653896332,,4.02347469329834,17.397382736206055,0.06
195,MetaDrive-td3combine-expt_with_safe—reuse-rb,93,86.94980802365859,196557,639,2106.017688035965,-16.597064971923828,1.3687539100646973,16.242717742919922,0.06
196,MetaDrive-td3combine-expt_with_safe—reuse-rb,93,86.69993792976592,197070,641,2111.720549106598,,1.6916368007659912,20.468364715576172,0.06
197,MetaDrive-td3combine-expt_with_safe—reuse-rb,93,91.07092820873368,198708,644,2130.0909299850464,,1.9416389465332031,15.84533977508545,0.08
198,MetaDrive-td3combine-expt_with_safe—reuse-rb,93,92.50566096766195,199726,646,2141.3543491363525,,21.023006439208984,20.194177627563477,0.08
199,MetaDrive-td3combine-expt_with_safe—reuse-rb,93,94.07338418106599,200197,647,2146.561904191971,-14.744714736938477,26.951461791992188,14.196233749389648,0.09
200,MetaDrive-td3combine-expt_with_safe—reuse-rb,93,95.30967075986669,201872,650,2165.009752035141,,5.509830474853516,20.097137451171875,0.09
201,MetaDrive-td3combine-expt_with_safe—reuse-rb,93,94.2812764011067,202025,651,2166.743907213211,-17.783273696899414,3.673941135406494,17.42953109741211,0.09
202,MetaDrive-td3combine-expt_with_safe—reuse-rb,93,96.81781993928014,203730,654,2185.84530210495,,50.39432144165039,15.510778427124023,0.09
203,MetaDrive-td3combine-expt_with_safe—reuse-rb,93,98.90415442635171,204270,655,2191.975822210312,,2.952467679977417,16.881223678588867,0.08
204,MetaDrive-td3combine-expt_with_safe—reuse-rb,93,98.7723305078719,205271,656,2202.272406101227,-17.335567474365234,3.0247952938079834,17.287147521972656,0.08
205,MetaDrive-td3combine-expt_with_safe—reuse-rb,93,99.19068501731338,206272,657,2213.2823600769043,,3.486715793609619,18.61388397216797,0.08
206,MetaDrive-td3combine-expt_with_safe—reuse-rb,93,98.6384008749134,207273,658,2224.1191391944885,-18.052658081054688,9.183490753173828,17.453603744506836,0.07
207,MetaDrive-td3combine-expt_with_safe—reuse-rb,93,99.11995397796153,208517,660,2237.9370172023773,-8.517424583435059,1.1152565479278564,8.58273696899414,0.07
208,MetaDrive-td3combine-expt_with_safe—reuse-rb,93,100.95450191466287,209429,661,2247.9430100917816,-16.489234924316406,3.5676584243774414,15.620617866516113,0.08
209,MetaDrive-td3combine-expt_with_safe—reuse-rb,93,102.62971716561987,210749,663,2262.939512014389,-19.96208953857422,2.8493010997772217,20.41118812561035,0.09
210,MetaDrive-td3combine-expt_with_safe—reuse-rb,93,101.36568117864272,211750,664,2273.9818711280823,,6.525626182556152,16.030778884887695,0.09
211,MetaDrive-td3combine-expt_with_safe—reuse-rb,93,101.06113498128636,212751,665,2285.220067024231,-20.30622100830078,11.627811431884766,20.171478271484375,0.09
212,MetaDrive-td3combine-expt_with_safe—reuse-rb,93,100.0352997161279,213752,666,2296.1738290786743,,5.564273834228516,18.06576919555664,0.09
213,MetaDrive-td3combine-expt_with_safe—reuse-rb,93,100.60196014724669,214753,667,2307.10679602623,-18.525508880615234,8.957677841186523,17.818925857543945,0.09
214,MetaDrive-td3combine-expt_with_safe—reuse-rb,93,101.51700267142218,215754,668,2318.0810210704803,,4.7215352058410645,19.89214324951172,0.09
215,MetaDrive-td3combine-expt_with_safe—reuse-rb,93,102.31024605791676,216387,670,2324.8582530021667,-14.196097373962402,10.04659652709961,13.696632385253906,0.1
216,MetaDrive-td3combine-expt_with_safe—reuse-rb,93,102.47333584535173,217549,672,2337.7131011486053,-16.403484344482422,5.189352989196777,16.39961051940918,0.1
217,MetaDrive-td3combine-expt_with_safe—reuse-rb,93,103.19434466003935,218550,673,2348.8986999988556,,13.666000366210938,18.903636932373047,0.1
218,MetaDrive-td3combine-expt_with_safe—reuse-rb,93,103.81745059273048,219551,674,2359.906753063202,-19.87158203125,3.070458173751831,20.12874984741211,0.1
219,MetaDrive-td3combine-expt_with_safe—reuse-rb,93,104.0646002408793,220552,675,2370.7736229896545,,3.4219393730163574,15.83071517944336,0.1
220,MetaDrive-td3combine-expt_with_safe—reuse-rb,93,103.62269509937849,221756,677,2383.7694730758667,,3.1761152744293213,15.136307716369629,0.1
221,MetaDrive-td3combine-expt_with_safe—reuse-rb,93,104.68351007853938,222949,679,2396.8188128471375,-20.388673782348633,7.309706687927246,19.57935333251953,0.1
222,MetaDrive-td3combine-expt_with_safe—reuse-rb,93,104.89779336779337,223109,680,2398.687096118927,-15.285943031311035,12.165910720825195,14.537525177001953,0.1
223,MetaDrive-td3combine-expt_with_safe—reuse-rb,92,105.62475476829837,224075,682,2409.4109210968018,-15.572518348693848,4.004456520080566,14.990382194519043,0.1
224,MetaDrive-td3combine-expt_with_safe—reuse-rb,92,106.24917329075066,225608,685,2426.1019740104675,,5.776885509490967,17.861669540405273,0.1
225,MetaDrive-td3combine-expt_with_safe—reuse-rb,92,108.08229223678322,226609,686,2436.9404401779175,-15.580379486083984,7.758815288543701,14.881155014038086,0.1
226,MetaDrive-td3combine-expt_with_safe—reuse-rb,92,105.6593120104222,227777,688,2449.873803138733,-18.463703155517578,40.74530029296875,17.34387969970703,0.1
227,MetaDrive-td3combine-expt_with_safe—reuse-rb,92,105.84213125857441,228778,689,2460.570865869522,,7.648650169372559,17.382774353027344,0.1
228,MetaDrive-td3combine-expt_with_safe—reuse-rb,92,105.87423193419819,229779,690,2471.3430819511414,-16.24842071533203,59.24189376831055,15.87639045715332,0.1
229,MetaDrive-td3combine-expt_with_safe—reuse-rb,92,105.55240043113942,230780,691,2482.317887067795,,5.23398494720459,13.05838394165039,0.1
230,MetaDrive-td3combine-expt_with_safe—reuse-rb,92,105.2734714229478,231781,692,2492.9486689567566,-14.636707305908203,2.236708641052246,14.43371295928955,0.1
231,MetaDrive-td3combine-expt_with_safe—reuse-rb,92,105.77040557936384,232074,693,2496.4308609962463,,4.700718879699707,17.288761138916016,0.11
232,MetaDrive-td3combine-expt_with_safe—reuse-rb,92,105.91156915234095,233075,694,2507.4392960071564,-19.101058959960938,4.19244384765625,19.120866775512695,0.11
233,MetaDrive-td3combine-expt_with_safe—reuse-rb,92,108.64403940024617,234210,697,2520.192356109619,,3.0012028217315674,16.66054344177246,0.13
234,MetaDrive-td3combine-expt_with_safe—reuse-rb,92,108.84142978800057,235211,698,2531.070195913315,-17.576101303100586,3.697909355163574,17.769393920898438,0.13
235,MetaDrive-td3combine-expt_with_safe—reuse-rb,92,109.25891672503192,236212,699,2542.420623064041,,77.70661926269531,23.880897521972656,0.13
236,MetaDrive-td3combine-expt_with_safe—reuse-rb,92,108.80054982549343,237213,700,2552.989435195923,-17.05161476135254,4.8674092292785645,16.530715942382812,0.13
237,MetaDrive-td3combine-expt_with_safe—reuse-rb,92,109.21946975178,238443,702,2567.428158044815,-17.191272735595703,2.3435239791870117,16.837085723876953,0.13
238,MetaDrive-td3combine-expt_with_safe—reuse-rb,92,111.15369735754204,239444,703,2578.6054170131683,,5.7579498291015625,10.399999618530273,0.13
239,MetaDrive-td3combine-expt_with_safe—reuse-rb,92,111.16991983155954,240445,704,2590.149538040161,-18.96909523010254,8.783815383911133,18.32530975341797,0.13
240,MetaDrive-td3combine-expt_with_safe—reuse-rb,92,114.81008541582064,241235,706,2599.123079061508,-21.20604705810547,1.219123363494873,20.8421630859375,0.15
241,MetaDrive-td3combine-expt_with_safe—reuse-rb,92,114.63568670394645,242236,707,2610.2901198863983,,6.621556282043457,17.002708435058594,0.15
242,MetaDrive-td3combine-expt_with_safe—reuse-rb,92,115.53500593901148,243237,708,2621.325914144516,-15.138073921203613,2.535318374633789,14.928351402282715,0.15
243,MetaDrive-td3combine-expt_with_safe—reuse-rb,92,116.902753191827,244238,709,2632.4243671894073,,8.249835014343262,18.587228775024414,0.15
244,MetaDrive-td3combine-expt_with_safe—reuse-rb,92,117.90041266527119,245531,711,2647.092469930649,-13.01097583770752,2.667236804962158,13.105289459228516,0.15
245,MetaDrive-td3combine-expt_with_safe—reuse-rb,92,118.93536703258802,246532,712,2658.344216108322,,13.608455657958984,16.24599838256836,0.15
246,MetaDrive-td3combine-expt_with_safe—reuse-rb,92,120.76409075301139,247533,713,2669.468733072281,-15.970577239990234,6.812533855438232,15.114638328552246,0.15
247,MetaDrive-td3combine-expt_with_safe—reuse-rb,92,121.40220511215068,248534,714,2680.6639330387115,,3.703662157058716,14.21621322631836,0.15
248,MetaDrive-td3combine-expt_with_safe—reuse-rb,92,120.50141238813276,249721,716,2694.424115896225,-13.949167251586914,4.978000640869141,14.035745620727539,0.15
249,MetaDrive-td3combine-expt_with_safe—reuse-rb,92,119.4992871003394,250722,717,2705.883774995804,,3.1481828689575195,15.775283813476562,0.15
250,MetaDrive-td3combine-expt_with_safe—reuse-rb,92,119.40670269207493,251723,718,2717.3376870155334,-16.69470977783203,4.565505504608154,16.822509765625,0.15
251,MetaDrive-td3combine-expt_with_safe—reuse-rb,92,120.04158083325052,252724,719,2728.167375087738,,3.8981571197509766,21.173437118530273,0.15
252,MetaDrive-td3combine-expt_with_safe—reuse-rb,92,119.98130733623722,253044,721,2732.0414571762085,,4.330772399902344,12.358762741088867,0.15
253,MetaDrive-td3combine-expt_with_safe—reuse-rb,92,119.34502759366647,254991,723,2754.379443883896,-12.004225730895996,7.917537212371826,11.853404998779297,0.15
254,MetaDrive-td3combine-expt_with_safe—reuse-rb,92,119.89691633719676,255992,724,2765.6845922470093,,9.387731552124023,15.095590591430664,0.15
255,MetaDrive-td3combine-expt_with_safe—reuse-rb,92,119.58545288551112,256993,725,2777.0418651103973,-20.300182342529297,7.484903335571289,20.588424682617188,0.15
256,MetaDrive-td3combine-expt_with_safe—reuse-rb,92,119.74047979942969,257994,726,2789.3926241397858,,3.690001964569092,18.210241317749023,0.15
257,MetaDrive-td3combine-expt_with_safe—reuse-rb,92,119.94783223423755,258995,727,2801.0973291397095,-21.567642211914062,9.57132625579834,20.532072067260742,0.15
258,MetaDrive-td3combine-expt_with_safe—reuse-rb,92,118.9981847917364,259996,728,2813.0990142822266,,11.587879180908203,15.716337203979492,0.15
259,MetaDrive-td3combine-expt_with_safe—reuse-rb,92,120.60684319596021,260539,729,2819.649981021881,-13.941530227661133,3.8214120864868164,13.861303329467773,0.16
260,MetaDrive-td3combine-expt_with_safe—reuse-rb,92,120.27155956493606,261540,730,2831.0165162086487,,74.60719299316406,15.200215339660645,0.16
261,MetaDrive-td3combine-expt_with_safe—reuse-rb,92,120.72580293810755,262541,731,2842.2792880535126,-17.343351364135742,6.915452003479004,17.553272247314453,0.16
262,MetaDrive-td3combine-expt_with_safe—reuse-rb,92,120.7595331409364,263701,733,2855.761219024658,-17.075862884521484,5.871595859527588,17.10756492614746,0.16
263,MetaDrive-td3combine-expt_with_safe—reuse-rb,92,120.82790033490866,264702,734,2867.2352900505066,,3.138538122177124,12.738592147827148,0.16
264,MetaDrive-td3combine-expt_with_safe—reuse-rb,92,121.47914716504083,265703,735,2878.410182952881,-12.892369270324707,5.8679399490356445,12.671826362609863,0.16
265,MetaDrive-td3combine-expt_with_safe—reuse-rb,92,122.69215658176894,266112,736,2883.467831134796,,2.19577693939209,14.089712142944336,0.17
266,MetaDrive-td3combine-expt_with_safe—reuse-rb,92,123.00405250001222,267113,737,2894.5400969982147,-11.093924522399902,3.7944107055664062,10.383424758911133,0.17
267,MetaDrive-td3combine-expt_with_safe—reuse-rb,92,123.6933361747378,268114,738,2905.738886117935,,8.95843505859375,11.994401931762695,0.17
268,MetaDrive-td3combine-expt_with_safe—reuse-rb,92,122.9856233799689,269115,739,2917.1950211524963,-17.405357360839844,8.16932487487793,17.605703353881836,0.17
269,MetaDrive-td3combine-expt_with_safe—reuse-rb,92,122.13280270864107,270601,741,2934.274083137512,-14.312768936157227,2.0315117835998535,13.737783432006836,0.17
270,MetaDrive-td3combine-expt_with_safe—reuse-rb,92,122.78743508524889,271034,742,2939.50372505188,,4.428819179534912,20.271150588989258,0.17
271,MetaDrive-td3combine-expt_with_safe—reuse-rb,92,124.35371398860363,272556,745,2957.164229154587,,5.118084907531738,15.873103141784668,0.18
272,MetaDrive-td3combine-expt_with_safe—reuse-rb,92,123.1383171964019,273557,746,2968.3885922431946,-17.700780868530273,4.605879783630371,17.543149948120117,0.18
273,MetaDrive-td3combine-expt_with_safe—reuse-rb,92,121.17378353153963,274558,747,2979.9455931186676,,6.1855597496032715,13.632102966308594,0.17
274,MetaDrive-td3combine-expt_with_safe—reuse-rb,92,118.0956979836925,275672,749,2992.402307033539,,8.319483757019043,17.903566360473633,0.16
275,MetaDrive-td3combine-expt_with_safe—reuse-rb,92,117.9921119637965,276673,750,3003.757882118225,-17.779563903808594,3.582930564880371,17.63378143310547,0.16
276,MetaDrive-td3combine-expt_with_safe—reuse-rb,92,115.02322381265135,277839,752,3017.1909391880035,-22.88850975036621,7.61738395690918,21.53386688232422,0.16
277,MetaDrive-td3combine-expt_with_safe—reuse-rb,92,114.65296525488236,278840,753,3029.3420560359955,,3.6494436264038086,20.247568130493164,0.16
278,MetaDrive-td3combine-expt_with_safe—reuse-rb,92,116.9799404856559,279359,754,3035.6843268871307,-18.775527954101562,3.507958173751831,18.073068618774414,0.17
279,MetaDrive-td3combine-expt_with_safe—reuse-rb,92,113.6205101247491,280360,755,3046.990070104599,,6.579964637756348,9.581393241882324,0.17
280,MetaDrive-td3combine-expt_with_safe—reuse-rb,91,114.3071619526995,281107,759,3056.175052165985,-16.349802017211914,46.597679138183594,16.476224899291992,0.17
281,MetaDrive-td3combine-expt_with_safe—reuse-rb,91,114.428265193796,282108,760,3067.716248035431,,2.492178440093994,13.350521087646484,0.17
282,MetaDrive-td3combine-expt_with_safe—reuse-rb,91,113.32305780327351,283770,763,3087.1251261234283,,10.105552673339844,15.868698120117188,0.16
283,MetaDrive-td3combine-expt_with_safe—reuse-rb,91,112.91881156973898,284771,764,3098.5827310085297,-17.817630767822266,12.148887634277344,17.210071563720703,0.16
284,MetaDrive-td3combine-expt_with_safe—reuse-rb,91,112.71972840251155,285956,766,3112.863517999649,,2.3855648040771484,12.779911041259766,0.16
285,MetaDrive-td3combine-expt_with_safe—reuse-rb,91,112.92851115749541,286178,767,3115.7655732631683,,11.334442138671875,22.260236740112305,0.16
286,MetaDrive-td3combine-expt_with_safe—reuse-rb,91,112.72486212160521,287179,768,3127.475629091263,-15.478293418884277,3.65751314163208,15.948949813842773,0.16
287,MetaDrive-td3combine-expt_with_safe—reuse-rb,91,114.27602845122794,288019,771,3137.4051201343536,-13.202926635742188,3.499742269515991,13.214929580688477,0.16
288,MetaDrive-td3combine-expt_with_safe—reuse-rb,91,114.39477554954989,289020,772,3149.393716096878,,3.253401756286621,18.665950775146484,0.16
289,MetaDrive-td3combine-expt_with_safe—reuse-rb,91,114.09090254046045,290021,773,3162.21786403656,-13.474954605102539,5.489687442779541,12.526764869689941,0.16
290,MetaDrive-td3combine-expt_with_safe—reuse-rb,91,114.48791592460087,291022,774,3173.7452640533447,,2.9159162044525146,20.64532470703125,0.16
291,MetaDrive-td3combine-expt_with_safe—reuse-rb,91,114.14750232672414,292023,775,3185.26029419899,-18.450817108154297,4.162507057189941,18.316810607910156,0.16
292,MetaDrive-td3combine-expt_with_safe—reuse-rb,91,113.8860253777898,293024,776,3197.077849149704,,4.479269504547119,11.007601737976074,0.16
293,MetaDrive-td3combine-expt_with_safe—reuse-rb,91,113.30906938227996,294025,777,3208.4029669761658,-17.940982818603516,6.655241966247559,17.1278018951416,0.16
294,MetaDrive-td3combine-expt_with_safe—reuse-rb,91,114.83975008544847,295026,778,3219.9410920143127,,34.381324768066406,16.306377410888672,0.16
295,MetaDrive-td3combine-expt_with_safe—reuse-rb,91,115.61787686353047,296367,780,3235.460720062256,-11.77144718170166,4.260239601135254,12.216825485229492,0.17
296,MetaDrive-td3combine-expt_with_safe—reuse-rb,91,116.81550588805386,297057,782,3243.8351109027863,-13.016037940979004,8.898843765258789,13.583724975585938,0.18
297,MetaDrive-td3combine-expt_with_safe—reuse-rb,91,119.13145678558709,298289,785,3257.9421439170837,-16.915067672729492,5.720236778259277,16.03564453125,0.2
298,MetaDrive-td3combine-expt_with_safe—reuse-rb,91,118.98191587688402,299290,786,3269.8019070625305,,54.07929229736328,17.91788673400879,0.2
299,MetaDrive-td3combine-expt_with_safe—reuse-rb,91,119.93819223206161,300502,788,3284.7246940135956,,9.141958236694336,18.464244842529297,0.2
300,MetaDrive-td3combine-expt_with_safe—reuse-rb,91,123.0409035712703,301008,789,3291.040946006775,,1.6973196268081665,21.301286697387695,0.21
301,MetaDrive-td3combine-expt_with_safe—reuse-rb,91,123.5441115547739,302009,790,3302.824742078781,-16.1646671295166,2.0334179401397705,15.921586990356445,0.21
302,MetaDrive-td3combine-expt_with_safe—reuse-rb,91,124.18818833532455,303010,791,3314.947828054428,,14.763946533203125,19.271099090576172,0.21
303,MetaDrive-td3combine-expt_with_safe—reuse-rb,91,124.61309573040849,304011,792,3326.906860113144,-17.145381927490234,12.643088340759277,17.367694854736328,0.21
304,MetaDrive-td3combine-expt_with_safe—reuse-rb,91,123.10062439628581,305012,793,3339.0998232364655,,4.231851577758789,16.956764221191406,0.2
305,MetaDrive-td3combine-expt_with_safe—reuse-rb,91,124.69873142113077,306306,795,3354.8882281780243,,2.151339530944824,16.827987670898438,0.2
306,MetaDrive-td3combine-expt_with_safe—reuse-rb,91,125.51542674914616,307307,796,3366.8033170700073,-17.037761688232422,2.717411756515503,16.814956665039062,0.2
307,MetaDrive-td3combine-expt_with_safe—reuse-rb,91,127.40088736199758,308893,798,3386.019513130188,-20.842344284057617,13.583178520202637,20.387868881225586,0.2
308,MetaDrive-td3combine-expt_with_safe—reuse-rb,91,127.55810373629402,309070,799,3388.3472061157227,,4.452555179595947,15.000810623168945,0.2
309,MetaDrive-td3combine-expt_with_safe—reuse-rb,91,128.4910436363773,310191,801,3402.346035003662,-11.907451629638672,8.924226760864258,11.97009563446045,0.2
310,MetaDrive-td3combine-expt_with_safe—reuse-rb,91,126.6572116745593,311192,802,3414.9537432193756,,42.2725944519043,20.83643913269043,0.2
311,MetaDrive-td3combine-expt_with_safe—reuse-rb,91,123.71253595057433,312654,805,3433.09308218956,,6.371519088745117,17.86528968811035,0.19
312,MetaDrive-td3combine-expt_with_safe—reuse-rb,91,125.3409624495342,313784,807,3447.055097103119,,5.503240585327148,20.63401985168457,0.18
313,MetaDrive-td3combine-expt_with_safe—reuse-rb,90,124.38867642315199,314785,808,3459.6932320594788,-16.36297607421875,4.11173152923584,16.25476837158203,0.18
314,MetaDrive-td3combine-expt_with_safe—reuse-rb,90,123.91975080753414,315786,809,3471.923492193222,,13.936656951904297,21.782546997070312,0.18
315,MetaDrive-td3combine-expt_with_safe—reuse-rb,90,122.23329919036412,316913,811,3485.916403055191,-20.743314743041992,7.200129508972168,19.932279586791992,0.17
316,MetaDrive-td3combine-expt_with_safe—reuse-rb,90,123.31623708636715,317599,812,3494.331444978714,-11.67192554473877,8.53646469116211,10.872504234313965,0.18
317,MetaDrive-td3combine-expt_with_safe—reuse-rb,90,122.23755897358677,318243,814,3502.5009820461273,-19.44506072998047,11.093232154846191,19.802616119384766,0.19
318,MetaDrive-td3combine-expt_with_safe—reuse-rb,90,122.06537346469895,319244,815,3515.3776531219482,,9.983282089233398,21.504438400268555,0.19
319,MetaDrive-td3combine-expt_with_safe—reuse-rb,90,123.29613261354639,320546,817,3532.003166913986,,106.66787719726562,11.723282814025879,0.19
320,MetaDrive-td3combine-expt_with_safe—reuse-rb,90,123.50836358330767,321748,819,3547.6661241054535,,9.288444519042969,18.965412139892578,0.19
321,MetaDrive-td3combine-expt_with_safe—reuse-rb,90,122.94143733597761,322749,820,3560.690510034561,-18.927303314208984,6.32668399810791,18.74332618713379,0.19
322,MetaDrive-td3combine-expt_with_safe—reuse-rb,90,122.7533793851078,323350,821,3568.334363222122,,5.365065097808838,14.940683364868164,0.19
323,MetaDrive-td3combine-expt_with_safe—reuse-rb,90,123.038517825052,324351,822,3580.6188430786133,-13.89246940612793,3.0568599700927734,13.96414852142334,0.19
324,MetaDrive-td3combine-expt_with_safe—reuse-rb,90,124.89898832460568,325810,824,3599.7467498779297,,11.147253036499023,14.154129981994629,0.2
325,MetaDrive-td3combine-expt_with_safe—reuse-rb,90,125.80296756885008,326811,825,3613.4522411823273,-16.59558868408203,3.9506962299346924,16.4853515625,0.2
326,MetaDrive-td3combine-expt_with_safe—reuse-rb,90,127.04610372700435,327327,826,3619.977171897888,-18.446313858032227,2.7368011474609375,17.96440887451172,0.2
327,MetaDrive-td3combine-expt_with_safe—reuse-rb,90,129.32321497982466,328302,828,3632.70370721817,,9.969274520874023,25.824846267700195,0.21
328,MetaDrive-td3combine-expt_with_safe—reuse-rb,90,126.17789967474016,329303,829,3645.519802093506,-14.716064453125,5.050678253173828,15.005725860595703,0.2
329,MetaDrive-td3combine-expt_with_safe—reuse-rb,90,126.69926998634028,330304,830,3657.7411341667175,,3.5204033851623535,17.273868560791016,0.2
330,MetaDrive-td3combine-expt_with_safe—reuse-rb,90,128.40314294202236,331834,832,3676.8563051223755,,6.1255645751953125,15.415492057800293,0.2
331,MetaDrive-td3combine-expt_with_safe—reuse-rb,90,128.34151615788028,332835,833,3689.875890016556,-13.997352600097656,12.72165298461914,13.175773620605469,0.2
332,MetaDrive-td3combine-expt_with_safe—reuse-rb,90,128.62801089645302,333836,834,3702.5155050754547,,8.495267868041992,14.073701858520508,0.2
333,MetaDrive-td3combine-expt_with_safe—reuse-rb,90,126.0854833969123,334975,836,3716.9765450954437,-17.45969009399414,9.982481002807617,17.328369140625,0.19
334,MetaDrive-td3combine-expt_with_safe—reuse-rb,90,126.68531488890982,335361,837,3721.579377889633,-19.901193618774414,4.453072547912598,20.666881561279297,0.2
335,MetaDrive-td3combine-expt_with_safe—reuse-rb,90,128.35320913190338,336054,839,3730.8552660942078,,15.546996116638184,19.934968948364258,0.21
336,MetaDrive-td3combine-expt_with_safe—reuse-rb,90,127.8248092241278,337218,841,3746.32501411438,,3.2823097705841064,20.584190368652344,0.2
337,MetaDrive-td3combine-expt_with_safe—reuse-rb,89,125.0764967265692,338713,843,3765.1507880687714,-18.841888427734375,8.934962272644043,17.751264572143555,0.19
338,MetaDrive-td3combine-expt_with_safe—reuse-rb,89,124.18821827261254,339714,844,3779.0055191516876,,3.3891091346740723,15.160758018493652,0.18
339,MetaDrive-td3combine-expt_with_safe—reuse-rb,89,123.72817687033607,340061,846,3783.528743982315,-18.563819885253906,11.160669326782227,18.774168014526367,0.18
340,MetaDrive-td3combine-expt_with_safe—reuse-rb,89,126.49712637559605,341864,849,3807.4431722164154,,53.52972412109375,24.53347396850586,0.19
341,MetaDrive-td3combine-expt_with_safe—reuse-rb,89,126.91397488446847,342865,850,3820.186470270157,-14.336210250854492,4.070499420166016,13.693541526794434,0.19
342,MetaDrive-td3combine-expt_with_safe—reuse-rb,89,127.1703382224455,343058,851,3822.8336231708527,,9.725007057189941,20.74518585205078,0.19
343,MetaDrive-td3combine-expt_with_safe—reuse-rb,89,127.38744474074637,344059,852,3835.394359111786,-16.455482482910156,10.485298156738281,16.402957916259766,0.19
344,MetaDrive-td3combine-expt_with_safe—reuse-rb,89,126.72339568835766,345750,855,3857.005336046219,,4.048300743103027,12.985383033752441,0.19
345,MetaDrive-td3combine-expt_with_safe—reuse-rb,89,126.96564188449366,346714,856,3869.540526151657,,10.543591499328613,19.314769744873047,0.19
346,MetaDrive-td3combine-expt_with_safe—reuse-rb,89,127.53470891776053,347156,857,3875.060585975647,,7.444640159606934,23.639135360717773,0.2
347,MetaDrive-td3combine-expt_with_safe—reuse-rb,89,126.69100372830684,348775,860,3895.4138700962067,-15.235098838806152,32.05295181274414,14.389107704162598,0.21
348,MetaDrive-td3combine-expt_with_safe—reuse-rb,89,127.38166756695344,349713,861,3907.488790988922,-20.33924102783203,8.34797477722168,20.754467010498047,0.21
349,MetaDrive-td3combine-expt_with_safe—reuse-rb,89,124.78830989315537,350714,862,3920.144861936569,,11.075389862060547,21.546470642089844,0.2
350,MetaDrive-td3combine-expt_with_safe—reuse-rb,89,127.583204544181,351417,863,3929.801623106003,-18.923627853393555,41.51329040527344,18.755966186523438,0.21
351,MetaDrive-td3combine-expt_with_safe—reuse-rb,89,128.08999217646613,352418,864,3942.524908065796,,3.2669997215270996,21.522768020629883,0.21
352,MetaDrive-td3combine-expt_with_safe—reuse-rb,89,130.22672900393312,353151,866,3952.4842491149902,-12.787155151367188,14.603398323059082,12.774368286132812,0.22
353,MetaDrive-td3combine-expt_with_safe—reuse-rb,89,131.14752408652342,354857,869,3974.079730987549,-15.927774429321289,6.937151908874512,15.56047534942627,0.21
354,MetaDrive-td3combine-expt_with_safe—reuse-rb,89,131.3974105558851,355003,870,3976.1348869800568,-30.70563316345215,14.964897155761719,29.759912490844727,0.21
355,MetaDrive-td3combine-expt_with_safe—reuse-rb,89,129.69104226341562,356004,871,3988.436184167862,,11.57552719116211,19.520145416259766,0.21
356,MetaDrive-td3combine-expt_with_safe—reuse-rb,89,131.22511551586615,357237,874,4005.0312802791595,-16.609355926513672,6.463190078735352,16.2736873626709,0.23
357,MetaDrive-td3combine-expt_with_safe—reuse-rb,89,131.71106141820803,358030,876,4015.6494681835175,,3.3879246711730957,24.923627853393555,0.23
358,MetaDrive-td3combine-expt_with_safe—reuse-rb,89,133.53440096695257,359302,879,4032.3924741744995,,5.909172058105469,13.420672416687012,0.24
359,MetaDrive-td3combine-expt_with_safe—reuse-rb,89,133.58306251568837,360544,881,4049.100548028946,,6.758815765380859,17.534767150878906,0.24
360,MetaDrive-td3combine-expt_with_safe—reuse-rb,89,131.82772173281862,361545,882,4061.915585041046,-16.49646759033203,11.725746154785156,15.646002769470215,0.23
361,MetaDrive-td3combine-expt_with_safe—reuse-rb,88,129.8064927151383,362546,883,4075.155569076538,,6.531125068664551,13.939254760742188,0.22
362,MetaDrive-td3combine-expt_with_safe—reuse-rb,88,129.86031623782296,363547,884,4088.737282037735,-24.691442489624023,100.91987609863281,23.26691246032715,0.21
363,MetaDrive-td3combine-expt_with_safe—reuse-rb,88,126.48889765879503,364654,886,4103.61375617981,,11.284611701965332,22.295909881591797,0.2
364,MetaDrive-td3combine-expt_with_safe—reuse-rb,88,128.00867222479792,365167,887,4110.572693109512,-11.960176467895508,10.82411003112793,11.36109733581543,0.21
365,MetaDrive-td3combine-expt_with_safe—reuse-rb,88,128.56116784819787,366168,888,4123.351046085358,,9.064207077026367,19.63333511352539,0.21
366,MetaDrive-td3combine-expt_with_safe—reuse-rb,88,125.58537043259568,367169,889,4137.357978105545,-21.091297149658203,10.86430835723877,20.76528549194336,0.2
367,MetaDrive-td3combine-expt_with_safe—reuse-rb,88,124.82512707614532,368211,891,4151.440577983856,-20.38454818725586,3.66475248336792,20.647228240966797,0.2
368,MetaDrive-td3combine-expt_with_safe—reuse-rb,88,124.5097208078624,369212,892,4164.656394958496,,7.613387584686279,18.03813934326172,0.2
369,MetaDrive-td3combine-expt_with_safe—reuse-rb,88,124.89422020235452,370213,893,4177.8295109272,-26.130876541137695,5.089276313781738,25.310304641723633,0.2
370,MetaDrive-td3combine-expt_with_safe—reuse-rb,88,119.10057533724297,371783,897,4198.593294143677,-24.41790199279785,4.6211652755737305,24.471567153930664,0.18
371,MetaDrive-td3combine-expt_with_safe—reuse-rb,88,118.13071152312132,372784,898,4211.92000412941,,86.5850601196289,13.293160438537598,0.18
372,MetaDrive-td3combine-expt_with_safe—reuse-rb,88,118.11470198419028,373911,900,4226.723064184189,-19.862571716308594,24.128795623779297,19.979206085205078,0.18
373,MetaDrive-td3combine-expt_with_safe—reuse-rb,88,117.0659054004467,374118,901,4229.78448009491,,8.166749000549316,15.876815795898438,0.18
374,MetaDrive-td3combine-expt_with_safe—reuse-rb,88,118.49169243796653,375067,903,4242.3325300216675,-22.213287353515625,4.645855903625488,23.30937385559082,0.19
375,MetaDrive-td3combine-expt_with_safe—reuse-rb,88,120.29406911244673,376371,905,4259.333144187927,-23.082134246826172,6.7454681396484375,22.755807876586914,0.2
376,MetaDrive-td3combine-expt_with_safe—reuse-rb,88,118.15180903280506,377599,907,4276.171228885651,-17.888364791870117,6.807825088500977,18.456493377685547,0.2
377,MetaDrive-td3combine-expt_with_safe—reuse-rb,88,118.0877769250685,378600,908,4289.269904136658,,32.16468048095703,19.886526107788086,0.2
378,MetaDrive-td3combine-expt_with_safe—reuse-rb,88,119.7414364796165,379201,910,4297.4006860256195,-30.691675186157227,10.074087142944336,29.655956268310547,0.2
379,MetaDrive-td3combine-expt_with_safe—reuse-rb,88,119.31302871421548,380754,912,4317.615659952164,,61.84725570678711,10.759778022766113,0.2
380,MetaDrive-td3combine-expt_with_safe—reuse-rb,88,119.90557518493878,381755,913,4330.507513046265,-19.30615997314453,5.310571193695068,19.233566284179688,0.2
381,MetaDrive-td3combine-expt_with_safe—reuse-rb,88,120.93885686246581,382238,914,4337.298784971237,,136.9539794921875,21.152978897094727,0.2
382,MetaDrive-td3combine-expt_with_safe—reuse-rb,88,122.65405282302262,383239,915,4351.676831960678,-23.06226921081543,17.006582260131836,24.01955223083496,0.2
383,MetaDrive-td3combine-expt_with_safe—reuse-rb,88,121.9543737796926,384240,916,4365.288112163544,,15.539165496826172,20.70203399658203,0.2
384,MetaDrive-td3combine-expt_with_safe—reuse-rb,87,124.49812376956918,385432,919,4381.802771091461,,12.580034255981445,27.315004348754883,0.21
385,MetaDrive-td3combine-expt_with_safe—reuse-rb,87,125.94795498798521,386011,920,4389.989284038544,-19.94012451171875,16.975017547607422,19.8116512298584,0.22
386,MetaDrive-td3combine-expt_with_safe—reuse-rb,87,127.01654312588867,387012,921,4402.935557126999,,48.548545837402344,21.69745635986328,0.22
387,MetaDrive-td3combine-expt_with_safe—reuse-rb,87,124.3532459892823,388407,924,4422.28749704361,-32.96121597290039,3.0016822814941406,32.106178283691406,0.21
388,MetaDrive-td3combine-expt_with_safe—reuse-rb,87,123.72037345402006,389055,926,4430.777225971222,-19.678691864013672,15.546833992004395,19.000276565551758,0.22
389,MetaDrive-td3combine-expt_with_safe—reuse-rb,87,120.27622582997064,390056,927,4444.383288145065,,33.11589050292969,22.224214553833008,0.21
390,MetaDrive-td3combine-expt_with_safe—reuse-rb,87,120.7486514388202,391057,928,4457.571035146713,-24.949031829833984,15.238546371459961,24.095853805541992,0.21
391,MetaDrive-td3combine-expt_with_safe—reuse-rb,87,123.17552235637314,392510,930,4476.986162900925,,7.785829067230225,19.183828353881836,0.22
392,MetaDrive-td3combine-expt_with_safe—reuse-rb,87,122.85234748666217,393153,932,4485.610856056213,-17.89474868774414,4.412764549255371,17.786935806274414,0.22
393,MetaDrive-td3combine-expt_with_safe—reuse-rb,87,124.17852535457178,394154,933,4498.539810180664,,21.890382766723633,19.904850006103516,0.22
394,MetaDrive-td3combine-expt_with_safe—reuse-rb,87,123.85309492155201,395155,934,4511.705644130707,-23.193178176879883,8.96435546875,22.69890022277832,0.22
395,MetaDrive-td3combine-expt_with_safe—reuse-rb,87,125.74777486916504,396156,935,4525.1856162548065,,3.1066908836364746,21.689720153808594,0.22
396,MetaDrive-td3combine-expt_with_safe—reuse-rb,87,127.06444956666209,397090,936,4537.024147987366,,30.87067413330078,23.21995735168457,0.22
397,MetaDrive-td3combine-expt_with_safe—reuse-rb,87,128.1872902959762,398293,938,4553.021713256836,-19.697307586669922,7.333451271057129,18.95806312561035,0.21
398,MetaDrive-td3combine-expt_with_safe—reuse-rb,87,127.50660780313791,399294,939,4567.120953083038,,4.779998779296875,19.16893196105957,0.2
