TanmayH/CS269-RL-project-code/MetaDrive-testbn_og/td3/progress.csv
,log_dir,frame_per_second,episode_reward,total_steps,total_episodes,total_time,actor_loss,critic_loss,target_q,success_rate
0,MetaDrive-testbn_og,143,12.252129422954658,1071,2,7.442199468612671,-0.051324665546417236,0.012274350970983505,0.04223276674747467,0.0
1,MetaDrive-testbn_og,87,-1.5948670009905443,2702,32,30.89464831352234,,0.014866402372717857,0.05087434872984886,0.0
2,MetaDrive-testbn_og,91,-1.639057427419315,3899,35,42.424516916275024,-0.051620736718177795,0.7329010367393494,-0.01664040982723236,0.0
3,MetaDrive-testbn_og,92,-1.7591726729615447,4392,36,47.517910957336426,,1.4791420698165894,-0.10282650589942932,0.0
4,MetaDrive-testbn_og,93,-1.7631347484791362,5393,37,57.76672983169556,-0.04048168659210205,0.7868543267250061,-0.03821205720305443,0.0
5,MetaDrive-testbn_og,94,-1.9372490889832008,6722,40,71.2324333190918,,0.08203709125518799,0.01532572042196989,0.0
6,MetaDrive-testbn_og,96,-1.8124593471912165,7723,41,80.05917358398438,0.07107429206371307,0.7516285181045532,-0.07935941219329834,0.0
7,MetaDrive-testbn_og,97,-1.8182627441345394,8724,42,89.76262497901917,,0.01181340217590332,-0.026764705777168274,0.0
8,MetaDrive-testbn_og,97,-1.9935672955026327,9391,44,96.6771776676178,0.04029398784041405,0.796545147895813,-0.09699989855289459,0.0
9,MetaDrive-testbn_og,97,-2.0770761553207993,10754,46,109.99273109436035,,0.6590676307678223,-0.14075498282909393,0.0
10,MetaDrive-testbn_og,98,-2.0787523240248897,11755,47,119.88264107704163,0.05504639074206352,0.016574233770370483,-0.06930311769247055,0.0
11,MetaDrive-testbn_og,98,-2.1606612268418974,12343,48,125.45682311058044,0.05093326047062874,0.006528086494654417,-0.07788911461830139,0.0
12,MetaDrive-testbn_og,97,-2.321220611297441,13604,52,139.2919056415558,,0.00287030846811831,-0.10188118368387222,0.0
13,MetaDrive-testbn_og,98,-2.2619560430901484,14680,54,149.4509081840515,,0.0035659275017678738,-0.12461747229099274,0.0
14,MetaDrive-testbn_og,98,-2.281210676747792,15209,55,154.34980583190918,0.1183016449213028,0.006495014764368534,-0.1279040426015854,0.0
15,MetaDrive-testbn_og,94,-0.014606676268725458,16025,78,169.4763207435608,0.0006060692248865962,0.03263934701681137,-0.004519563168287277,0.0
16,MetaDrive-testbn_og,92,2.252133777628473,17011,102,184.7301380634308,-0.3145492374897003,0.8069614171981812,0.10354246199131012,0.0
17,MetaDrive-testbn_og,90,5.375752798910378,18022,125,199.6461217403412,,0.9573391675949097,0.4453843832015991,0.0
18,MetaDrive-testbn_og,88,8.946280093025086,19048,149,215.30546045303345,,0.04455513507127762,0.9719468355178833,0.0
19,MetaDrive-testbn_og,86,12.227493465943333,20018,168,230.2216911315918,,0.09159208834171295,1.4297215938568115,0.0
20,MetaDrive-testbn_og,85,12.217573012015482,21034,193,245.13418316841125,,0.06464442610740662,1.942533254623413,0.0
21,MetaDrive-testbn_og,84,13.672599058114935,22037,213,259.63491106033325,-2.464613914489746,0.11935809254646301,2.3475875854492188,0.0
22,MetaDrive-testbn_og,84,16.278519460171662,23029,230,272.9163963794708,-2.9728434085845947,0.16127805411815643,2.8437719345092773,0.0
23,MetaDrive-testbn_og,83,16.51832795162137,24006,253,286.97516775131226,,0.20647236704826355,3.4010918140411377,0.0
24,MetaDrive-testbn_og,82,16.437588147850683,25030,275,305.07100653648376,,2.4029593467712402,3.657529830932617,0.0
25,MetaDrive-testbn_og,81,20.119339598761186,26043,290,319.04762721061707,-4.295969009399414,1.9042515754699707,4.049975395202637,0.0
26,MetaDrive-testbn_og,81,20.47476230109245,27040,310,333.3720066547394,,0.25259923934936523,4.838986873626709,0.0
27,MetaDrive-testbn_og,81,20.686145597085154,28047,327,346.07994079589844,-5.707422733306885,7.466269493103027,5.234095573425293,0.0
28,MetaDrive-testbn_og,80,23.25271300498043,29031,341,358.5941240787506,-6.440424919128418,2.7775115966796875,5.729814529418945,0.0
29,MetaDrive-testbn_og,80,29.41044681127104,30059,353,373.11124205589294,-6.499648094177246,7.712891578674316,6.0551347732543945,0.0
30,MetaDrive-testbn_og,80,34.772892345904104,31050,364,387.36413168907166,,0.7698749303817749,7.773857593536377,0.0
31,MetaDrive-testbn_og,80,40.56028237749192,32073,376,400.01474356651306,-8.57260513305664,5.186191082000732,7.963605880737305,0.0
32,MetaDrive-testbn_og,80,44.733145345787186,33028,385,412.58775186538696,,5.731259822845459,8.72020149230957,0.0
33,MetaDrive-testbn_og,80,49.12893721981718,34080,397,425.5589406490326,,6.490124702453613,9.539619445800781,0.0
34,MetaDrive-testbn_og,79,54.39227862334191,35030,407,439.7481105327606,,7.4537353515625,10.509103775024414,0.0
35,MetaDrive-testbn_og,79,58.08950551771175,36078,419,452.3619873523712,,11.691922187805176,11.279430389404297,0.0
36,MetaDrive-testbn_og,79,63.21036757278222,37104,428,467.02340841293335,,33.698646545410156,11.634784698486328,0.0
37,MetaDrive-testbn_og,79,68.69203016886931,38208,436,481.4798765182495,,0.3217315077781677,13.070653915405273,0.0
38,MetaDrive-testbn_og,79,72.3960421858359,39026,441,493.648939371109,,2.3497862815856934,14.18962287902832,0.01
39,MetaDrive-testbn_og,78,75.92189821108443,40025,448,506.9613833427429,-15.055770874023438,14.259313583374023,14.419179916381836,0.01
40,MetaDrive-testbn_og,78,79.16053150246134,41037,453,520.2560081481934,-16.734188079833984,0.9000101089477539,16.808902740478516,0.02
41,MetaDrive-testbn_og,78,83.88636033797482,42048,456,535.8901672363281,,0.49305784702301025,16.788185119628906,0.03
42,MetaDrive-testbn_og,78,88.48853752807976,43301,458,554.7949657440186,-18.75051498413086,0.9565457105636597,17.841094970703125,0.04
43,MetaDrive-testbn_og,77,89.40922658574662,44069,462,566.8978853225708,-18.3089656829834,1.809952735900879,18.278949737548828,0.04
44,MetaDrive-testbn_og,77,94.78459849271155,45198,464,582.3112919330597,,14.041748046875,19.745275497436523,0.06
45,MetaDrive-testbn_og,77,97.56696443106135,46152,468,594.7664716243744,,18.927547454833984,19.363927841186523,0.06
46,MetaDrive-testbn_og,77,99.98953272571305,47290,473,613.3814988136292,,1.351400375366211,20.27088165283203,0.06
47,MetaDrive-testbn_og,77,103.0342912896979,48285,475,625.4075491428375,-21.566890716552734,2.4374589920043945,21.027862548828125,0.06
48,MetaDrive-testbn_og,77,105.41327979096626,49223,479,638.6145169734955,-22.022674560546875,3.019451856613159,21.607887268066406,0.06
49,MetaDrive-testbn_og,77,108.24396824875492,50029,483,649.6883647441864,-22.51727294921875,20.757511138916016,21.814090728759766,0.06
50,MetaDrive-testbn_og,76,110.22429123209778,51057,486,664.0483305454254,-22.898296356201172,2.2260348796844482,22.31484603881836,0.07
51,MetaDrive-testbn_og,76,115.08339841267761,52072,490,676.9186074733734,,23.19038963317871,22.92400360107422,0.07
52,MetaDrive-testbn_og,76,117.0103950662803,53124,496,691.8977222442627,,51.17116165161133,24.248310089111328,0.07
53,MetaDrive-testbn_og,76,120.06978323436124,54003,500,705.2597904205322,-23.64763641357422,32.836666107177734,23.04404067993164,0.08
54,MetaDrive-testbn_og,76,124.54664774762097,55350,504,724.6780872344971,,26.701412200927734,23.382444381713867,0.09
55,MetaDrive-testbn_og,76,130.7248552724812,56444,507,741.345201253891,,33.13909912109375,26.25724220275879,0.11
56,MetaDrive-testbn_og,76,132.43392660087883,57086,510,750.1005427837372,,2.1617374420166016,24.617862701416016,0.12
57,MetaDrive-testbn_og,76,136.05503709485365,58162,516,764.480870962143,,2.6664276123046875,25.399450302124023,0.12
58,MetaDrive-testbn_og,76,140.39944143097534,59066,518,776.3695859909058,,25.10483169555664,26.04403305053711,0.14
59,MetaDrive-testbn_og,76,140.39015435830956,60085,526,789.1155030727386,-26.839427947998047,4.394067764282227,26.65524673461914,0.14
60,MetaDrive-testbn_og,76,141.43087611768848,61186,532,802.796548128128,,2.782170057296753,28.75191307067871,0.14
61,MetaDrive-testbn_og,76,143.00047206193702,62038,536,813.2030827999115,,10.326545715332031,26.952062606811523,0.15
62,MetaDrive-testbn_og,76,146.82445943393046,63082,539,828.6632583141327,,2.407271146774292,27.06931495666504,0.16
63,MetaDrive-testbn_og,76,145.21956997270192,64033,547,840.4560325145721,-28.918428421020508,4.517147541046143,29.15121078491211,0.15
64,MetaDrive-testbn_og,76,143.06021002413416,65036,553,855.6002724170685,,14.301961898803711,29.021345138549805,0.14
65,MetaDrive-testbn_og,75,138.18895104749362,66116,557,871.7404205799103,,4.8690643310546875,28.89830780029297,0.13
66,MetaDrive-testbn_og,75,139.87765991820388,67226,562,885.5521123409271,,10.620933532714844,29.623889923095703,0.14
67,MetaDrive-testbn_og,75,133.43533020055742,68071,568,898.2752361297607,-29.794092178344727,6.373415946960449,29.423656463623047,0.12
68,MetaDrive-testbn_og,75,134.73188184944945,69800,574,929.7673699855804,,4.6967010498046875,31.03140640258789,0.12
69,MetaDrive-testbn_og,75,133.15940121244142,70087,576,933.5645525455475,-29.183822631835938,3.257598400115967,28.963085174560547,0.12
70,MetaDrive-testbn_og,75,132.83567200867972,71122,582,946.1640272140503,,6.158211708068848,30.825965881347656,0.12
71,MetaDrive-testbn_og,75,129.4448190617163,72436,588,963.9690215587616,,4.697977066040039,27.546607971191406,0.12
72,MetaDrive-testbn_og,75,129.59475358627108,73101,592,972.3444926738739,-31.27225112915039,20.123851776123047,31.337350845336914,0.12
73,MetaDrive-testbn_og,74,129.55687686620067,74011,597,987.0703496932983,-29.77478790283203,29.607433319091797,29.29817008972168,0.12
74,MetaDrive-testbn_og,74,128.6376551427138,75081,601,1001.8377466201782,-33.76481628417969,2.7528903484344482,33.36246871948242,0.11
75,MetaDrive-testbn_og,75,127.35710718488058,76008,606,1012.973879814148,,6.225242614746094,30.31800651550293,0.11
76,MetaDrive-testbn_og,75,123.9927223368408,77050,612,1025.5522434711456,,55.32489776611328,31.01567268371582,0.09
77,MetaDrive-testbn_og,75,121.76709855742045,78138,619,1041.3352637290955,,21.379297256469727,32.72340393066406,0.07
78,MetaDrive-testbn_og,74,124.89987444796368,79017,624,1054.1550843715668,-35.94902038574219,4.306082725524902,35.462745666503906,0.07
79,MetaDrive-testbn_og,74,128.43966820641646,80187,627,1069.9748718738556,-28.68801498413086,6.782785892486572,29.057098388671875,0.09
80,MetaDrive-testbn_og,75,130.89418962603042,81421,632,1085.360702753067,-30.62765884399414,16.583255767822266,31.3813419342041,0.1
81,MetaDrive-testbn_og,75,129.45141663572673,82116,636,1094.2267303466797,,7.763945579528809,33.02112579345703,0.09
82,MetaDrive-testbn_og,75,126.79376133580259,83012,641,1106.146496295929,,4.861499309539795,33.028717041015625,0.08
83,MetaDrive-testbn_og,75,129.91306240691335,84138,646,1121.8389325141907,,10.235881805419922,34.714786529541016,0.08
84,MetaDrive-testbn_og,75,128.94610300918018,85137,652,1133.9900755882263,-37.59160614013672,8.075165748596191,37.25137710571289,0.08
85,MetaDrive-testbn_og,75,129.83785210751375,86323,655,1149.3593814373016,-37.11394119262695,3.573223114013672,36.704750061035156,0.08
86,MetaDrive-testbn_og,75,131.71632680359176,87015,658,1157.6382122039795,-35.98167037963867,7.962728500366211,35.618717193603516,0.08
87,MetaDrive-testbn_og,75,134.86590342795702,88398,661,1177.187551498413,,13.29411506652832,34.9522705078125,0.07
88,MetaDrive-testbn_og,75,135.71690690127352,89352,663,1190.0524299144745,,16.66017723083496,31.100807189941406,0.08
89,MetaDrive-testbn_og,75,140.24047052962726,90473,665,1204.270082950592,-35.651756286621094,63.655494689941406,34.775848388671875,0.09
90,MetaDrive-testbn_og,75,142.16521355442757,91121,666,1214.151891708374,-34.637046813964844,80.23687744140625,33.86421203613281,0.1
91,MetaDrive-testbn_og,75,146.645194487499,92466,671,1229.941121339798,,6.892707347869873,34.76313400268555,0.12
92,MetaDrive-testbn_og,75,147.63003421652408,93001,673,1235.6715936660767,-30.662546157836914,7.056562423706055,30.587371826171875,0.13
93,MetaDrive-testbn_og,75,147.48732565167728,94926,676,1260.288913011551,,7.695456027984619,35.774024963378906,0.14
94,MetaDrive-testbn_og,75,145.29601735143942,95034,677,1261.7485747337341,,31.82457733154297,36.228599548339844,0.14
95,MetaDrive-testbn_og,75,149.39366938722281,96145,680,1275.9441132545471,-37.15217590332031,74.29495239257812,36.17176818847656,0.16
96,MetaDrive-testbn_og,75,151.84352776425965,97168,683,1292.9601454734802,,59.73328399658203,36.48201370239258,0.16
97,MetaDrive-testbn_og,75,153.63511145314558,98155,684,1307.0690834522247,-37.186981201171875,15.718040466308594,36.95448303222656,0.16
98,MetaDrive-testbn_og,75,156.9187127911766,99376,687,1323.276901960373,,18.351123809814453,37.961517333984375,0.17
99,MetaDrive-testbn_og,75,156.4159606171087,100099,689,1331.6076838970184,-41.44036865234375,4.668264865875244,39.902183532714844,0.16
100,MetaDrive-testbn_og,75,156.53133186761357,101029,693,1344.030155658722,-38.791534423828125,5.248217582702637,38.38793182373047,0.17
101,MetaDrive-testbn_og,75,157.77435216940384,102328,698,1362.61505818367,,7.578501224517822,39.19195556640625,0.17
102,MetaDrive-testbn_og,75,156.54410988847593,103075,700,1372.5450892448425,-38.49936294555664,11.260519027709961,38.95226287841797,0.16
103,MetaDrive-testbn_og,75,161.7238909206888,104144,703,1387.8080608844757,,74.29622650146484,39.4768180847168,0.18
104,MetaDrive-testbn_og,75,163.0857096803576,105539,705,1404.5119276046753,-37.74900817871094,71.35971069335938,37.98923873901367,0.18
105,MetaDrive-testbn_og,75,163.76893901746536,106024,707,1409.621673822403,,11.081504821777344,38.49839782714844,0.19
106,MetaDrive-testbn_og,75,167.33600252753254,107119,710,1423.3982677459717,-36.917781829833984,6.2127227783203125,36.55360412597656,0.21
107,MetaDrive-testbn_og,75,169.08034361432303,108036,712,1437.4099609851837,,40.56187057495117,36.41444778442383,0.22
108,MetaDrive-testbn_og,75,174.0909572709519,109184,715,1452.6053040027618,,7.722260475158691,39.553890228271484,0.24
109,MetaDrive-testbn_og,75,175.55685398003675,110048,717,1465.0452451705933,,9.435568809509277,38.217041015625,0.25
110,MetaDrive-testbn_og,75,178.59703655314624,111121,719,1480.2268931865692,-36.70623016357422,63.36309814453125,37.3967399597168,0.26
111,MetaDrive-testbn_og,75,183.82890424396078,112480,722,1498.8274011611938,,7.305538654327393,41.44306945800781,0.28
112,MetaDrive-testbn_og,75,186.62208092689144,113316,724,1508.9784247875214,,29.076980590820312,39.15008544921875,0.3
113,MetaDrive-testbn_og,75,187.339500976129,114131,726,1518.688661813736,-41.740440368652344,12.430032730102539,41.292171478271484,0.31
114,MetaDrive-testbn_og,74,190.45106599549433,115731,728,1546.3025562763214,-40.70914840698242,10.83138370513916,40.81525421142578,0.32
115,MetaDrive-testbn_og,74,191.8555403023664,116475,731,1554.7574605941772,-43.16316604614258,4.6551361083984375,42.401817321777344,0.33
116,MetaDrive-testbn_og,74,193.9312125486947,117476,732,1571.1402807235718,,8.865862846374512,39.93238830566406,0.32
117,MetaDrive-testbn_og,74,195.84403005994093,118844,734,1590.0399894714355,,5.306114196777344,38.99892044067383,0.32
118,MetaDrive-testbn_og,74,195.53942877916862,119003,735,1591.8362641334534,-43.780364990234375,18.09061050415039,44.246498107910156,0.32
119,MetaDrive-testbn_og,74,198.72056896312276,120108,737,1605.4564092159271,,8.500553131103516,39.798377990722656,0.32
120,MetaDrive-testbn_og,74,199.25394007471576,121768,739,1626.8424470424652,,7.705510139465332,40.37931823730469,0.33
121,MetaDrive-testbn_og,74,201.61753490908958,122206,740,1632.2204024791718,,5.66221809387207,43.782371520996094,0.34
122,MetaDrive-testbn_og,74,204.14225921802534,123130,741,1643.9205720424652,,3.940824508666992,44.76824951171875,0.35
123,MetaDrive-testbn_og,74,204.38796030692092,124024,743,1656.9371020793915,,15.365477561950684,40.77631759643555,0.36
124,MetaDrive-testbn_og,74,209.64914166074593,125133,746,1669.9093809127808,-44.60218048095703,80.075439453125,43.26934051513672,0.38
125,MetaDrive-testbn_og,74,214.42595087847613,126418,749,1690.5187292099,,5.81336784362793,43.58880615234375,0.39
126,MetaDrive-testbn_og,74,211.8240863915985,127054,753,1699.3124146461487,,14.963103294372559,42.941131591796875,0.39
127,MetaDrive-testbn_og,74,213.73971868067326,128182,755,1712.7991573810577,,7.703721046447754,41.94971466064453,0.4
128,MetaDrive-testbn_og,74,218.433583531023,129021,757,1721.535259962082,-46.74195098876953,12.989540100097656,45.0543212890625,0.42
129,MetaDrive-testbn_og,75,217.67739801253254,130074,760,1732.790700674057,,8.237722396850586,42.687740325927734,0.43
130,MetaDrive-testbn_og,75,212.5892043556917,131508,764,1749.852953195572,,71.83139038085938,42.59889221191406,0.43
131,MetaDrive-testbn_og,75,211.55301137038373,132280,766,1762.7417023181915,,11.715564727783203,44.51665496826172,0.43
132,MetaDrive-testbn_og,75,212.19998084092845,133054,768,1773.204790353775,,8.300713539123535,44.357818603515625,0.42
133,MetaDrive-testbn_og,74,215.24086271005592,134573,771,1794.526028394699,-41.76872253417969,3.6669511795043945,40.5704345703125,0.43
134,MetaDrive-testbn_og,74,215.57361014739033,135433,773,1806.7175931930542,-42.12571334838867,9.656366348266602,40.79887390136719,0.43
135,MetaDrive-testbn_og,74,215.3942856555769,136321,776,1818.2271165847778,-42.48627471923828,8.326499938964844,42.28999328613281,0.43
136,MetaDrive-testbn_og,74,212.55215530521235,137121,780,1829.6764724254608,-49.609336853027344,9.055803298950195,48.168418884277344,0.41
137,MetaDrive-testbn_og,74,214.70484319815037,138018,781,1845.347041130066,,9.704231262207031,44.525413513183594,0.42
138,MetaDrive-testbn_og,74,213.47105738724002,139074,784,1858.2168836593628,,5.447869300842285,46.612518310546875,0.43
139,MetaDrive-testbn_og,74,212.75315891929387,140181,787,1871.6235768795013,-45.697654724121094,4.425267219543457,44.97938537597656,0.44
140,MetaDrive-testbn_og,74,212.38483441075957,141281,790,1883.9986283779144,-42.752037048339844,44.172218322753906,42.15706253051758,0.44
141,MetaDrive-testbn_og,75,216.40099099403412,142350,792,1896.7349529266357,,15.24729061126709,44.92082214355469,0.46
142,MetaDrive-testbn_og,75,218.43993780796637,143002,793,1904.922107219696,,9.175911903381348,45.763675689697266,0.47
143,MetaDrive-testbn_og,74,222.1448768182106,144383,796,1928.5147621631622,-46.540321350097656,3.307755947113037,46.28080368041992,0.48
144,MetaDrive-testbn_og,74,225.49125436971227,145384,797,1948.7211563587189,,90.94143676757812,44.267791748046875,0.48
145,MetaDrive-testbn_og,74,226.54476952268163,146184,799,1958.3242840766907,,4.696165084838867,45.28514099121094,0.49
146,MetaDrive-testbn_og,74,226.61175046390767,147291,802,1970.1337463855743,-43.9619026184082,161.21400451660156,42.839637756347656,0.5
147,MetaDrive-testbn_og,74,227.8368497614114,148072,803,1982.461008310318,,25.008373260498047,44.02638244628906,0.5
148,MetaDrive-testbn_og,74,228.63363785959402,149201,806,1997.310789823532,-44.31835174560547,71.89904022216797,43.98686218261719,0.49
149,MetaDrive-testbn_og,74,228.07062190046702,150202,807,2010.132759809494,,52.555824279785156,44.41869354248047,0.48
150,MetaDrive-testbn_og,74,230.74106119177313,151342,809,2026.065277814865,,19.115325927734375,46.65373992919922,0.49
151,MetaDrive-testbn_og,74,228.8660021592108,152222,811,2035.6006383895874,,83.62968444824219,41.12209701538086,0.49
152,MetaDrive-testbn_og,74,225.88161687986158,153255,815,2047.5078814029694,-47.96611785888672,49.70796203613281,47.47123718261719,0.47
153,MetaDrive-testbn_og,74,223.03317097102587,154146,818,2060.8976328372955,,5.714044570922852,45.7994384765625,0.45
154,MetaDrive-testbn_og,74,224.50261335127132,155062,819,2075.860908508301,,179.30003356933594,45.5107421875,0.46
155,MetaDrive-testbn_og,74,222.1701100802844,156361,822,2091.4464049339294,-45.635414123535156,12.685624122619629,44.75632095336914,0.45
156,MetaDrive-testbn_og,74,221.85143070452682,157598,824,2110.7100365161896,,10.83354663848877,45.10014343261719,0.44
157,MetaDrive-testbn_og,74,221.66093428498556,158599,825,2125.1259891986847,-44.44202423095703,12.696727752685547,43.975257873535156,0.43
158,MetaDrive-testbn_og,74,221.8641328708306,159174,826,2131.448928833008,,10.363216400146484,44.484439849853516,0.43
159,MetaDrive-testbn_og,74,218.65353278340987,160563,829,2148.653929233551,-46.649322509765625,5.817300796508789,46.273231506347656,0.42
160,MetaDrive-testbn_og,74,221.4661461554157,161223,830,2156.3080565929413,-45.41388702392578,8.525630950927734,45.425514221191406,0.43
161,MetaDrive-testbn_og,74,219.04009712632916,162154,832,2168.863184928894,,17.273252487182617,45.1638069152832,0.43
162,MetaDrive-testbn_og,74,221.00147430706176,163478,834,2190.7493348121643,,13.794931411743164,42.30105209350586,0.45
163,MetaDrive-testbn_og,74,222.62588107620692,164023,835,2197.90163397789,-42.27366256713867,9.350536346435547,42.4025993347168,0.45
164,MetaDrive-testbn_og,74,222.36763411381787,165035,837,2213.016733646393,-41.52716827392578,80.92269897460938,40.5732536315918,0.46
165,MetaDrive-testbn_og,74,222.97600632237754,166036,838,2231.473182439804,,11.721099853515625,47.14275360107422,0.45
166,MetaDrive-testbn_og,74,223.03265149176167,167412,841,2248.8978526592255,,40.599205017089844,42.023902893066406,0.45
167,MetaDrive-testbn_og,74,223.3094484809664,168481,843,2264.379496574402,-44.66905975341797,66.87998962402344,44.47520446777344,0.45
168,MetaDrive-testbn_og,74,218.60107331896023,169901,847,2285.6170570850372,-45.344024658203125,6.96257209777832,44.672119140625,0.43
169,MetaDrive-testbn_og,74,219.09020911259609,170330,848,2293.939441204071,,23.234676361083984,51.060001373291016,0.43
170,MetaDrive-testbn_og,74,220.87536803561116,171132,849,2306.0426197052,,7.244629859924316,47.803871154785156,0.44
171,MetaDrive-testbn_og,73,224.35068511604226,172532,851,2335.7877645492554,,6.545709609985352,48.057769775390625,0.44
172,MetaDrive-testbn_og,73,227.04973626816124,173155,853,2343.8044033050537,-44.53921127319336,12.4348783493042,43.062255859375,0.45
173,MetaDrive-testbn_og,73,226.87991864656692,174067,855,2353.30087685585,-39.28729248046875,17.572341918945312,39.27411651611328,0.45
174,MetaDrive-testbn_og,73,227.13133430729496,175327,857,2369.2921295166016,-46.74370574951172,11.198118209838867,46.41338348388672,0.44
175,MetaDrive-testbn_og,74,228.91322534301534,176524,859,2383.1891388893127,,6.040792465209961,44.02530288696289,0.45
176,MetaDrive-testbn_og,73,230.20823925226395,177238,860,2397.2248277664185,,7.046085834503174,41.09535217285156,0.45
177,MetaDrive-testbn_og,73,230.90292643936132,178204,863,2408.2135598659515,,11.806022644042969,45.46023178100586,0.44
178,MetaDrive-testbn_og,73,231.98656274519544,179354,865,2425.6029608249664,,6.813258647918701,43.878841400146484,0.44
179,MetaDrive-testbn_og,74,231.46869877701934,180314,867,2436.2284145355225,,49.89373016357422,42.39179992675781,0.44
180,MetaDrive-testbn_og,73,231.64177578795756,181315,868,2458.0000772476196,-45.5035514831543,7.10085391998291,44.5932731628418,0.44
181,MetaDrive-testbn_og,73,233.11836216770322,182679,870,2474.3185822963715,-45.63032913208008,14.025919914245605,45.47509002685547,0.44
182,MetaDrive-testbn_og,73,231.29285265261865,183162,872,2480.5230000019073,,43.999759674072266,47.27665710449219,0.43
183,MetaDrive-testbn_og,73,231.4267373907985,184010,873,2490.9269936084747,,42.67705535888672,42.294578552246094,0.43
184,MetaDrive-testbn_og,73,232.7448313890359,185011,874,2512.1327362060547,-45.446441650390625,11.530710220336914,45.35388946533203,0.43
185,MetaDrive-testbn_og,73,237.42390449477674,186435,876,2531.5709171295166,-48.70427703857422,5.275893688201904,47.75088119506836,0.44
186,MetaDrive-testbn_og,73,239.8626013213034,187218,878,2543.4429001808167,,17.851219177246094,41.133663177490234,0.45
187,MetaDrive-testbn_og,73,240.71554006364838,188513,881,2559.9169929027557,-45.5841064453125,4.250723838806152,45.44092559814453,0.46
188,MetaDrive-testbn_og,73,243.83505881842888,189510,883,2571.586820602417,,13.516067504882812,45.47073745727539,0.47
189,MetaDrive-testbn_og,73,246.07744485354473,190205,884,2579.8006598949432,-43.69941329956055,75.23652648925781,42.66292190551758,0.48
190,MetaDrive-testbn_og,73,248.020609053935,191206,885,2595.914073228836,,40.140708923339844,40.36563491821289,0.48
191,MetaDrive-testbn_og,73,245.94935640439869,192537,888,2611.226886510849,-48.23030471801758,8.651361465454102,47.263736724853516,0.47
192,MetaDrive-testbn_og,73,246.53263401419892,193538,889,2629.886859893799,,10.459996223449707,43.64989471435547,0.47
193,MetaDrive-testbn_og,73,247.2855901338984,194119,890,2636.539575815201,-38.885887145996094,21.80339813232422,37.84160614013672,0.48
194,MetaDrive-testbn_og,73,248.54161559190987,195421,892,2651.9618299007416,-42.643714904785156,91.43339538574219,42.31927490234375,0.48
195,MetaDrive-testbn_og,73,248.73454566603544,196001,893,2658.3147733211517,-45.208580017089844,5.333649158477783,45.22058868408203,0.48
196,MetaDrive-testbn_og,73,250.08859477429186,197508,895,2679.321918487549,,15.140512466430664,42.095619201660156,0.49
197,MetaDrive-testbn_og,73,249.62222978386754,198211,896,2688.4704852104187,-45.31351852416992,64.64411163330078,45.20356750488281,0.49
198,MetaDrive-testbn_og,73,248.4906121094414,199946,899,2716.198328256607,,4.689137935638428,47.00441360473633,0.49
199,MetaDrive-testbn_og,73,249.74930822111128,200947,900,2732.161407470703,-40.779788970947266,10.354726791381836,39.586273193359375,0.49
200,MetaDrive-testbn_og,73,248.13320720447803,201192,901,2734.6358354091644,,6.523442268371582,44.67285919189453,0.48
201,MetaDrive-testbn_og,73,243.4242832233831,202331,903,2752.3124232292175,-43.837196350097656,36.2501220703125,42.456932067871094,0.46
202,MetaDrive-testbn_og,73,245.44839142378584,203285,904,2764.317095041275,-46.22383117675781,5.1154327392578125,45.797611236572266,0.47
203,MetaDrive-testbn_og,73,246.95874601603734,204047,905,2772.4568355083466,-47.37837219238281,3.2695369720458984,47.290855407714844,0.48
204,MetaDrive-testbn_og,73,248.9110464343759,205013,907,2784.160840511322,-40.77641677856445,27.790674209594727,40.40101623535156,0.49
205,MetaDrive-testbn_og,73,248.25435860868558,206090,909,2797.317080974579,,101.20745849609375,41.270851135253906,0.49
206,MetaDrive-testbn_og,73,248.52238427178236,207091,910,2819.3585250377655,-42.4976806640625,4.079500198364258,41.95552062988281,0.48
207,MetaDrive-testbn_og,73,249.2948890006963,208178,912,2833.6326694488525,,7.248129844665527,39.466712951660156,0.48
208,MetaDrive-testbn_og,73,253.0532369044067,209445,915,2849.9890537261963,-42.01371765136719,41.3410530090332,41.0384407043457,0.5
209,MetaDrive-testbn_og,73,254.5413087189571,210905,917,2873.752403974533,-41.38798522949219,7.513833522796631,41.212825775146484,0.51
210,MetaDrive-testbn_og,73,255.77094204991204,211511,918,2880.5711104869843,-43.32706832885742,33.19318389892578,45.07236862182617,0.52
211,MetaDrive-testbn_og,73,256.5465664559969,212405,920,2889.7929224967957,-38.530006408691406,20.50879669189453,39.305259704589844,0.53
212,MetaDrive-testbn_og,73,258.9505229743821,213406,921,2905.6489255428314,,11.189451217651367,40.74933624267578,0.53
213,MetaDrive-testbn_og,73,259.630019876717,214511,923,2921.261139392853,-44.91361999511719,4.826932430267334,44.5454216003418,0.53
214,MetaDrive-testbn_og,73,257.3182320779101,215289,925,2932.5253348350525,-40.54985046386719,22.42268943786621,41.657432556152344,0.52
215,MetaDrive-testbn_og,73,257.9945262977082,216015,926,2942.6169970035553,-45.61653137207031,26.28815460205078,45.540557861328125,0.52
216,MetaDrive-testbn_og,73,261.4914062909572,217977,929,2973.5882301330566,-46.37425994873047,7.754108428955078,45.34033966064453,0.52
217,MetaDrive-testbn_og,73,260.83713765489176,218497,930,2982.315021753311,-44.366233825683594,4.983377456665039,44.008338928222656,0.52
218,MetaDrive-testbn_og,73,263.2698660663673,219498,931,3002.983734369278,,5.865065574645996,44.05109405517578,0.52
219,MetaDrive-testbn_og,73,262.4756040242278,220001,932,3008.0049035549164,-42.56273651123047,16.95464324951172,41.481414794921875,0.52
220,MetaDrive-testbn_og,73,261.7922376451495,221247,934,3025.019832611084,-39.718894958496094,22.348575592041016,40.126583099365234,0.51
221,MetaDrive-testbn_og,73,262.8960066747813,222248,935,3041.6300563812256,,5.656826972961426,45.18246841430664,0.51
222,MetaDrive-testbn_og,73,259.21546517315824,223221,938,3052.7016191482544,-43.32359313964844,6.188982009887695,43.04095458984375,0.51
223,MetaDrive-testbn_og,73,259.9282318167297,224253,940,3066.5864140987396,-39.46717071533203,94.03335571289062,40.167083740234375,0.51
224,MetaDrive-testbn_og,73,261.1163973243134,225500,942,3083.2276573181152,,12.40515422821045,41.117828369140625,0.51
225,MetaDrive-testbn_og,73,262.5291611884362,226367,943,3096.4895305633545,-40.38610076904297,7.748419761657715,40.852195739746094,0.52
226,MetaDrive-testbn_og,73,266.17080113098,227707,945,3119.240667104721,-44.4007568359375,2.617516040802002,43.288597106933594,0.52
227,MetaDrive-testbn_og,73,269.06544004649703,228367,946,3128.2211694717407,-41.65719985961914,6.59858512878418,41.028778076171875,0.53
228,MetaDrive-testbn_og,73,267.79551853183426,229258,948,3140.4748895168304,,15.386845588684082,41.878658294677734,0.53
229,MetaDrive-testbn_og,73,267.10333210637447,230274,950,3152.1544449329376,,4.540452480316162,45.335731506347656,0.53
230,MetaDrive-testbn_og,73,267.90932888317565,231253,952,3164.4976332187653,-43.31877136230469,5.137574672698975,43.0390510559082,0.54
231,MetaDrive-testbn_og,73,266.7295163182412,232408,954,3177.6272633075714,,11.269796371459961,42.20506286621094,0.52
232,MetaDrive-testbn_og,73,264.3073184944908,233544,956,3198.262365102768,,61.50627899169922,45.84601593017578,0.5
233,MetaDrive-testbn_og,73,265.05149183653566,234107,957,3204.4045321941376,-41.498565673828125,5.976110458374023,41.540122985839844,0.51
234,MetaDrive-testbn_og,73,261.77583685364806,235402,960,3219.7376189231873,,8.769224166870117,44.32327651977539,0.5
235,MetaDrive-testbn_og,72,264.1406728011739,236668,962,3242.7126500606537,,4.389408588409424,38.9364013671875,0.5
236,MetaDrive-testbn_og,73,264.6779914022177,237074,963,3247.1351993083954,,6.065096855163574,42.04933547973633,0.5
237,MetaDrive-testbn_og,73,265.63290735245357,238502,965,3265.6254332065582,,5.703106880187988,40.23604202270508,0.51
238,MetaDrive-testbn_og,73,265.26959269053555,239571,967,3279.2436401844025,-40.433265686035156,10.458690643310547,39.86578369140625,0.5
239,MetaDrive-testbn_og,73,267.66368820913004,240453,968,3293.2088980674744,-45.382728576660156,5.079471588134766,46.384376525878906,0.51
240,MetaDrive-testbn_og,73,268.0221520625402,241258,969,3302.90038728714,,14.208263397216797,41.96266174316406,0.51
241,MetaDrive-testbn_og,73,269.2717615982261,242049,971,3312.421412229538,-42.246337890625,4.9974517822265625,41.86808776855469,0.52
242,MetaDrive-testbn_og,73,267.6198495504216,243290,974,3326.7819159030914,,47.14176940917969,41.2713623046875,0.52
243,MetaDrive-testbn_og,73,265.74155642926996,244394,976,3339.71116232872,,4.531733512878418,44.57733154296875,0.51
244,MetaDrive-testbn_og,73,266.7090405940106,245438,978,3350.6943368911743,,9.616350173950195,41.73704528808594,0.52
245,MetaDrive-testbn_og,73,267.92464822244705,246438,980,3365.2162272930145,,27.855205535888672,41.65470504760742,0.52
246,MetaDrive-testbn_og,73,269.7786476042958,247338,981,3381.221832513809,,5.229251384735107,41.036346435546875,0.52
247,MetaDrive-testbn_og,73,269.88916632246395,248339,982,3400.517739534378,-43.81460189819336,6.378232955932617,43.74625778198242,0.51
248,MetaDrive-testbn_og,72,270.6898896784843,249340,983,3419.9010100364685,,7.235074996948242,43.28105926513672,0.5
249,MetaDrive-testbn_og,72,269.94757904359017,250318,985,3432.0012707710266,,4.558127403259277,41.19200897216797,0.5
250,MetaDrive-testbn_og,72,273.0410553677822,251684,987,3450.107489824295,,12.761651992797852,46.87169647216797,0.51
251,MetaDrive-testbn_og,72,272.5120194265101,252050,988,3453.5081853866577,,9.49349594116211,41.236759185791016,0.51
252,MetaDrive-testbn_og,73,273.2253058720998,253051,989,3464.9176647663116,-45.52601623535156,5.779651641845703,44.978275299072266,0.51
253,MetaDrive-testbn_og,73,271.6281340360836,254083,991,3476.2599046230316,-44.955223083496094,5.907236576080322,44.80939483642578,0.5
254,MetaDrive-testbn_og,73,270.6429186566531,255103,993,3485.9516718387604,-39.015045166015625,7.60036563873291,39.4133186340332,0.5
255,MetaDrive-testbn_og,73,272.1807683625996,256140,995,3499.6283276081085,,5.991688251495361,44.76466369628906,0.5
256,MetaDrive-testbn_og,73,273.04255225364614,257033,996,3514.7366819381714,-46.403507232666016,10.9415864944458,46.28189468383789,0.5
257,MetaDrive-testbn_og,73,271.92965909744447,258401,999,3530.7312688827515,-44.217655181884766,14.124061584472656,43.65614318847656,0.5
258,MetaDrive-testbn_og,73,273.43595368443135,259402,1000,3551.56436920166,,11.93795108795166,41.02637481689453,0.5
259,MetaDrive-testbn_og,73,275.31418979847666,260009,1001,3558.5097897052765,-44.08995819091797,5.660329818725586,43.9606819152832,0.51
260,MetaDrive-testbn_og,73,276.21451509546927,261897,1004,3581.960132598877,-45.56758499145508,34.937583923339844,45.32240295410156,0.52
261,MetaDrive-testbn_og,73,275.48829756741924,262455,1005,3589.0100989341736,-46.284847259521484,45.95896530151367,45.1602668762207,0.52
262,MetaDrive-testbn_og,73,276.82792980626004,263124,1006,3595.4208393096924,,27.366336822509766,45.54425811767578,0.53
263,MetaDrive-testbn_og,73,276.68413479123427,264024,1008,3604.6782524585724,,9.33096694946289,42.54181671142578,0.53
264,MetaDrive-testbn_og,73,277.97789485243703,265668,1010,3624.3893625736237,,8.393447875976562,46.1053466796875,0.54
265,MetaDrive-testbn_og,73,277.67679224923273,266642,1011,3639.9325127601624,,4.236778736114502,46.97566223144531,0.54
266,MetaDrive-testbn_og,73,278.8834757980263,267182,1012,3646.032192468643,,11.1316556930542,39.43790817260742,0.55
267,MetaDrive-testbn_og,73,279.30728774051175,268082,1014,3656.2067852020264,,9.85107421875,43.41027069091797,0.54
268,MetaDrive-testbn_og,73,279.7146161214574,269177,1016,3668.7994062900543,-45.443878173828125,4.64906120300293,46.078224182128906,0.53
269,MetaDrive-testbn_og,73,280.40592106781935,270267,1018,3682.8850269317627,-37.844146728515625,51.483421325683594,37.332664489746094,0.53
270,MetaDrive-testbn_og,73,279.1954836793723,271114,1020,3692.492373228073,,8.845332145690918,37.9052619934082,0.52
271,MetaDrive-testbn_og,73,275.885178527253,272399,1023,3707.3270864486694,-42.12894821166992,5.815237045288086,41.849586486816406,0.53
272,MetaDrive-testbn_og,73,277.33325514904567,273914,1025,3731.954859495163,,5.438557147979736,43.32659149169922,0.53
273,MetaDrive-testbn_og,73,277.9278136200486,274915,1026,3748.0465893745422,-42.40022659301758,10.324836730957031,41.87507247924805,0.52
274,MetaDrive-testbn_og,73,279.1604293170196,275619,1027,3758.7558677196503,-44.84272003173828,9.368078231811523,45.60165786743164,0.52
275,MetaDrive-testbn_og,73,279.94820962795535,276283,1028,3766.4506340026855,-42.84465789794922,5.191294193267822,42.785133361816406,0.53
276,MetaDrive-testbn_og,73,278.1777338041849,277383,1030,3784.724573135376,-43.95771408081055,6.28181266784668,43.51299285888672,0.52
277,MetaDrive-testbn_og,73,278.39479848318575,278305,1031,3799.1419866085052,-43.29363250732422,7.474856376647949,42.2011604309082,0.53
278,MetaDrive-testbn_og,73,279.03399175898437,279072,1032,3807.8301062583923,,5.686885833740234,44.30095672607422,0.53
279,MetaDrive-testbn_og,73,276.4353115543712,280497,1035,3824.9045100212097,-43.964324951171875,34.10224914550781,43.347877502441406,0.53
280,MetaDrive-testbn_og,73,279.0455430916812,281136,1036,3831.7316987514496,,4.25550651550293,45.44574737548828,0.54
281,MetaDrive-testbn_og,73,274.08464012554055,282160,1040,3843.417040348053,,6.043157577514648,41.62772750854492,0.52
282,MetaDrive-testbn_og,73,271.3333093358043,283012,1042,3853.6081104278564,,5.251685619354248,45.17774963378906,0.51
283,MetaDrive-testbn_og,73,270.5170136690018,284013,1043,3867.518694162369,-39.432464599609375,12.108781814575195,39.388710021972656,0.5
284,MetaDrive-testbn_og,73,270.2284898558097,285190,1045,3882.431887626648,,5.746208190917969,44.14653778076172,0.51
285,MetaDrive-testbn_og,73,269.8029944166457,286258,1047,3895.160053730011,,9.563806533813477,44.320533752441406,0.52
286,MetaDrive-testbn_og,73,270.6444827370548,287259,1048,3912.8062896728516,-45.2877197265625,9.100141525268555,45.28183364868164,0.51
287,MetaDrive-testbn_og,73,272.0315528400469,288070,1049,3923.8241283893585,,7.822521209716797,41.26006317138672,0.51
288,MetaDrive-testbn_og,73,271.1555743499895,289442,1052,3942.108288526535,,4.873965263366699,41.91804504394531,0.52
289,MetaDrive-testbn_og,73,274.12773633954004,290107,1053,3951.4255328178406,-43.67214584350586,10.87529182434082,44.43086242675781,0.53
290,MetaDrive-testbn_og,73,273.1329303256399,291020,1055,3963.1491742134094,,18.20981216430664,47.83336639404297,0.53
291,MetaDrive-testbn_og,73,272.59526379581007,292158,1057,3978.053738117218,,7.1002278327941895,46.332427978515625,0.54
292,MetaDrive-testbn_og,73,275.21880080967577,293596,1059,4000.291827917099,,6.429110527038574,40.920413970947266,0.54
293,MetaDrive-testbn_og,73,275.1966073236899,294016,1060,4004.228736639023,,8.799798965454102,42.573177337646484,0.55
294,MetaDrive-testbn_og,73,269.9668343151251,295855,1064,4034.690768957138,-43.16015625,8.939144134521484,41.293006896972656,0.54
295,MetaDrive-testbn_og,73,269.46081905823286,296416,1065,4041.851950407028,,17.50664520263672,46.37538146972656,0.54
296,MetaDrive-testbn_og,73,270.1056769233195,297533,1067,4054.517778635025,-42.934661865234375,3.1832942962646484,43.01593780517578,0.55
297,MetaDrive-testbn_og,73,269.52135590072555,298335,1068,4063.2579832077026,-46.35912322998047,8.007652282714844,45.36817169189453,0.55
298,MetaDrive-testbn_og,73,271.00074728769084,299625,1070,4078.6502962112427,-46.796531677246094,6.997818946838379,46.56536102294922,0.56
299,MetaDrive-testbn_og,73,269.4809105861526,300626,1071,4094.4386954307556,,2.782589912414551,43.913360595703125,0.55
300,MetaDrive-testbn_og,73,269.4611958618555,301291,1072,4102.937195301056,-43.284385681152344,11.428058624267578,42.48843002319336,0.55
301,MetaDrive-testbn_og,73,271.1490931365189,302075,1073,4110.539970874786,-43.758094787597656,16.42316436767578,42.93315887451172,0.56
302,MetaDrive-testbn_og,73,269.75188765310344,303354,1076,4126.40133190155,,5.129146575927734,45.459346771240234,0.57
303,MetaDrive-testbn_og,73,268.92554069475443,304685,1078,4144.65719294548,-42.92771911621094,6.6154890060424805,42.636756896972656,0.55
304,MetaDrive-testbn_og,73,270.20176874699735,305686,1079,4163.606004714966,,7.863437175750732,40.022613525390625,0.55
305,MetaDrive-testbn_og,73,269.42710993998213,306229,1080,4168.663315534592,-46.72600555419922,8.403837203979492,46.5883674621582,0.55
306,MetaDrive-testbn_og,73,266.896306252632,307399,1082,4181.211112737656,-46.98429870605469,8.820995330810547,46.82830810546875,0.56
307,MetaDrive-testbn_og,73,267.04327689403084,308309,1083,4194.4353947639465,-46.06348419189453,7.920180320739746,44.63888168334961,0.57
308,MetaDrive-testbn_og,73,267.09122472964157,309404,1085,4208.756348609924,,6.727275848388672,43.44038772583008,0.57
309,MetaDrive-testbn_og,73,267.6790610402246,310167,1086,4216.32017326355,-48.53984832763672,77.54942321777344,47.697296142578125,0.57
310,MetaDrive-testbn_og,73,265.35041291642335,311013,1088,4225.920353889465,-45.75404357910156,8.718250274658203,45.00526428222656,0.56
311,MetaDrive-testbn_og,73,266.7635923796237,312318,1090,4239.422641515732,,8.223562240600586,47.433868408203125,0.58
312,MetaDrive-testbn_og,73,264.62732267627064,313224,1092,4248.890672445297,,12.90104866027832,44.18454360961914,0.57
313,MetaDrive-testbn_og,73,265.21149433421806,314093,1093,4260.84424829483,-47.18517303466797,4.349567890167236,47.02438735961914,0.57
314,MetaDrive-testbn_og,73,261.05081393999694,315271,1096,4279.202344894409,-44.047218322753906,102.98438262939453,43.205970764160156,0.56
315,MetaDrive-testbn_og,73,262.03386593588954,316534,1098,4297.723244905472,,9.149697303771973,47.614620208740234,0.56
316,MetaDrive-testbn_og,73,258.4623629391788,317379,1100,4308.073259115219,-46.35503005981445,5.138709545135498,45.810794830322266,0.55
317,MetaDrive-testbn_og,73,259.8819853775542,318330,1101,4321.920076370239,,7.334898948669434,43.19572067260742,0.55
318,MetaDrive-testbn_og,73,260.7735007289329,319636,1103,4333.646550416946,,6.693146228790283,46.189640045166016,0.56
319,MetaDrive-testbn_og,73,259.8980933639974,320637,1104,4350.001673221588,-42.62906265258789,5.170845985412598,42.39225387573242,0.55
320,MetaDrive-testbn_og,73,260.74256880706696,321544,1105,4360.450068235397,,19.838130950927734,40.92631530761719,0.55
321,MetaDrive-testbn_og,73,260.1201378777829,322093,1106,4366.231698989868,-47.36051940917969,7.810547351837158,46.18095397949219,0.55
322,MetaDrive-testbn_og,73,253.7176851820731,323710,1110,4385.823883056641,,6.696646690368652,44.09577560424805,0.52
323,MetaDrive-testbn_og,73,253.01098070797582,324282,1111,4394.321094512939,,4.771904945373535,43.74171447753906,0.52
324,MetaDrive-testbn_og,73,254.46127547672506,325097,1112,4406.470632791519,-44.105167388916016,10.596864700317383,44.55890655517578,0.52
325,MetaDrive-testbn_og,73,256.90280833593204,326429,1114,4424.698425292969,-45.74192810058594,6.585693359375,46.06248474121094,0.53
326,MetaDrive-testbn_og,73,257.99162586507947,327049,1115,4432.2106013298035,-42.23859405517578,12.567121505737305,40.44062042236328,0.54
327,MetaDrive-testbn_og,73,254.6050996365451,328654,1118,4450.316394805908,,8.481231689453125,46.30564498901367,0.53
328,MetaDrive-testbn_og,73,256.49926044184906,329562,1119,4462.752351999283,,3.2380638122558594,44.64868927001953,0.54
329,MetaDrive-testbn_og,73,255.94644045757548,330531,1121,4472.812316894531,-47.29749298095703,5.9257307052612305,47.662017822265625,0.53
330,MetaDrive-testbn_og,73,259.0811354155154,331083,1122,4479.914196252823,-47.912628173828125,3.699119806289673,46.992271423339844,0.54
331,MetaDrive-testbn_og,74,259.7264217135486,332642,1124,4495.099709272385,,45.340335845947266,42.545814514160156,0.55
332,MetaDrive-testbn_og,73,260.05274627092206,333229,1125,4503.48717212677,-45.06249237060547,2.689347267150879,44.71819305419922,0.55
333,MetaDrive-testbn_og,73,259.11282653123266,334230,1126,4524.435400724411,,10.923151016235352,42.75206756591797,0.55
334,MetaDrive-testbn_og,73,258.5141220908967,335811,1128,4545.411460876465,-45.86302185058594,5.674190521240234,45.336063385009766,0.55
335,MetaDrive-testbn_og,73,259.8310814954603,336745,1129,4555.919574260712,-43.400333404541016,18.66437339782715,42.352630615234375,0.56
336,MetaDrive-testbn_og,73,254.93477009391728,337821,1131,4570.342084884644,-45.69211196899414,7.187277793884277,45.81310272216797,0.55
337,MetaDrive-testbn_og,73,254.4949489282123,338299,1132,4575.121973514557,-46.06354904174805,44.70494842529297,44.869876861572266,0.55
338,MetaDrive-testbn_og,73,250.82867159292525,339009,1135,4582.900510787964,-45.54474639892578,29.137310028076172,44.42304992675781,0.54
339,MetaDrive-testbn_og,74,255.1201253907326,340381,1137,4598.728139638901,-51.11882019042969,8.700927734375,49.84784698486328,0.55
340,MetaDrive-testbn_og,74,257.7226995103088,341382,1138,4607.94038105011,,9.214898109436035,43.37847137451172,0.55
341,MetaDrive-testbn_og,74,259.9058392172268,342282,1140,4617.984965324402,,5.156128883361816,45.76020431518555,0.56
342,MetaDrive-testbn_og,74,262.4289238029212,343062,1141,4627.052397251129,,6.9878034591674805,42.79969787597656,0.57
343,MetaDrive-testbn_og,74,263.48014768587404,344063,1142,4646.349811553955,-42.87540817260742,10.929132461547852,42.71738815307617,0.56
344,MetaDrive-testbn_og,74,266.1531057853369,345417,1144,4666.109523296356,-44.31119918823242,4.223247051239014,44.62076950073242,0.57
345,MetaDrive-testbn_og,74,266.38423547044783,346153,1145,4674.34623169899,-46.122642517089844,9.001665115356445,46.039798736572266,0.57
346,MetaDrive-testbn_og,74,268.26781259028763,347175,1147,4685.998895168304,-46.028568267822266,7.885501384735107,45.62762451171875,0.57
347,MetaDrive-testbn_og,74,264.04240488127,348062,1149,4694.334818840027,,7.523237228393555,47.560394287109375,0.57
348,MetaDrive-testbn_og,74,263.1568487705988,349278,1152,4705.88516664505,,3.524566411972046,46.13169860839844,0.56
349,MetaDrive-testbn_og,74,261.60380520938384,350568,1155,4721.429611206055,,118.201904296875,41.90546417236328,0.56
350,MetaDrive-testbn_og,74,261.1181519570474,351295,1156,4731.0248482227325,-39.82058334350586,12.019412994384766,40.63667297363281,0.56
351,MetaDrive-testbn_og,74,263.1869246297394,352296,1157,4744.470605611801,,7.105745315551758,46.87358474731445,0.55
352,MetaDrive-testbn_og,74,265.8886210444107,353932,1159,4770.6772356033325,,7.872651100158691,42.901451110839844,0.55
353,MetaDrive-testbn_og,74,264.9456014375713,354599,1161,4777.652626991272,-48.23500442504883,8.968109130859375,46.44171142578125,0.55
354,MetaDrive-testbn_og,74,268.2332384174145,355420,1162,4785.522688865662,,122.15971374511719,42.74847412109375,0.56
355,MetaDrive-testbn_og,74,271.1277249566759,356215,1163,4797.52649474144,-49.059757232666016,6.430401802062988,48.71717834472656,0.56
356,MetaDrive-testbn_og,74,270.7509623489504,357353,1165,4808.87747168541,-44.7791862487793,9.850451469421387,43.804080963134766,0.56
357,MetaDrive-testbn_og,74,270.2260406467589,358268,1167,4818.517500400543,,6.926152229309082,44.343379974365234,0.56
358,MetaDrive-testbn_og,74,261.9001943143661,359047,1171,4827.92355132103,-47.79022216796875,7.2750020027160645,46.368125915527344,0.53
359,MetaDrive-testbn_og,74,262.52949338842603,360299,1173,4843.243138790131,-42.490638732910156,4.856420993804932,42.290077209472656,0.53
360,MetaDrive-testbn_og,74,265.9489117893843,361104,1174,4854.607756137848,,4.724871635437012,43.15956115722656,0.54
361,MetaDrive-testbn_og,74,265.65482483633565,362059,1176,4864.788245677948,-45.12724304199219,9.925853729248047,45.818336486816406,0.54
362,MetaDrive-testbn_og,74,262.4812701877289,363475,1180,4884.121937274933,-46.40546798706055,10.925021171569824,45.86902618408203,0.54
363,MetaDrive-testbn_og,74,262.92477565597864,364565,1182,4899.870273351669,-46.86983108520508,8.395503997802734,46.50764465332031,0.54
364,MetaDrive-testbn_og,74,262.04828848779476,365157,1183,4906.9352123737335,-44.07062530517578,21.252548217773438,44.14348602294922,0.54
365,MetaDrive-testbn_og,74,259.67007737281546,366487,1186,4922.203251123428,-41.279380798339844,5.487194538116455,41.092491149902344,0.53
366,MetaDrive-testbn_og,74,261.01713736204727,367479,1188,4931.723760843277,-47.67165756225586,6.022996425628662,47.47328186035156,0.54
367,MetaDrive-testbn_og,74,258.3634326936854,368212,1190,4941.407699584961,,6.454134464263916,41.584442138671875,0.52
368,MetaDrive-testbn_og,74,259.8522837130904,369001,1191,4954.212112426758,-45.1365852355957,96.09033203125,44.206703186035156,0.52
369,MetaDrive-testbn_og,74,261.5807736277149,370575,1194,4972.514560699463,-43.4565544128418,9.069013595581055,44.200950622558594,0.52
370,MetaDrive-testbn_og,74,257.45233840491886,371125,1197,4980.065039873123,-46.719215393066406,7.524742126464844,46.516788482666016,0.51
371,MetaDrive-testbn_og,74,259.97670757861556,372734,1200,5001.9283282756805,,3.950695514678955,46.92026901245117,0.53
372,MetaDrive-testbn_og,74,256.52845605928724,373018,1201,5006.140146970749,,4.226975440979004,46.68602752685547,0.52
373,MetaDrive-testbn_og,74,252.02243209081445,374085,1204,5021.558227777481,-46.04899597167969,4.017125129699707,46.19917297363281,0.5
374,MetaDrive-testbn_og,74,252.46484157004895,375298,1206,5033.894474506378,,5.318272590637207,43.743656158447266,0.5
375,MetaDrive-testbn_og,74,256.1569738112559,376537,1208,5048.623013496399,-44.11485290527344,6.6332855224609375,44.068359375,0.51
376,MetaDrive-testbn_og,74,255.78914064330945,377118,1210,5055.003415822983,,8.44594955444336,38.585350036621094,0.52
377,MetaDrive-testbn_og,74,250.4704132289917,378064,1213,5068.257723093033,,6.016876220703125,43.97914123535156,0.5
378,MetaDrive-testbn_og,74,249.4355301718388,379361,1216,5083.311757802963,-44.97178649902344,13.667182922363281,43.40953063964844,0.5
379,MetaDrive-testbn_og,74,251.55198542134545,380686,1218,5100.5618641376495,,7.976752281188965,43.644264221191406,0.51
380,MetaDrive-testbn_og,74,249.32369410559474,381141,1219,5105.455865383148,-43.42595672607422,7.180382251739502,42.763916015625,0.5
381,MetaDrive-testbn_og,74,244.3308396450987,382452,1223,5121.303893089294,,5.566347599029541,46.120811462402344,0.48
382,MetaDrive-testbn_og,74,243.43913590023897,383531,1225,5136.940504550934,-44.37574005126953,6.82808780670166,43.362403869628906,0.48
383,MetaDrive-testbn_og,74,242.56194723370132,384529,1227,5150.740477323532,-43.22523498535156,10.459712982177734,43.48906707763672,0.48
384,MetaDrive-testbn_og,74,241.37388662065393,385687,1229,5164.486521959305,-49.457088470458984,4.6262712478637695,49.24094772338867,0.47
385,MetaDrive-testbn_og,74,237.7382729418433,386027,1232,5168.968480825424,-44.25257110595703,5.909374237060547,43.076637268066406,0.46
386,MetaDrive-testbn_og,74,239.4076682530146,387012,1235,5182.207526683807,,10.172670364379883,44.20280838012695,0.47
387,MetaDrive-testbn_og,74,238.7370171751874,388247,1237,5196.908052444458,-44.782806396484375,10.778617858886719,44.273921966552734,0.47
388,MetaDrive-testbn_og,74,239.69127484700815,389210,1238,5209.8753073215485,,4.153840065002441,47.44346618652344,0.48
389,MetaDrive-testbn_og,74,236.5234822090003,390116,1241,5219.389089822769,,4.0698723793029785,44.166603088378906,0.47
390,MetaDrive-testbn_og,74,232.27544095486894,391431,1244,5234.7403700351715,-47.11000061035156,16.808101654052734,47.49995422363281,0.48
391,MetaDrive-testbn_og,74,228.546640970728,392117,1246,5245.466442346573,-44.745025634765625,5.517787933349609,44.844764709472656,0.46
392,MetaDrive-testbn_og,74,226.99007487639085,393234,1250,5258.421940565109,,13.373620986938477,43.35377502441406,0.46
393,MetaDrive-testbn_og,74,228.36723928777516,394512,1252,5276.421753168106,,7.456117153167725,42.177581787109375,0.46
394,MetaDrive-testbn_og,74,226.83545965101595,395089,1255,5284.84388589859,-46.509559631347656,9.663153648376465,46.424041748046875,0.45
395,MetaDrive-testbn_og,74,224.33090291454076,396115,1257,5298.75213599205,-45.3664665222168,6.922080039978027,45.40277862548828,0.45
396,MetaDrive-testbn_og,74,223.28892901147736,397309,1260,5315.085120439529,-43.37046432495117,12.066723823547363,42.5178108215332,0.46
397,MetaDrive-testbn_og,74,220.8403831641628,398135,1262,5327.259342908859,-48.03400421142578,4.630171775817871,47.343910217285156,0.45
398,MetaDrive-testbn_og,74,220.63324727540726,399034,1264,5339.183764219284,,14.01353931427002,47.26752853393555,0.47
399,MetaDrive-testbn_og,74,218.25463133055825,400094,1268,5352.717578172684,,7.8490071296691895,44.30185317993164,0.46
400,MetaDrive-testbn_og,74,219.87773718805653,401051,1270,5366.695057153702,-46.75077438354492,4.682836532592773,46.366600036621094,0.47
401,MetaDrive-testbn_og,74,222.1026401377277,402598,1272,5400.7309601306915,,7.516921043395996,42.75332260131836,0.46
402,MetaDrive-testbn_og,74,217.83769907524783,403760,1274,5419.312433958054,,6.100796699523926,44.99443054199219,0.44
403,MetaDrive-testbn_og,74,219.19392324112528,404476,1275,5427.373730659485,,3.4687390327453613,45.75617980957031,0.44
404,MetaDrive-testbn_og,74,219.82381819387763,405524,1278,5442.029917240143,,3.942943572998047,47.27347946166992,0.44
405,MetaDrive-testbn_og,74,217.77694909039587,406025,1280,5448.517725467682,-44.114051818847656,6.648865699768066,44.505638122558594,0.43
406,MetaDrive-testbn_og,74,215.91887955843282,407110,1282,5460.442497491837,,7.660281658172607,45.39915466308594,0.42
407,MetaDrive-testbn_og,74,217.56185947873314,408035,1284,5471.167316675186,-47.323509216308594,18.789047241210938,47.55425262451172,0.43
408,MetaDrive-testbn_og,74,218.455294391817,409745,1287,5494.284741401672,-45.001617431640625,6.907530784606934,44.26749801635742,0.43
409,MetaDrive-testbn_og,74,219.82211243630832,410372,1288,5504.006397485733,,8.504034996032715,47.9825439453125,0.43
410,MetaDrive-testbn_og,74,217.81226476433287,411458,1291,5517.067909240723,,3.8521549701690674,44.32583999633789,0.44
411,MetaDrive-testbn_og,74,217.1012060442899,412145,1293,5523.656362771988,-44.72595977783203,7.291823863983154,44.73759460449219,0.44
412,MetaDrive-testbn_og,74,221.39694252805387,413890,1295,5550.067586421967,,13.798881530761719,46.470367431640625,0.45
413,MetaDrive-testbn_og,74,224.01556585425777,414321,1296,5555.1659281253815,-44.948184967041016,13.54132080078125,44.57354736328125,0.46
414,MetaDrive-testbn_og,74,223.812912462708,415290,1299,5567.579002380371,,12.643394470214844,41.74591827392578,0.46
415,MetaDrive-testbn_og,74,223.36589305786646,416188,1302,5578.073442697525,,9.38740062713623,50.60838317871094,0.45
416,MetaDrive-testbn_og,74,226.04015224775682,417203,1304,5591.234193325043,-43.907806396484375,5.275505542755127,44.368736267089844,0.47
417,MetaDrive-testbn_og,74,221.5003985179147,418994,1308,5620.7124376297,,9.179971694946289,49.195865631103516,0.44
418,MetaDrive-testbn_og,74,222.1635195320443,419326,1309,5623.969578266144,,8.142029762268066,45.539527893066406,0.45
419,MetaDrive-testbn_og,74,224.50980190064638,420098,1310,5638.5961582660675,,8.147844314575195,45.68328857421875,0.45
420,MetaDrive-testbn_og,74,229.7770502887123,421610,1312,5662.969680786133,,2.5495071411132812,44.84013748168945,0.46
421,MetaDrive-testbn_og,74,228.95366022343015,422371,1313,5671.126824378967,-46.446556091308594,6.759482383728027,46.79740524291992,0.45
422,MetaDrive-testbn_og,74,231.572002330808,423147,1315,5680.440534114838,-46.427284240722656,78.27495574951172,46.142601013183594,0.46
423,MetaDrive-testbn_og,74,232.66225904424,424008,1316,5694.926764726639,,4.230091571807861,47.417236328125,0.46
424,MetaDrive-testbn_og,74,231.2278907597077,425131,1318,5708.157175779343,-45.96287536621094,3.004027843475342,45.560089111328125,0.46
425,MetaDrive-testbn_og,74,232.41210262105753,426203,1322,5720.3473200798035,-50.18337631225586,5.879326820373535,49.44491195678711,0.47
426,MetaDrive-testbn_og,74,232.26728464632703,427445,1324,5744.759331703186,-45.971763610839844,10.941949844360352,46.06060791015625,0.46
427,MetaDrive-testbn_og,74,231.66745288375571,428446,1325,5767.988341093063,,9.26297378540039,45.83139419555664,0.45
428,MetaDrive-testbn_og,74,233.58802362881514,429049,1326,5774.30673956871,-46.618247985839844,5.508943557739258,46.09510040283203,0.46
429,MetaDrive-testbn_og,74,234.08903238530922,430058,1328,5788.522894620895,,9.108642578125,46.70058059692383,0.46
430,MetaDrive-testbn_og,74,234.92537675714075,431022,1331,5801.950444221497,,5.593756675720215,43.275386810302734,0.46
431,MetaDrive-testbn_og,74,242.4529751133099,432582,1334,5820.229053258896,,10.37015438079834,45.48735046386719,0.49
432,MetaDrive-testbn_og,74,240.04649411286647,433371,1336,5831.110947132111,-48.7172737121582,7.432005882263184,47.66028594970703,0.48
433,MetaDrive-testbn_og,74,234.66742637659502,434245,1339,5840.996424674988,-49.62398147583008,7.580662727355957,48.475624084472656,0.46
434,MetaDrive-testbn_og,74,233.84571217798134,435278,1343,5853.165778875351,,6.4520263671875,52.33048629760742,0.46
435,MetaDrive-testbn_og,74,236.07055556307543,436229,1345,5864.641923666,-47.50731658935547,6.681318283081055,47.303199768066406,0.46
436,MetaDrive-testbn_og,74,237.73912147142917,437108,1347,5877.135251045227,,19.626596450805664,44.76939392089844,0.47
437,MetaDrive-testbn_og,74,238.87930843791372,438067,1349,5889.915523767471,-44.15837478637695,9.314260482788086,44.20442199707031,0.47
438,MetaDrive-testbn_og,74,239.09004558715696,439238,1351,5904.661944150925,,10.221972465515137,47.053627014160156,0.46
439,MetaDrive-testbn_og,74,240.50448942499133,440029,1352,5913.639988183975,-46.47517776489258,7.0087432861328125,46.23468780517578,0.47
440,MetaDrive-testbn_og,74,245.69151667186117,441199,1354,5927.466688632965,-44.59071350097656,9.934549331665039,45.148277282714844,0.49
441,MetaDrive-testbn_og,74,248.2351639242178,442604,1357,5943.789949178696,,8.719991683959961,48.84111022949219,0.51
442,MetaDrive-testbn_og,74,248.35758263028896,443389,1359,5953.806565999985,-45.939788818359375,4.879863739013672,45.431915283203125,0.51
443,MetaDrive-testbn_og,74,247.88878504569385,444679,1361,5972.615047216415,-41.14520263671875,9.698539733886719,41.48945999145508,0.5
444,MetaDrive-testbn_og,74,247.291858857804,445118,1362,5977.712820053101,,5.240749359130859,48.72044372558594,0.5
445,MetaDrive-testbn_og,74,247.37209689766092,446128,1364,5990.950865030289,,24.263545989990234,48.740970611572266,0.5
446,MetaDrive-testbn_og,74,249.43670954899625,447085,1367,6003.401844739914,-41.571922302246094,5.785204887390137,41.21394348144531,0.49
447,MetaDrive-testbn_og,74,249.74677894701742,448191,1369,6018.2891635894775,-47.476905822753906,15.275171279907227,47.63972473144531,0.49
448,MetaDrive-testbn_og,74,251.27469566141284,449016,1371,6029.202687263489,,20.983476638793945,45.68468475341797,0.5
449,MetaDrive-testbn_og,74,253.46048621036252,450133,1373,6043.89159488678,-47.699371337890625,6.401287078857422,46.88645935058594,0.51
450,MetaDrive-testbn_og,74,252.4308506798713,451258,1375,6061.656045198441,,4.792336463928223,47.02123260498047,0.51
451,MetaDrive-testbn_og,74,249.38226620859868,452178,1379,6073.565217971802,,6.433485984802246,47.80799865722656,0.5
452,MetaDrive-testbn_og,74,252.85367331422967,453117,1381,6085.4323987960815,-49.29096984863281,13.337563514709473,48.621307373046875,0.51
453,MetaDrive-testbn_og,74,253.6413353414667,454162,1383,6099.526397228241,,5.362264633178711,46.23695373535156,0.51
454,MetaDrive-testbn_og,74,252.76787517755776,455607,1385,6120.200141429901,-41.65489959716797,9.905778884887695,41.31327819824219,0.51
455,MetaDrive-testbn_og,74,252.60608542336055,456021,1386,6125.117969274521,-42.858699798583984,6.461246490478516,42.50019836425781,0.51
456,MetaDrive-testbn_og,74,250.95905700900497,457127,1389,6139.402197599411,-45.18461608886719,26.351823806762695,45.109859466552734,0.49
457,MetaDrive-testbn_og,74,253.3490235418878,458317,1391,6156.259722471237,-46.408729553222656,11.850109100341797,46.08870315551758,0.48
458,MetaDrive-testbn_og,74,252.07818374713938,459385,1394,6168.184175491333,-44.0521240234375,9.188377380371094,43.826263427734375,0.47
459,MetaDrive-testbn_og,74,248.28442248595965,460583,1397,6187.177996873856,-48.367454528808594,96.95638275146484,47.27375411987305,0.46
460,MetaDrive-testbn_og,74,249.78056336445763,461032,1398,6192.199516296387,,5.9401936531066895,45.93151092529297,0.46
461,MetaDrive-testbn_og,74,250.63909548786157,462341,1400,6208.481307506561,-42.87571716308594,5.5180768966674805,42.208702087402344,0.46
462,MetaDrive-testbn_og,74,253.35513591513146,463163,1401,6220.441218614578,-47.91361999511719,3.3522086143493652,47.61201095581055,0.47
463,MetaDrive-testbn_og,74,254.8315911496562,464730,1403,6246.087184667587,,3.5047993659973145,46.541412353515625,0.47
464,MetaDrive-testbn_og,74,253.53103620949815,465135,1404,6254.448539018631,-47.952762603759766,6.624200344085693,47.80912399291992,0.46
465,MetaDrive-testbn_og,74,250.06670443679155,466556,1409,6272.655347585678,,4.231274604797363,45.69078063964844,0.45
466,MetaDrive-testbn_og,74,247.05699579479435,467290,1411,6280.956990242004,,5.764863014221191,46.47536087036133,0.45
467,MetaDrive-testbn_og,74,244.59482855296415,468174,1413,6292.807681322098,,19.50942611694336,41.28655242919922,0.45
468,MetaDrive-testbn_og,74,244.92715672300932,469017,1414,6304.230418682098,-43.15813064575195,8.060791015625,42.486392974853516,0.45
469,MetaDrive-testbn_og,74,244.6357797317878,470060,1416,6318.479937076569,,4.777419567108154,43.871952056884766,0.46
470,MetaDrive-testbn_og,74,244.56169221131324,471405,1418,6338.7680559158325,-46.56178283691406,12.107372283935547,45.64213562011719,0.45
471,MetaDrive-testbn_og,74,248.03441382597,472491,1420,6350.458130121231,-45.255828857421875,5.383382797241211,44.79064178466797,0.47
472,MetaDrive-testbn_og,74,247.3597316210037,473022,1422,6356.526153564453,,10.067331314086914,45.9841194152832,0.46
473,MetaDrive-testbn_og,74,248.98952681313077,474520,1425,6373.518496513367,,4.878990173339844,44.59407043457031,0.48
474,MetaDrive-testbn_og,74,245.42264064818517,475525,1427,6389.4328520298,-44.26507568359375,9.020896911621094,44.98422622680664,0.46
475,MetaDrive-testbn_og,74,244.78010318822982,476203,1429,6400.561602830887,-46.366241455078125,5.497737884521484,45.05532455444336,0.46
476,MetaDrive-testbn_og,74,247.2240298204267,477099,1431,6412.387612819672,-41.76531982421875,28.93510627746582,41.60031509399414,0.46
477,MetaDrive-testbn_og,74,246.49277262062762,478186,1433,6430.562756061554,,4.374061584472656,47.01593017578125,0.45
478,MetaDrive-testbn_og,74,246.540070096332,479087,1435,6439.094937801361,-47.39574432373047,6.489827632904053,46.27174377441406,0.45
479,MetaDrive-testbn_og,74,246.4385472201936,480072,1438,6451.025827407837,,5.076990604400635,46.509613037109375,0.43
480,MetaDrive-testbn_og,74,246.7187336432424,481073,1439,6465.575581073761,-40.240081787109375,22.887683868408203,39.94866943359375,0.43
481,MetaDrive-testbn_og,74,249.38207876138418,482061,1441,6476.9591546058655,-44.72400665283203,10.78016185760498,44.75108337402344,0.44
482,MetaDrive-testbn_og,74,253.18676732768756,483194,1443,6495.675282716751,,6.133241653442383,44.252952575683594,0.45
483,MetaDrive-testbn_og,74,253.5261091013299,484439,1445,6514.606239080429,-46.86697006225586,8.125473022460938,46.03148651123047,0.45
484,MetaDrive-testbn_og,74,251.7384386028014,485328,1448,6525.348398447037,,5.790900230407715,43.56613540649414,0.44
485,MetaDrive-testbn_og,74,252.09586720244016,486229,1450,6537.671350955963,-48.44763946533203,9.67026138305664,48.355987548828125,0.44
486,MetaDrive-testbn_og,74,248.78365520592249,487396,1452,6550.738120794296,,11.798553466796875,43.7435302734375,0.43
487,MetaDrive-testbn_og,74,247.16537696018878,488510,1454,6563.136923789978,,4.240278720855713,42.94886016845703,0.43
488,MetaDrive-testbn_og,74,249.33827384810556,489511,1455,6579.059374570847,-44.80946350097656,27.668384552001953,44.441497802734375,0.42
489,MetaDrive-testbn_og,74,246.1195762462583,490484,1457,6591.97466635704,,5.015600204467773,47.36785125732422,0.41
490,MetaDrive-testbn_og,74,247.65096059309337,491305,1458,6603.043667793274,-48.956703186035156,5.929705619812012,48.44287872314453,0.41
491,MetaDrive-testbn_og,74,250.5465264433193,492593,1460,6624.028232574463,-42.319541931152344,7.531935214996338,42.69158935546875,0.42
492,MetaDrive-testbn_og,74,250.21762307832077,493035,1461,6630.390385150909,-42.32068634033203,9.801103591918945,43.49873733520508,0.42
493,MetaDrive-testbn_og,74,251.26859264028735,494588,1463,6646.960486412048,,6.039084434509277,46.43457794189453,0.42
494,MetaDrive-testbn_og,74,252.12983266762646,495439,1464,6656.836255073547,-45.43568420410156,6.617099761962891,45.18199157714844,0.42
495,MetaDrive-testbn_og,74,252.2591263788881,496351,1466,6665.341389656067,-45.23300552368164,4.450666904449463,44.676185607910156,0.43
496,MetaDrive-testbn_og,74,254.50110665512213,497068,1467,6675.569573163986,,19.997081756591797,41.73671340942383,0.44
497,MetaDrive-testbn_og,74,254.67158922897346,498129,1469,6689.512724876404,-43.61720275878906,5.579362869262695,43.256309509277344,0.44
498,MetaDrive-testbn_og,74,256.53762355052675,499403,1471,6704.821516275406,-42.66090393066406,9.796876907348633,43.00155258178711,0.45
499,MetaDrive-testbn_og,74,254.17481501340825,500256,1473,6721.44690990448,,42.644203186035156,47.266822814941406,0.44
500,MetaDrive-testbn_og,74,255.37058714419024,501643,1475,6741.550808191299,-48.17255401611328,10.63621711730957,47.82392120361328,0.44
501,MetaDrive-testbn_og,74,256.9967583473978,502106,1477,6748.067476511002,,4.0965447425842285,44.81468200683594,0.45
502,MetaDrive-testbn_og,74,259.6098074352018,503050,1479,6760.1455862522125,,80.7332534790039,36.181209564208984,0.46
503,MetaDrive-testbn_og,74,258.8203756574848,504053,1481,6773.341329336166,-46.412391662597656,9.572351455688477,46.372745513916016,0.45
504,MetaDrive-testbn_og,74,257.52801840471955,505714,1485,6798.364387512207,,5.881104469299316,49.041587829589844,0.44
505,MetaDrive-testbn_og,74,257.50118332463086,506385,1487,6806.099837779999,-48.83674621582031,6.095089912414551,48.626583099365234,0.44
506,MetaDrive-testbn_og,74,258.99739265787065,507819,1489,6825.036315202713,-45.584877014160156,6.238763332366943,45.57743453979492,0.45
507,MetaDrive-testbn_og,74,259.062481105716,508561,1490,6835.751169204712,-45.39348220825195,6.428242206573486,44.82193374633789,0.46
508,MetaDrive-testbn_og,74,261.82061171451164,509459,1491,6847.7899622917175,-48.56574249267578,10.048896789550781,47.808570861816406,0.47
509,MetaDrive-testbn_og,74,264.0473850033492,510015,1492,6855.41193985939,-46.86090087890625,16.987808227539062,47.638519287109375,0.48
510,MetaDrive-testbn_og,74,265.5479744325821,511745,1496,6879.287149429321,-46.71420669555664,5.859787940979004,46.69148635864258,0.49
511,MetaDrive-testbn_og,74,265.01085199760445,512472,1497,6888.24089550972,,6.601261138916016,45.10254669189453,0.49
512,MetaDrive-testbn_og,74,263.8183724758275,513036,1499,6895.044433355331,,5.404334545135498,47.03905487060547,0.48
513,MetaDrive-testbn_og,74,260.018799922917,514037,1501,6906.811877965927,-42.8514404296875,10.176822662353516,43.244266510009766,0.47
514,MetaDrive-testbn_og,74,257.3168259447081,515044,1505,6918.2263786792755,,4.955204010009766,42.74794006347656,0.47
515,MetaDrive-testbn_og,74,258.7127835568174,516009,1508,6930.679105043411,-45.79408264160156,7.91018009185791,46.22907257080078,0.48
516,MetaDrive-testbn_og,74,260.51781342581654,517296,1510,6947.411759853363,,12.238035202026367,44.4266357421875,0.49
517,MetaDrive-testbn_og,74,258.49180171418607,518094,1512,6956.082745790482,,14.228925704956055,45.26605224609375,0.48
518,MetaDrive-testbn_og,74,258.7974312736014,519277,1514,6968.804559707642,-45.74118423461914,7.393990993499756,44.98971176147461,0.49
519,MetaDrive-testbn_og,74,256.7644051452442,520327,1517,6979.385080575943,-47.11961364746094,5.784178733825684,47.218910217285156,0.48
520,MetaDrive-testbn_og,74,252.8863269377572,521336,1520,6992.7508409023285,,6.044737339019775,41.14292907714844,0.46
521,MetaDrive-testbn_og,74,254.97868314202358,522433,1522,7005.078100681305,-44.722713470458984,19.57863998413086,44.24467086791992,0.48
522,MetaDrive-testbn_og,74,254.1869506657215,523083,1524,7011.925870418549,-47.540523529052734,7.232948303222656,46.57466125488281,0.48
523,MetaDrive-testbn_og,74,255.35166961648093,524124,1526,7024.9608471393585,,73.89806365966797,44.9759521484375,0.49
524,MetaDrive-testbn_og,74,255.38769756768136,525048,1528,7036.950557470322,,10.260923385620117,43.15059280395508,0.5
525,MetaDrive-testbn_og,74,255.27345179195993,526309,1530,7058.691759109497,-46.80635070800781,4.561540603637695,46.500450134277344,0.49
526,MetaDrive-testbn_og,74,257.85422010428596,527172,1531,7072.898323059082,,5.317080974578857,41.35111999511719,0.5
527,MetaDrive-testbn_og,74,259.15053490970587,528393,1533,7087.434551239014,-44.1345329284668,12.509761810302734,45.023963928222656,0.51
528,MetaDrive-testbn_og,74,258.9301748006902,529221,1535,7101.78506231308,-49.555206298828125,13.241233825683594,49.75246810913086,0.5
529,MetaDrive-testbn_og,74,258.1253720780935,530173,1538,7116.754792928696,-44.68363571166992,4.984963417053223,44.61576843261719,0.51
530,MetaDrive-testbn_og,74,260.04593596010733,531323,1540,7133.431533098221,-43.38582229614258,9.306781768798828,43.74537658691406,0.51
531,MetaDrive-testbn_og,74,260.2685874045152,532962,1542,7159.91215801239,,15.174571990966797,46.617584228515625,0.5
532,MetaDrive-testbn_og,74,260.494658801525,533540,1543,7165.310271263123,,22.579872131347656,44.048072814941406,0.5
533,MetaDrive-testbn_og,74,260.77791038741304,534129,1544,7172.816274166107,-45.39869689941406,12.88632869720459,45.9755859375,0.51
534,MetaDrive-testbn_og,74,263.6644081144002,535801,1547,7194.608591556549,-49.415184020996094,3.047309398651123,49.07560729980469,0.52
535,MetaDrive-testbn_og,74,263.9260501651269,536214,1548,7199.324574232101,,6.328571319580078,44.437660217285156,0.52
536,MetaDrive-testbn_og,74,263.786329612589,537035,1550,7208.762346029282,-42.661094665527344,7.231122016906738,42.071693420410156,0.52
537,MetaDrive-testbn_og,74,263.1888907850436,538197,1552,7225.188195466995,-44.69478988647461,28.052751541137695,44.29972839355469,0.52
538,MetaDrive-testbn_og,74,259.75840533906484,539276,1555,7240.69552397728,,6.443350791931152,47.727725982666016,0.51
539,MetaDrive-testbn_og,74,261.61908039455784,540354,1557,7253.53640127182,,6.162069797515869,45.49561309814453,0.52
540,MetaDrive-testbn_og,74,261.2095753162777,541445,1559,7267.536286354065,-40.51091766357422,32.103294372558594,40.124061584472656,0.51
541,MetaDrive-testbn_og,74,259.8616996518425,542446,1560,7276.75722360611,,8.639954566955566,47.420066833496094,0.5
542,MetaDrive-testbn_og,74,260.0572900690824,543150,1561,7285.693440437317,,14.286083221435547,44.270050048828125,0.5
543,MetaDrive-testbn_og,74,260.7513532988443,544151,1562,7298.366365909576,-43.66675567626953,8.505105972290039,43.38238525390625,0.49
544,MetaDrive-testbn_og,74,258.9276472052428,545664,1565,7319.375640869141,,6.439957141876221,43.628055572509766,0.47
545,MetaDrive-testbn_og,74,259.0471253923069,546251,1566,7326.618591070175,-46.030677795410156,11.452205657958984,45.379119873046875,0.47
546,MetaDrive-testbn_og,74,260.56650750662635,547438,1568,7338.509494304657,,6.009489059448242,47.56317138671875,0.48
547,MetaDrive-testbn_og,74,259.3662512258334,548151,1570,7347.460402965546,-41.12712097167969,18.28851318359375,41.316200256347656,0.47
548,MetaDrive-testbn_og,74,258.55167295919904,549080,1572,7362.510939121246,,6.6642680168151855,42.163551330566406,0.46
549,MetaDrive-testbn_og,74,255.29372779088936,550542,1576,7381.3164303302765,,6.592545032501221,41.81082534790039,0.46
550,MetaDrive-testbn_og,74,255.82672546727406,551178,1577,7388.339934587479,,10.359734535217285,40.305625915527344,0.46
551,MetaDrive-testbn_og,74,256.7538639576461,552089,1579,7397.738299369812,-46.577999114990234,4.9956231117248535,46.53189468383789,0.47
552,MetaDrive-testbn_og,74,258.5473323185063,553090,1580,7415.093837738037,,7.516895294189453,42.89070129394531,0.47
553,MetaDrive-testbn_og,74,260.2318698685134,554027,1581,7430.372366666794,-42.763389587402344,7.597929000854492,42.99302673339844,0.48
554,MetaDrive-testbn_og,74,263.9445468241713,555022,1583,7444.032999515533,,5.471973419189453,43.10430908203125,0.49
555,MetaDrive-testbn_og,74,263.64293474503506,556494,1586,7464.631333589554,,7.093054294586182,41.06559371948242,0.49
556,MetaDrive-testbn_og,74,261.30846053165044,557165,1588,7478.951575756073,-41.5107536315918,14.623692512512207,42.01344299316406,0.47
557,MetaDrive-testbn_og,74,259.3781312757735,558698,1590,7509.359691858292,,4.546326637268066,48.21271514892578,0.47
558,MetaDrive-testbn_og,74,254.27497288702114,559148,1592,7515.009323120117,,4.068081855773926,44.44596862792969,0.45
559,MetaDrive-testbn_og,74,256.7742729344047,560357,1594,7528.581278085709,-41.87428283691406,10.992234230041504,42.81117248535156,0.46
560,MetaDrive-testbn_og,74,255.7349255163677,561614,1597,7542.427245140076,,4.540480613708496,46.11970520019531,0.45
561,MetaDrive-testbn_og,74,256.54095053527516,562259,1598,7553.638465166092,-43.252079010009766,9.653215408325195,43.16618347167969,0.45
562,MetaDrive-testbn_og,74,257.8368845723062,563405,1600,7565.538454771042,-44.5626335144043,7.071451187133789,44.201751708984375,0.47
563,MetaDrive-testbn_og,74,262.96367517811564,564854,1602,7582.231108665466,,10.204323768615723,45.90074920654297,0.48
564,MetaDrive-testbn_og,74,265.7383556897671,565515,1603,7591.729671001434,-41.205604553222656,5.299509048461914,41.15758514404297,0.49
565,MetaDrive-testbn_og,74,266.44562661161206,566332,1606,7603.308715581894,,9.110358238220215,41.689697265625,0.49
566,MetaDrive-testbn_og,74,267.60500147281095,567172,1608,7613.161086320877,,5.993470191955566,40.199981689453125,0.49
567,MetaDrive-testbn_og,74,266.70781881806545,568248,1610,7628.724435091019,,4.769515037536621,39.80133056640625,0.48
568,MetaDrive-testbn_og,74,269.38704064051257,569335,1612,7640.913206577301,-42.997955322265625,4.887381553649902,42.3424186706543,0.48
569,MetaDrive-testbn_og,74,269.5070821362182,570327,1614,7653.560341835022,-40.217567443847656,13.287672996520996,40.054283142089844,0.46
570,MetaDrive-testbn_og,74,271.8919539101919,571262,1616,7663.864795207977,,13.191527366638184,41.97931671142578,0.47
571,MetaDrive-testbn_og,74,274.59179674381824,572535,1618,7679.024601697922,-45.03746032714844,9.479036331176758,44.711029052734375,0.49
572,MetaDrive-testbn_og,74,276.24637813535423,573018,1619,7684.262280464172,,7.908256530761719,43.770347595214844,0.5
573,MetaDrive-testbn_og,74,276.78315908853216,574549,1621,7701.035151958466,-42.41558074951172,17.39891815185547,43.279144287109375,0.49
574,MetaDrive-testbn_og,74,275.32979876735646,575430,1623,7710.499088764191,,5.049314975738525,45.75479507446289,0.48
575,MetaDrive-testbn_og,74,277.6883335605503,576208,1624,7722.202037096024,,12.262613296508789,37.99635314941406,0.48
576,MetaDrive-testbn_og,74,275.7091693945698,577117,1626,7732.671953201294,-44.63487243652344,6.9970855712890625,45.041969299316406,0.46
577,MetaDrive-testbn_og,74,275.0076313922705,578007,1627,7743.068952560425,-42.34063720703125,5.969945430755615,41.826759338378906,0.46
578,MetaDrive-testbn_og,74,279.6610399588046,579020,1629,7753.402114868164,,7.124114036560059,42.97032928466797,0.48
579,MetaDrive-testbn_og,74,276.84646417293607,580086,1631,7764.504616498947,,5.932146072387695,45.83462905883789,0.49
580,MetaDrive-testbn_og,74,275.5900436230158,581213,1633,7778.47465968132,-39.914527893066406,7.323118209838867,39.128265380859375,0.48
581,MetaDrive-testbn_og,74,277.37561059620094,582302,1635,7790.264501810074,,21.20408821105957,38.01732635498047,0.49
582,MetaDrive-testbn_og,74,278.9352796184797,583042,1637,7800.463295221329,,3.803159236907959,40.05849838256836,0.5
583,MetaDrive-testbn_og,74,276.89833701633614,584968,1641,7822.846652030945,,3.3678030967712402,40.64794158935547,0.49
584,MetaDrive-testbn_og,74,274.2831370324636,585969,1642,7836.783495426178,-45.80097579956055,7.007277488708496,46.608070373535156,0.49
585,MetaDrive-testbn_og,74,273.58240920872987,586394,1643,7843.042873382568,,5.571444988250732,45.48687744140625,0.48
586,MetaDrive-testbn_og,74,273.74992794055777,587269,1644,7855.194286346436,-43.71480178833008,8.168623924255371,43.36181640625,0.48
587,MetaDrive-testbn_og,74,271.13532332989575,588378,1647,7868.110262393951,,6.9523844718933105,41.64708709716797,0.47
588,MetaDrive-testbn_og,74,267.6367414822149,589061,1650,7876.409131288528,-41.366424560546875,53.634071350097656,40.71096420288086,0.47
589,MetaDrive-testbn_og,74,269.8323474289139,590378,1652,7890.307114362717,,14.447035789489746,41.082069396972656,0.48
590,MetaDrive-testbn_og,74,270.2856207498906,591446,1654,7905.020626783371,,3.410360336303711,44.18143081665039,0.48
591,MetaDrive-testbn_og,74,269.99934089965836,592216,1656,7914.0001974105835,,9.636589050292969,39.2841796875,0.48
592,MetaDrive-testbn_og,74,270.6789187354863,593217,1657,7924.125394821167,-44.200157165527344,16.35296058654785,43.450408935546875,0.47
593,MetaDrive-testbn_og,74,272.5456401114546,594517,1659,7938.963171243668,-42.34061050415039,7.262208938598633,41.5608024597168,0.48
594,MetaDrive-testbn_og,74,274.3816114636593,595552,1661,7951.124329328537,,5.576533317565918,40.49671173095703,0.5
595,MetaDrive-testbn_og,74,273.2752797051695,596196,1662,7963.909502744675,,38.37614440917969,40.79478073120117,0.5
596,MetaDrive-testbn_og,74,273.29156406236666,597001,1663,7973.840332746506,-42.23784255981445,7.255768775939941,41.54530715942383,0.51
597,MetaDrive-testbn_og,74,273.64554673918707,598194,1666,7988.974942445755,,11.788471221923828,43.106056213378906,0.51
598,MetaDrive-testbn_og,74,273.5176620000688,599183,1667,7999.214407682419,-42.881507873535156,5.537227630615234,42.487525939941406,0.51
599,MetaDrive-testbn_og,74,271.12668255128443,600564,1669,8017.519668579102,,8.053885459899902,41.442623138427734,0.49
600,MetaDrive-testbn_og,74,275.287549470862,601565,1670,8030.231667995453,-45.04930877685547,6.646514415740967,45.406089782714844,0.49
601,MetaDrive-testbn_og,74,276.313646657094,602741,1672,8043.570389986038,-39.63349914550781,6.804703712463379,40.08168029785156,0.5
602,MetaDrive-testbn_og,74,279.2062297895959,603742,1673,8064.0459678173065,,3.3985040187835693,47.06745910644531,0.5
603,MetaDrive-testbn_og,74,279.510813598104,604184,1674,8068.423233270645,,6.748643398284912,44.1807746887207,0.51
604,MetaDrive-testbn_og,74,279.64710437359963,605011,1676,8079.62611413002,-42.91087341308594,3.75199818611145,42.35710906982422,0.5
605,MetaDrive-testbn_og,74,278.44950092666835,606012,1677,8095.92417216301,,3.9463887214660645,39.27986145019531,0.49
606,MetaDrive-testbn_og,74,279.4377688672685,607013,1678,8109.527814626694,-44.932823181152344,8.88868522644043,44.38848876953125,0.48
607,MetaDrive-testbn_og,74,273.25572111047023,608426,1681,8127.103621721268,,12.223356246948242,44.225486755371094,0.47
608,MetaDrive-testbn_og,74,272.7958866842713,609251,1683,8136.591719150543,-46.08586120605469,8.629749298095703,45.81464385986328,0.47
609,MetaDrive-testbn_og,74,271.62227182238036,610356,1685,8147.479233980179,,8.048394203186035,41.625701904296875,0.46
610,MetaDrive-testbn_og,74,271.5312246385863,611219,1686,8157.525372028351,-44.80628204345703,7.286831855773926,44.54371643066406,0.46
611,MetaDrive-testbn_og,74,275.75082292173846,612744,1688,8178.235872030258,,10.045870780944824,42.32502365112305,0.47
612,MetaDrive-testbn_og,74,275.5713965662433,613745,1689,8187.1044199466705,-44.30031204223633,6.861109733581543,43.576202392578125,0.46
613,MetaDrive-testbn_og,74,274.2150305697071,614150,1690,8191.4066371917725,,5.876773834228516,38.23173522949219,0.46
614,MetaDrive-testbn_og,74,276.99925221195974,615073,1691,8204.023328065872,-43.01022720336914,20.43362808227539,42.7321662902832,0.46
615,MetaDrive-testbn_og,74,276.4082539675278,616074,1692,8221.358602523804,,4.687298774719238,46.637908935546875,0.46
616,MetaDrive-testbn_og,74,274.34142982199677,617041,1694,8232.742256641388,-43.09815979003906,6.950152397155762,43.00023651123047,0.44
617,MetaDrive-testbn_og,74,277.6758507916645,618010,1696,8242.988646268845,,27.204345703125,37.65740203857422,0.46
618,MetaDrive-testbn_og,74,275.24569390395743,619091,1698,8257.217334032059,-42.44721984863281,4.136240005493164,42.221771240234375,0.46
619,MetaDrive-testbn_og,74,275.2014889992889,620524,1700,8273.920486211777,,4.261066913604736,44.71864318847656,0.46
620,MetaDrive-testbn_og,74,275.9817987033806,621525,1701,8293.011386156082,-44.83715057373047,71.2728042602539,44.204307556152344,0.45
621,MetaDrive-testbn_og,74,272.544078557362,622574,1703,8305.604910612106,,8.181266784667969,39.13182830810547,0.45
622,MetaDrive-testbn_og,74,274.1951781178756,623081,1704,8315.581888198853,-43.893402099609375,4.351799964904785,43.31903839111328,0.45
623,MetaDrive-testbn_og,74,274.06137343884905,624563,1708,8335.085711956024,-45.5909309387207,4.112712383270264,45.606971740722656,0.45
624,MetaDrive-testbn_og,74,274.9471815273282,625710,1710,8348.090760469437,,6.363495826721191,38.82250213623047,0.45
625,MetaDrive-testbn_og,74,274.42800444452394,626157,1711,8353.3768491745,-41.94459533691406,4.028892517089844,41.078399658203125,0.46
626,MetaDrive-testbn_og,74,274.82909644627404,627465,1713,8375.223239660263,-43.67049026489258,6.5691022872924805,43.571266174316406,0.46
627,MetaDrive-testbn_og,74,276.36661126077047,628466,1714,8397.468263864517,,8.12999153137207,46.04441833496094,0.46
628,MetaDrive-testbn_og,74,277.8767981996883,629345,1716,8407.245427846909,-42.940093994140625,4.183457374572754,42.05411911010742,0.46
629,MetaDrive-testbn_og,74,276.7531007584769,630410,1718,8419.292887210846,,6.603216171264648,37.63152313232422,0.45
630,MetaDrive-testbn_og,74,273.9107600394978,631102,1720,8428.163489341736,,10.209724426269531,42.34185791015625,0.43
631,MetaDrive-testbn_og,74,273.0051022614639,632042,1722,8442.299607276917,,51.41639709472656,41.897315979003906,0.43
632,MetaDrive-testbn_og,74,271.2083475928375,633336,1725,8460.050926208496,,4.964475154876709,41.29911422729492,0.44
633,MetaDrive-testbn_og,74,268.0801896889753,634154,1728,8470.258097171783,,9.640228271484375,44.8748779296875,0.43
634,MetaDrive-testbn_og,74,268.70853175384923,635647,1730,8490.151013612747,-45.13174819946289,20.160934448242188,45.13349151611328,0.41
635,MetaDrive-testbn_og,74,264.4239945429093,636068,1732,8494.881494283676,,8.52073860168457,40.93178176879883,0.39
636,MetaDrive-testbn_og,74,266.06550344775275,637496,1734,8511.087310314178,,11.653692245483398,39.154083251953125,0.41
637,MetaDrive-testbn_og,74,268.1633387915248,638429,1735,8521.888667345047,-40.583953857421875,51.09062194824219,39.918418884277344,0.41
638,MetaDrive-testbn_og,74,266.7601699494373,639753,1737,8538.891973257065,-47.95025634765625,3.6634202003479004,47.281654357910156,0.4
639,MetaDrive-testbn_og,74,267.23528981914825,640754,1738,8553.309094905853,,5.084003925323486,43.18701171875,0.4
640,MetaDrive-testbn_og,74,270.957287032717,641611,1739,8566.721148252487,-42.55224609375,3.117053508758545,42.48211669921875,0.41
641,MetaDrive-testbn_og,74,271.23890292218874,642096,1740,8573.740511655807,,6.728793144226074,42.132720947265625,0.41
642,MetaDrive-testbn_og,74,270.81675561978864,643286,1742,8590.321665525436,,5.407255172729492,43.71454620361328,0.42
643,MetaDrive-testbn_og,74,271.04450636958865,644088,1744,8599.531638383865,,7.581305503845215,43.92642593383789,0.42
644,MetaDrive-testbn_og,74,270.3622432023153,645139,1747,8613.209345817566,-41.437435150146484,12.157588958740234,41.205780029296875,0.42
645,MetaDrive-testbn_og,74,272.5486455472653,646412,1749,8629.063807487488,,9.843692779541016,41.31089401245117,0.42
646,MetaDrive-testbn_og,74,275.5233693560623,647413,1750,8643.961378574371,-40.42057800292969,6.388154029846191,40.01918029785156,0.42
647,MetaDrive-testbn_og,74,272.86481829046954,648254,1752,8652.993618488312,,4.429792404174805,41.536827087402344,0.41
648,MetaDrive-testbn_og,74,271.0918347352705,649893,1756,8677.01311993599,-45.207332611083984,86.05284118652344,44.23069381713867,0.4
649,MetaDrive-testbn_og,74,270.27357631080594,650685,1757,8686.667305231094,-45.404640197753906,9.092545509338379,45.36841583251953,0.4
650,MetaDrive-testbn_og,74,268.6431893046875,651230,1758,8695.037840366364,,8.728803634643555,39.41069793701172,0.4
651,MetaDrive-testbn_og,74,268.4255796447106,652299,1760,8709.865666389465,-43.32200622558594,7.627791881561279,42.92964172363281,0.4
652,MetaDrive-testbn_og,74,268.28118838315163,653485,1762,8723.2836997509,-41.40196990966797,10.741842269897461,41.39125061035156,0.41
653,MetaDrive-testbn_og,74,268.2420833492494,654148,1764,8730.285049676895,,15.446516036987305,37.65381622314453,0.41
654,MetaDrive-testbn_og,74,267.44269999380265,655943,1767,8755.880762577057,-41.201812744140625,10.810893058776855,40.854881286621094,0.4
655,MetaDrive-testbn_og,74,270.28212541539,656647,1768,8767.395586013794,-42.31163787841797,6.820790767669678,40.822837829589844,0.4
656,MetaDrive-testbn_og,74,270.4589771782929,657187,1769,8774.319477319717,-44.85319900512695,13.55876636505127,44.257484436035156,0.4
657,MetaDrive-testbn_og,74,268.2882165367693,658154,1771,8785.77969622612,,5.576953887939453,42.464168548583984,0.42
658,MetaDrive-testbn_og,74,268.54861198216685,659155,1772,8796.880914926529,-40.43170166015625,17.651596069335938,40.681419372558594,0.41
659,MetaDrive-testbn_og,74,266.2407424898757,660158,1774,8808.657916784286,,6.207985877990723,45.214176177978516,0.41
660,MetaDrive-testbn_og,74,268.20527012821077,661214,1776,8822.382309913635,,6.383978843688965,43.75630569458008,0.43
661,MetaDrive-testbn_og,74,267.29414216424334,662405,1778,8840.448695421219,-42.21729278564453,5.777553558349609,40.966636657714844,0.44
662,MetaDrive-testbn_og,74,267.7826145443542,663406,1779,8854.123178958893,,81.4627456665039,36.49271774291992,0.44
663,MetaDrive-testbn_og,74,269.46737721489325,664372,1781,8866.095732212067,,56.538116455078125,36.665992736816406,0.45
664,MetaDrive-testbn_og,74,270.36145448479283,665393,1783,8879.593712329865,-38.541893005371094,7.810204982757568,38.46809768676758,0.46
665,MetaDrive-testbn_og,74,271.0149123746013,666394,1784,8891.09733748436,,5.731231689453125,43.64566421508789,0.46
666,MetaDrive-testbn_og,74,266.3653663027825,667153,1787,8901.824482917786,-43.29462432861328,3.5763487815856934,42.73977279663086,0.44
667,MetaDrive-testbn_og,74,263.13168689338477,668237,1790,8914.028331279755,-37.73366928100586,4.706619739532471,37.60749053955078,0.45
668,MetaDrive-testbn_og,74,264.94038692808266,669453,1792,8932.062320709229,-40.69245910644531,24.040388107299805,39.91972351074219,0.46
669,MetaDrive-testbn_og,74,266.72918725585595,670061,1793,8943.105336904526,-41.07630920410156,10.638378143310547,41.041805267333984,0.46
670,MetaDrive-testbn_og,74,266.8741019848751,671219,1795,8958.570680379868,-42.24636459350586,11.66425609588623,41.4560546875,0.46
671,MetaDrive-testbn_og,74,265.3261012742912,672206,1798,8970.779122114182,,4.962368965148926,43.585487365722656,0.46
672,MetaDrive-testbn_og,74,262.95240892180914,673375,1801,8986.595630645752,-42.30614471435547,4.172125339508057,42.57080841064453,0.45
673,MetaDrive-testbn_og,74,263.939047029254,674471,1803,9001.036860466003,-44.193328857421875,6.370971202850342,44.78451919555664,0.45
674,MetaDrive-testbn_og,74,264.1983846813526,675082,1804,9008.004967927933,,37.262481689453125,39.405723571777344,0.45
675,MetaDrive-testbn_og,74,265.5909097318552,676215,1807,9021.218213319778,-41.73551940917969,5.283786773681641,41.0775146484375,0.45
676,MetaDrive-testbn_og,74,266.5087087318596,677111,1808,9034.114431858063,-42.415122985839844,4.102160930633545,41.82469940185547,0.45
677,MetaDrive-testbn_og,74,265.70803335131814,678417,1811,9049.68120265007,-42.859352111816406,13.708532333374023,43.05175018310547,0.45
678,MetaDrive-testbn_og,74,266.99174879955706,679416,1812,9064.926112890244,,24.641056060791016,39.364845275878906,0.46
679,MetaDrive-testbn_og,74,264.0705492341421,681000,1814,9088.62803864479,,11.127891540527344,43.11771774291992,0.46
680,MetaDrive-testbn_og,74,264.2166817543177,682954,1816,9114.558848142624,,165.40087890625,40.563331604003906,0.45
681,MetaDrive-testbn_og,74,264.73301351065925,683642,1817,9122.586955070496,,4.301701545715332,38.91282653808594,0.46
682,MetaDrive-testbn_og,74,265.65893014057895,684533,1819,9137.048840761185,-41.438720703125,6.107062339782715,41.62811279296875,0.45
683,MetaDrive-testbn_og,74,267.51090559588937,685063,1820,9142.986146688461,-38.668243408203125,6.320585250854492,39.309532165527344,0.46
684,MetaDrive-testbn_og,74,265.7113155034609,686298,1824,9156.444817781448,,7.471373558044434,42.41783905029297,0.47
685,MetaDrive-testbn_og,74,269.1162241500111,687395,1826,9170.101768732071,-42.10088348388672,8.015962600708008,41.738121032714844,0.48
686,MetaDrive-testbn_og,74,269.63511701353264,688003,1827,9179.762315273285,-39.28472900390625,7.332159042358398,38.519012451171875,0.48
687,MetaDrive-testbn_og,74,269.23810886158867,689552,1831,9199.065625667572,,8.400192260742188,42.58793640136719,0.5
688,MetaDrive-testbn_og,74,271.4606430237015,690182,1832,9205.680399417877,,4.892669200897217,45.884647369384766,0.51
689,MetaDrive-testbn_og,74,267.0862950920535,691420,1835,9223.090886354446,,2.4824624061584473,39.11259841918945,0.49
690,MetaDrive-testbn_og,74,268.30306727999607,692038,1836,9229.92234992981,,7.318488121032715,43.46481704711914,0.49
691,MetaDrive-testbn_og,74,266.97333674979564,693491,1840,9249.280171632767,-36.11314010620117,6.559759140014648,36.029544830322266,0.48
692,MetaDrive-testbn_og,74,265.0273236889103,694144,1842,9260.20306444168,,29.31288719177246,44.61067199707031,0.47
693,MetaDrive-testbn_og,74,264.97460057624164,695144,1844,9273.798383712769,,7.502349853515625,43.17380905151367,0.47
694,MetaDrive-testbn_og,74,267.35600731852406,696462,1846,9294.510171413422,,5.586763381958008,42.73731231689453,0.47
695,MetaDrive-testbn_og,74,269.6650073776355,697285,1848,9306.23748588562,-43.64957809448242,8.745325088500977,43.567787170410156,0.47
696,MetaDrive-testbn_og,74,268.20505049788335,698143,1850,9317.400365829468,-39.15510940551758,5.528018474578857,39.711517333984375,0.48
697,MetaDrive-testbn_og,74,267.0184985661002,699275,1854,9330.223731040955,-40.359046936035156,6.516160011291504,40.2940788269043,0.48
698,MetaDrive-testbn_og,74,267.5315681030798,700088,1856,9340.682741641998,,9.679584503173828,41.96398162841797,0.49
699,MetaDrive-testbn_og,74,267.1141392518429,701022,1857,9358.080627202988,,9.461156845092773,43.18027877807617,0.49
700,MetaDrive-testbn_og,74,268.5914629791257,702715,1859,9379.521595478058,-39.99240493774414,5.410790920257568,40.149627685546875,0.49
701,MetaDrive-testbn_og,74,267.4467835069536,703028,1860,9382.89325594902,,13.634150505065918,38.528465270996094,0.48
702,MetaDrive-testbn_og,74,267.46848530326656,704399,1862,9400.24030661583,-42.89378356933594,4.6972336769104,42.842369079589844,0.47
703,MetaDrive-testbn_og,74,269.0851878098613,705731,1864,9428.837264299393,-42.92206573486328,4.8642730712890625,42.76041030883789,0.47
704,MetaDrive-testbn_og,74,268.3815157476188,706280,1865,9438.03646826744,,43.64081573486328,39.63820266723633,0.46
705,MetaDrive-testbn_og,74,263.9018253927195,707243,1868,9450.645956754684,-42.37743377685547,6.245397090911865,42.00778579711914,0.46
706,MetaDrive-testbn_og,74,263.6847678463623,708268,1870,9463.823867321014,,4.2508225440979,41.075157165527344,0.47
707,MetaDrive-testbn_og,74,263.63006936276577,709656,1873,9481.209310531616,,3.1695759296417236,44.76881408691406,0.47
708,MetaDrive-testbn_og,74,261.9196518675359,710428,1875,9491.212356090546,,35.78743362426758,41.1702880859375,0.46
709,MetaDrive-testbn_og,74,263.6052082298911,711299,1876,9505.382894515991,-42.208702087402344,12.814579010009766,41.95475769042969,0.46
710,MetaDrive-testbn_og,74,257.0360340689351,712516,1881,9519.517385721207,,6.035490036010742,41.645503997802734,0.44
711,MetaDrive-testbn_og,74,253.9289126716476,713126,1883,9527.169377088547,,4.778980255126953,42.43855667114258,0.42
712,MetaDrive-testbn_og,74,257.5953373893652,714918,1886,9556.737757205963,,87.09255981445312,40.46131134033203,0.42
713,MetaDrive-testbn_og,74,257.8219500788754,715512,1887,9563.255782604218,,23.157440185546875,44.03556442260742,0.43
714,MetaDrive-testbn_og,74,260.237256404126,716450,1889,9574.919963359833,,31.45599365234375,40.87187576293945,0.44
715,MetaDrive-testbn_og,74,254.63073216288151,717248,1892,9583.357090234756,,4.249969959259033,41.4850959777832,0.43
716,MetaDrive-testbn_og,74,254.5970105824972,718249,1893,9603.874607801437,-41.56578826904297,9.06818675994873,40.31089782714844,0.43
717,MetaDrive-testbn_og,74,251.55768265464292,719384,1896,9619.418396234512,,12.4011869430542,38.3256950378418,0.41
718,MetaDrive-testbn_og,74,253.7503586728073,720473,1898,9633.427472114563,-38.870391845703125,12.801351547241211,38.896541595458984,0.41
719,MetaDrive-testbn_og,74,255.2909721123604,721065,1899,9640.35337471962,-39.3084831237793,6.282713413238525,38.617958068847656,0.41
720,MetaDrive-testbn_og,74,258.7317266272719,722014,1900,9656.839333295822,,5.13088321685791,42.62353515625,0.42
721,MetaDrive-testbn_og,74,256.39686486350746,723084,1902,9672.345647096634,,6.683917999267578,44.46040344238281,0.42
722,MetaDrive-testbn_og,74,256.87226558281276,724061,1904,9684.55652999878,-41.136024475097656,5.042144775390625,40.35406494140625,0.43
723,MetaDrive-testbn_og,74,260.3427476492617,725124,1906,9696.92057132721,,7.576533317565918,41.40838623046875,0.44
724,MetaDrive-testbn_og,74,255.36594892186073,726845,1909,9717.271893024445,-38.399879455566406,5.004786968231201,39.00794219970703,0.43
725,MetaDrive-testbn_og,74,256.28372684873386,727571,1910,9725.852938890457,-38.61281967163086,4.582888603210449,38.569000244140625,0.44
726,MetaDrive-testbn_og,74,255.13307238279546,728117,1911,9732.1427359581,-42.470664978027344,5.441882133483887,42.401832580566406,0.43
727,MetaDrive-testbn_og,74,251.16145061496147,729008,1914,9741.884206533432,,116.12395477294922,38.42872619628906,0.42
728,MetaDrive-testbn_og,74,247.87444935869414,730101,1917,9754.80976486206,-38.39052963256836,6.894433498382568,38.518531799316406,0.41
729,MetaDrive-testbn_og,74,246.8818103103647,731182,1919,9771.819633722305,,17.0087947845459,43.18608856201172,0.41
730,MetaDrive-testbn_og,74,248.4444077791225,732953,1921,9808.590755462646,-43.211952209472656,8.651606559753418,43.57658767700195,0.39
731,MetaDrive-testbn_og,74,252.12148157192786,733702,1922,9819.910195827484,,5.390100479125977,42.004337310791016,0.4
732,MetaDrive-testbn_og,74,253.5588125589419,734105,1923,9824.640310764313,-41.905574798583984,6.105018615722656,41.566749572753906,0.4
733,MetaDrive-testbn_og,74,245.70799585760167,735869,1928,9849.857070446014,-40.12595748901367,2.438746452331543,39.94566345214844,0.36
734,MetaDrive-testbn_og,74,247.87931843889422,736870,1929,9867.518564462662,,9.745489120483398,38.411476135253906,0.36
735,MetaDrive-testbn_og,74,249.32271716482683,737299,1930,9871.580936431885,-38.579105377197266,13.088211059570312,38.4934196472168,0.36
736,MetaDrive-testbn_og,74,245.5008246019814,738231,1933,9882.7008497715,-39.011634826660156,6.808682441711426,38.94349670410156,0.34
737,MetaDrive-testbn_og,74,247.59898198478834,739159,1934,9895.876688718796,-42.51121520996094,4.778887748718262,42.01780700683594,0.35
738,MetaDrive-testbn_og,74,246.06351027546455,740867,1939,9921.351328611374,-35.735130310058594,4.976554870605469,35.684391021728516,0.37
739,MetaDrive-testbn_og,74,246.14667181438938,741681,1940,9935.246228456497,-45.571353912353516,3.007523536682129,45.30667495727539,0.37
740,MetaDrive-testbn_og,74,245.5947869740174,742273,1941,9943.490852355957,-43.42316436767578,8.425436973571777,43.35649871826172,0.37
741,MetaDrive-testbn_og,74,245.93845009936874,743840,1943,9962.521518468857,,17.62051010131836,39.350257873535156,0.38
742,MetaDrive-testbn_og,74,245.11801301476368,744231,1944,9966.497168779373,-40.775672912597656,7.690539836883545,40.744873046875,0.38
743,MetaDrive-testbn_og,74,243.09356283100146,745362,1946,9980.57349061966,,6.093876361846924,46.28617858886719,0.38
744,MetaDrive-testbn_og,74,242.6676283221932,746823,1948,9999.517997264862,-43.48044967651367,14.022878646850586,43.65258026123047,0.37
745,MetaDrive-testbn_og,74,242.7485967546005,747334,1949,10005.180787563324,,6.840864181518555,41.6860237121582,0.38
746,MetaDrive-testbn_og,74,242.8714999500734,748292,1950,10020.75968837738,,5.438836097717285,38.083614349365234,0.37
747,MetaDrive-testbn_og,74,245.90798101074049,749719,1952,10044.378931760788,-38.125003814697266,3.829881191253662,37.61206817626953,0.37
748,MetaDrive-testbn_og,74,247.87700420488548,750166,1953,10051.455709218979,,14.469696998596191,42.35094451904297,0.37
749,MetaDrive-testbn_og,74,248.72609694877,751520,1955,10070.168979644775,,75.04234313964844,38.93394470214844,0.37
750,MetaDrive-testbn_og,74,251.22867142452668,752534,1957,10084.44097661972,,4.68681526184082,40.86678695678711,0.38
751,MetaDrive-testbn_og,74,250.2126109118087,753535,1958,10097.1620657444,-41.74766540527344,15.665119171142578,41.08406066894531,0.38
752,MetaDrive-testbn_og,74,249.64287944663235,754394,1960,10110.061614990234,,28.855112075805664,37.559974670410156,0.37
753,MetaDrive-testbn_og,74,247.64966422563083,755289,1961,10122.73785853386,-40.327850341796875,5.606245994567871,40.45112609863281,0.37
754,MetaDrive-testbn_og,74,245.36748711871806,756432,1964,10138.106640577316,,12.965475082397461,38.06513214111328,0.37
755,MetaDrive-testbn_og,74,247.23860838299504,757336,1965,10154.905859947205,,15.049302101135254,40.37559509277344,0.38
756,MetaDrive-testbn_og,74,253.78509834147147,758929,1967,10181.90817642212,-38.01982116699219,13.029808044433594,37.505615234375,0.4
757,MetaDrive-testbn_og,74,254.1579783830423,759389,1968,10190.444415807724,-42.97721862792969,5.9293317794799805,42.27762985229492,0.4
758,MetaDrive-testbn_og,74,254.90981438294074,760455,1970,10204.712879896164,-41.10703659057617,17.014347076416016,40.66310119628906,0.4
759,MetaDrive-testbn_og,74,252.48772236193557,761240,1973,10214.478981256485,,9.78065299987793,37.39055252075195,0.4
760,MetaDrive-testbn_og,74,252.2433451509788,762929,1975,10235.31975531578,-41.02714538574219,8.586075782775879,41.64320373535156,0.39
761,MetaDrive-testbn_og,74,251.88400740190974,763581,1976,10244.650552749634,-42.12396240234375,69.82441711425781,42.40648651123047,0.39
762,MetaDrive-testbn_og,74,252.78122008193412,764181,1978,10251.488419294357,-40.8207893371582,14.991155624389648,40.15917205810547,0.4
763,MetaDrive-testbn_og,74,257.1623955471282,765182,1980,10265.837709188461,,2.5993199348449707,42.2430419921875,0.41
764,MetaDrive-testbn_og,74,261.25708627562534,766620,1982,10285.857152700424,,4.509824275970459,38.72161865234375,0.42
765,MetaDrive-testbn_og,74,262.715133592488,767440,1983,10297.748271942139,,8.232044219970703,41.05058288574219,0.43
766,MetaDrive-testbn_og,74,262.5052247763529,768328,1985,10310.230111122131,,96.49417114257812,43.52656173706055,0.43
767,MetaDrive-testbn_og,74,260.3567246429516,769011,1988,10317.647253990173,-40.58689880371094,8.470602035522461,40.75741195678711,0.43
768,MetaDrive-testbn_og,74,262.8654024382408,770544,1990,10341.046046733856,,6.747420310974121,39.39183807373047,0.43
769,MetaDrive-testbn_og,74,267.1979357777089,771363,1991,10351.157783031464,-39.18810272216797,4.756403923034668,39.03373718261719,0.44
770,MetaDrive-testbn_og,74,267.2487598031574,772138,1992,10362.743552446365,,10.158937454223633,37.267696380615234,0.44
771,MetaDrive-testbn_og,74,269.1454202158155,773059,1994,10374.451245307922,-40.07421112060547,4.76316499710083,39.109840393066406,0.45
772,MetaDrive-testbn_og,74,267.385731095751,774486,1998,10394.92274594307,,10.139700889587402,35.435829162597656,0.46
773,MetaDrive-testbn_og,74,268.858213682278,775191,1999,10405.527378320694,-37.358524322509766,4.047619819641113,37.59916687011719,0.47
774,MetaDrive-testbn_og,74,265.279400474914,776074,2001,10414.690289258957,,16.031269073486328,35.90980529785156,0.47
775,MetaDrive-testbn_og,74,264.8559112026141,777365,2004,10433.258307695389,-33.77093505859375,5.343379020690918,33.2130126953125,0.46
776,MetaDrive-testbn_og,74,263.01485825612076,778149,2006,10443.283983945847,-43.28644561767578,4.244161128997803,43.43409729003906,0.44
777,MetaDrive-testbn_og,74,265.54543491008167,779448,2009,10459.061079740524,,15.259135246276855,37.63288879394531,0.45
778,MetaDrive-testbn_og,74,263.4071607087335,780449,2010,10473.372610569,-44.01572036743164,6.65676736831665,43.951324462890625,0.44
779,MetaDrive-testbn_og,74,263.9741878908316,781461,2012,10484.891340732574,-39.31324005126953,12.976618766784668,39.17640686035156,0.45
780,MetaDrive-testbn_og,74,264.0986667283025,782778,2014,10502.830765247345,,11.147119522094727,35.47102355957031,0.44
781,MetaDrive-testbn_og,74,262.32953358955564,783056,2015,10506.507821559906,,10.85151481628418,39.96711730957031,0.43
782,MetaDrive-testbn_og,74,262.81937884835395,784187,2018,10522.139048576355,-40.35075378417969,7.292011737823486,39.539527893066406,0.44
783,MetaDrive-testbn_og,74,262.49907128109857,785380,2020,10535.232409477234,,10.757079124450684,40.59955596923828,0.46
784,MetaDrive-testbn_og,74,262.563939834335,786288,2021,10548.756726264954,,4.853860378265381,40.767738342285156,0.47
785,MetaDrive-testbn_og,74,264.00117012562697,787572,2024,10563.571034908295,,10.667963027954102,36.920135498046875,0.48
786,MetaDrive-testbn_og,74,267.20984701853035,788101,2025,10569.607054948807,-38.472599029541016,7.074425220489502,38.02042770385742,0.49
787,MetaDrive-testbn_og,74,265.86908854876486,789203,2028,10581.621391534805,-44.07844924926758,43.865440368652344,44.587745666503906,0.48
