TanmayH/CS269-RL-project-code/MetaDrive-td3combine-expt_with_safe-leaky-adamw-in-q-weighted/MetaDrive-Gen-Next-v0/td3/progress.csv
,log_dir,frame_per_second,episode_reward,total_steps,total_episodes,total_time,actor_loss,critic_loss,target_q,success_rate
0,MetaDrive-td3combine-expt_with_safe-leaky-adamw-in-q-weighted,706,6.368912193757217,1064,2,1.5058469772338867,,0.000783672439865768,-0.01446181908249855,0.0
1,MetaDrive-td3combine-expt_with_safe-leaky-adamw-in-q-weighted,132,-2.6164834691008068,2913,17,21.991267919540405,0.018802739679813385,0.0026183011941611767,-0.025866763666272163,0.0
2,MetaDrive-td3combine-expt_with_safe-leaky-adamw-in-q-weighted,121,-2.55153204231441,3990,19,32.71361303329468,,1.529308557510376,-0.18475769460201263,0.0
3,MetaDrive-td3combine-expt_with_safe-leaky-adamw-in-q-weighted,121,-2.673913911240189,4058,20,33.49868083000183,,0.005973832681775093,-0.03846878185868263,0.0
4,MetaDrive-td3combine-expt_with_safe-leaky-adamw-in-q-weighted,113,-2.9762845403773106,5468,24,48.06843400001526,,0.004334583878517151,-0.0475616455078125,0.0
5,MetaDrive-td3combine-expt_with_safe-leaky-adamw-in-q-weighted,111,-3.128346211189641,6131,25,54.939335107803345,0.07873701304197311,0.0028499639593064785,-0.06780359894037247,0.0
6,MetaDrive-td3combine-expt_with_safe-leaky-adamw-in-q-weighted,109,-2.981640197738677,7132,26,65.08094811439514,,0.012005872093141079,-0.08599331229925156,0.0
7,MetaDrive-td3combine-expt_with_safe-leaky-adamw-in-q-weighted,107,-3.0422107628596877,8525,28,79.49158477783203,0.12963853776454926,0.00047304207691922784,-0.12450157105922699,0.0
8,MetaDrive-td3combine-expt_with_safe-leaky-adamw-in-q-weighted,106,-3.012807191454445,9526,29,89.55893397331238,,0.004434542264789343,-0.1348097324371338,0.0
9,MetaDrive-td3combine-expt_with_safe-leaky-adamw-in-q-weighted,105,-2.917931497031364,10527,30,99.71402788162231,0.13022451102733612,0.0005946112796664238,-0.14565853774547577,0.0
10,MetaDrive-td3combine-expt_with_safe-leaky-adamw-in-q-weighted,103,-2.897493988032862,11895,40,115.08149003982544,0.16658006608486176,0.011903398670256138,-0.16920524835586548,0.0
11,MetaDrive-td3combine-expt_with_safe-leaky-adamw-in-q-weighted,102,-2.9786881119284945,12269,41,119.74444508552551,0.1821381002664566,0.0069666458293795586,-0.16424214839935303,0.0
12,MetaDrive-td3combine-expt_with_safe-leaky-adamw-in-q-weighted,100,-2.8904511426410946,13270,42,131.6461579799652,,0.5958362221717834,-0.2796729803085327,0.0
13,MetaDrive-td3combine-expt_with_safe-leaky-adamw-in-q-weighted,98,-2.8448864048900373,14482,44,146.87634897232056,,0.0023913956247270107,-0.17097532749176025,0.0
14,MetaDrive-td3combine-expt_with_safe-leaky-adamw-in-q-weighted,97,-2.780814227583534,15594,46,159.7901999950409,,0.7359451651573181,-0.27735352516174316,0.0
15,MetaDrive-td3combine-expt_with_safe-leaky-adamw-in-q-weighted,96,-2.6986102558732616,16595,47,171.5729718208313,0.18711607158184052,0.0186459943652153,-0.1815246194601059,0.0
16,MetaDrive-td3combine-expt_with_safe-leaky-adamw-in-q-weighted,96,-2.6247965484797784,17596,48,183.0764298439026,,0.0014047459699213505,-0.1728753298521042,0.0
17,MetaDrive-td3combine-expt_with_safe-leaky-adamw-in-q-weighted,95,-2.5279882926697956,18597,49,194.3681869506836,0.11478779464960098,0.006367607042193413,-0.17553910613059998,0.0
18,MetaDrive-td3combine-expt_with_safe-leaky-adamw-in-q-weighted,95,-2.4615557717581553,19598,50,206.05430579185486,,0.00025334677775390446,-0.18095599114894867,0.0
19,MetaDrive-td3combine-expt_with_safe-leaky-adamw-in-q-weighted,94,-2.4399603519499893,20691,52,219.15282607078552,0.1926046907901764,0.001527370885014534,-0.17370639741420746,0.0
20,MetaDrive-td3combine-expt_with_safe-leaky-adamw-in-q-weighted,94,-2.5067610772789575,21005,53,222.90522694587708,0.18896254897117615,0.007438827771693468,-0.19557514786720276,0.0
21,MetaDrive-td3combine-expt_with_safe-leaky-adamw-in-q-weighted,93,-2.4604119859625633,22006,54,234.52522778511047,,0.00640445202589035,-0.17100012302398682,0.0
22,MetaDrive-td3combine-expt_with_safe-leaky-adamw-in-q-weighted,93,-2.5053590204352743,23567,57,252.77905082702637,0.19381484389305115,0.7107511162757874,-0.24467867612838745,0.0
23,MetaDrive-td3combine-expt_with_safe-leaky-adamw-in-q-weighted,92,-2.49830168042733,24672,59,265.5887780189514,,0.02359880693256855,-0.18354909121990204,0.0
24,MetaDrive-td3combine-expt_with_safe-leaky-adamw-in-q-weighted,92,-2.56822218067944,25993,63,281.29019713401794,0.152961865067482,0.0002968829357996583,-0.15715107321739197,0.0
25,MetaDrive-td3combine-expt_with_safe-leaky-adamw-in-q-weighted,92,-2.606844180927475,26077,64,282.39424180984497,0.18359312415122986,0.00020105071598663926,-0.1821492612361908,0.0
26,MetaDrive-td3combine-expt_with_safe-leaky-adamw-in-q-weighted,92,-2.5640416177705787,27078,65,293.85535407066345,,0.00014092681522015482,-0.1713840514421463,0.0
27,MetaDrive-td3combine-expt_with_safe-leaky-adamw-in-q-weighted,91,-2.504711880730984,28079,66,305.2406949996948,0.2070084810256958,0.7135772705078125,-0.25513848662376404,0.0
28,MetaDrive-td3combine-expt_with_safe-leaky-adamw-in-q-weighted,91,-2.4420873354019883,29080,67,317.02793884277344,,0.0020049680024385452,-0.17754285037517548,0.0
29,MetaDrive-td3combine-expt_with_safe-leaky-adamw-in-q-weighted,91,-2.3953807571217705,30081,68,328.2951908111572,0.18859045207500458,0.0001900647475849837,-0.1822645515203476,0.0
30,MetaDrive-td3combine-expt_with_safe-leaky-adamw-in-q-weighted,91,-2.4294633129224295,31027,70,339.0342891216278,0.17582811415195465,0.0015639645280316472,-0.1780371218919754,0.0
31,MetaDrive-td3combine-expt_with_safe-leaky-adamw-in-q-weighted,90,-2.9777034995386753,32882,109,364.23399782180786,,0.7186012268066406,-0.2107204794883728,0.0
32,MetaDrive-td3combine-expt_with_safe-leaky-adamw-in-q-weighted,90,-3.000321499875207,33271,110,368.64190101623535,0.13560323417186737,0.002237747423350811,-0.1589362770318985,0.0
33,MetaDrive-td3combine-expt_with_safe-leaky-adamw-in-q-weighted,90,-2.991631497573769,34356,112,381.19319009780884,,0.012984403409063816,-0.2026704102754593,0.0
34,MetaDrive-td3combine-expt_with_safe-leaky-adamw-in-q-weighted,90,-2.9558412344164657,35491,114,394.2849929332733,0.13864155113697052,0.0017745952354744077,-0.15807291865348816,0.0
35,MetaDrive-td3combine-expt_with_safe-leaky-adamw-in-q-weighted,89,-2.990713765961684,36414,115,404.78566908836365,,0.39423614740371704,-0.2396981418132782,0.0
36,MetaDrive-td3combine-expt_with_safe-leaky-adamw-in-q-weighted,89,-2.9263512090309685,37643,118,419.1991331577301,0.21432358026504517,0.702802836894989,-0.24328626692295074,0.0
37,MetaDrive-td3combine-expt_with_safe-leaky-adamw-in-q-weighted,89,-2.9633556058669743,38644,119,431.11744594573975,,0.004680350888520479,-0.170366108417511,0.0
38,MetaDrive-td3combine-expt_with_safe-leaky-adamw-in-q-weighted,89,-2.906063367664146,39645,120,442.9621012210846,0.1580202281475067,0.00015458057168871164,-0.16437825560569763,0.0
39,MetaDrive-td3combine-expt_with_safe-leaky-adamw-in-q-weighted,89,-2.907862451651477,40291,121,450.47934103012085,0.15929974615573883,0.003099798923358321,-0.18606093525886536,0.0
40,MetaDrive-td3combine-expt_with_safe-leaky-adamw-in-q-weighted,89,-2.802538454170772,41036,128,459.87723088264465,,0.0011309534311294556,-0.18982625007629395,0.0
41,MetaDrive-td3combine-expt_with_safe-leaky-adamw-in-q-weighted,88,-3.2266820916697982,42056,162,475.8837149143219,,0.0005627405480481684,-0.14689776301383972,0.0
42,MetaDrive-td3combine-expt_with_safe-leaky-adamw-in-q-weighted,87,-3.436891166127339,43431,173,493.6173310279846,0.04041976481676102,0.002189881633967161,-0.07917089760303497,0.0
43,MetaDrive-td3combine-expt_with_safe-leaky-adamw-in-q-weighted,87,-3.421623822527179,44048,178,501.43240308761597,,0.3754826784133911,-0.12248003482818604,0.0
44,MetaDrive-td3combine-expt_with_safe-leaky-adamw-in-q-weighted,87,-3.3701342005300607,45656,182,520.4337282180786,,0.027605578303337097,-0.06862735003232956,0.0
45,MetaDrive-td3combine-expt_with_safe-leaky-adamw-in-q-weighted,87,-3.3716758124748383,46657,183,532.0795679092407,0.08257152140140533,0.0018311829771846533,-0.07499342411756516,0.0
46,MetaDrive-td3combine-expt_with_safe-leaky-adamw-in-q-weighted,87,-3.340424324732021,47658,184,543.8694188594818,,0.010101595893502235,-0.12569324672222137,0.0
47,MetaDrive-td3combine-expt_with_safe-leaky-adamw-in-q-weighted,87,-3.3278142831042405,48659,185,555.8396809101105,0.13705238699913025,0.028870847076177597,-0.0911698043346405,0.0
48,MetaDrive-td3combine-expt_with_safe-leaky-adamw-in-q-weighted,87,-3.3034967419509114,49660,186,567.6179327964783,,0.013006504625082016,-0.10220880061388016,0.0
49,MetaDrive-td3combine-expt_with_safe-leaky-adamw-in-q-weighted,87,-3.2518130061040647,50661,187,579.144562959671,0.051979854702949524,0.007031683810055256,-0.06601078808307648,0.0
50,MetaDrive-td3combine-expt_with_safe-leaky-adamw-in-q-weighted,87,-3.1834102639599298,51662,188,590.7352819442749,,0.572057843208313,-0.14238803088665009,0.0
51,MetaDrive-td3combine-expt_with_safe-leaky-adamw-in-q-weighted,87,-3.1044138298552206,52663,189,602.3644981384277,0.0025707960594445467,0.002563175279647112,-0.046627193689346313,0.0
52,MetaDrive-td3combine-expt_with_safe-leaky-adamw-in-q-weighted,87,-3.0335487422245073,53664,190,614.371505022049,,0.42462339997291565,-0.12493354827165604,0.0
53,MetaDrive-td3combine-expt_with_safe-leaky-adamw-in-q-weighted,87,-2.9503712146509624,54665,191,626.2334930896759,-0.035646338015794754,0.0006257648929022253,0.013903554528951645,0.0
54,MetaDrive-td3combine-expt_with_safe-leaky-adamw-in-q-weighted,87,-2.898310917575602,55666,192,638.1163148880005,,0.0075722625479102135,0.05479730665683746,0.0
55,MetaDrive-td3combine-expt_with_safe-leaky-adamw-in-q-weighted,87,-2.89879457727871,56318,193,645.752357006073,,0.0034904181957244873,0.08686082065105438,0.0
56,MetaDrive-td3combine-expt_with_safe-leaky-adamw-in-q-weighted,87,-2.8748559996227776,57335,195,658.273973941803,-0.14480122923851013,0.0009855016833171248,0.1321866512298584,0.0
57,MetaDrive-td3combine-expt_with_safe-leaky-adamw-in-q-weighted,86,-2.872530261969818,58295,196,670.0902400016785,-0.2630879282951355,0.0021414197981357574,0.21121573448181152,0.0
58,MetaDrive-td3combine-expt_with_safe-leaky-adamw-in-q-weighted,86,-2.801196768128724,59296,197,681.8793177604675,,0.005408707074820995,0.20070531964302063,0.0
59,MetaDrive-td3combine-expt_with_safe-leaky-adamw-in-q-weighted,86,-2.7283390216617676,60852,200,699.733225107193,,0.0041828034445643425,0.22948727011680603,0.0
60,MetaDrive-td3combine-expt_with_safe-leaky-adamw-in-q-weighted,86,-2.7028800286225887,61783,201,710.3617508411407,-0.2735958397388458,0.001093238010071218,0.24465635418891907,0.0
61,MetaDrive-td3combine-expt_with_safe-leaky-adamw-in-q-weighted,86,-2.684401155022799,62784,202,722.3115799427032,,0.733986496925354,0.28612011671066284,0.0
62,MetaDrive-td3combine-expt_with_safe-leaky-adamw-in-q-weighted,86,-2.658743637704767,63785,203,734.5396089553833,-0.42769530415534973,0.0006101367762312293,0.3845271170139313,0.0
63,MetaDrive-td3combine-expt_with_safe-leaky-adamw-in-q-weighted,86,-2.5951694475907554,64786,204,747.570562839508,,0.025574740022420883,0.3241572380065918,0.0
64,MetaDrive-td3combine-expt_with_safe-leaky-adamw-in-q-weighted,86,-2.5431050360080585,65787,205,759.4694218635559,-0.4606532156467438,0.8179498910903931,0.28005996346473694,0.0
65,MetaDrive-td3combine-expt_with_safe-leaky-adamw-in-q-weighted,86,-2.559659026925063,66199,206,764.3695549964905,-0.40840792655944824,0.0036255880258977413,0.40805333852767944,0.0
66,MetaDrive-td3combine-expt_with_safe-leaky-adamw-in-q-weighted,86,-2.530191210818489,67060,207,774.387286901474,,0.005298526957631111,0.4242333173751831,0.0
67,MetaDrive-td3combine-expt_with_safe-leaky-adamw-in-q-weighted,86,-2.586644765214099,68273,212,789.0260770320892,-0.43742263317108154,0.0032631512731313705,0.43375223875045776,0.0
68,MetaDrive-td3combine-expt_with_safe-leaky-adamw-in-q-weighted,86,-2.5480267137041084,69274,213,800.8217160701752,,0.0018886788748204708,0.5087882876396179,0.0
69,MetaDrive-td3combine-expt_with_safe-leaky-adamw-in-q-weighted,86,-2.577956775865194,70202,214,811.553680896759,,0.0047728982754051685,0.4969879984855652,0.0
70,MetaDrive-td3combine-expt_with_safe-leaky-adamw-in-q-weighted,86,-2.468893769367255,71203,215,823.0937669277191,-0.5165473222732544,0.0038886091206222773,0.47783777117729187,0.0
71,MetaDrive-td3combine-expt_with_safe-leaky-adamw-in-q-weighted,86,-2.392936502504099,72204,216,834.6354999542236,,0.7983159422874451,0.4214925765991211,0.0
72,MetaDrive-td3combine-expt_with_safe-leaky-adamw-in-q-weighted,86,-2.40691151455402,73030,217,844.1227948665619,,0.0029704514890909195,0.4792439341545105,0.0
73,MetaDrive-td3combine-expt_with_safe-leaky-adamw-in-q-weighted,86,-2.4037751808154195,74031,218,855.669303894043,-0.5485265851020813,0.0016760928556323051,0.5162180066108704,0.0
74,MetaDrive-td3combine-expt_with_safe-leaky-adamw-in-q-weighted,86,-2.402310807041889,75496,220,872.8847451210022,,0.008296623826026917,0.49565908312797546,0.0
75,MetaDrive-td3combine-expt_with_safe-leaky-adamw-in-q-weighted,86,-2.333141752059382,76497,221,885.0559141635895,-0.5261849164962769,0.011597195640206337,0.46456870436668396,0.0
76,MetaDrive-td3combine-expt_with_safe-leaky-adamw-in-q-weighted,86,-2.239670487322777,77498,222,897.0405399799347,,0.030421562492847443,0.551916241645813,0.0
77,MetaDrive-td3combine-expt_with_safe-leaky-adamw-in-q-weighted,86,-2.2034335671813596,78499,223,908.5341219902039,-0.6498157382011414,0.01870817318558693,0.5893428325653076,0.0
78,MetaDrive-td3combine-expt_with_safe-leaky-adamw-in-q-weighted,86,-2.2171736328988634,79015,225,914.5725018978119,-0.6214391589164734,0.009319217875599861,0.6059070825576782,0.0
79,MetaDrive-td3combine-expt_with_safe-leaky-adamw-in-q-weighted,86,-2.1830431450912617,80016,226,926.4033858776093,,0.004070091526955366,0.6917341947555542,0.0
80,MetaDrive-td3combine-expt_with_safe-leaky-adamw-in-q-weighted,86,-2.1192935157056434,81017,227,938.0669400691986,-0.5622239112854004,0.0487591028213501,0.5030282735824585,0.0
81,MetaDrive-td3combine-expt_with_safe-leaky-adamw-in-q-weighted,86,-2.1378312822038503,82938,229,960.3577251434326,,0.004531766287982464,0.6153713464736938,0.0
82,MetaDrive-td3combine-expt_with_safe-leaky-adamw-in-q-weighted,86,-2.180206394469423,83768,231,970.3803858757019,,0.0008337325998581946,0.554919958114624,0.0
83,MetaDrive-td3combine-expt_with_safe-leaky-adamw-in-q-weighted,86,-2.127243563496823,84769,232,982.1302959918976,-0.6551119089126587,0.00862475112080574,0.5723395943641663,0.0
84,MetaDrive-td3combine-expt_with_safe-leaky-adamw-in-q-weighted,86,-2.1977553052492724,85770,233,993.7298080921173,,0.0015095985727384686,0.6382957696914673,0.0
85,MetaDrive-td3combine-expt_with_safe-leaky-adamw-in-q-weighted,86,-2.123975537332404,86771,234,1005.5579648017883,-0.6304961442947388,0.006123526953160763,0.6389561295509338,0.0
86,MetaDrive-td3combine-expt_with_safe-leaky-adamw-in-q-weighted,86,-2.074992030133848,87772,235,1016.994971036911,,0.011921893805265427,0.5813114047050476,0.0
87,MetaDrive-td3combine-expt_with_safe-leaky-adamw-in-q-weighted,86,-2.0111610758721503,88773,236,1028.4276559352875,-0.6235800981521606,0.0014944160357117653,0.6028158664703369,0.0
88,MetaDrive-td3combine-expt_with_safe-leaky-adamw-in-q-weighted,86,-1.9785739342802904,89774,237,1040.076847076416,,0.0009698065114207566,0.6309036612510681,0.0
89,MetaDrive-td3combine-expt_with_safe-leaky-adamw-in-q-weighted,86,-1.9676820133243962,90775,238,1052.2468750476837,-0.6099559664726257,0.006512671243399382,0.5985010266304016,0.0
90,MetaDrive-td3combine-expt_with_safe-leaky-adamw-in-q-weighted,86,-1.9053071379942432,91776,239,1063.6835041046143,,0.0030208048410713673,0.605883002281189,0.0
91,MetaDrive-td3combine-expt_with_safe-leaky-adamw-in-q-weighted,86,-1.8448469432917167,92777,240,1075.2103078365326,-0.616685152053833,0.0018436136888340116,0.625076174736023,0.0
92,MetaDrive-td3combine-expt_with_safe-leaky-adamw-in-q-weighted,86,-1.7848625094043293,93778,241,1086.6781678199768,,0.045842245221138,0.549352765083313,0.0
93,MetaDrive-td3combine-expt_with_safe-leaky-adamw-in-q-weighted,86,-1.7576875470341633,94779,242,1098.321877002716,-0.5102661848068237,0.019728560000658035,0.5794498920440674,0.0
94,MetaDrive-td3combine-expt_with_safe-leaky-adamw-in-q-weighted,86,-1.6873916131388471,95780,243,1109.8657178878784,,0.010988842695951462,0.6281315684318542,0.0
95,MetaDrive-td3combine-expt_with_safe-leaky-adamw-in-q-weighted,86,-1.6843057423559484,96145,244,1114.3004698753357,-0.6826310157775879,0.0045458003878593445,0.6392924785614014,0.0
96,MetaDrive-td3combine-expt_with_safe-leaky-adamw-in-q-weighted,86,-1.6646930837972889,97849,246,1133.9627749919891,-0.5759820342063904,0.005889994092285633,0.6088804006576538,0.0
97,MetaDrive-td3combine-expt_with_safe-leaky-adamw-in-q-weighted,86,-1.617012167138287,98850,247,1145.3371307849884,,0.01180737093091011,0.6775491833686829,0.0
98,MetaDrive-td3combine-expt_with_safe-leaky-adamw-in-q-weighted,86,-1.5665804870824516,99851,248,1156.8894600868225,-0.6387004852294922,0.8392899036407471,0.5733808279037476,0.0
99,MetaDrive-td3combine-expt_with_safe-leaky-adamw-in-q-weighted,86,-1.4895310636860288,100852,249,1168.3601438999176,,0.483745276927948,0.5528759956359863,0.0
100,MetaDrive-td3combine-expt_with_safe-leaky-adamw-in-q-weighted,86,-1.4262549993856408,101853,250,1180.0891060829163,-0.6987953782081604,0.003450242104008794,0.701321005821228,0.0
101,MetaDrive-td3combine-expt_with_safe-leaky-adamw-in-q-weighted,86,-1.3604774773183417,102854,251,1191.3272647857666,,0.0032062367536127567,0.5641276836395264,0.0
102,MetaDrive-td3combine-expt_with_safe-leaky-adamw-in-q-weighted,86,-1.3450605291087498,103535,252,1199.1975259780884,-0.6819108128547668,0.008688759058713913,0.6269028186798096,0.0
103,MetaDrive-td3combine-expt_with_safe-leaky-adamw-in-q-weighted,86,-1.2964846159169958,104133,253,1206.054692029953,-0.6381855010986328,0.025642700493335724,0.6023859977722168,0.0
104,MetaDrive-td3combine-expt_with_safe-leaky-adamw-in-q-weighted,86,-1.1861643051240927,105172,255,1218.1989657878876,,0.3706597685813904,0.4410572648048401,0.0
105,MetaDrive-td3combine-expt_with_safe-leaky-adamw-in-q-weighted,86,-1.0133366881517458,106173,256,1229.6456990242004,-0.49409621953964233,0.020033888518810272,0.5709186792373657,0.0
106,MetaDrive-td3combine-expt_with_safe-leaky-adamw-in-q-weighted,86,-0.5869648951722639,107217,263,1242.4489829540253,-0.7332437634468079,0.030674312263727188,0.6133785843849182,0.0
107,MetaDrive-td3combine-expt_with_safe-leaky-adamw-in-q-weighted,86,-0.06092799954623268,108378,266,1255.6121289730072,,0.0011163090821355581,0.5980501174926758,0.0
108,MetaDrive-td3combine-expt_with_safe-leaky-adamw-in-q-weighted,86,0.08391110445632584,109409,268,1267.6098608970642,-0.47942695021629333,0.0022531524300575256,0.46053817868232727,0.0
109,MetaDrive-td3combine-expt_with_safe-leaky-adamw-in-q-weighted,86,0.7236138959148574,110057,269,1275.0413358211517,-0.5189967751502991,0.010295296087861061,0.4920322299003601,0.0
110,MetaDrive-td3combine-expt_with_safe-leaky-adamw-in-q-weighted,86,0.8178354878125605,111701,274,1294.4887189865112,-0.4998238682746887,0.013407401740550995,0.5605828166007996,0.0
111,MetaDrive-td3combine-expt_with_safe-leaky-adamw-in-q-weighted,86,1.9674646537922746,112848,276,1308.2744359970093,,0.010695679113268852,0.5900351405143738,0.0
112,MetaDrive-td3combine-expt_with_safe-leaky-adamw-in-q-weighted,86,2.1128101838113356,113011,278,1310.295480966568,-0.6692423820495605,0.012761532329022884,0.6052363514900208,0.0
113,MetaDrive-td3combine-expt_with_safe-leaky-adamw-in-q-weighted,86,2.659227390988808,114136,281,1323.784704208374,,0.004334951750934124,0.6450642943382263,0.0
114,MetaDrive-td3combine-expt_with_safe-leaky-adamw-in-q-weighted,86,2.7649933350197746,115193,283,1336.2052609920502,-0.7103630900382996,0.11065030097961426,0.6579590439796448,0.0
115,MetaDrive-td3combine-expt_with_safe-leaky-adamw-in-q-weighted,86,2.8809889463106186,116039,293,1346.7266499996185,-0.8509562611579895,0.007419569883495569,0.8220259547233582,0.0
116,MetaDrive-td3combine-expt_with_safe-leaky-adamw-in-q-weighted,86,3.8224916028866804,117040,294,1359.1407361030579,,0.006998877041041851,0.7427659034729004,0.0
117,MetaDrive-td3combine-expt_with_safe-leaky-adamw-in-q-weighted,86,6.040207923171761,118416,302,1375.9732699394226,,0.01021779514849186,0.8245711326599121,0.0
118,MetaDrive-td3combine-expt_with_safe-leaky-adamw-in-q-weighted,86,7.945013545399458,119196,304,1385.3276751041412,,0.010811864398419857,0.9405520558357239,0.01
119,MetaDrive-td3combine-expt_with_safe-leaky-adamw-in-q-weighted,86,10.401803682052817,120175,307,1397.2573058605194,-1.0682581663131714,0.06755117326974869,0.9968371391296387,0.01
120,MetaDrive-td3combine-expt_with_safe-leaky-adamw-in-q-weighted,86,13.424908959947043,121293,312,1410.3292489051819,-1.2575021982192993,0.006878019776195288,1.1715720891952515,0.02
121,MetaDrive-td3combine-expt_with_safe-leaky-adamw-in-q-weighted,85,15.943052716748843,122248,315,1421.4946987628937,,0.014427341520786285,1.4100443124771118,0.03
122,MetaDrive-td3combine-expt_with_safe-leaky-adamw-in-q-weighted,85,17.708169787305724,123374,320,1435.0831258296967,,0.017383497208356857,1.666248083114624,0.04
123,MetaDrive-td3combine-expt_with_safe-leaky-adamw-in-q-weighted,85,18.55153427445746,124003,327,1442.6838507652283,-1.7164463996887207,0.006491363514214754,1.674454689025879,0.04
124,MetaDrive-td3combine-expt_with_safe-leaky-adamw-in-q-weighted,85,21.229112166030376,125028,334,1454.9362468719482,,0.011435182765126228,1.9161232709884644,0.05
125,MetaDrive-td3combine-expt_with_safe-leaky-adamw-in-q-weighted,85,22.798563533741884,126219,339,1469.1672739982605,-2.3568148612976074,0.010370554402470589,2.214223861694336,0.06
126,MetaDrive-td3combine-expt_with_safe-leaky-adamw-in-q-weighted,85,24.73663828143823,127190,348,1481.0811359882355,,0.06963144242763519,2.4392526149749756,0.06
127,MetaDrive-td3combine-expt_with_safe-leaky-adamw-in-q-weighted,85,27.097477255058312,128213,355,1493.7974820137024,-2.902714252471924,0.9196690320968628,2.6055643558502197,0.06
128,MetaDrive-td3combine-expt_with_safe-leaky-adamw-in-q-weighted,85,27.587776762084506,129075,366,1504.3851838111877,-3.0082945823669434,0.49025532603263855,2.838649034500122,0.06
129,MetaDrive-td3combine-expt_with_safe-leaky-adamw-in-q-weighted,85,29.81864305653741,130323,373,1519.3639891147614,-3.1825172901153564,0.01932094804942608,3.115870952606201,0.07
130,MetaDrive-td3combine-expt_with_safe-leaky-adamw-in-q-weighted,85,31.037579507364825,131088,378,1528.4008159637451,,0.015126615762710571,3.293142557144165,0.08
131,MetaDrive-td3combine-expt_with_safe-leaky-adamw-in-q-weighted,85,33.02213184608394,132060,385,1540.2273261547089,,0.044453129172325134,3.6240739822387695,0.08
132,MetaDrive-td3combine-expt_with_safe-leaky-adamw-in-q-weighted,85,34.00238944229044,133055,395,1552.4060230255127,-3.8369970321655273,3.065544366836548,3.5135576725006104,0.08
133,MetaDrive-td3combine-expt_with_safe-leaky-adamw-in-q-weighted,85,33.84320446496111,134021,403,1564.0132031440735,-4.2224836349487305,0.09593929350376129,4.195674896240234,0.08
134,MetaDrive-td3combine-expt_with_safe-leaky-adamw-in-q-weighted,85,28.366423873836748,135090,413,1577.1996669769287,,0.0417189747095108,4.387479782104492,0.06
135,MetaDrive-td3combine-expt_with_safe-leaky-adamw-in-q-weighted,85,25.79610455559036,136249,426,1591.4196419715881,-4.718794345855713,0.06907609850168228,4.575846195220947,0.04
136,MetaDrive-td3combine-expt_with_safe-leaky-adamw-in-q-weighted,85,24.193794592096587,137094,436,1602.3603518009186,,0.07718881964683533,4.8835601806640625,0.03
137,MetaDrive-td3combine-expt_with_safe-leaky-adamw-in-q-weighted,85,23.446554708399386,138488,444,1619.0611109733582,,0.7013732194900513,4.8812761306762695,0.02
138,MetaDrive-td3combine-expt_with_safe-leaky-adamw-in-q-weighted,85,23.08261598378536,139068,449,1626.0162999629974,,0.6014043092727661,4.732298851013184,0.02
139,MetaDrive-td3combine-expt_with_safe-leaky-adamw-in-q-weighted,85,22.537566536424034,140113,457,1638.469650030136,-5.494935989379883,0.1467330902814865,5.291766166687012,0.02
140,MetaDrive-td3combine-expt_with_safe-leaky-adamw-in-q-weighted,85,24.90017344307829,141507,465,1655.060154914856,-5.531821250915527,0.08834788203239441,5.487362384796143,0.03
141,MetaDrive-td3combine-expt_with_safe-leaky-adamw-in-q-weighted,85,22.771474732200204,142243,474,1664.2159430980682,-5.968987941741943,0.10868725925683975,6.000924110412598,0.02
142,MetaDrive-td3combine-expt_with_safe-leaky-adamw-in-q-weighted,85,19.462006163020696,143033,484,1673.816838979721,-5.779391765594482,7.767351150512695,5.459266662597656,0.01
143,MetaDrive-td3combine-expt_with_safe-leaky-adamw-in-q-weighted,85,19.1210731596663,144875,497,1696.6940479278564,-6.305965900421143,0.08703501522541046,6.188133239746094,0.01
144,MetaDrive-td3combine-expt_with_safe-leaky-adamw-in-q-weighted,85,18.39655381031798,145051,499,1698.847484111786,-6.344569683074951,0.10192468762397766,6.397205829620361,0.01
145,MetaDrive-td3combine-expt_with_safe-leaky-adamw-in-q-weighted,85,18.821872030074097,146060,506,1711.087555885315,,1.1852041482925415,6.303898334503174,0.01
146,MetaDrive-td3combine-expt_with_safe-leaky-adamw-in-q-weighted,85,20.086428988551937,147130,512,1724.0410888195038,,5.763405799865723,5.854572296142578,0.01
147,MetaDrive-td3combine-expt_with_safe-leaky-adamw-in-q-weighted,85,21.463784356194996,148684,517,1742.6063919067383,,0.14345070719718933,6.913303375244141,0.01
148,MetaDrive-td3combine-expt_with_safe-leaky-adamw-in-q-weighted,85,21.23157495009481,149097,522,1747.594573020935,-6.826821327209473,0.2879185974597931,6.555497646331787,0.01
149,MetaDrive-td3combine-expt_with_safe-leaky-adamw-in-q-weighted,85,21.06574306794869,150031,533,1759.208869934082,-7.009765625,0.23892070353031158,6.8516526222229,0.01
150,MetaDrive-td3combine-expt_with_safe-leaky-adamw-in-q-weighted,85,21.372554873092255,151032,534,1771.4449000358582,,4.523934364318848,6.319204330444336,0.01
151,MetaDrive-td3combine-expt_with_safe-leaky-adamw-in-q-weighted,85,22.78385382372478,152112,540,1784.5283448696136,,0.30206915736198425,7.017101764678955,0.01
152,MetaDrive-td3combine-expt_with_safe-leaky-adamw-in-q-weighted,85,23.288338118094817,153879,546,1805.365357875824,-6.927517890930176,0.09721899032592773,6.980300426483154,0.01
153,MetaDrive-td3combine-expt_with_safe-leaky-adamw-in-q-weighted,85,24.199328904826064,154340,548,1810.9235479831696,,7.2890777587890625,6.863370895385742,0.01
154,MetaDrive-td3combine-expt_with_safe-leaky-adamw-in-q-weighted,85,25.00696687275085,155499,554,1824.731750011444,-7.135188579559326,0.15443360805511475,6.985708713531494,0.02
155,MetaDrive-td3combine-expt_with_safe-leaky-adamw-in-q-weighted,85,27.695319441094515,156536,557,1837.0108790397644,,0.12112180888652802,6.777902603149414,0.03
156,MetaDrive-td3combine-expt_with_safe-leaky-adamw-in-q-weighted,85,28.874843871551157,157145,559,1844.1048228740692,-7.74290132522583,0.20610101521015167,7.6492085456848145,0.04
157,MetaDrive-td3combine-expt_with_safe-leaky-adamw-in-q-weighted,85,29.093110456575822,158451,563,1859.6412630081177,-7.141759395599365,0.4646342992782593,7.163086891174316,0.04
158,MetaDrive-td3combine-expt_with_safe-leaky-adamw-in-q-weighted,85,28.7130739065508,159808,566,1875.4719269275665,,0.22658924758434296,7.611841678619385,0.03
159,MetaDrive-td3combine-expt_with_safe-leaky-adamw-in-q-weighted,85,29.83556331693657,160967,568,1889.1879398822784,-7.803509712219238,0.17858919501304626,7.8705949783325195,0.03
160,MetaDrive-td3combine-expt_with_safe-leaky-adamw-in-q-weighted,85,30.213750630216964,161182,569,1891.8199319839478,,1.1503407955169678,7.5600128173828125,0.03
161,MetaDrive-td3combine-expt_with_safe-leaky-adamw-in-q-weighted,85,30.701908684215436,162183,570,1903.5698421001434,-7.754411220550537,0.2691970765590668,7.840317726135254,0.03
162,MetaDrive-td3combine-expt_with_safe-leaky-adamw-in-q-weighted,85,32.723980033660474,163839,573,1922.9994778633118,-8.068096160888672,0.1420801430940628,8.025589942932129,0.04
163,MetaDrive-td3combine-expt_with_safe-leaky-adamw-in-q-weighted,85,32.688246463355966,164840,574,1934.9122331142426,,0.2534550428390503,8.454365730285645,0.04
164,MetaDrive-td3combine-expt_with_safe-leaky-adamw-in-q-weighted,85,33.65851318702025,165196,575,1939.2314519882202,,0.19681419432163239,7.794990062713623,0.04
165,MetaDrive-td3combine-expt_with_safe-leaky-adamw-in-q-weighted,85,34.39853049730005,166028,579,1949.1930639743805,,0.18730640411376953,7.738330364227295,0.04
166,MetaDrive-td3combine-expt_with_safe-leaky-adamw-in-q-weighted,85,34.68182071349302,167151,581,1962.9557859897614,-7.763545036315918,0.2962459921836853,7.718677520751953,0.04
167,MetaDrive-td3combine-expt_with_safe-leaky-adamw-in-q-weighted,85,34.892413387447824,168152,582,1975.3440449237823,,0.2750225365161896,8.433618545532227,0.04
168,MetaDrive-td3combine-expt_with_safe-leaky-adamw-in-q-weighted,85,35.01746120356478,169153,583,1987.545482158661,-8.305973052978516,4.190603733062744,8.011164665222168,0.04
169,MetaDrive-td3combine-expt_with_safe-leaky-adamw-in-q-weighted,85,35.98070183504392,170531,585,2003.2208180427551,-8.581034660339355,0.1663798689842224,8.519258499145508,0.04
170,MetaDrive-td3combine-expt_with_safe-leaky-adamw-in-q-weighted,85,36.828280109683625,171532,586,2014.9215881824493,,0.16225744783878326,8.369622230529785,0.04
171,MetaDrive-td3combine-expt_with_safe-leaky-adamw-in-q-weighted,85,38.093659718294866,172186,587,2022.4724628925323,,0.8358967304229736,7.945963382720947,0.05
172,MetaDrive-td3combine-expt_with_safe-leaky-adamw-in-q-weighted,85,39.31988194206751,173710,590,2040.3216700553894,,1.3952407836914062,8.372447967529297,0.05
173,MetaDrive-td3combine-expt_with_safe-leaky-adamw-in-q-weighted,85,40.7093996849542,174133,591,2045.1835041046143,-9.117474555969238,3.295370578765869,8.493865966796875,0.06
174,MetaDrive-td3combine-expt_with_safe-leaky-adamw-in-q-weighted,85,42.930229432255636,175094,594,2056.7700068950653,,0.7950916290283203,8.534854888916016,0.07
175,MetaDrive-td3combine-expt_with_safe-leaky-adamw-in-q-weighted,85,44.140552827525106,176125,599,2069.2517778873444,-8.991556167602539,2.922912359237671,8.748493194580078,0.08
176,MetaDrive-td3combine-expt_with_safe-leaky-adamw-in-q-weighted,85,46.53436303527425,177623,602,2087.6046919822693,-9.047525405883789,0.2327500581741333,8.936992645263672,0.08
177,MetaDrive-td3combine-expt_with_safe-leaky-adamw-in-q-weighted,85,46.782709638742965,178009,603,2092.3660340309143,-9.571039199829102,0.2138509750366211,9.227057456970215,0.09
178,MetaDrive-td3combine-expt_with_safe-leaky-adamw-in-q-weighted,85,48.206071639681824,179010,604,2104.7066209316254,,0.4149572253227234,8.652530670166016,0.09
179,MetaDrive-td3combine-expt_with_safe-leaky-adamw-in-q-weighted,85,49.614670497250856,180233,606,2119.48970413208,-9.006352424621582,0.19143494963645935,8.749872207641602,0.09
180,MetaDrive-td3combine-expt_with_safe-leaky-adamw-in-q-weighted,85,51.253897369765774,181023,608,2128.830836057663,-8.662841796875,3.2926526069641113,8.374128341674805,0.11
181,MetaDrive-td3combine-expt_with_safe-leaky-adamw-in-q-weighted,85,52.66509580651681,182793,612,2149.954432964325,-9.540722846984863,0.15932253003120422,9.395861625671387,0.12
182,MetaDrive-td3combine-expt_with_safe-leaky-adamw-in-q-weighted,85,54.20935667362248,183156,613,2154.5130908489227,,0.21379277110099792,9.539618492126465,0.12
183,MetaDrive-td3combine-expt_with_safe-leaky-adamw-in-q-weighted,84,57.010627078374206,184259,617,2167.8520810604095,-9.859257698059082,0.46097248792648315,9.450132369995117,0.14
184,MetaDrive-td3combine-expt_with_safe-leaky-adamw-in-q-weighted,84,59.52352576072878,185174,622,2179.2658989429474,,1.2575068473815918,9.293875694274902,0.14
185,MetaDrive-td3combine-expt_with_safe-leaky-adamw-in-q-weighted,84,61.91397483649955,186128,627,2190.4691050052643,,0.3164803385734558,9.991146087646484,0.15
186,MetaDrive-td3combine-expt_with_safe-leaky-adamw-in-q-weighted,84,65.93207557396367,187859,631,2211.6305351257324,-9.68380355834961,0.32112133502960205,9.617280960083008,0.16
187,MetaDrive-td3combine-expt_with_safe-leaky-adamw-in-q-weighted,84,66.75706295855868,188561,632,2220.0072898864746,-10.054872512817383,3.6592092514038086,9.642037391662598,0.16
188,MetaDrive-td3combine-expt_with_safe-leaky-adamw-in-q-weighted,84,68.52064596441639,189129,635,2227.172693014145,-9.214366912841797,1.601690649986267,9.159258842468262,0.16
189,MetaDrive-td3combine-expt_with_safe-leaky-adamw-in-q-weighted,84,70.29453841937509,190483,637,2243.611676931381,-9.809354782104492,0.24468189477920532,9.774619102478027,0.17
190,MetaDrive-td3combine-expt_with_safe-leaky-adamw-in-q-weighted,84,71.34597542584635,191140,639,2252.2297189235687,,0.3056224584579468,8.620757102966309,0.17
191,MetaDrive-td3combine-expt_with_safe-leaky-adamw-in-q-weighted,84,75.77883059169761,192281,643,2266.0392060279846,-10.250632286071777,0.13435302674770355,9.991216659545898,0.19
192,MetaDrive-td3combine-expt_with_safe-leaky-adamw-in-q-weighted,84,75.44914851753906,193282,644,2278.6103200912476,,0.6657477617263794,10.069089889526367,0.19
193,MetaDrive-td3combine-expt_with_safe-leaky-adamw-in-q-weighted,84,75.97344503985678,194217,646,2289.656051158905,-10.670555114746094,0.21267898380756378,10.501532554626465,0.2
194,MetaDrive-td3combine-expt_with_safe-leaky-adamw-in-q-weighted,84,76.23541198468831,195356,648,2303.4669799804688,,0.3890160322189331,9.843053817749023,0.2
195,MetaDrive-td3combine-expt_with_safe-leaky-adamw-in-q-weighted,84,77.17689881938013,196509,650,2317.485179901123,-10.624428749084473,0.4423258304595947,10.601978302001953,0.2
196,MetaDrive-td3combine-expt_with_safe-leaky-adamw-in-q-weighted,84,78.0025013877679,197644,652,2330.93168091774,,0.566659152507782,12.031338691711426,0.2
197,MetaDrive-td3combine-expt_with_safe-leaky-adamw-in-q-weighted,84,76.65106397378231,198149,655,2337.0586998462677,-10.55479621887207,0.22920726239681244,10.360296249389648,0.19
198,MetaDrive-td3combine-expt_with_safe-leaky-adamw-in-q-weighted,84,77.11113080532374,199150,656,2349.273909807205,,0.5729588270187378,10.60049057006836,0.19
199,MetaDrive-td3combine-expt_with_safe-leaky-adamw-in-q-weighted,84,76.28084091389509,200151,657,2361.0766739845276,-12.1199312210083,0.46980684995651245,12.102422714233398,0.18
200,MetaDrive-td3combine-expt_with_safe-leaky-adamw-in-q-weighted,84,77.34138115410573,201158,660,2373.3215441703796,,0.47815990447998047,10.543821334838867,0.17
201,MetaDrive-td3combine-expt_with_safe-leaky-adamw-in-q-weighted,84,78.33966562019576,202419,664,2388.834372997284,-10.858316421508789,0.45122450590133667,10.845438003540039,0.17
202,MetaDrive-td3combine-expt_with_safe-leaky-adamw-in-q-weighted,84,78.48074491980374,203005,665,2396.14679479599,-11.022541999816895,6.600835800170898,10.714670181274414,0.17
203,MetaDrive-td3combine-expt_with_safe-leaky-adamw-in-q-weighted,84,79.67605390338679,204864,670,2418.104968070984,,0.6840347647666931,10.53177547454834,0.18
204,MetaDrive-td3combine-expt_with_safe-leaky-adamw-in-q-weighted,84,79.04145529591828,205010,671,2419.908921957016,,0.540135383605957,12.427099227905273,0.17
205,MetaDrive-td3combine-expt_with_safe-leaky-adamw-in-q-weighted,84,81.24791996243616,206852,673,2443.193652153015,,7.332940101623535,12.555973052978516,0.17
206,MetaDrive-td3combine-expt_with_safe-leaky-adamw-in-q-weighted,84,80.94186024726542,207014,674,2445.3480699062347,,0.5038549900054932,11.904626846313477,0.17
207,MetaDrive-td3combine-expt_with_safe-leaky-adamw-in-q-weighted,84,83.87645674407052,208055,680,2458.6633670330048,-11.841793060302734,1.7364662885665894,11.477941513061523,0.19
208,MetaDrive-td3combine-expt_with_safe-leaky-adamw-in-q-weighted,84,84.74305195540083,209569,684,2477.2141740322113,-12.562685012817383,0.4291422367095947,12.33803653717041,0.2
209,MetaDrive-td3combine-expt_with_safe-leaky-adamw-in-q-weighted,84,84.99193233087837,210570,685,2489.0979890823364,,1.2897868156433105,11.918953895568848,0.2
210,MetaDrive-td3combine-expt_with_safe-leaky-adamw-in-q-weighted,84,85.8360947670328,211808,687,2504.720803976059,,1.2978250980377197,13.174553871154785,0.2
211,MetaDrive-td3combine-expt_with_safe-leaky-adamw-in-q-weighted,84,86.033578781005,212108,688,2508.5238139629364,,1.8172869682312012,12.650369644165039,0.2
212,MetaDrive-td3combine-expt_with_safe-leaky-adamw-in-q-weighted,84,85.64904998142097,213109,689,2520.741469144821,-13.17297649383545,0.8503009080886841,13.206656455993652,0.2
213,MetaDrive-td3combine-expt_with_safe-leaky-adamw-in-q-weighted,84,85.8949314870936,214110,690,2532.7778539657593,,1.0069317817687988,13.025419235229492,0.2
214,MetaDrive-td3combine-expt_with_safe-leaky-adamw-in-q-weighted,84,84.56147748976726,215154,697,2545.6689791679382,,1.1627936363220215,13.678789138793945,0.17
215,MetaDrive-td3combine-expt_with_safe-leaky-adamw-in-q-weighted,84,82.73459604441469,216101,703,2557.724067926407,-12.561256408691406,9.050884246826172,12.142911911010742,0.16
216,MetaDrive-td3combine-expt_with_safe-leaky-adamw-in-q-weighted,84,83.76297012990335,217247,707,2572.256437063217,-14.47572135925293,11.66732406616211,14.087562561035156,0.17
217,MetaDrive-td3combine-expt_with_safe-leaky-adamw-in-q-weighted,84,82.68343019282061,218757,712,2591.2422540187836,-14.152450561523438,0.4568668007850647,13.782825469970703,0.15
218,MetaDrive-td3combine-expt_with_safe-leaky-adamw-in-q-weighted,84,82.07185571231277,219155,714,2596.601105928421,-12.743243217468262,0.24648046493530273,12.497234344482422,0.15
219,MetaDrive-td3combine-expt_with_safe-leaky-adamw-in-q-weighted,84,80.87934254135506,220156,715,2609.1587810516357,,6.726356029510498,13.401338577270508,0.14
220,MetaDrive-td3combine-expt_with_safe-leaky-adamw-in-q-weighted,84,80.75274236097401,221742,718,2628.57084608078,,2.3295836448669434,12.330687522888184,0.14
221,MetaDrive-td3combine-expt_with_safe-leaky-adamw-in-q-weighted,84,81.92421992376212,222091,719,2633.129749059677,-13.840557098388672,1.7730286121368408,13.441866874694824,0.15
222,MetaDrive-td3combine-expt_with_safe-leaky-adamw-in-q-weighted,84,81.68966015462985,223092,720,2646.0137050151825,,0.4958500862121582,13.495574951171875,0.15
223,MetaDrive-td3combine-expt_with_safe-leaky-adamw-in-q-weighted,84,83.50311644670505,224827,725,2668.094441175461,-12.644726753234863,0.6828813552856445,12.877795219421387,0.16
224,MetaDrive-td3combine-expt_with_safe-leaky-adamw-in-q-weighted,84,83.42352305124534,225828,726,2680.287209033966,,11.803722381591797,13.850810050964355,0.16
225,MetaDrive-td3combine-expt_with_safe-leaky-adamw-in-q-weighted,84,83.30066517616342,226003,727,2682.5342440605164,-13.810401916503906,1.9185421466827393,14.063640594482422,0.15
226,MetaDrive-td3combine-expt_with_safe-leaky-adamw-in-q-weighted,84,82.55130822244746,227004,728,2694.974613904953,,0.7039254903793335,13.856727600097656,0.14
227,MetaDrive-td3combine-expt_with_safe-leaky-adamw-in-q-weighted,84,83.16418214496645,228480,730,2713.395931959152,,1.5923218727111816,13.346973419189453,0.14
228,MetaDrive-td3combine-expt_with_safe-leaky-adamw-in-q-weighted,84,82.23422388653373,229168,732,2722.3353419303894,,1.2680273056030273,14.142475128173828,0.14
229,MetaDrive-td3combine-expt_with_safe-leaky-adamw-in-q-weighted,84,82.4959301975084,230360,734,2737.157044172287,,0.9568400382995605,14.726675987243652,0.14
230,MetaDrive-td3combine-expt_with_safe-leaky-adamw-in-q-weighted,84,83.25808964518339,231038,737,2745.8450090885162,,1.0723105669021606,14.615950584411621,0.14
231,MetaDrive-td3combine-expt_with_safe-leaky-adamw-in-q-weighted,84,82.2725180297569,232164,739,2759.7803778648376,,0.5895990133285522,16.808151245117188,0.14
232,MetaDrive-td3combine-expt_with_safe-leaky-adamw-in-q-weighted,84,80.51868737881776,233140,744,2772.153154850006,,1.9880399703979492,15.852392196655273,0.13
233,MetaDrive-td3combine-expt_with_safe-leaky-adamw-in-q-weighted,84,80.95180760313531,234601,747,2790.904671192169,-15.599363327026367,2.0385916233062744,15.323352813720703,0.12
234,MetaDrive-td3combine-expt_with_safe-leaky-adamw-in-q-weighted,84,81.36501625984471,235602,748,2803.4531648159027,,1.8284599781036377,12.567902565002441,0.12
235,MetaDrive-td3combine-expt_with_safe-leaky-adamw-in-q-weighted,84,84.23039234109,236107,750,2810.164221048355,-13.736311912536621,0.9207695126533508,13.547331809997559,0.13
236,MetaDrive-td3combine-expt_with_safe-leaky-adamw-in-q-weighted,83,86.05568087662658,237148,754,2823.4466609954834,,1.6735889911651611,16.002840042114258,0.15
237,MetaDrive-td3combine-expt_with_safe-leaky-adamw-in-q-weighted,83,87.29101981612756,238212,759,2837.387724876404,,1.3116960525512695,14.146547317504883,0.17
238,MetaDrive-td3combine-expt_with_safe-leaky-adamw-in-q-weighted,83,87.367971019749,239213,760,2850.0213458538055,-15.601360321044922,0.6612498760223389,15.132686614990234,0.17
239,MetaDrive-td3combine-expt_with_safe-leaky-adamw-in-q-weighted,83,90.15074392717459,240376,764,2864.677582025528,,1.9011226892471313,13.875563621520996,0.2
240,MetaDrive-td3combine-expt_with_safe-leaky-adamw-in-q-weighted,83,90.98237174611837,241377,765,2877.2995958328247,-13.882697105407715,2.56158447265625,13.54959487915039,0.2
241,MetaDrive-td3combine-expt_with_safe-leaky-adamw-in-q-weighted,83,90.70743025910498,242004,768,2885.6314930915833,,9.055580139160156,16.082477569580078,0.2
242,MetaDrive-td3combine-expt_with_safe-leaky-adamw-in-q-weighted,83,90.21030898816396,243743,772,2908.021845817566,-15.158289909362793,1.225144624710083,15.565408706665039,0.21
243,MetaDrive-td3combine-expt_with_safe-leaky-adamw-in-q-weighted,83,89.36688405220535,244744,773,2920.7316410541534,,0.7718081474304199,17.674474716186523,0.21
244,MetaDrive-td3combine-expt_with_safe-leaky-adamw-in-q-weighted,83,89.69101763851073,245307,774,2928.27761387825,-16.041522979736328,0.7082183957099915,15.61120891571045,0.21
245,MetaDrive-td3combine-expt_with_safe-leaky-adamw-in-q-weighted,83,90.28803106101348,246784,777,2946.798129081726,,1.1032755374908447,13.519793510437012,0.21
246,MetaDrive-td3combine-expt_with_safe-leaky-adamw-in-q-weighted,83,89.12723344866427,247963,779,2961.884246826172,-15.824346542358398,1.5092723369598389,15.197311401367188,0.2
247,MetaDrive-td3combine-expt_with_safe-leaky-adamw-in-q-weighted,83,89.12736727025472,248392,780,2967.3835878372192,,1.824535846710205,14.879870414733887,0.2
248,MetaDrive-td3combine-expt_with_safe-leaky-adamw-in-q-weighted,83,90.19855439682674,249330,782,2979.4574840068817,,1.0226948261260986,17.000591278076172,0.2
249,MetaDrive-td3combine-expt_with_safe-leaky-adamw-in-q-weighted,83,88.69231674216645,250749,786,2997.2461228370667,-18.411375045776367,31.446548461914062,17.749895095825195,0.19
250,MetaDrive-td3combine-expt_with_safe-leaky-adamw-in-q-weighted,83,88.76266945023202,251111,787,3001.734845161438,-15.178221702575684,5.094242572784424,15.076355934143066,0.2
251,MetaDrive-td3combine-expt_with_safe-leaky-adamw-in-q-weighted,83,89.33516543076155,252257,789,3016.6848590373993,-16.170055389404297,2.0524306297302246,16.046693801879883,0.2
252,MetaDrive-td3combine-expt_with_safe-leaky-adamw-in-q-weighted,83,89.86562483601648,253500,791,3032.551055908203,,1.4093706607818604,13.735085487365723,0.2
253,MetaDrive-td3combine-expt_with_safe-leaky-adamw-in-q-weighted,83,89.65722435809703,254792,793,3049.641152858734,,1.4111623764038086,14.273306846618652,0.2
254,MetaDrive-td3combine-expt_with_safe-leaky-adamw-in-q-weighted,83,89.81666606381654,255048,795,3052.9323329925537,,1.426180362701416,14.840080261230469,0.2
255,MetaDrive-td3combine-expt_with_safe-leaky-adamw-in-q-weighted,83,91.24988378379322,256049,796,3065.3787019252777,-14.427827835083008,3.698368549346924,13.910776138305664,0.2
256,MetaDrive-td3combine-expt_with_safe-leaky-adamw-in-q-weighted,83,91.34807160873358,257112,798,3079.0566670894623,,18.782182693481445,17.209205627441406,0.2
257,MetaDrive-td3combine-expt_with_safe-leaky-adamw-in-q-weighted,83,95.12212548395168,258975,802,3103.839640855789,-18.004352569580078,0.5869048833847046,17.943862915039062,0.21
258,MetaDrive-td3combine-expt_with_safe-leaky-adamw-in-q-weighted,83,95.36138840947915,259103,803,3105.572041988373,-17.529006958007812,2.2036070823669434,17.48076629638672,0.21
259,MetaDrive-td3combine-expt_with_safe-leaky-adamw-in-q-weighted,83,93.67503821967165,260891,809,3129.054522037506,-15.754827499389648,1.375945806503296,15.45915699005127,0.19
260,MetaDrive-td3combine-expt_with_safe-leaky-adamw-in-q-weighted,83,94.1731406467921,261892,810,3142.291892051697,,1.8572771549224854,17.844810485839844,0.19
261,MetaDrive-td3combine-expt_with_safe-leaky-adamw-in-q-weighted,83,95.55245118673201,262490,811,3150.2416291236877,,2.0890345573425293,15.926654815673828,0.2
262,MetaDrive-td3combine-expt_with_safe-leaky-adamw-in-q-weighted,83,96.29069897467083,263008,812,3157.2599959373474,,1.6321622133255005,16.417112350463867,0.21
263,MetaDrive-td3combine-expt_with_safe-leaky-adamw-in-q-weighted,83,98.04809068021704,264418,815,3176.1247918605804,,0.7513764500617981,13.95464038848877,0.21
264,MetaDrive-td3combine-expt_with_safe-leaky-adamw-in-q-weighted,83,97.4628489524153,265419,816,3189.3097100257874,-16.7421817779541,2.0354037284851074,16.47829818725586,0.2
265,MetaDrive-td3combine-expt_with_safe-leaky-adamw-in-q-weighted,83,99.16156703144425,266009,818,3197.2086420059204,-15.48983383178711,24.275371551513672,14.670135498046875,0.21
266,MetaDrive-td3combine-expt_with_safe-leaky-adamw-in-q-weighted,83,98.72571943835642,267010,819,3210.936835050583,,2.267451286315918,17.32292366027832,0.2
267,MetaDrive-td3combine-expt_with_safe-leaky-adamw-in-q-weighted,83,100.81815999303952,268033,822,3224.7454800605774,-14.358423233032227,1.6064033508300781,14.338032722473145,0.21
268,MetaDrive-td3combine-expt_with_safe-leaky-adamw-in-q-weighted,83,101.21024977571123,269231,824,3241.6796638965607,-16.253366470336914,2.282924175262451,15.723505973815918,0.21
269,MetaDrive-td3combine-expt_with_safe-leaky-adamw-in-q-weighted,83,99.60543071657845,270232,825,3254.9390540122986,,21.583614349365234,12.129183769226074,0.21
270,MetaDrive-td3combine-expt_with_safe-leaky-adamw-in-q-weighted,82,101.84513032913718,271233,826,3268.1887509822845,-14.96817684173584,1.993506669998169,14.640974044799805,0.21
271,MetaDrive-td3combine-expt_with_safe-leaky-adamw-in-q-weighted,82,101.62999840794944,272234,827,3282.002856016159,,4.612957954406738,16.345928192138672,0.21
272,MetaDrive-td3combine-expt_with_safe-leaky-adamw-in-q-weighted,82,101.39507134621715,273235,828,3295.313241004944,-14.274508476257324,1.5347354412078857,14.11533260345459,0.21
273,MetaDrive-td3combine-expt_with_safe-leaky-adamw-in-q-weighted,82,100.23508039829788,274317,832,3310.4688839912415,-15.589184761047363,1.3851298093795776,14.819622039794922,0.21
274,MetaDrive-td3combine-expt_with_safe-leaky-adamw-in-q-weighted,82,101.24660403389706,275048,834,3320.11821103096,,3.1644599437713623,15.190707206726074,0.22
275,MetaDrive-td3combine-expt_with_safe-leaky-adamw-in-q-weighted,82,102.37698667223368,276049,835,3333.5161509513855,-16.570449829101562,1.6664108037948608,16.297016143798828,0.22
276,MetaDrive-td3combine-expt_with_safe-leaky-adamw-in-q-weighted,82,103.58753623469148,277050,836,3347.8587238788605,,2.014941692352295,13.538089752197266,0.21
277,MetaDrive-td3combine-expt_with_safe-leaky-adamw-in-q-weighted,82,103.08104149193396,278192,839,3363.7623720169067,,1.3921059370040894,16.602672576904297,0.21
278,MetaDrive-td3combine-expt_with_safe-leaky-adamw-in-q-weighted,82,105.30318972432995,279513,841,3381.907842874527,-12.894523620605469,1.7694905996322632,13.058560371398926,0.2
279,MetaDrive-td3combine-expt_with_safe-leaky-adamw-in-q-weighted,82,103.65578570855904,280609,845,3397.6547050476074,-17.92587661743164,1.8469266891479492,17.834123611450195,0.2
280,MetaDrive-td3combine-expt_with_safe-leaky-adamw-in-q-weighted,82,104.61982764056957,281076,847,3404.590062856674,,2.7670059204101562,15.379941940307617,0.2
281,MetaDrive-td3combine-expt_with_safe-leaky-adamw-in-q-weighted,82,102.93529939771632,282299,850,3421.2286970615387,-15.875428199768066,0.9314916729927063,15.858174324035645,0.2
282,MetaDrive-td3combine-expt_with_safe-leaky-adamw-in-q-weighted,82,105.62487157090021,283168,852,3433.638778924942,,0.6385793685913086,15.609037399291992,0.2
283,MetaDrive-td3combine-expt_with_safe-leaky-adamw-in-q-weighted,82,105.91606560765089,284745,856,3455.294061899185,-17.398876190185547,3.1769208908081055,17.240774154663086,0.19
284,MetaDrive-td3combine-expt_with_safe-leaky-adamw-in-q-weighted,82,106.09491449742696,285148,857,3460.9898760318756,,3.9505414962768555,15.586286544799805,0.18
285,MetaDrive-td3combine-expt_with_safe-leaky-adamw-in-q-weighted,82,103.03036505391653,286908,864,3484.994514942169,,2.6025702953338623,15.2606201171875,0.14
286,MetaDrive-td3combine-expt_with_safe-leaky-adamw-in-q-weighted,82,101.70960094774706,287038,866,3487.113306045532,,20.32489013671875,15.864127159118652,0.14
287,MetaDrive-td3combine-expt_with_safe-leaky-adamw-in-q-weighted,82,98.94970845901315,288642,871,3509.782658815384,,2.1639564037323,14.77816390991211,0.13
288,MetaDrive-td3combine-expt_with_safe-leaky-adamw-in-q-weighted,82,97.57651434256277,289026,875,3515.527624130249,,5.400455474853516,16.086280822753906,0.13
289,MetaDrive-td3combine-expt_with_safe-leaky-adamw-in-q-weighted,82,95.9959251236507,290156,878,3531.272604942322,,1.4816087484359741,16.928329467773438,0.12
290,MetaDrive-td3combine-expt_with_safe-leaky-adamw-in-q-weighted,82,96.29178210320099,291901,882,3556.2671840190887,-15.350975036621094,1.1339263916015625,15.123595237731934,0.11
291,MetaDrive-td3combine-expt_with_safe-leaky-adamw-in-q-weighted,82,95.90000025114696,292280,884,3561.7420420646667,,0.710220456123352,16.979162216186523,0.11
292,MetaDrive-td3combine-expt_with_safe-leaky-adamw-in-q-weighted,82,95.36422670714728,293260,889,3575.9761078357697,,1.9335322380065918,15.74227523803711,0.1
293,MetaDrive-td3combine-expt_with_safe-leaky-adamw-in-q-weighted,81,92.8224616828535,294356,891,3591.5701920986176,,2.8856072425842285,16.865873336791992,0.1
294,MetaDrive-td3combine-expt_with_safe-leaky-adamw-in-q-weighted,81,94.80346843084901,295357,892,3605.596689939499,-15.715673446655273,2.071770191192627,15.473716735839844,0.1
295,MetaDrive-td3combine-expt_with_safe-leaky-adamw-in-q-weighted,81,96.03126408802036,296094,895,3616.036204814911,,14.636371612548828,16.59925079345703,0.11
296,MetaDrive-td3combine-expt_with_safe-leaky-adamw-in-q-weighted,81,94.5318137290497,297420,900,3634.6882479190826,,2.067633628845215,16.90110206604004,0.12
297,MetaDrive-td3combine-expt_with_safe-leaky-adamw-in-q-weighted,81,92.51839870682176,298091,905,3644.5953040122986,-16.9342041015625,1.2775142192840576,16.790603637695312,0.11
298,MetaDrive-td3combine-expt_with_safe-leaky-adamw-in-q-weighted,81,90.42985691240358,299821,911,3669.134698152542,-17.300918579101562,3.2503509521484375,16.377426147460938,0.1
299,MetaDrive-td3combine-expt_with_safe-leaky-adamw-in-q-weighted,81,88.60861433300408,300039,913,3672.3395369052887,-17.513092041015625,0.8132739663124084,17.38203239440918,0.09
300,MetaDrive-td3combine-expt_with_safe-leaky-adamw-in-q-weighted,81,80.84257387087224,301242,923,3689.9606380462646,,1.3368463516235352,13.170333862304688,0.06
301,MetaDrive-td3combine-expt_with_safe-leaky-adamw-in-q-weighted,81,76.83273581627887,302035,928,3701.5197191238403,-16.292497634887695,1.884828805923462,16.213645935058594,0.06
302,MetaDrive-td3combine-expt_with_safe-leaky-adamw-in-q-weighted,81,77.03776729352394,303910,932,3728.081209897995,,0.7032579183578491,15.461289405822754,0.06
303,MetaDrive-td3combine-expt_with_safe-leaky-adamw-in-q-weighted,81,77.89157187423645,304556,933,3737.00767493248,,5.311809539794922,15.065366744995117,0.06
304,MetaDrive-td3combine-expt_with_safe-leaky-adamw-in-q-weighted,81,76.0358706902837,305078,935,3744.341506958008,,1.4094340801239014,16.370882034301758,0.06
305,MetaDrive-td3combine-expt_with_safe-leaky-adamw-in-q-weighted,81,71.55251956096194,306040,942,3758.873216152191,,2.8303637504577637,14.034126281738281,0.07
306,MetaDrive-td3combine-expt_with_safe-leaky-adamw-in-q-weighted,81,70.99017627728016,307107,944,3775.001533985138,-17.031475067138672,1.7130852937698364,16.698049545288086,0.07
307,MetaDrive-td3combine-expt_with_safe-leaky-adamw-in-q-weighted,81,68.57063243852821,308757,950,3798.8647031784058,-15.679154396057129,4.609503746032715,15.553346633911133,0.06
308,MetaDrive-td3combine-expt_with_safe-leaky-adamw-in-q-weighted,81,63.04318142971255,309181,955,3804.9521491527557,-17.918062210083008,3.6380486488342285,18.34040069580078,0.05
309,MetaDrive-td3combine-expt_with_safe-leaky-adamw-in-q-weighted,81,60.000797152359276,310291,962,3821.00563287735,-18.250125885009766,1.792701005935669,17.595596313476562,0.05
310,MetaDrive-td3combine-expt_with_safe-leaky-adamw-in-q-weighted,81,58.819011929996734,311408,964,3837.213479042053,,1.8480968475341797,16.34621238708496,0.06
311,MetaDrive-td3combine-expt_with_safe-leaky-adamw-in-q-weighted,81,62.167757579116085,312226,967,3849.085180044174,,2.822082042694092,16.3386287689209,0.06
312,MetaDrive-td3combine-expt_with_safe-leaky-adamw-in-q-weighted,81,64.57549857064583,313068,970,3861.0322568416595,,2.3524422645568848,17.61699867248535,0.06
313,MetaDrive-td3combine-expt_with_safe-leaky-adamw-in-q-weighted,81,65.67636027251841,314026,977,3875.5402200222015,,0.9687657356262207,14.725940704345703,0.06
314,MetaDrive-td3combine-expt_with_safe-leaky-adamw-in-q-weighted,80,67.49767833655407,315183,982,3893.0928480625153,-16.66656494140625,2.5706865787506104,16.49685287475586,0.06
315,MetaDrive-td3combine-expt_with_safe-leaky-adamw-in-q-weighted,80,68.11006859236622,316073,987,3906.249494791031,-14.166065216064453,2.489773750305176,14.384243965148926,0.06
316,MetaDrive-td3combine-expt_with_safe-leaky-adamw-in-q-weighted,80,71.51726148667008,317175,990,3922.1446480751038,-20.75716781616211,2.2138352394104004,20.756223678588867,0.07
317,MetaDrive-td3combine-expt_with_safe-leaky-adamw-in-q-weighted,80,72.65414987342895,318017,992,3934.1525070667267,-15.395861625671387,5.227466106414795,14.87901496887207,0.07
318,MetaDrive-td3combine-expt_with_safe-leaky-adamw-in-q-weighted,80,73.15811070330335,319018,993,3948.628608226776,,0.8272833824157715,16.80416488647461,0.07
319,MetaDrive-td3combine-expt_with_safe-leaky-adamw-in-q-weighted,80,69.22498023297891,320174,998,3965.5370059013367,,7.166563034057617,17.612564086914062,0.05
320,MetaDrive-td3combine-expt_with_safe-leaky-adamw-in-q-weighted,80,73.76458572552805,321134,1002,3979.454898118973,,20.2247371673584,15.496782302856445,0.05
321,MetaDrive-td3combine-expt_with_safe-leaky-adamw-in-q-weighted,80,76.80884594538817,322235,1007,3995.0796949863434,-14.286031723022461,6.32364559173584,13.283059120178223,0.06
322,MetaDrive-td3combine-expt_with_safe-leaky-adamw-in-q-weighted,80,75.7004792885319,323033,1014,4006.8895750045776,-13.931344985961914,3.6707940101623535,13.107735633850098,0.06
323,MetaDrive-td3combine-expt_with_safe-leaky-adamw-in-q-weighted,80,77.18959178509793,324153,1016,4023.036800146103,-18.74467658996582,1.3047137260437012,18.425683975219727,0.06
324,MetaDrive-td3combine-expt_with_safe-leaky-adamw-in-q-weighted,80,77.6844548118484,325311,1018,4039.3152878284454,-20.232925415039062,2.2054171562194824,20.39451789855957,0.06
325,MetaDrive-td3combine-expt_with_safe-leaky-adamw-in-q-weighted,80,79.56965071252175,326091,1021,4050.944450855255,-16.03316879272461,10.9068603515625,15.990148544311523,0.06
326,MetaDrive-td3combine-expt_with_safe-leaky-adamw-in-q-weighted,80,78.5788765283946,327371,1023,4069.9237809181213,-17.534772872924805,3.5516438484191895,17.541105270385742,0.06
327,MetaDrive-td3combine-expt_with_safe-leaky-adamw-in-q-weighted,80,78.26913504797503,328819,1028,4090.567710161209,-19.696678161621094,2.2343006134033203,19.519559860229492,0.06
328,MetaDrive-td3combine-expt_with_safe-leaky-adamw-in-q-weighted,80,78.27463274086051,329146,1029,4095.547210216522,,4.806494235992432,20.179025650024414,0.06
329,MetaDrive-td3combine-expt_with_safe-leaky-adamw-in-q-weighted,80,80.51022986313232,330138,1034,4110.618957996368,,2.536548137664795,18.446949005126953,0.07
330,MetaDrive-td3combine-expt_with_safe-leaky-adamw-in-q-weighted,80,79.65808366252017,331139,1035,4125.033353090286,-15.066272735595703,2.191990375518799,14.72511100769043,0.06
331,MetaDrive-td3combine-expt_with_safe-leaky-adamw-in-q-weighted,80,81.40103855665456,332698,1040,4147.711041927338,,3.127882957458496,14.449151992797852,0.06
332,MetaDrive-td3combine-expt_with_safe-leaky-adamw-in-q-weighted,80,83.10570880514149,333090,1042,4153.5638699531555,,2.478105068206787,18.050020217895508,0.07
333,MetaDrive-td3combine-expt_with_safe-leaky-adamw-in-q-weighted,80,85.54964657779246,334515,1045,4174.5441801548,-19.778722763061523,1.0914937257766724,19.28544044494629,0.07
334,MetaDrive-td3combine-expt_with_safe-leaky-adamw-in-q-weighted,80,86.57531102217607,335198,1049,4184.97027015686,,2.302483558654785,17.9593505859375,0.07
335,MetaDrive-td3combine-expt_with_safe-leaky-adamw-in-q-weighted,80,89.09316591297528,336139,1052,4199.358561992645,-19.91790008544922,6.77723503112793,20.731029510498047,0.08
336,MetaDrive-td3combine-expt_with_safe-leaky-adamw-in-q-weighted,79,91.69565853197328,337856,1058,4224.734587907791,,1.0331664085388184,21.297151565551758,0.08
337,MetaDrive-td3combine-expt_with_safe-leaky-adamw-in-q-weighted,79,91.8274367569804,338475,1060,4234.01811003685,-19.17784881591797,1.6231634616851807,19.038293838500977,0.08
338,MetaDrive-td3combine-expt_with_safe-leaky-adamw-in-q-weighted,79,92.88149958643615,339869,1064,4254.672088861465,-21.883296966552734,22.5699405670166,21.280460357666016,0.07
339,MetaDrive-td3combine-expt_with_safe-leaky-adamw-in-q-weighted,79,93.09668646756226,340076,1065,4257.847329854965,,1.2614128589630127,17.68715476989746,0.07
340,MetaDrive-td3combine-expt_with_safe-leaky-adamw-in-q-weighted,79,91.79754167997608,341009,1069,4271.475780963898,-18.756153106689453,1.113832712173462,18.712411880493164,0.06
341,MetaDrive-td3combine-expt_with_safe-leaky-adamw-in-q-weighted,79,95.47988896862667,342077,1075,4287.355669975281,-16.911869049072266,5.522351264953613,16.312267303466797,0.06
342,MetaDrive-td3combine-expt_with_safe-leaky-adamw-in-q-weighted,79,99.87971452434041,343220,1079,4303.8314599990845,,3.9096574783325195,18.442094802856445,0.07
343,MetaDrive-td3combine-expt_with_safe-leaky-adamw-in-q-weighted,79,98.47678314244482,344128,1081,4317.049600839615,,4.2500691413879395,22.71148681640625,0.07
344,MetaDrive-td3combine-expt_with_safe-leaky-adamw-in-q-weighted,79,100.39103869436208,345721,1085,4339.3006019592285,-14.891117095947266,2.2227249145507812,15.124300003051758,0.08
345,MetaDrive-td3combine-expt_with_safe-leaky-adamw-in-q-weighted,79,100.49373554248136,346722,1086,4353.413055181503,,2.0895638465881348,17.444499969482422,0.08
346,MetaDrive-td3combine-expt_with_safe-leaky-adamw-in-q-weighted,79,100.85271372927997,347227,1087,4360.97958111763,-17.903106689453125,1.7510921955108643,17.650888442993164,0.08
347,MetaDrive-td3combine-expt_with_safe-leaky-adamw-in-q-weighted,79,100.23203967984168,348377,1089,4376.005442857742,-17.04916763305664,10.432989120483398,16.8913631439209,0.08
348,MetaDrive-td3combine-expt_with_safe-leaky-adamw-in-q-weighted,79,98.35593064640608,349800,1093,4393.672336101532,,2.975717544555664,18.788915634155273,0.07
349,MetaDrive-td3combine-expt_with_safe-leaky-adamw-in-q-weighted,79,97.97664145906111,350183,1095,4398.775928974152,-16.22920036315918,1.6107679605484009,15.665825843811035,0.07
350,MetaDrive-td3combine-expt_with_safe-leaky-adamw-in-q-weighted,79,99.65313506641802,351337,1099,4413.308960914612,-17.019577026367188,3.466500759124756,16.975990295410156,0.08
351,MetaDrive-td3combine-expt_with_safe-leaky-adamw-in-q-weighted,79,97.36565124660481,352386,1101,4427.186082839966,,6.472549915313721,20.087661743164062,0.08
352,MetaDrive-td3combine-expt_with_safe-leaky-adamw-in-q-weighted,79,98.71990503324947,353097,1102,4436.016904115677,-22.89349937438965,6.427579879760742,22.312084197998047,0.09
353,MetaDrive-td3combine-expt_with_safe-leaky-adamw-in-q-weighted,79,99.50678224649792,354610,1104,4455.67382311821,,4.654657363891602,15.853574752807617,0.09
354,MetaDrive-td3combine-expt_with_safe-leaky-adamw-in-q-weighted,79,96.53255333354197,355026,1107,4460.97691988945,,2.729435920715332,24.391616821289062,0.08
355,MetaDrive-td3combine-expt_with_safe-leaky-adamw-in-q-weighted,79,98.06164828919422,356043,1109,4474.171399116516,-16.214967727661133,1.7675572633743286,15.83240795135498,0.08
356,MetaDrive-td3combine-expt_with_safe-leaky-adamw-in-q-weighted,79,99.70683886934017,357913,1112,4498.279803991318,-19.405292510986328,2.0612435340881348,19.36014175415039,0.09
357,MetaDrive-td3combine-expt_with_safe-leaky-adamw-in-q-weighted,79,100.81115176004803,358324,1113,4503.6331560611725,,1.5225775241851807,19.208778381347656,0.1
358,MetaDrive-td3combine-expt_with_safe-leaky-adamw-in-q-weighted,79,101.37454407389914,359139,1117,4514.22251701355,-19.689563751220703,1.8121869564056396,19.27623748779297,0.11
359,MetaDrive-td3combine-expt_with_safe-leaky-adamw-in-q-weighted,79,103.94249315576592,360152,1121,4527.74847817421,,4.678142547607422,19.881229400634766,0.12
360,MetaDrive-td3combine-expt_with_safe-leaky-adamw-in-q-weighted,79,107.01295775745082,361084,1126,4540.089661121368,,44.15754699707031,20.904382705688477,0.12
361,MetaDrive-td3combine-expt_with_safe-leaky-adamw-in-q-weighted,79,106.59326377163255,362189,1128,4554.242453098297,-21.714202880859375,5.3643107414245605,21.180591583251953,0.12
362,MetaDrive-td3combine-expt_with_safe-leaky-adamw-in-q-weighted,79,109.34798389976953,363748,1132,4574.493865013123,,3.366025924682617,22.81782341003418,0.12
363,MetaDrive-td3combine-expt_with_safe-leaky-adamw-in-q-weighted,79,106.60927774071178,364574,1134,4585.940613031387,,17.993526458740234,19.29036521911621,0.11
364,MetaDrive-td3combine-expt_with_safe-leaky-adamw-in-q-weighted,79,106.63931088591296,365068,1136,4592.299993991852,,6.731805801391602,19.28337860107422,0.11
365,MetaDrive-td3combine-expt_with_safe-leaky-adamw-in-q-weighted,79,104.55575813373525,366456,1140,4610.575658082962,,2.594782829284668,18.943824768066406,0.1
366,MetaDrive-td3combine-expt_with_safe-leaky-adamw-in-q-weighted,79,103.51769887370368,367672,1143,4626.1314289569855,,1.7813973426818848,19.42951202392578,0.09
367,MetaDrive-td3combine-expt_with_safe-leaky-adamw-in-q-weighted,79,102.08288718376988,368040,1145,4630.959987163544,,15.875621795654297,16.834491729736328,0.09
368,MetaDrive-td3combine-expt_with_safe-leaky-adamw-in-q-weighted,79,104.40204201004748,369481,1149,4649.832379102707,-19.63573455810547,1.8856592178344727,19.3494873046875,0.09
369,MetaDrive-td3combine-expt_with_safe-leaky-adamw-in-q-weighted,79,103.3936509527248,370058,1150,4657.410922765732,,2.7454347610473633,22.027790069580078,0.09
370,MetaDrive-td3combine-expt_with_safe-leaky-adamw-in-q-weighted,79,106.76154907234032,371779,1154,4680.643986940384,-20.757314682006836,3.184903621673584,20.993791580200195,0.09
371,MetaDrive-td3combine-expt_with_safe-leaky-adamw-in-q-weighted,79,107.06805364407482,372941,1156,4696.501024961472,-23.112560272216797,2.75559401512146,22.688400268554688,0.09
372,MetaDrive-td3combine-expt_with_safe-leaky-adamw-in-q-weighted,79,108.49446782819345,373174,1157,4699.761512994766,,6.276422500610352,19.694995880126953,0.09
373,MetaDrive-td3combine-expt_with_safe-leaky-adamw-in-q-weighted,79,109.86527819823685,374328,1159,4715.3351628780365,,2.5241963863372803,23.035541534423828,0.09
374,MetaDrive-td3combine-expt_with_safe-leaky-adamw-in-q-weighted,79,110.34812052002007,375571,1163,4732.0233380794525,-21.23522186279297,6.967230796813965,21.030916213989258,0.09
375,MetaDrive-td3combine-expt_with_safe-leaky-adamw-in-q-weighted,79,112.60128947692206,376545,1166,4745.5452439785,-23.48541259765625,2.500873565673828,23.090606689453125,0.1
376,MetaDrive-td3combine-expt_with_safe-leaky-adamw-in-q-weighted,79,111.06050037349131,377031,1169,4752.485002040863,-18.976587295532227,4.981900691986084,19.497760772705078,0.1
377,MetaDrive-td3combine-expt_with_safe-leaky-adamw-in-q-weighted,79,111.18035365282466,378032,1170,4765.807461977005,,4.14271354675293,19.503158569335938,0.1
378,MetaDrive-td3combine-expt_with_safe-leaky-adamw-in-q-weighted,79,110.10281664840312,379379,1173,4783.902516126633,-21.702213287353516,6.065375328063965,21.704792022705078,0.1
379,MetaDrive-td3combine-expt_with_safe-leaky-adamw-in-q-weighted,79,109.91447007386446,380599,1177,4800.405599832535,-19.851314544677734,17.055007934570312,20.06442642211914,0.11
380,MetaDrive-td3combine-expt_with_safe-leaky-adamw-in-q-weighted,79,106.980683531436,381397,1179,4811.548891067505,-22.286026000976562,3.752288818359375,21.47966194152832,0.1
381,MetaDrive-td3combine-expt_with_safe-leaky-adamw-in-q-weighted,79,104.7234533603694,382643,1182,4827.257973194122,-19.385028839111328,4.8751091957092285,19.53174591064453,0.1
382,MetaDrive-td3combine-expt_with_safe-leaky-adamw-in-q-weighted,79,104.8205036351454,383743,1184,4840.910927057266,-22.24456024169922,4.965776443481445,21.89930534362793,0.1
383,MetaDrive-td3combine-expt_with_safe-leaky-adamw-in-q-weighted,79,104.70794842346649,384744,1185,4852.674556016922,,2.9951229095458984,16.597993850708008,0.09
384,MetaDrive-td3combine-expt_with_safe-leaky-adamw-in-q-weighted,79,104.86230347566108,385019,1187,4855.970304965973,-23.544883728027344,6.991039276123047,22.838695526123047,0.09
385,MetaDrive-td3combine-expt_with_safe-leaky-adamw-in-q-weighted,79,107.09765613436728,386217,1192,4870.354442119598,-21.036354064941406,18.257213592529297,20.946516036987305,0.11
386,MetaDrive-td3combine-expt_with_safe-leaky-adamw-in-q-weighted,79,106.21994471888944,387199,1198,4882.623333930969,-18.755373001098633,2.44112491607666,18.500186920166016,0.11
387,MetaDrive-td3combine-expt_with_safe-leaky-adamw-in-q-weighted,79,105.08625024881827,388734,1202,4901.527044057846,,3.447298049926758,20.022687911987305,0.09
388,MetaDrive-td3combine-expt_with_safe-leaky-adamw-in-q-weighted,79,103.22249614907658,389735,1203,4913.887154102325,-22.161136627197266,2.3353114128112793,21.68062400817871,0.09
389,MetaDrive-td3combine-expt_with_safe-leaky-adamw-in-q-weighted,79,105.69913154072512,390279,1204,4920.414782047272,-22.212160110473633,5.197648048400879,22.773651123046875,0.1
390,MetaDrive-td3combine-expt_with_safe-leaky-adamw-in-q-weighted,79,106.61812402610174,391479,1206,4934.9268918037415,-20.78683853149414,2.525385856628418,20.269012451171875,0.1
391,MetaDrive-td3combine-expt_with_safe-leaky-adamw-in-q-weighted,79,106.06906374092868,392283,1208,4944.705712080002,-19.825544357299805,2.465557098388672,19.592239379882812,0.1
392,MetaDrive-td3combine-expt_with_safe-leaky-adamw-in-q-weighted,79,108.1004483419585,393169,1211,4955.772727966309,-17.3375186920166,6.109699249267578,17.640281677246094,0.1
393,MetaDrive-td3combine-expt_with_safe-leaky-adamw-in-q-weighted,79,106.05621144735662,394129,1216,4968.2710790634155,-19.58636474609375,5.67777156829834,19.107894897460938,0.08
394,MetaDrive-td3combine-expt_with_safe-leaky-adamw-in-q-weighted,79,107.18510353965877,395568,1218,4986.606574058533,,4.2635040283203125,18.060232162475586,0.08
395,MetaDrive-td3combine-expt_with_safe-leaky-adamw-in-q-weighted,79,107.73001055699999,396597,1221,5000.026793003082,-20.642425537109375,3.2543768882751465,20.379446029663086,0.08
396,MetaDrive-td3combine-expt_with_safe-leaky-adamw-in-q-weighted,79,107.93747848371967,397997,1224,5016.868992805481,-22.471200942993164,2.035248041152954,22.596389770507812,0.08
397,MetaDrive-td3combine-expt_with_safe-leaky-adamw-in-q-weighted,79,108.50246820291524,398351,1225,5021.075891017914,-22.11073112487793,5.9321136474609375,22.28250503540039,0.08
398,MetaDrive-td3combine-expt_with_safe-leaky-adamw-in-q-weighted,79,111.59169056591219,399432,1228,5033.769802808762,,2.4866678714752197,23.385465621948242,0.09
