TanmayH/CS269-RL-project-code/MetaDrive-test-weighted2-td3/td3/progress.csv
,log_dir,frame_per_second,episode_reward,total_steps,total_episodes,total_time,target_q,actor_loss,critic_loss,success_rate
0,MetaDrive-test-weighted2-td3,448,11.409340652632016,2001,2,4.461416959762573,,,,0.0
1,MetaDrive-test-weighted2-td3,547,11.438094135573486,3002,3,5.483429193496704,,,,0.0
2,MetaDrive-test-weighted2-td3,578,10.77985279994398,4003,4,6.918737888336182,,,,0.0
3,MetaDrive-test-weighted2-td3,519,11.312082731899096,5004,5,9.628438949584961,0.020212441682815552,,0.0064895739778876305,0.0
4,MetaDrive-test-weighted2-td3,249,0.07270163496712992,6432,37,25.817246913909912,0.06471405923366547,,0.012604573741555214,0.0
5,MetaDrive-test-weighted2-td3,216,0.021547859674096472,7433,38,34.29076910018921,0.07502762228250504,-0.08166436105966568,0.014693345874547958,0.0
6,MetaDrive-test-weighted2-td3,199,-0.18746660601682977,8104,42,40.71149802207947,0.08967022597789764,,0.009645335376262665,0.0
7,MetaDrive-test-weighted2-td3,178,0.22587342923772283,9119,59,51.1689190864563,0.11821088939905167,-0.11949051916599274,0.006102689541876316,0.0
8,MetaDrive-test-weighted2-td3,167,1.762873056349037,10043,67,59.8048369884491,0.09305787086486816,-0.15560026466846466,0.744545578956604,0.0
9,MetaDrive-test-weighted2-td3,157,4.005714348291598,11005,80,69.93783593177795,0.28798726201057434,-0.26473376154899597,0.06530669331550598,0.0
10,MetaDrive-test-weighted2-td3,147,4.695007321938493,12026,103,81.5814049243927,0.35950496792793274,,0.9726244807243347,0.0
11,MetaDrive-test-weighted2-td3,139,6.1719650873671075,13009,130,93.58526110649109,0.6880578398704529,-0.6214163303375244,0.09224724769592285,0.0
12,MetaDrive-test-weighted2-td3,132,9.872533870972362,14080,154,105.9580659866333,0.7504430413246155,,2.277588367462158,0.0
13,MetaDrive-test-weighted2-td3,129,9.503513464414775,15033,176,116.34272599220276,1.1775249242782593,-1.2404052019119263,0.11541040986776352,0.0
14,MetaDrive-test-weighted2-td3,126,11.035307534411789,16026,197,126.82129096984863,1.596284031867981,,0.08731445670127869,0.0
15,MetaDrive-test-weighted2-td3,122,12.536832447285438,17029,219,138.8224060535431,1.848859190940857,-1.9633643627166748,1.7240216732025146,0.0
16,MetaDrive-test-weighted2-td3,119,14.519557260286597,18012,240,150.20283102989197,2.481050968170166,,2.1970062255859375,0.0
17,MetaDrive-test-weighted2-td3,117,14.335362929696213,19013,262,161.82500100135803,2.848456859588623,-2.940674304962158,0.14426115155220032,0.0
18,MetaDrive-test-weighted2-td3,115,14.9852068574651,20046,283,173.83390593528748,3.5037083625793457,,0.19948674738407135,0.0
19,MetaDrive-test-weighted2-td3,114,18.07741216728205,21017,297,184.21628785133362,3.869798183441162,-4.155974864959717,2.2083723545074463,0.0
20,MetaDrive-test-weighted2-td3,112,19.68797638927602,22095,316,195.5430178642273,4.244624614715576,-4.56387996673584,5.776365280151367,0.0
21,MetaDrive-test-weighted2-td3,112,24.670510257030305,23048,328,205.50644993782043,5.069888591766357,,0.31520622968673706,0.0
22,MetaDrive-test-weighted2-td3,111,26.3327096363088,24045,343,216.1478979587555,5.606250762939453,-5.443702697753906,0.8439802527427673,0.0
23,MetaDrive-test-weighted2-td3,110,31.63453948985223,25072,354,226.93873620033264,6.665226936340332,,0.7211394309997559,0.0
24,MetaDrive-test-weighted2-td3,109,37.22082851902071,26023,363,237.16839599609375,7.104638576507568,-6.980285167694092,4.788250923156738,0.0
25,MetaDrive-test-weighted2-td3,109,41.57407404518969,27001,375,246.9220540523529,7.060540199279785,-7.533302307128906,12.956883430480957,0.0
26,MetaDrive-test-weighted2-td3,108,46.13959983245164,28047,386,258.1898260116577,8.38871955871582,-8.54897403717041,0.7501348257064819,0.0
27,MetaDrive-test-weighted2-td3,108,49.99477405920491,29084,396,268.5495128631592,8.88614559173584,,12.226356506347656,0.0
28,MetaDrive-test-weighted2-td3,107,56.82620410202633,30075,404,279.1946179866791,9.880293846130371,-10.491983413696289,5.980340003967285,0.0
29,MetaDrive-test-weighted2-td3,107,62.48132566281597,31111,413,290.0309638977051,11.036005973815918,-11.616358757019043,0.7446944117546082,0.0
30,MetaDrive-test-weighted2-td3,106,65.27016046538267,32051,421,300.13928604125977,11.381423950195312,-11.922635078430176,5.450185775756836,0.0
31,MetaDrive-test-weighted2-td3,106,70.92026699972931,33068,429,310.38769006729126,13.215211868286133,,1.1769639253616333,0.0
32,MetaDrive-test-weighted2-td3,106,75.94353710459296,34095,438,320.84665393829346,14.383187294006348,-15.08434009552002,13.982355117797852,0.0
33,MetaDrive-test-weighted2-td3,106,80.49735722625702,35104,447,330.838889837265,15.043706893920898,,1.7718656063079834,0.0
34,MetaDrive-test-weighted2-td3,105,80.66369125193879,36057,456,340.2816550731659,16.210819244384766,-16.581439971923828,1.8748306035995483,0.0
35,MetaDrive-test-weighted2-td3,105,81.62689482324478,37092,465,350.91719007492065,16.520523071289062,,6.239753723144531,0.0
36,MetaDrive-test-weighted2-td3,105,83.70584967433017,38069,474,360.7437198162079,16.866456985473633,-17.464059829711914,24.010112762451172,0.0
37,MetaDrive-test-weighted2-td3,105,86.16448874409203,39093,483,370.92721605300903,18.733997344970703,-19.36423683166504,1.7106372117996216,0.0
38,MetaDrive-test-weighted2-td3,105,85.9317306794166,40092,493,380.9727301597595,18.620935440063477,,19.70379066467285,0.0
39,MetaDrive-test-weighted2-td3,105,85.82029767951136,41006,501,389.697457075119,19.65866470336914,,34.070777893066406,0.0
40,MetaDrive-test-weighted2-td3,104,86.03568835829373,42002,509,400.3864920139313,22.552099227905273,,3.045888900756836,0.0
41,MetaDrive-test-weighted2-td3,104,87.82507717990465,43143,516,412.1091408729553,21.7451229095459,-22.40616226196289,5.882052421569824,0.01
42,MetaDrive-test-weighted2-td3,104,92.8120171643598,44461,518,425.0548050403595,21.33888816833496,-20.965320587158203,4.396517753601074,0.03
43,MetaDrive-test-weighted2-td3,104,93.66958764036495,45069,519,431.5306968688965,22.892574310302734,-22.740827560424805,25.05809783935547,0.04
44,MetaDrive-test-weighted2-td3,104,99.03928869698895,46489,523,446.852087020874,25.402650833129883,-26.468250274658203,3.0559144020080566,0.06
45,MetaDrive-test-weighted2-td3,103,101.63431086746097,47149,525,453.385694026947,24.10146141052246,-24.247314453125,4.78345251083374,0.07
46,MetaDrive-test-weighted2-td3,103,102.5363344946913,48066,529,462.989737033844,27.712318420410156,,3.8163809776306152,0.08
47,MetaDrive-test-weighted2-td3,103,106.77947170669962,49640,533,481.09577894210815,28.081981658935547,,4.791879653930664,0.09
48,MetaDrive-test-weighted2-td3,102,107.27514271716264,50082,535,486.3771150112152,26.227445602416992,,2.267612934112549,0.09
49,MetaDrive-test-weighted2-td3,102,109.89440049701942,51278,541,499.03540301322937,27.039257049560547,,2.7120118141174316,0.09
50,MetaDrive-test-weighted2-td3,102,111.72980731068915,52043,545,506.4813950061798,28.935653686523438,-29.606842041015625,31.818241119384766,0.1
51,MetaDrive-test-weighted2-td3,102,111.40606875208674,53033,553,516.4576771259308,28.52482795715332,-29.30832862854004,2.2877979278564453,0.1
52,MetaDrive-test-weighted2-td3,102,113.56432936440355,54044,557,527.4785220623016,28.966732025146484,,5.207968711853027,0.1
53,MetaDrive-test-weighted2-td3,102,116.41089734896832,55719,561,544.0085370540619,29.075584411621094,-29.578144073486328,31.451526641845703,0.11
54,MetaDrive-test-weighted2-td3,102,117.87659880712934,56429,564,551.4486629962921,28.56108856201172,-29.71251106262207,10.886543273925781,0.12
55,MetaDrive-test-weighted2-td3,102,120.12741946578781,57001,566,557.2395761013031,28.250207901000977,-28.091854095458984,4.247515678405762,0.13
56,MetaDrive-test-weighted2-td3,101,120.5398248157027,58341,570,573.669783115387,31.882225036621094,-33.31004333496094,56.59898376464844,0.13
57,MetaDrive-test-weighted2-td3,101,123.34277784711199,59016,572,580.3047239780426,27.343141555786133,,12.868072509765625,0.14
58,MetaDrive-test-weighted2-td3,101,127.27810815763647,60290,576,593.8081221580505,31.714704513549805,,7.561814785003662,0.14
59,MetaDrive-test-weighted2-td3,101,129.9117575399758,61181,579,603.7182519435883,28.3980655670166,-29.806453704833984,12.140121459960938,0.15
60,MetaDrive-test-weighted2-td3,101,129.7057394690588,62045,585,612.0948619842529,37.09737014770508,-36.1987419128418,18.738994598388672,0.15
61,MetaDrive-test-weighted2-td3,101,133.45202549252915,63254,589,623.5792570114136,35.69599914550781,,12.730302810668945,0.17
62,MetaDrive-test-weighted2-td3,101,133.56371546668953,64042,594,631.9244039058685,34.23955535888672,,14.937677383422852,0.17
63,MetaDrive-test-weighted2-td3,101,134.68293261055058,65237,598,643.8977119922638,34.415618896484375,-34.63639831542969,4.73306941986084,0.17
64,MetaDrive-test-weighted2-td3,101,133.70707453364156,66050,605,652.1299471855164,35.39460754394531,,3.462766170501709,0.17
65,MetaDrive-test-weighted2-td3,101,135.27577564549705,67016,608,662.0922029018402,35.827003479003906,,14.459903717041016,0.19
66,MetaDrive-test-weighted2-td3,101,138.23213439807924,68096,611,672.9506349563599,36.7542724609375,,42.412071228027344,0.2
67,MetaDrive-test-weighted2-td3,101,138.19706485301268,69039,616,682.4918689727783,38.842002868652344,-39.65133285522461,3.404384136199951,0.19
68,MetaDrive-test-weighted2-td3,101,132.735776016864,70445,621,697.0864810943604,38.339866638183594,-39.103431701660156,42.19157409667969,0.15
69,MetaDrive-test-weighted2-td3,100,128.66250799528328,71053,624,703.5967869758606,40.77023696899414,-41.78752517700195,7.667737007141113,0.13
70,MetaDrive-test-weighted2-td3,100,125.88283317872016,72055,630,713.4254660606384,39.8072509765625,-39.64838409423828,14.542797088623047,0.12
71,MetaDrive-test-weighted2-td3,100,119.91747865341925,73063,636,723.6039290428162,38.378597259521484,-38.423179626464844,34.16029739379883,0.12
72,MetaDrive-test-weighted2-td3,100,122.14251713670866,74017,640,733.2170610427856,37.63405227661133,-38.60430908203125,39.63373565673828,0.13
73,MetaDrive-test-weighted2-td3,100,124.09532664310571,75281,643,746.8024880886078,39.379981994628906,-40.35833740234375,17.965476989746094,0.13
74,MetaDrive-test-weighted2-td3,100,123.92428629574037,76081,647,755.1402690410614,38.6746826171875,-40.149681091308594,60.133148193359375,0.12
75,MetaDrive-test-weighted2-td3,100,127.51272547674041,77055,650,764.589362859726,38.02945327758789,-37.564109802246094,10.125085830688477,0.13
76,MetaDrive-test-weighted2-td3,100,130.1708083487282,78175,654,776.1005849838257,35.52739334106445,-35.263343811035156,5.7706756591796875,0.14
77,MetaDrive-test-weighted2-td3,100,128.88544120735853,79276,658,789.5363597869873,37.474449157714844,,22.22627067565918,0.13
78,MetaDrive-test-weighted2-td3,100,133.23782570455052,80255,660,798.7474601268768,41.00010681152344,-42.076904296875,81.4426498413086,0.14
79,MetaDrive-test-weighted2-td3,100,129.94487284877377,81110,665,807.776181936264,43.769248962402344,,3.085793972015381,0.13
80,MetaDrive-test-weighted2-td3,100,133.06720152652989,82324,667,820.4591710567474,42.50217819213867,,5.862433433532715,0.14
81,MetaDrive-test-weighted2-td3,100,133.44404269473873,83064,670,828.5709500312805,36.420501708984375,,19.282623291015625,0.14
82,MetaDrive-test-weighted2-td3,100,135.0775204437418,84431,673,841.7962439060211,39.25803756713867,-39.315284729003906,10.822294235229492,0.15
83,MetaDrive-test-weighted2-td3,100,134.24246469017206,85281,676,849.7011229991913,44.903160095214844,-44.48823165893555,5.039478778839111,0.16
84,MetaDrive-test-weighted2-td3,100,133.6106993417514,86021,679,856.4081299304962,42.01302719116211,-42.99468231201172,5.734322547912598,0.16
85,MetaDrive-test-weighted2-td3,100,135.39906008685074,87172,684,867.8774020671844,42.87477493286133,,11.781377792358398,0.17
86,MetaDrive-test-weighted2-td3,100,137.719296929536,88295,688,878.8634929656982,43.08723831176758,-43.36175537109375,6.596646785736084,0.17
87,MetaDrive-test-weighted2-td3,100,138.95952180925792,89066,690,886.178867816925,43.76392364501953,,7.143878936767578,0.18
88,MetaDrive-test-weighted2-td3,100,141.87507589754622,90051,692,895.4117579460144,41.470367431640625,-42.609619140625,67.73844909667969,0.19
89,MetaDrive-test-weighted2-td3,100,143.33190121553054,91276,697,908.8413050174713,40.283851623535156,,99.58518981933594,0.2
90,MetaDrive-test-weighted2-td3,100,144.53628611314002,92126,701,916.8403928279877,44.27666473388672,,4.8118977546691895,0.21
91,MetaDrive-test-weighted2-td3,100,143.2003687713658,93096,706,926.7869169712067,42.11249542236328,,2.793027877807617,0.21
92,MetaDrive-test-weighted2-td3,100,144.56398637289539,94043,707,936.4554970264435,43.233802795410156,-43.67158126831055,4.881389617919922,0.2
93,MetaDrive-test-weighted2-td3,100,144.88955035026476,95077,710,947.020586013794,44.940608978271484,-45.80329895019531,66.30706787109375,0.2
94,MetaDrive-test-weighted2-td3,100,146.15646857086264,96124,713,958.292829990387,44.91545486450195,,6.889564037322998,0.21
95,MetaDrive-test-weighted2-td3,100,147.99136407145645,97128,715,968.0641710758209,41.520172119140625,,17.337562561035156,0.22
96,MetaDrive-test-weighted2-td3,100,150.4282713425636,98388,717,982.38498878479,45.21233367919922,,7.866440773010254,0.22
97,MetaDrive-test-weighted2-td3,100,152.39766373778875,99037,718,989.3371329307556,43.9705924987793,-45.34538650512695,63.81150817871094,0.22
98,MetaDrive-test-weighted2-td3,100,151.9521264447523,100047,721,999.4130430221558,41.302215576171875,-42.860694885253906,6.653033256530762,0.24
99,MetaDrive-test-weighted2-td3,100,155.51334491756725,101111,723,1010.0376451015472,42.15753936767578,-42.35825729370117,7.324611186981201,0.26
100,MetaDrive-test-weighted2-td3,100,159.27638459804703,102105,726,1019.6055779457092,46.239131927490234,-47.26747512817383,4.685111045837402,0.27
101,MetaDrive-test-weighted2-td3,100,160.15615554646666,103103,730,1029.0624859333038,44.2890625,-44.84196472167969,8.871068954467773,0.27
102,MetaDrive-test-weighted2-td3,100,163.75407117202857,104328,733,1041.5532138347626,45.730010986328125,,4.109435081481934,0.28
103,MetaDrive-test-weighted2-td3,100,167.345861646216,105327,736,1051.9950699806213,43.90646743774414,-44.38688278198242,6.655640125274658,0.28
104,MetaDrive-test-weighted2-td3,100,169.23053499838096,106328,737,1062.2466161251068,45.95712661743164,,7.269336700439453,0.28
105,MetaDrive-test-weighted2-td3,100,172.14887266606743,107540,740,1074.3404111862183,46.07352828979492,,11.0862398147583,0.29
106,MetaDrive-test-weighted2-td3,100,175.0046884602001,108327,741,1082.2849378585815,45.14684295654297,-45.96839904785156,69.09756469726562,0.3
107,MetaDrive-test-weighted2-td3,100,176.50328858568912,109498,744,1094.3329908847809,44.96153259277344,,45.182823181152344,0.32
108,MetaDrive-test-weighted2-td3,99,179.83938166609346,110227,745,1102.4044148921967,44.67644119262695,-43.98138427734375,7.728213310241699,0.33
109,MetaDrive-test-weighted2-td3,100,182.8510397169922,111142,747,1110.5577919483185,42.89101791381836,,5.138200759887695,0.35
110,MetaDrive-test-weighted2-td3,100,184.01042611714675,112061,749,1118.5810899734497,48.254600524902344,-48.680511474609375,4.846526145935059,0.36
111,MetaDrive-test-weighted2-td3,100,184.26226491747843,113028,752,1129.481647014618,42.24401092529297,,11.738122940063477,0.36
112,MetaDrive-test-weighted2-td3,99,181.97057744843573,114747,756,1149.199921131134,46.919307708740234,-48.2335205078125,5.3137712478637695,0.35
113,MetaDrive-test-weighted2-td3,99,179.9215911062381,115052,758,1152.8656799793243,44.0380973815918,,25.72325897216797,0.35
114,MetaDrive-test-weighted2-td3,99,179.8215051756049,116409,763,1166.9883329868317,46.02630615234375,-45.94210433959961,10.354255676269531,0.35
115,MetaDrive-test-weighted2-td3,99,180.79684933784293,117079,765,1173.8459179401398,46.36481475830078,-45.77109909057617,11.748217582702637,0.35
116,MetaDrive-test-weighted2-td3,99,183.52675707514283,118730,767,1191.4797151088715,42.86747741699219,,7.83371639251709,0.36
117,MetaDrive-test-weighted2-td3,99,181.53397067463203,119134,769,1195.7977871894836,45.71682357788086,,7.8973002433776855,0.36
118,MetaDrive-test-weighted2-td3,99,178.4278153156609,120126,774,1205.605761051178,47.36850357055664,,10.969636917114258,0.34
119,MetaDrive-test-weighted2-td3,99,180.2988998095267,121519,778,1219.7351479530334,44.29928970336914,-44.36209487915039,9.081022262573242,0.35
120,MetaDrive-test-weighted2-td3,99,179.6106005452231,122056,779,1225.282436132431,46.77267074584961,,4.1516337394714355,0.34
121,MetaDrive-test-weighted2-td3,99,182.48433000356138,123394,783,1238.73393201828,43.705726623535156,,5.8130316734313965,0.35
122,MetaDrive-test-weighted2-td3,99,185.61842247162176,124208,785,1246.4219770431519,44.86131286621094,,73.94417572021484,0.37
123,MetaDrive-test-weighted2-td3,99,187.0071708784725,125182,787,1257.3842890262604,46.71800994873047,,5.376646518707275,0.37
124,MetaDrive-test-weighted2-td3,99,182.84769092930455,126041,790,1267.1829931735992,45.13915252685547,-45.15268325805664,5.246114730834961,0.34
125,MetaDrive-test-weighted2-td3,99,183.5423123542765,127387,792,1282.1311559677124,46.01431655883789,-45.871360778808594,4.56489372253418,0.33
126,MetaDrive-test-weighted2-td3,99,186.40839206725977,128028,794,1288.306962966919,42.04435348510742,,7.844244003295898,0.34
127,MetaDrive-test-weighted2-td3,99,190.12207759011844,129360,798,1301.5419461727142,45.592689514160156,,6.342465400695801,0.36
128,MetaDrive-test-weighted2-td3,99,196.26897471837663,130520,800,1312.8965291976929,44.58121871948242,,87.43283081054688,0.38
129,MetaDrive-test-weighted2-td3,99,195.93099309101615,131077,801,1319.5251150131226,46.42986297607422,-46.676666259765625,8.01453971862793,0.37
130,MetaDrive-test-weighted2-td3,99,193.68069107401573,132076,807,1329.762246131897,46.68659210205078,,7.68149995803833,0.36
131,MetaDrive-test-weighted2-td3,99,199.28665158345234,133387,809,1343.2191100120544,45.2993278503418,-46.60340881347656,114.4462890625,0.38
132,MetaDrive-test-weighted2-td3,99,198.73393944464783,134453,811,1353.6857569217682,48.008792877197266,-48.801544189453125,2.8109922409057617,0.38
133,MetaDrive-test-weighted2-td3,99,200.12390273588423,135243,812,1363.213928937912,49.99941635131836,-49.929542541503906,10.192358016967773,0.38
134,MetaDrive-test-weighted2-td3,99,198.15116324651936,136804,817,1381.1333298683167,45.795440673828125,,84.26211547851562,0.37
135,MetaDrive-test-weighted2-td3,98,197.76896387192667,137343,818,1388.136029958725,45.73546600341797,-46.08244705200195,68.09033203125,0.37
136,MetaDrive-test-weighted2-td3,98,199.7961348287502,138299,820,1398.3202621936798,41.783172607421875,-41.81326675415039,11.87967300415039,0.37
137,MetaDrive-test-weighted2-td3,98,198.3428294976297,139300,821,1411.5067398548126,45.39597702026367,,30.08013153076172,0.36
138,MetaDrive-test-weighted2-td3,98,198.79861308533626,140301,822,1421.239107131958,48.05447006225586,-48.1838264465332,5.491258144378662,0.35
139,MetaDrive-test-weighted2-td3,98,201.391817863617,141416,824,1432.5337660312653,47.955650329589844,,6.673900604248047,0.35
140,MetaDrive-test-weighted2-td3,98,202.3175220817852,142430,826,1443.1860468387604,47.655452728271484,,5.335528373718262,0.36
141,MetaDrive-test-weighted2-td3,98,204.65271956412278,143165,827,1451.5691561698914,46.946441650390625,-47.046180725097656,9.69607925415039,0.37
142,MetaDrive-test-weighted2-td3,98,209.708791611116,144590,830,1466.4652211666107,44.213375091552734,,8.906843185424805,0.39
143,MetaDrive-test-weighted2-td3,98,208.34941285279612,145692,832,1477.364007949829,40.78527069091797,,9.709633827209473,0.38
144,MetaDrive-test-weighted2-td3,98,208.7020238281596,146222,833,1482.5130500793457,41.40978240966797,,27.06272315979004,0.38
145,MetaDrive-test-weighted2-td3,98,207.52055507912158,147674,836,1496.610610961914,47.157386779785156,,7.716474533081055,0.39
146,MetaDrive-test-weighted2-td3,98,207.26213497910612,148031,837,1499.9832701683044,44.84968948364258,-44.97052001953125,8.988029479980469,0.4
147,MetaDrive-test-weighted2-td3,98,205.20229669877554,149069,840,1510.007138967514,45.51667404174805,-45.19155502319336,30.008644104003906,0.39
148,MetaDrive-test-weighted2-td3,98,207.2036525359521,150115,842,1520.5668878555298,47.76478958129883,-47.69679260253906,7.246765613555908,0.4
149,MetaDrive-test-weighted2-td3,98,203.6780055509848,151217,845,1531.6079511642456,45.594852447509766,-46.12157440185547,37.457237243652344,0.38
150,MetaDrive-test-weighted2-td3,98,203.48525285445214,152131,847,1539.5048949718475,44.24026107788086,-44.612510681152344,4.004429340362549,0.38
151,MetaDrive-test-weighted2-td3,98,204.9900620843722,153179,849,1551.3520278930664,45.28211975097656,-45.84130859375,5.125925064086914,0.36
152,MetaDrive-test-weighted2-td3,98,207.65201972381507,154061,852,1560.422746181488,43.7368278503418,-43.91988754272461,11.259007453918457,0.37
153,MetaDrive-test-weighted2-td3,98,209.45697476816002,155350,856,1572.3064901828766,45.875946044921875,,35.980140686035156,0.38
154,MetaDrive-test-weighted2-td3,98,210.99926772715912,156024,859,1578.5321888923645,45.9318733215332,,10.933185577392578,0.39
155,MetaDrive-test-weighted2-td3,98,206.66372749163918,157121,864,1588.8798141479492,44.7921142578125,-43.58757019042969,10.16019344329834,0.38
156,MetaDrive-test-weighted2-td3,98,208.6132594045316,158244,866,1600.4192209243774,46.73896408081055,,4.129205703735352,0.39
157,MetaDrive-test-weighted2-td3,98,208.1612315899086,159017,868,1608.5972158908844,45.38720703125,-45.27846908569336,7.522306442260742,0.39
158,MetaDrive-test-weighted2-td3,98,208.77334506629822,160096,872,1619.3752598762512,42.848960876464844,,6.971789360046387,0.4
159,MetaDrive-test-weighted2-td3,98,214.1558348959253,161315,875,1631.297791004181,41.56669235229492,-40.969215393066406,13.82949447631836,0.42
160,MetaDrive-test-weighted2-td3,98,216.46158429438296,162805,877,1647.3851490020752,42.70269775390625,-42.524131774902344,5.7806501388549805,0.42
161,MetaDrive-test-weighted2-td3,98,215.49932361378208,163176,878,1650.5927789211273,45.511512756347656,,35.68574523925781,0.42
162,MetaDrive-test-weighted2-td3,98,219.42953840447774,164085,880,1658.8329138755798,43.71775436401367,-44.33962631225586,8.438279151916504,0.44
163,MetaDrive-test-weighted2-td3,98,219.23125833130325,165086,881,1671.69185090065,43.02490234375,,5.727632522583008,0.43
164,MetaDrive-test-weighted2-td3,98,218.0843561558134,166101,884,1682.8875041007996,42.157615661621094,-42.52668762207031,11.626461029052734,0.42
165,MetaDrive-test-weighted2-td3,98,218.28500570546316,167112,886,1693.2437789440155,45.15195083618164,,2.627671718597412,0.42
166,MetaDrive-test-weighted2-td3,98,219.2016750420832,168055,889,1703.480498790741,45.08954620361328,-45.66511535644531,22.602933883666992,0.43
167,MetaDrive-test-weighted2-td3,98,221.3280777263435,169012,891,1712.5976939201355,44.952171325683594,,4.0082902908325195,0.45
168,MetaDrive-test-weighted2-td3,98,217.7530354016403,170180,895,1724.6317329406738,46.949424743652344,,5.100330352783203,0.45
169,MetaDrive-test-weighted2-td3,98,219.63778418658157,171396,897,1736.5919139385223,44.14598846435547,,5.411863327026367,0.45
170,MetaDrive-test-weighted2-td3,98,214.0012614298916,172087,900,1743.4218170642853,47.826171875,-48.17847442626953,3.895936965942383,0.42
171,MetaDrive-test-weighted2-td3,98,213.15415414946904,173346,907,1755.9303879737854,43.93417739868164,,4.070923805236816,0.43
172,MetaDrive-test-weighted2-td3,98,207.32933319263782,174102,910,1764.839215040207,39.775577545166016,,9.074451446533203,0.4
173,MetaDrive-test-weighted2-td3,98,205.0652089749543,175206,914,1777.1768050193787,48.58661651611328,,4.38530158996582,0.39
174,MetaDrive-test-weighted2-td3,98,208.136778736171,176727,917,1793.7660720348358,46.38399124145508,-47.113582611083984,4.613373756408691,0.4
175,MetaDrive-test-weighted2-td3,98,207.45549388109652,177003,918,1796.6840760707855,41.928836822509766,-43.484840393066406,19.636016845703125,0.4
176,MetaDrive-test-weighted2-td3,98,207.77491969066628,178053,921,1808.283672094345,42.72455596923828,-43.20906066894531,95.15409851074219,0.4
177,MetaDrive-test-weighted2-td3,98,203.1307102964326,179075,924,1818.6711411476135,42.61927795410156,-43.345008850097656,13.325677871704102,0.4
178,MetaDrive-test-weighted2-td3,98,199.63797256952785,180199,928,1830.4408121109009,44.417781829833984,-44.77703094482422,8.778465270996094,0.39
179,MetaDrive-test-weighted2-td3,98,198.78768788281062,181200,929,1841.2062599658966,46.50566864013672,,5.997171401977539,0.38
180,MetaDrive-test-weighted2-td3,98,200.65884993411981,182685,931,1856.1385960578918,43.85107421875,-44.63090896606445,7.219969749450684,0.38
181,MetaDrive-test-weighted2-td3,98,201.5305976047692,183098,932,1860.549852848053,41.63372802734375,,3.8018784523010254,0.39
182,MetaDrive-test-weighted2-td3,98,201.14080911553373,184108,935,1870.8539950847626,44.133243560791016,,4.366744041442871,0.38
183,MetaDrive-test-weighted2-td3,98,202.98712498816087,185061,937,1880.058483839035,46.38873291015625,-46.256839752197266,3.3186025619506836,0.38
184,MetaDrive-test-weighted2-td3,98,203.70654655837313,186819,940,1896.6025569438934,43.8729248046875,-44.355316162109375,6.15670108795166,0.38
185,MetaDrive-test-weighted2-td3,98,202.09093281931393,187820,941,1906.2304639816284,46.74034881591797,,4.125375747680664,0.37
186,MetaDrive-test-weighted2-td3,98,202.73297022532356,188403,942,1911.8116149902344,43.69132995605469,-44.209041595458984,5.826815605163574,0.37
187,MetaDrive-test-weighted2-td3,98,203.0958632564971,189555,944,1926.3606100082397,38.59092330932617,-39.62502670288086,9.74708366394043,0.37
188,MetaDrive-test-weighted2-td3,98,203.6323741852461,190152,945,1931.9756519794464,44.15322494506836,,6.709392070770264,0.37
189,MetaDrive-test-weighted2-td3,98,204.59059402407303,191430,947,1946.4600241184235,42.876441955566406,,32.67354202270508,0.36
190,MetaDrive-test-weighted2-td3,98,203.68104876628885,192469,949,1957.1957659721375,40.18788146972656,-40.587242126464844,7.263884544372559,0.37
191,MetaDrive-test-weighted2-td3,98,205.17186809838898,193113,951,1963.8316972255707,40.57101821899414,-40.619808197021484,22.379507064819336,0.38
192,MetaDrive-test-weighted2-td3,98,207.45171603525046,194396,953,1976.904392004013,42.296905517578125,,9.22860336303711,0.39
193,MetaDrive-test-weighted2-td3,98,208.65067214016025,195138,955,1984.6474380493164,42.66559600830078,,8.569831848144531,0.39
194,MetaDrive-test-weighted2-td3,98,212.25439253710726,196267,957,1995.6257650852203,44.90226364135742,-45.22970199584961,8.300310134887695,0.41
195,MetaDrive-test-weighted2-td3,98,213.60923854963065,197355,959,2009.2416870594025,45.55946350097656,-45.36783981323242,24.566951751708984,0.4
196,MetaDrive-test-weighted2-td3,98,218.02716116363678,198671,961,2026.8419609069824,47.16625213623047,-47.12461471557617,15.505401611328125,0.41
197,MetaDrive-test-weighted2-td3,98,219.28401113859917,199240,962,2032.1750361919403,41.696563720703125,,3.535926342010498,0.42
198,MetaDrive-test-weighted2-td3,97,222.47016045774126,200119,963,2042.341106891632,41.75394058227539,-42.330322265625,4.9866108894348145,0.43
199,MetaDrive-test-weighted2-td3,98,221.481595490117,201427,967,2054.5678310394287,44.5888671875,-44.08207321166992,6.152941703796387,0.42
200,MetaDrive-test-weighted2-td3,98,224.00947219337206,202645,969,2066.199385166168,45.369293212890625,-45.19142150878906,8.3048677444458,0.43
201,MetaDrive-test-weighted2-td3,98,228.29947793787846,203471,970,2076.0663900375366,42.568756103515625,-42.94701385498047,50.563568115234375,0.44
202,MetaDrive-test-weighted2-td3,98,230.10417817953237,204338,972,2084.844815015793,45.32234573364258,,5.921963691711426,0.44
203,MetaDrive-test-weighted2-td3,97,229.9760679248286,205888,974,2103.0985231399536,45.21181106567383,,9.767956733703613,0.43
204,MetaDrive-test-weighted2-td3,97,228.4986838567031,206232,975,2106.3843178749084,39.596431732177734,,8.67694091796875,0.42
205,MetaDrive-test-weighted2-td3,97,222.86194169361144,207019,979,2114.7253379821777,42.84357452392578,-43.594093322753906,93.8211898803711,0.4
206,MetaDrive-test-weighted2-td3,97,223.2447789142678,208315,983,2126.8413128852844,43.66862106323242,-43.82596206665039,4.4133405685424805,0.41
207,MetaDrive-test-weighted2-td3,97,225.87767822796704,209227,984,2136.837131023407,45.055763244628906,-45.290897369384766,7.332711219787598,0.41
208,MetaDrive-test-weighted2-td3,97,229.10193942107261,210407,987,2148.9044890403748,41.03352737426758,-40.83388137817383,21.515804290771484,0.42
209,MetaDrive-test-weighted2-td3,97,226.2146280526532,211387,990,2160.099762916565,49.00486373901367,-49.027042388916016,6.893911838531494,0.41
210,MetaDrive-test-weighted2-td3,97,228.10810483693166,212302,992,2171.2432618141174,43.1397590637207,,6.112592697143555,0.4
211,MetaDrive-test-weighted2-td3,97,230.47425041976214,213138,994,2178.7370500564575,40.08319091796875,,5.910191535949707,0.4
212,MetaDrive-test-weighted2-td3,97,227.89606586076872,214318,997,2192.3819959163666,40.07157516479492,,16.81108856201172,0.38
213,MetaDrive-test-weighted2-td3,97,229.37445569602014,215145,1000,2200.864331960678,39.92872619628906,-41.010902404785156,4.685479164123535,0.38
214,MetaDrive-test-weighted2-td3,97,233.47342023260939,216280,1004,2212.000983953476,45.762264251708984,,16.299686431884766,0.39
215,MetaDrive-test-weighted2-td3,97,237.86860333756954,217212,1006,2221.187260866165,41.78755187988281,,116.36524200439453,0.41
216,MetaDrive-test-weighted2-td3,97,239.86367900721316,218389,1008,2232.3992490768433,42.43351745605469,-43.18930435180664,5.123068809509277,0.42
217,MetaDrive-test-weighted2-td3,97,240.31898479668837,219190,1010,2240.006353855133,42.679012298583984,,32.406005859375,0.43
218,MetaDrive-test-weighted2-td3,97,242.08210718042835,220220,1012,2250.6561558246613,45.526832580566406,,10.057195663452148,0.44
219,MetaDrive-test-weighted2-td3,97,244.1968067934734,221010,1014,2258.370980978012,42.80455780029297,,5.397677421569824,0.45
220,MetaDrive-test-weighted2-td3,97,247.76301277759762,222151,1016,2270.0450949668884,40.55410385131836,-40.94768524169922,30.2334041595459,0.46
221,MetaDrive-test-weighted2-td3,97,247.63934959986224,223275,1018,2284.076549053192,42.28583908081055,-43.02987289428711,5.8146514892578125,0.46
222,MetaDrive-test-weighted2-td3,97,248.64478119440338,224049,1020,2292.2231690883636,45.753902435302734,-46.014732360839844,16.7711181640625,0.47
223,MetaDrive-test-weighted2-td3,97,247.47001051982144,225283,1023,2303.3153059482574,44.9674072265625,-44.871463775634766,7.995718002319336,0.47
224,MetaDrive-test-weighted2-td3,97,249.0012924636885,226146,1026,2311.590696811676,39.73320007324219,,17.277149200439453,0.47
225,MetaDrive-test-weighted2-td3,97,249.3207941708775,227423,1029,2324.541939020157,43.99822235107422,-43.73992156982422,11.622957229614258,0.48
226,MetaDrive-test-weighted2-td3,97,244.9186737148833,228209,1032,2332.7250039577484,44.58860397338867,-44.84770965576172,78.06712341308594,0.47
227,MetaDrive-test-weighted2-td3,97,241.40057942803776,229086,1036,2341.9857170581818,44.31490707397461,,4.0401411056518555,0.46
228,MetaDrive-test-weighted2-td3,97,242.25884452053117,230409,1038,2358.0740690231323,40.885475158691406,-41.175445556640625,7.824541091918945,0.46
229,MetaDrive-test-weighted2-td3,97,240.3011644053755,231360,1041,2367.9157299995422,41.47106170654297,,43.72169494628906,0.46
230,MetaDrive-test-weighted2-td3,97,241.88879019933353,232338,1042,2378.120665073395,42.287410736083984,,4.514128684997559,0.46
231,MetaDrive-test-weighted2-td3,97,242.82696599839178,233339,1043,2390.3706789016724,43.055763244628906,-43.46177291870117,9.0717134475708,0.46
232,MetaDrive-test-weighted2-td3,97,244.07955136082236,234224,1044,2400.811206102371,45.38846969604492,,3.052999973297119,0.47
233,MetaDrive-test-weighted2-td3,97,241.84242516372186,235368,1047,2412.3901958465576,42.6183967590332,,11.59919548034668,0.47
234,MetaDrive-test-weighted2-td3,97,243.68825894938465,236980,1049,2430.633625984192,44.16922378540039,,18.941665649414062,0.47
235,MetaDrive-test-weighted2-td3,97,245.25736583399433,237537,1050,2435.4852678775787,40.09479522705078,-40.10337448120117,9.597345352172852,0.48
236,MetaDrive-test-weighted2-td3,97,244.28598857465323,238665,1052,2447.2838940620422,44.73502731323242,-46.7480354309082,116.43540954589844,0.47
237,MetaDrive-test-weighted2-td3,97,243.4057837417247,239072,1053,2451.075438976288,40.382015228271484,,48.6603889465332,0.47
238,MetaDrive-test-weighted2-td3,97,239.74002481891029,240300,1057,2462.3358030319214,47.18637466430664,,4.2667131423950195,0.45
239,MetaDrive-test-weighted2-td3,97,241.98868069238017,241383,1059,2472.1281929016113,45.17979431152344,-46.469696044921875,47.298606872558594,0.47
240,MetaDrive-test-weighted2-td3,97,243.553785180825,242110,1060,2480.025148153305,47.80961227416992,,4.249268054962158,0.47
241,MetaDrive-test-weighted2-td3,97,243.51258020538805,243172,1062,2491.8807721138,45.991451263427734,,30.82416534423828,0.47
242,MetaDrive-test-weighted2-td3,97,242.9791257604885,244451,1065,2504.710194826126,45.58414077758789,-45.84523010253906,3.9837803840637207,0.47
243,MetaDrive-test-weighted2-td3,97,244.64423279909414,245569,1067,2517.1507999897003,39.49315643310547,-40.58793258666992,55.03675079345703,0.47
244,MetaDrive-test-weighted2-td3,97,244.52948958100708,246146,1068,2522.6523690223694,39.77651596069336,,44.04307556152344,0.47
245,MetaDrive-test-weighted2-td3,97,243.49543300739683,247590,1070,2538.5675530433655,44.43855285644531,,5.168903350830078,0.47
246,MetaDrive-test-weighted2-td3,97,237.6977846510291,248064,1073,2543.251303911209,43.102561950683594,,5.398946762084961,0.46
247,MetaDrive-test-weighted2-td3,97,241.166666812203,249246,1075,2555.37366604805,45.19358825683594,,4.32309627532959,0.48
248,MetaDrive-test-weighted2-td3,97,247.29884289841954,250681,1078,2569.706990003586,47.65357208251953,-48.12255096435547,4.229722499847412,0.49
249,MetaDrive-test-weighted2-td3,97,247.1023490916126,251256,1079,2575.6936178207397,42.413089752197266,,8.346795082092285,0.49
250,MetaDrive-test-weighted2-td3,97,249.48203599315875,252609,1081,2589.449975013733,46.3033561706543,-46.30204772949219,6.0440521240234375,0.5
251,MetaDrive-test-weighted2-td3,97,251.9195616847966,253233,1082,2595.2306599617004,44.29634094238281,-44.70527648925781,5.581501483917236,0.51
252,MetaDrive-test-weighted2-td3,97,249.894810787268,254206,1084,2607.0888409614563,43.94191360473633,,8.432022094726562,0.5
253,MetaDrive-test-weighted2-td3,97,249.7253741995715,255483,1087,2620.1652019023895,44.337005615234375,-44.353721618652344,5.034611701965332,0.5
254,MetaDrive-test-weighted2-td3,97,253.13608917839272,256458,1089,2629.1340868473053,43.12533187866211,,11.916426658630371,0.51
255,MetaDrive-test-weighted2-td3,97,253.09126972009346,257459,1090,2641.144824028015,40.50555419921875,-40.31106185913086,9.937360763549805,0.5
256,MetaDrive-test-weighted2-td3,97,251.80330704938584,258107,1092,2647.7264499664307,41.69205093383789,-43.09452438354492,183.7760009765625,0.5
257,MetaDrive-test-weighted2-td3,97,252.82061319988526,259309,1094,2660.024302959442,44.87169647216797,-43.375999450683594,10.40463924407959,0.5
258,MetaDrive-test-weighted2-td3,97,253.9633426461044,260310,1095,2670.2019991874695,46.90115737915039,,6.081018924713135,0.5
259,MetaDrive-test-weighted2-td3,97,255.18647866601853,261577,1098,2683.3384120464325,46.33206558227539,-47.55794906616211,12.047159194946289,0.51
260,MetaDrive-test-weighted2-td3,97,255.49914834403353,262145,1099,2689.470967054367,41.46135330200195,-43.00654220581055,115.70926666259766,0.51
261,MetaDrive-test-weighted2-td3,97,255.03811558653263,263146,1100,2699.869990825653,44.655914306640625,,4.9269938468933105,0.51
262,MetaDrive-test-weighted2-td3,97,259.8834805253958,264222,1102,2712.611235141754,46.05655288696289,,9.11557388305664,0.52
263,MetaDrive-test-weighted2-td3,97,256.79110225527796,265115,1105,2721.8061077594757,41.97926330566406,-42.625701904296875,6.547915458679199,0.5
264,MetaDrive-test-weighted2-td3,97,254.49028307518128,266151,1108,2731.6234481334686,45.79736328125,-45.945533752441406,5.170534133911133,0.48
265,MetaDrive-test-weighted2-td3,97,256.8689462168857,267471,1110,2745.2135150432587,42.14365005493164,-42.462371826171875,6.435845375061035,0.49
266,MetaDrive-test-weighted2-td3,97,255.8007152043853,268110,1111,2751.820057153702,44.556724548339844,,16.128597259521484,0.49
267,MetaDrive-test-weighted2-td3,97,260.84747429869674,269619,1113,2769.1282868385315,43.10765838623047,-44.30260467529297,14.91047191619873,0.51
268,MetaDrive-test-weighted2-td3,97,259.8190567961733,270094,1114,2773.4111227989197,44.530174255371094,,3.6169562339782715,0.51
269,MetaDrive-test-weighted2-td3,97,256.2520196431674,271127,1117,2784.0634338855743,44.47175598144531,-45.598899841308594,54.050697326660156,0.49
270,MetaDrive-test-weighted2-td3,97,257.28819931975886,272322,1119,2796.140692949295,44.525291442871094,,6.649460315704346,0.5
271,MetaDrive-test-weighted2-td3,97,256.30334460817653,273133,1120,2805.1065199375153,42.23271942138672,-42.58124542236328,5.2119646072387695,0.49
272,MetaDrive-test-weighted2-td3,97,254.544939486027,274195,1123,2815.9633469581604,43.21260070800781,-44.4125862121582,7.4233078956604,0.48
273,MetaDrive-test-weighted2-td3,97,256.4689676872928,275246,1126,2826.5490629673004,46.54484939575195,,3.3282108306884766,0.49
274,MetaDrive-test-weighted2-td3,97,254.1032237487652,276216,1129,2835.7745010852814,43.644168853759766,,9.357717514038086,0.48
275,MetaDrive-test-weighted2-td3,97,258.38821521184354,277084,1131,2843.961587905884,42.618934631347656,,2.9240493774414062,0.49
276,MetaDrive-test-weighted2-td3,97,258.4967623373667,278085,1132,2857.2497189044952,46.716861724853516,-46.714046478271484,7.284944534301758,0.48
277,MetaDrive-test-weighted2-td3,97,258.94884104274615,279184,1135,2869.95850110054,44.13986587524414,,5.8849992752075195,0.48
278,MetaDrive-test-weighted2-td3,97,263.1915386681859,280215,1137,2880.4687218666077,45.36098098754883,-45.78902816772461,11.962409973144531,0.5
279,MetaDrive-test-weighted2-td3,97,261.75502256536197,281014,1139,2887.727807044983,48.264625549316406,,8.66351318359375,0.51
280,MetaDrive-test-weighted2-td3,97,261.4579255935605,282006,1142,2896.8080298900604,44.61481475830078,,5.389219284057617,0.51
281,MetaDrive-test-weighted2-td3,97,262.4699690193109,283218,1144,2909.94034409523,45.63827133178711,,8.301374435424805,0.52
282,MetaDrive-test-weighted2-td3,97,264.24947031320863,284215,1145,2922.111149072647,43.9516716003418,-45.5977783203125,11.659847259521484,0.52
283,MetaDrive-test-weighted2-td3,97,265.3781314028734,285351,1147,2933.3778450489044,45.527191162109375,-45.45221710205078,5.625319004058838,0.53
284,MetaDrive-test-weighted2-td3,97,262.35312032088206,286498,1150,2944.2716081142426,47.32855987548828,,6.931268692016602,0.53
285,MetaDrive-test-weighted2-td3,97,260.3429351347184,287413,1153,2952.998557806015,45.846832275390625,-47.76666259765625,145.41952514648438,0.52
286,MetaDrive-test-weighted2-td3,97,260.417835058191,288037,1156,2959.0502378940582,43.01541519165039,-43.37874221801758,12.483733177185059,0.52
287,MetaDrive-test-weighted2-td3,97,257.4393012134003,289347,1159,2972.9601950645447,46.919677734375,-48.38526916503906,14.60177993774414,0.51
288,MetaDrive-test-weighted2-td3,97,256.19299409476224,290098,1161,2980.460412979126,45.25657653808594,,11.292893409729004,0.5
289,MetaDrive-test-weighted2-td3,97,255.52057277723947,291215,1163,2992.442004919052,47.982948303222656,-46.987327575683594,5.931839942932129,0.5
290,MetaDrive-test-weighted2-td3,97,259.20921094334534,292124,1164,3003.338203191757,48.27922058105469,,15.734423637390137,0.51
291,MetaDrive-test-weighted2-td3,97,259.79297492806336,293125,1165,3015.7574219703674,49.94213104248047,-50.0311393737793,6.573249816894531,0.5
292,MetaDrive-test-weighted2-td3,97,260.55830919166726,294090,1167,3026.2945148944855,51.098777770996094,,5.563106060028076,0.5
293,MetaDrive-test-weighted2-td3,97,261.6133873888727,295371,1169,3039.097424030304,43.92837142944336,-43.605812072753906,6.619637489318848,0.5
294,MetaDrive-test-weighted2-td3,97,261.38120496510396,296432,1172,3049.305895805359,47.380859375,,33.168373107910156,0.5
295,MetaDrive-test-weighted2-td3,97,262.2719330913244,297686,1174,3062.054827928543,48.53705596923828,,13.514432907104492,0.49
296,MetaDrive-test-weighted2-td3,97,262.53039704875357,298299,1175,3067.781839132309,48.48820495605469,-49.649085998535156,6.919599533081055,0.49
297,MetaDrive-test-weighted2-td3,97,266.07414136316265,299349,1177,3078.448079109192,50.39383316040039,-50.51633071899414,6.896113395690918,0.51
298,MetaDrive-test-weighted2-td3,97,263.3187113177771,300408,1179,3088.887449979782,53.30585861206055,,26.01455307006836,0.51
299,MetaDrive-test-weighted2-td3,97,261.37987911151714,301229,1181,3098.082897901535,50.25326919555664,-51.29655838012695,4.497681617736816,0.49
300,MetaDrive-test-weighted2-td3,97,258.4457264407575,302500,1184,3110.381894826889,46.080692291259766,,11.932635307312012,0.48
301,MetaDrive-test-weighted2-td3,97,261.98737796148214,303311,1185,3121.9027659893036,49.044830322265625,-49.514156341552734,5.692358493804932,0.49
302,MetaDrive-test-weighted2-td3,97,263.4303731018246,304312,1186,3135.7107100486755,47.61556625366211,,13.973470687866211,0.48
303,MetaDrive-test-weighted2-td3,97,263.893992502372,305195,1187,3146.0856189727783,48.33525085449219,-47.84934997558594,11.340749740600586,0.48
304,MetaDrive-test-weighted2-td3,97,256.98505687597043,306230,1192,3156.158550977707,47.02653884887695,,3.868830680847168,0.47
305,MetaDrive-test-weighted2-td3,97,256.41526404895006,307218,1194,3165.9403808116913,47.41404724121094,,3.2226598262786865,0.48
306,MetaDrive-test-weighted2-td3,97,258.97854576722375,308304,1196,3176.268737077713,47.17588806152344,,7.082091331481934,0.5
307,MetaDrive-test-weighted2-td3,96,261.2586948293105,309220,1197,3187.889268875122,51.76969528198242,,11.612190246582031,0.51
308,MetaDrive-test-weighted2-td3,96,259.42411052564364,310221,1198,3198.6528408527374,47.98688507080078,-47.579444885253906,9.63693618774414,0.5
309,MetaDrive-test-weighted2-td3,97,261.6715959282567,311247,1200,3208.142585992813,49.28908920288086,-49.69131088256836,12.78803825378418,0.52
310,MetaDrive-test-weighted2-td3,96,260.45268704132485,312401,1202,3220.9354848861694,49.74212646484375,-48.621978759765625,27.235576629638672,0.52
311,MetaDrive-test-weighted2-td3,96,263.54291977940454,313254,1203,3231.116284132004,46.844383239746094,,31.470190048217773,0.53
312,MetaDrive-test-weighted2-td3,96,264.34517375463673,314130,1205,3240.867767095566,44.761478424072266,,10.997618675231934,0.53
313,MetaDrive-test-weighted2-td3,96,262.48380428086546,315001,1208,3249.305603981018,48.448307037353516,-48.47846221923828,5.908051490783691,0.53
314,MetaDrive-test-weighted2-td3,96,259.3733470261323,316720,1211,3267.346487045288,47.89764404296875,,22.330116271972656,0.51
315,MetaDrive-test-weighted2-td3,96,257.7925662536524,317863,1213,3283.1045639514923,47.01362609863281,-47.833831787109375,14.151241302490234,0.49
316,MetaDrive-test-weighted2-td3,96,258.569694405885,318574,1214,3289.8480310440063,50.05347442626953,,6.047833442687988,0.49
317,MetaDrive-test-weighted2-td3,96,258.550655136591,319460,1216,3298.2462270259857,50.23596954345703,,7.510560989379883,0.5
318,MetaDrive-test-weighted2-td3,96,255.59264718075244,320010,1218,3303.655783891678,46.84661865234375,,12.4337158203125,0.49
319,MetaDrive-test-weighted2-td3,96,258.5626532644789,321561,1221,3319.91130399704,47.560455322265625,-48.24071502685547,17.607097625732422,0.51
320,MetaDrive-test-weighted2-td3,96,258.8201616071288,322012,1222,3324.380287885666,45.29351806640625,,6.741698741912842,0.51
321,MetaDrive-test-weighted2-td3,96,261.2643085097106,323324,1224,3339.0443692207336,47.52680587768555,,19.74898910522461,0.52
322,MetaDrive-test-weighted2-td3,96,263.7161270596473,324443,1226,3349.424418926239,45.309425354003906,-45.65398025512695,11.00270938873291,0.53
323,MetaDrive-test-weighted2-td3,96,264.2028795285155,325531,1228,3363.088646173477,45.83992004394531,-45.94145965576172,14.671073913574219,0.53
324,MetaDrive-test-weighted2-td3,96,265.4462939238348,326148,1229,3369.051201105118,50.895973205566406,,11.371238708496094,0.53
325,MetaDrive-test-weighted2-td3,96,261.66123497026643,327299,1232,3380.97411608696,51.549495697021484,-52.194583892822266,16.459457397460938,0.53
326,MetaDrive-test-weighted2-td3,96,263.7147205774429,328204,1234,3389.665559053421,48.225067138671875,,10.930200576782227,0.54
327,MetaDrive-test-weighted2-td3,96,265.4920130615608,329679,1236,3407.144685983658,46.671287536621094,-47.4066047668457,16.734180450439453,0.53
328,MetaDrive-test-weighted2-td3,96,265.5700420084064,330111,1237,3411.3340821266174,47.94229507446289,-48.997657775878906,5.753403663635254,0.53
329,MetaDrive-test-weighted2-td3,96,264.5847874824188,331112,1238,3421.809370994568,47.07270050048828,,5.385219097137451,0.52
330,MetaDrive-test-weighted2-td3,96,264.65076673149,332202,1240,3432.602527856827,48.46625518798828,,7.112049102783203,0.51
331,MetaDrive-test-weighted2-td3,96,261.19063715440325,333454,1244,3445.1270360946655,48.11310577392578,,7.23648738861084,0.5
332,MetaDrive-test-weighted2-td3,96,260.7948816143677,334198,1245,3452.079238176346,52.22195053100586,,29.335411071777344,0.5
333,MetaDrive-test-weighted2-td3,96,261.68655399060856,335542,1247,3465.8389081954956,48.88391876220703,,16.97649383544922,0.5
334,MetaDrive-test-weighted2-td3,96,262.15990675177864,336105,1248,3471.0540380477905,49.90916061401367,-49.32664108276367,11.362923622131348,0.5
335,MetaDrive-test-weighted2-td3,96,261.38381049509667,337359,1251,3486.126652240753,45.38542175292969,-45.11223220825195,61.459266662597656,0.49
336,MetaDrive-test-weighted2-td3,96,261.9833350156112,338523,1254,3497.3161330223083,44.16156005859375,-44.09532165527344,6.42922306060791,0.5
337,MetaDrive-test-weighted2-td3,96,263.66829730000853,339524,1255,3508.650843143463,50.08776092529297,,4.783935546875,0.5
338,MetaDrive-test-weighted2-td3,96,262.69701827606315,340122,1257,3515.1072850227356,46.07923889160156,,7.146002769470215,0.5
339,MetaDrive-test-weighted2-td3,96,263.44548369819773,341245,1259,3526.9208929538727,48.86466979980469,-49.646324157714844,7.324975967407227,0.5
340,MetaDrive-test-weighted2-td3,96,265.0511484995995,342285,1261,3537.038848876953,44.7288703918457,-44.57026672363281,10.537714004516602,0.51
341,MetaDrive-test-weighted2-td3,96,264.42172327510275,343286,1262,3551.405019760132,45.43449401855469,,11.658098220825195,0.5
342,MetaDrive-test-weighted2-td3,96,262.38947218276394,344376,1264,3564.6495339870453,48.72015380859375,,9.700603485107422,0.48
343,MetaDrive-test-weighted2-td3,96,262.59668137911916,345025,1265,3570.951574087143,46.3226318359375,-47.992645263671875,42.09749221801758,0.49
344,MetaDrive-test-weighted2-td3,96,257.3763330588925,346621,1268,3588.877784013748,48.40949249267578,-47.25323486328125,25.474254608154297,0.47
345,MetaDrive-test-weighted2-td3,96,258.31607390354316,347301,1269,3597.116016149521,44.69670486450195,-45.568031311035156,8.915458679199219,0.47
346,MetaDrive-test-weighted2-td3,96,261.90062590408894,348264,1271,3605.80957698822,49.25851058959961,,8.059954643249512,0.49
347,MetaDrive-test-weighted2-td3,96,262.3887588594701,349297,1273,3617.25288105011,46.303993225097656,-45.7701530456543,8.014110565185547,0.49
348,MetaDrive-test-weighted2-td3,96,260.1865852782841,350155,1275,3625.560923099518,47.227882385253906,-47.72962951660156,8.984933853149414,0.49
349,MetaDrive-test-weighted2-td3,96,259.2908049649431,351621,1278,3640.3986139297485,46.33701705932617,-46.4285888671875,7.0732622146606445,0.48
350,MetaDrive-test-weighted2-td3,96,257.5964451251194,352518,1280,3650.3509397506714,50.516361236572266,,17.525503158569336,0.47
351,MetaDrive-test-weighted2-td3,96,260.05182498855,353508,1281,3660.282874107361,50.345314025878906,,9.560992240905762,0.48
352,MetaDrive-test-weighted2-td3,96,261.56079249301075,354484,1283,3670.597218990326,44.70265197753906,,8.714025497436523,0.49
353,MetaDrive-test-weighted2-td3,96,262.53872072024774,355220,1284,3678.6740720272064,48.96672821044922,,9.767938613891602,0.49
354,MetaDrive-test-weighted2-td3,96,256.1707240583382,356221,1287,3688.1011991500854,44.76092529296875,-45.863197326660156,11.944051742553711,0.49
355,MetaDrive-test-weighted2-td3,96,260.5499824292819,357174,1290,3696.9351201057434,46.66954803466797,,25.60235595703125,0.5
356,MetaDrive-test-weighted2-td3,96,260.1527963528299,358037,1292,3704.896758079529,48.44755172729492,-50.07119369506836,16.750526428222656,0.51
357,MetaDrive-test-weighted2-td3,96,256.589304825931,359774,1296,3723.192838191986,46.90904235839844,,13.633894920349121,0.49
358,MetaDrive-test-weighted2-td3,96,254.04808999852074,360038,1297,3725.847587108612,47.207794189453125,,9.61010456085205,0.48
359,MetaDrive-test-weighted2-td3,96,251.56526382897758,361847,1301,3744.8557031154633,49.6278076171875,-50.21687316894531,8.333822250366211,0.46
360,MetaDrive-test-weighted2-td3,96,250.9390667564413,362229,1302,3749.0900931358337,48.5744514465332,-48.948448181152344,4.219542980194092,0.46
361,MetaDrive-test-weighted2-td3,96,249.86955071706666,363031,1304,3757.609529018402,47.66167449951172,-48.229427337646484,7.378269195556641,0.46
362,MetaDrive-test-weighted2-td3,96,253.13388387338094,364311,1307,3772.2064340114594,46.27537536621094,-46.74500274658203,9.399198532104492,0.47
363,MetaDrive-test-weighted2-td3,96,253.66081803258578,365511,1309,3785.8742089271545,44.338287353515625,-45.11492156982422,44.548377990722656,0.46
364,MetaDrive-test-weighted2-td3,96,253.81451108989168,366675,1312,3797.9674999713898,46.72681427001953,-48.030006408691406,11.718612670898438,0.46
365,MetaDrive-test-weighted2-td3,96,252.17936255928717,367560,1314,3806.6990451812744,45.64496612548828,,7.370404243469238,0.46
366,MetaDrive-test-weighted2-td3,96,252.94715466880302,368523,1316,3815.5278689861298,47.17549514770508,-47.8340950012207,7.899693012237549,0.46
367,MetaDrive-test-weighted2-td3,96,255.59532036105568,369192,1317,3821.6667020320892,50.09605026245117,,7.730823516845703,0.47
368,MetaDrive-test-weighted2-td3,96,255.91145983860116,370251,1319,3832.8722128868103,44.839664459228516,-45.50675582885742,13.858634948730469,0.46
369,MetaDrive-test-weighted2-td3,96,257.62613563247,371012,1321,3840.6360239982605,47.88249206542969,,10.362382888793945,0.46
370,MetaDrive-test-weighted2-td3,96,256.4298002814576,372107,1323,3851.879464864731,44.84930419921875,-46.61470413208008,13.775846481323242,0.45
371,MetaDrive-test-weighted2-td3,96,255.48042758723207,373347,1325,3864.5052280426025,49.15495681762695,-49.007930755615234,72.63775634765625,0.44
372,MetaDrive-test-weighted2-td3,96,255.4778550690531,374094,1327,3871.9109151363373,48.102088928222656,,8.98630142211914,0.44
373,MetaDrive-test-weighted2-td3,96,255.49740802814165,375205,1329,3884.4964258670807,51.03038787841797,-50.459529876708984,11.769713401794434,0.44
374,MetaDrive-test-weighted2-td3,96,259.1228874303501,376018,1331,3891.9841899871826,50.85469436645508,,18.72314453125,0.45
375,MetaDrive-test-weighted2-td3,96,256.68094625568335,377262,1333,3904.413323879242,44.376495361328125,,53.80272674560547,0.44
376,MetaDrive-test-weighted2-td3,96,256.0042279728444,378057,1335,3911.6078820228577,47.42765808105469,-47.36085891723633,5.773097038269043,0.44
377,MetaDrive-test-weighted2-td3,96,253.48432422454277,379088,1337,3922.3273611068726,44.36772918701172,,15.019725799560547,0.44
378,MetaDrive-test-weighted2-td3,96,254.51585944695043,380490,1339,3936.045222759247,50.385986328125,,16.35137367248535,0.44
379,MetaDrive-test-weighted2-td3,96,256.1215334764204,381135,1340,3941.8029680252075,48.241695404052734,-48.48189163208008,5.895944595336914,0.45
380,MetaDrive-test-weighted2-td3,96,260.8724967436643,382451,1342,3956.2881379127502,48.458194732666016,-50.2706298828125,12.988543510437012,0.47
381,MetaDrive-test-weighted2-td3,96,260.6553102194807,383107,1344,3963.2692029476166,53.58022689819336,-55.4637336730957,41.85771942138672,0.47
382,MetaDrive-test-weighted2-td3,96,258.7466764606663,384015,1346,3972.643545150757,50.02168273925781,-50.410491943359375,5.15319299697876,0.47
383,MetaDrive-test-weighted2-td3,96,260.08872931986093,385591,1350,3987.649137020111,46.51148223876953,-46.4243049621582,12.720624923706055,0.47
384,MetaDrive-test-weighted2-td3,96,260.4928841965015,386794,1352,4001.4050240516663,46.87133026123047,,14.855501174926758,0.47
385,MetaDrive-test-weighted2-td3,96,258.9280119539968,387035,1353,4003.8032591342926,48.26155471801758,-49.28417205810547,6.529707908630371,0.46
386,MetaDrive-test-weighted2-td3,96,261.27496862312216,388519,1356,4017.947142124176,46.78485107421875,-45.7620735168457,17.608478546142578,0.47
387,MetaDrive-test-weighted2-td3,96,262.6972764087365,389673,1358,4030.025766849518,49.16349411010742,-49.131717681884766,11.963626861572266,0.48
388,MetaDrive-test-weighted2-td3,96,263.0468249268697,390294,1359,4036.000034093857,48.667449951171875,,7.255928039550781,0.48
389,MetaDrive-test-weighted2-td3,96,260.98120914240354,391122,1361,4043.7955639362335,47.0186653137207,,12.376169204711914,0.48
390,MetaDrive-test-weighted2-td3,96,257.89243096563615,392030,1364,4052.585062980652,49.1353759765625,,8.206997871398926,0.49
391,MetaDrive-test-weighted2-td3,96,257.38057336350715,393572,1368,4068.0769441127777,51.47377395629883,,7.355228900909424,0.5
392,MetaDrive-test-weighted2-td3,96,255.65574758714294,394022,1369,4071.9249489307404,50.22136688232422,,2.5681278705596924,0.5
393,MetaDrive-test-weighted2-td3,96,253.58225740025856,395257,1372,4084.150068998337,47.01823806762695,-48.20957946777344,12.574344635009766,0.49
394,MetaDrive-test-weighted2-td3,96,253.84272634506328,396130,1374,4093.9362721443176,50.89146423339844,,11.395328521728516,0.49
395,MetaDrive-test-weighted2-td3,96,254.29106598099435,397363,1376,4107.019226074219,50.1903076171875,-50.878456115722656,5.1820526123046875,0.48
396,MetaDrive-test-weighted2-td3,96,255.0745139849535,398840,1378,4121.743460178375,48.448516845703125,,7.5529985427856445,0.49
397,MetaDrive-test-weighted2-td3,96,255.08540492463894,399049,1379,4124.084360837936,46.50384521484375,-47.1685791015625,24.27676010131836,0.49
398,MetaDrive-test-weighted2-td3,96,255.33531886413368,400563,1382,4139.622272968292,46.19340133666992,-47.971527099609375,15.5875244140625,0.51
399,MetaDrive-test-weighted2-td3,96,254.06495960204873,401097,1383,4145.114022016525,51.929542541503906,-51.827735900878906,5.769427299499512,0.51
400,MetaDrive-test-weighted2-td3,96,252.56444998172975,402030,1386,4153.589798212051,49.404754638671875,,7.896529197692871,0.51
401,MetaDrive-test-weighted2-td3,96,254.04984740596055,403659,1389,4169.845799922943,46.701847076416016,-46.753448486328125,8.924654006958008,0.51
402,MetaDrive-test-weighted2-td3,96,255.7376988259897,404312,1391,4175.929605007172,49.385009765625,,10.097848892211914,0.52
403,MetaDrive-test-weighted2-td3,96,256.0864364404276,405208,1393,4184.102523088455,51.63360595703125,,15.413153648376465,0.52
404,MetaDrive-test-weighted2-td3,96,259.492079527639,406270,1395,4194.034702062607,51.071929931640625,,52.98939514160156,0.54
405,MetaDrive-test-weighted2-td3,96,260.23120702203784,407448,1397,4207.321526050568,48.547080993652344,,3.8237504959106445,0.54
406,MetaDrive-test-weighted2-td3,96,260.12317815220484,408008,1399,4212.418940782547,48.88459014892578,,15.606204986572266,0.54
407,MetaDrive-test-weighted2-td3,96,261.36834212014963,409442,1401,4227.942827939987,48.244197845458984,,11.08096694946289,0.55
408,MetaDrive-test-weighted2-td3,96,260.1819055543669,410046,1403,4233.849416017532,49.903465270996094,,6.687014102935791,0.55
409,MetaDrive-test-weighted2-td3,96,263.91469235284615,411169,1405,4245.314473867416,45.109867095947266,-46.215545654296875,8.573732376098633,0.57
410,MetaDrive-test-weighted2-td3,96,262.89104845071483,412072,1407,4253.451756954193,48.817176818847656,,6.900954246520996,0.58
411,MetaDrive-test-weighted2-td3,96,265.77037254053977,413432,1409,4268.461413145065,53.10588073730469,,5.335452079772949,0.6
412,MetaDrive-test-weighted2-td3,96,269.05210998551155,414552,1411,4280.253573179245,49.13212203979492,,7.002077102661133,0.61
413,MetaDrive-test-weighted2-td3,96,269.29150445196547,415171,1412,4286.40211391449,46.98588562011719,-48.185970306396484,6.199728012084961,0.61
414,MetaDrive-test-weighted2-td3,96,268.8345002322403,416304,1415,4298.833937883377,51.132755279541016,,8.720650672912598,0.61
415,MetaDrive-test-weighted2-td3,96,266.1700710838694,417096,1417,4306.985502958298,51.269378662109375,,5.1375532150268555,0.6
416,MetaDrive-test-weighted2-td3,96,264.9388566139151,418222,1420,4317.8536901474,45.10112380981445,,10.432218551635742,0.62
417,MetaDrive-test-weighted2-td3,96,264.96735794097475,419335,1422,4329.131455898285,48.03561019897461,-48.60589599609375,5.010747909545898,0.62
418,MetaDrive-test-weighted2-td3,96,263.4779955660078,420283,1425,4338.555652141571,51.72896194458008,-51.358829498291016,15.389965057373047,0.62
419,MetaDrive-test-weighted2-td3,96,264.36581182384737,421284,1426,4349.094539880753,49.52979278564453,,6.342205047607422,0.62
420,MetaDrive-test-weighted2-td3,96,262.76787762661087,422357,1428,4360.153352975845,46.05503463745117,-46.14132308959961,44.72484588623047,0.62
421,MetaDrive-test-weighted2-td3,96,264.97750197710985,423387,1430,4370.026926994324,49.45188522338867,-50.275333404541016,8.085366249084473,0.63
422,MetaDrive-test-weighted2-td3,96,264.98811025441614,424978,1432,4386.769956111908,49.910118103027344,,6.134570121765137,0.63
423,MetaDrive-test-weighted2-td3,96,266.2247539239434,425576,1433,4392.910382986069,48.134098052978516,,16.0916748046875,0.63
424,MetaDrive-test-weighted2-td3,96,264.7256275190647,426048,1435,4397.475014209747,49.70854568481445,,18.13827133178711,0.62
425,MetaDrive-test-weighted2-td3,96,260.78128141766626,427435,1439,4411.6898448467255,45.25827407836914,-45.51209259033203,7.054950714111328,0.61
426,MetaDrive-test-weighted2-td3,96,254.63727277897422,428243,1442,4420.01163315773,45.93722152709961,-45.80081558227539,24.339176177978516,0.59
427,MetaDrive-test-weighted2-td3,96,255.42828427533158,429120,1444,4428.819974184036,49.494895935058594,,17.369037628173828,0.59
428,MetaDrive-test-weighted2-td3,96,254.27907987899272,430207,1447,4439.048876047134,48.266700744628906,-47.976837158203125,5.712124347686768,0.58
429,MetaDrive-test-weighted2-td3,96,254.36722281961858,431116,1448,4447.946043014526,50.98300552368164,,7.514913558959961,0.58
430,MetaDrive-test-weighted2-td3,96,255.9526110474587,432270,1451,4459.64900803566,46.47093200683594,,4.542387962341309,0.59
431,MetaDrive-test-weighted2-td3,96,257.17801882294845,433165,1453,4467.729583024979,49.64679718017578,-49.85319519042969,9.015788078308105,0.61
432,MetaDrive-test-weighted2-td3,96,258.191319337453,434516,1455,4483.192826032639,48.983707427978516,,8.645865440368652,0.62
433,MetaDrive-test-weighted2-td3,96,258.44047138382325,435061,1456,4488.389719009399,50.01892852783203,-49.922462463378906,8.309548377990723,0.62
434,MetaDrive-test-weighted2-td3,96,253.2382351696598,436009,1459,4497.051550865173,49.06791305541992,-50.05803680419922,11.102117538452148,0.6
435,MetaDrive-test-weighted2-td3,96,254.84420927589997,437425,1462,4510.068032026291,47.22357940673828,-47.6821403503418,6.719000816345215,0.61
436,MetaDrive-test-weighted2-td3,96,257.13133980606614,438161,1463,4518.0446009635925,49.797447204589844,-50.72136306762695,5.926571846008301,0.62
437,MetaDrive-test-weighted2-td3,97,259.286618963783,439198,1465,4527.314088821411,48.240028381347656,,9.02321720123291,0.63
438,MetaDrive-test-weighted2-td3,97,259.9463530717601,440002,1467,4535.629745960236,47.94575119018555,,14.563690185546875,0.63
439,MetaDrive-test-weighted2-td3,97,258.2714289559498,441221,1470,4548.204353094101,49.34471130371094,-48.99428176879883,18.098705291748047,0.62
440,MetaDrive-test-weighted2-td3,97,256.1603365493497,442171,1473,4557.9739818573,51.34060287475586,-52.181419372558594,8.624942779541016,0.61
441,MetaDrive-test-weighted2-td3,97,257.0222558552243,443064,1475,4567.282170057297,46.94532775878906,,6.633008003234863,0.62
442,MetaDrive-test-weighted2-td3,97,255.1459740032576,444182,1477,4578.377552032471,47.28794479370117,,7.0200419425964355,0.61
443,MetaDrive-test-weighted2-td3,97,255.26333235809005,445382,1479,4590.883913993835,45.582557678222656,,16.088850021362305,0.6
444,MetaDrive-test-weighted2-td3,96,255.8937710898801,446691,1481,4606.797700166702,50.257171630859375,-51.06273651123047,7.149444580078125,0.58
445,MetaDrive-test-weighted2-td3,96,253.3866064839311,447402,1483,4615.545831918716,52.86504364013672,,139.38973999023438,0.57
446,MetaDrive-test-weighted2-td3,96,255.12760507078517,448736,1485,4631.295222043991,51.96323013305664,,9.877695083618164,0.56
447,MetaDrive-test-weighted2-td3,96,257.1627835040899,449323,1486,4636.92111992836,50.08263397216797,-50.07918930053711,11.380069732666016,0.57
448,MetaDrive-test-weighted2-td3,96,257.8847403569109,450351,1488,4646.569720029831,49.476165771484375,-50.30517578125,8.591561317443848,0.58
449,MetaDrive-test-weighted2-td3,96,260.7610167786096,451746,1490,4661.698234081268,46.93135070800781,,4.1579365730285645,0.59
450,MetaDrive-test-weighted2-td3,96,262.4789653026399,452744,1491,4674.942729949951,46.328304290771484,,7.424702167510986,0.59
451,MetaDrive-test-weighted2-td3,96,263.6323222499423,453395,1492,4682.276844024658,50.98036575317383,-50.88428497314453,5.060713291168213,0.59
452,MetaDrive-test-weighted2-td3,96,265.60401138371634,454365,1493,4692.514996051788,48.3765869140625,-49.66425704956055,122.12057495117188,0.59
453,MetaDrive-test-weighted2-td3,96,267.55257376976573,455305,1494,4703.698891878128,45.523563385009766,-46.72285079956055,15.106926918029785,0.59
454,MetaDrive-test-weighted2-td3,96,270.93455588746906,456972,1496,4721.468075990677,46.95444107055664,,92.80291748046875,0.6
455,MetaDrive-test-weighted2-td3,96,269.28035847292097,457491,1497,4726.107429027557,50.849761962890625,-50.42898178100586,10.319045066833496,0.6
456,MetaDrive-test-weighted2-td3,96,268.73290732769567,458113,1499,4731.589972019196,47.552162170410156,-47.27076721191406,7.783866882324219,0.6
457,MetaDrive-test-weighted2-td3,96,266.06650345369377,459103,1502,4742.88573217392,45.760780334472656,-45.67548370361328,12.296257019042969,0.59
458,MetaDrive-test-weighted2-td3,96,267.07814666121254,460328,1504,4754.57186794281,42.308658599853516,,18.42483139038086,0.6
459,MetaDrive-test-weighted2-td3,96,267.2795278571574,461341,1506,4764.096076965332,48.60428237915039,-49.28843688964844,13.52735710144043,0.59
460,MetaDrive-test-weighted2-td3,96,264.74731776245994,462528,1509,4775.360988855362,48.04437255859375,,8.29936695098877,0.58
461,MetaDrive-test-weighted2-td3,96,262.95887089360986,463138,1511,4780.850968122482,50.276832580566406,,5.072756767272949,0.58
462,MetaDrive-test-weighted2-td3,96,262.39604926515295,464458,1513,4794.618545055389,46.41212463378906,,19.238567352294922,0.57
463,MetaDrive-test-weighted2-td3,96,263.9699245857149,465143,1514,4802.006939172745,50.146663665771484,-49.7775764465332,6.313236236572266,0.57
464,MetaDrive-test-weighted2-td3,96,262.93952415425014,466173,1517,4812.124082803726,44.94140625,-46.09083557128906,40.325653076171875,0.57
465,MetaDrive-test-weighted2-td3,96,263.39034228045864,467116,1519,4821.534518003464,48.99822998046875,,12.68056583404541,0.56
466,MetaDrive-test-weighted2-td3,96,264.09789018732994,468148,1521,4832.31334900856,48.42284393310547,,5.154722213745117,0.56
467,MetaDrive-test-weighted2-td3,96,264.568506125059,469434,1523,4845.789932012558,43.512691497802734,,20.93624496459961,0.56
468,MetaDrive-test-weighted2-td3,96,264.3157505370537,470336,1525,4855.834944963455,48.287010192871094,,22.058116912841797,0.56
469,MetaDrive-test-weighted2-td3,96,265.21946076496164,471052,1527,4862.488892793655,48.62934112548828,,9.786996841430664,0.56
470,MetaDrive-test-weighted2-td3,96,260.88232999780337,472068,1530,4872.388538122177,50.22544479370117,,4.498497486114502,0.54
471,MetaDrive-test-weighted2-td3,96,260.1982095124646,473069,1531,4883.7865562438965,45.22661590576172,-45.14211654663086,6.411023139953613,0.53
472,MetaDrive-test-weighted2-td3,96,262.49729754413715,474284,1533,4895.3697719573975,51.22037124633789,,11.911275863647461,0.54
473,MetaDrive-test-weighted2-td3,96,264.8616633593049,475032,1534,4903.7105667591095,52.055564880371094,,5.357132911682129,0.55
474,MetaDrive-test-weighted2-td3,96,266.69485698008225,476350,1537,4917.53208398819,46.73459243774414,,6.016676425933838,0.55
475,MetaDrive-test-weighted2-td3,96,269.7672533711382,477090,1538,4925.463156938553,49.59770965576172,,132.23046875,0.56
476,MetaDrive-test-weighted2-td3,96,271.797721970672,478218,1540,4938.497083187103,51.30066680908203,,9.003753662109375,0.57
477,MetaDrive-test-weighted2-td3,96,274.67276037884295,479037,1541,4949.4228529930115,46.31208038330078,-46.65319061279297,6.376558303833008,0.57
478,MetaDrive-test-weighted2-td3,96,277.3181596051524,480081,1543,4958.913269042969,48.44797897338867,-48.026214599609375,9.962970733642578,0.58
479,MetaDrive-test-weighted2-td3,96,275.54676358517213,481471,1546,4971.927583932877,46.54176712036133,-47.673492431640625,7.795109748840332,0.57
480,MetaDrive-test-weighted2-td3,96,279.21343735197473,482424,1547,4983.304425954819,47.28043746948242,,9.581223487854004,0.58
481,MetaDrive-test-weighted2-td3,96,277.9692256138983,483794,1549,5000.556412935257,47.86888885498047,,4.977914810180664,0.56
482,MetaDrive-test-weighted2-td3,96,278.0192895467693,484082,1550,5004.115675210953,46.594566345214844,,11.822996139526367,0.56
483,MetaDrive-test-weighted2-td3,96,276.3739467770007,485235,1553,5015.864823102951,50.090736389160156,-49.71217727661133,23.23857879638672,0.54
484,MetaDrive-test-weighted2-td3,96,277.51719151309464,486666,1555,5030.253504991531,48.50951385498047,,5.203306198120117,0.54
485,MetaDrive-test-weighted2-td3,96,278.2959515304649,487589,1556,5041.069915056229,48.827606201171875,-48.82597351074219,11.776888847351074,0.54
486,MetaDrive-test-weighted2-td3,96,279.8042164808012,488064,1557,5045.900640010834,47.550079345703125,,8.583894729614258,0.54
487,MetaDrive-test-weighted2-td3,96,278.73245801672914,489001,1560,5055.627943992615,53.12257385253906,-53.11043167114258,11.08064079284668,0.53
488,MetaDrive-test-weighted2-td3,96,281.6972292368987,490759,1563,5074.407347917557,51.39590835571289,-51.85417938232422,6.238584518432617,0.54
489,MetaDrive-test-weighted2-td3,96,283.8184355207668,491760,1564,5086.823287010193,51.396541595458984,,8.839744567871094,0.53
490,MetaDrive-test-weighted2-td3,96,282.2155317642163,492224,1565,5091.4126329422,45.93108367919922,,7.263843536376953,0.53
491,MetaDrive-test-weighted2-td3,96,284.68214758044746,493427,1567,5102.866163015366,48.60417556762695,-49.047176361083984,13.632278442382812,0.54
492,MetaDrive-test-weighted2-td3,96,285.16860797157165,494327,1569,5112.76181602478,48.8731689453125,-48.74911880493164,5.646554946899414,0.54
493,MetaDrive-test-weighted2-td3,96,286.08731669380893,495328,1570,5122.123153924942,47.813385009765625,,7.213533401489258,0.54
494,MetaDrive-test-weighted2-td3,96,289.45468466955725,496098,1571,5130.876037120819,48.87678527832031,,8.510330200195312,0.55
495,MetaDrive-test-weighted2-td3,96,292.24572232089395,497300,1573,5143.221308231354,47.72213363647461,,7.834933757781982,0.56
496,MetaDrive-test-weighted2-td3,96,292.4907319885469,498118,1574,5151.513854026794,45.262939453125,,11.621427536010742,0.56
497,MetaDrive-test-weighted2-td3,96,295.30016749204754,499358,1576,5162.553148031235,45.419395446777344,,9.219512939453125,0.58
