TanmayH/CS269-RL-project-code/MetaDrive-td3combine-expt2/MetaDrive-Gen-v0/td3/progress.csv
,log_dir,frame_per_second,episode_reward,total_steps,total_episodes,total_time,target_q,actor_loss,critic_loss,success_rate
0,MetaDrive-td3combine-expt2,289,5.0803175501635405,2001,2,6.914505958557129,,,,0.0
1,MetaDrive-td3combine-expt2,246,5.475638822957589,3002,3,12.196038961410522,,,,0.0
2,MetaDrive-td3combine-expt2,238,5.439810939360337,4003,4,16.792866706848145,,,,0.0
3,MetaDrive-td3combine-expt2,214,5.181702472729522,5004,5,23.367450714111328,,,,0.0
4,MetaDrive-td3combine-expt2,215,5.069657170740483,6005,6,27.893683433532715,,,,0.0
5,MetaDrive-td3combine-expt2,209,3.890884964063117,7678,8,36.72154688835144,,,,0.0
6,MetaDrive-td3combine-expt2,208,3.9292812431060207,8679,9,41.59007930755615,,,,0.0
7,MetaDrive-td3combine-expt2,207,4.29903902886877,9680,10,46.58258628845215,,,,0.0
8,MetaDrive-td3combine-expt2,179,3.9408717492339207,10681,11,59.42193865776062,0.050524380058050156,-0.048210036009550095,0.00012936153507325798,0.0
9,MetaDrive-td3combine-expt2,159,3.8740261499549553,11325,12,71.0573308467865,0.052340976893901825,-0.05515461042523384,0.00012715320917777717,0.0
10,MetaDrive-td3combine-expt2,141,1.2073868772759906,12115,19,85.58531785011292,0.058548424392938614,-0.04862804710865021,0.0007719799177721143,0.0
11,MetaDrive-td3combine-expt2,127,1.2920141639437186,13116,20,102.65592765808105,0.06290753185749054,,0.0006684028776362538,0.0
12,MetaDrive-td3combine-expt2,116,0.15090807769736436,14163,24,121.90878057479858,0.06246142461895943,-0.05435016751289368,0.00025297945830971,0.0
13,MetaDrive-td3combine-expt2,106,0.05969192558446069,15441,26,145.36111497879028,0.03930100053548813,-0.02812713384628296,0.00014131635543890297,0.0
14,MetaDrive-td3combine-expt2,99,-0.03306584912627309,16442,27,166.06704020500183,0.04611685872077942,,0.0011300432961434126,0.0
15,MetaDrive-td3combine-expt2,94,0.0837210327088729,17443,28,184.161212682724,0.047624796628952026,-0.04545421898365021,0.000915649114176631,0.0
16,MetaDrive-td3combine-expt2,90,-0.027889432521496005,18454,31,203.69821763038635,0.04606349766254425,,9.423396841157228e-05,0.0
17,MetaDrive-td3combine-expt2,87,0.710136206911797,19003,38,216.83181595802307,-0.02431047149002552,-0.05286993831396103,0.7875189781188965,0.0
18,MetaDrive-td3combine-expt2,82,0.5769517972366334,20021,72,243.84924411773682,0.004490158520638943,-0.10282580554485321,0.8146852254867554,0.0
19,MetaDrive-td3combine-expt2,77,1.1536925965399825,21040,104,271.09995222091675,0.1355285346508026,,0.014506785199046135,0.0
20,MetaDrive-td3combine-expt2,73,1.210935683818292,22017,139,298.53415393829346,0.1203044205904007,-0.1951931118965149,0.8624637126922607,0.0
21,MetaDrive-td3combine-expt2,70,3.2706566553759746,23043,165,326.4038391113281,0.24181076884269714,-0.2890060544013977,0.0007395200664177537,0.0
22,MetaDrive-td3combine-expt2,68,4.519195074071638,24039,191,351.4017674922943,0.3175298571586609,-0.4128482937812805,0.9022034406661987,0.0
23,MetaDrive-td3combine-expt2,66,6.373896890461385,25005,217,377.15012669563293,0.6446356177330017,-0.6618250012397766,0.04941265285015106,0.0
24,MetaDrive-td3combine-expt2,64,10.132863361279966,26008,238,403.19235396385193,0.8845749497413635,,0.07389716804027557,0.0
25,MetaDrive-td3combine-expt2,63,11.540132607555481,27061,261,427.9800543785095,1.2119070291519165,-1.3860375881195068,1.3400537967681885,0.0
26,MetaDrive-td3combine-expt2,61,13.112364331751149,28037,283,455.84244751930237,1.4178651571273804,-1.5985088348388672,1.4353299140930176,0.0
27,MetaDrive-td3combine-expt2,60,15.448435754114211,29057,304,481.7102952003479,1.8454208374023438,-2.040309190750122,1.6868529319763184,0.0
28,MetaDrive-td3combine-expt2,59,16.66600298937655,30002,323,506.02554297447205,2.2539992332458496,,1.534277081489563,0.0
29,MetaDrive-td3combine-expt2,58,15.05366513224536,31032,348,531.2596595287323,2.572714328765869,,1.6963376998901367,0.0
30,MetaDrive-td3combine-expt2,57,15.811247335776955,32041,367,556.6034736633301,3.0786592960357666,-3.246277332305908,0.09470710158348083,0.0
31,MetaDrive-td3combine-expt2,56,16.7304309609225,33023,386,580.5616743564606,3.4636952877044678,-3.433933973312378,0.16259106993675232,0.0
32,MetaDrive-td3combine-expt2,56,18.13855836467681,34061,405,607.8555026054382,4.168560981750488,-4.265227317810059,0.22062936425209045,0.0
33,MetaDrive-td3combine-expt2,55,20.338084982565615,35070,421,631.4083561897278,4.584028244018555,,0.3926120400428772,0.0
34,MetaDrive-td3combine-expt2,55,26.08261650640457,36029,432,654.8075566291809,5.118991374969482,-5.192312717437744,4.44227409362793,0.0
35,MetaDrive-td3combine-expt2,54,32.83502779916015,37022,443,677.7115595340729,5.591675758361816,,0.23464156687259674,0.0
36,MetaDrive-td3combine-expt2,54,37.698299612553505,38029,454,702.257556438446,6.231042861938477,-6.66404914855957,5.213034629821777,0.0
37,MetaDrive-td3combine-expt2,53,43.01823478224299,39035,464,726.9831173419952,7.016956329345703,-7.498844146728516,0.3126128911972046,0.0
38,MetaDrive-td3combine-expt2,53,49.023506573958024,40069,475,752.8571333885193,7.894168376922607,-8.515621185302734,7.022194862365723,0.0
39,MetaDrive-td3combine-expt2,52,53.79958539777648,41006,485,774.3861694335938,8.488934516906738,,7.095111846923828,0.0
40,MetaDrive-td3combine-expt2,52,58.98305520465132,42057,496,800.1473381519318,9.8290433883667,-10.308664321899414,0.47609996795654297,0.0
41,MetaDrive-td3combine-expt2,52,65.23029217777278,43111,505,824.0917568206787,10.569071769714355,-10.33539867401123,1.1028375625610352,0.0
42,MetaDrive-td3combine-expt2,52,68.12721980775159,44067,516,845.4480979442596,11.412504196166992,-11.192729949951172,0.8562418818473816,0.0
43,MetaDrive-td3combine-expt2,51,72.08191522078228,45058,525,867.7641620635986,11.691561698913574,,0.8031905889511108,0.0
44,MetaDrive-td3combine-expt2,51,72.39227850700746,46061,535,894.1791405677795,13.190328598022461,-13.444944381713867,0.6348792314529419,0.0
45,MetaDrive-td3combine-expt2,51,73.54005178005919,47011,544,915.0233194828033,13.449821472167969,-13.096633911132812,1.9877374172210693,0.0
46,MetaDrive-td3combine-expt2,51,75.76436524321078,48065,554,938.9762179851532,13.389575958251953,-14.113198280334473,26.002714157104492,0.0
47,MetaDrive-td3combine-expt2,50,78.66032918534647,49085,562,965.2256534099579,14.93373966217041,-15.052999496459961,6.051801681518555,0.0
48,MetaDrive-td3combine-expt2,50,80.52241429372762,50107,571,988.2576951980591,16.214824676513672,-16.860591888427734,1.8694806098937988,0.0
49,MetaDrive-td3combine-expt2,50,81.50837028006096,51057,579,1010.076418876648,15.381386756896973,-15.737716674804688,14.610547065734863,0.0
50,MetaDrive-td3combine-expt2,50,85.31990266892534,52191,588,1039.0244500637054,18.084842681884766,-18.451934814453125,1.5661414861679077,0.0
51,MetaDrive-td3combine-expt2,50,86.45872960817198,53083,596,1059.4619162082672,16.894689559936523,-17.653282165527344,31.920928955078125,0.01
52,MetaDrive-td3combine-expt2,49,86.92218697860231,54071,604,1084.7240960597992,16.793689727783203,-16.995771408081055,34.86698532104492,0.01
53,MetaDrive-td3combine-expt2,49,89.1367888950913,55106,612,1109.9830431938171,18.935335159301758,,1.5623273849487305,0.01
54,MetaDrive-td3combine-expt2,49,90.61681792465751,56006,619,1130.167737007141,18.326032638549805,,1.140911340713501,0.01
55,MetaDrive-td3combine-expt2,49,90.51155968710225,57050,628,1155.7402882575989,19.73827362060547,,18.592744827270508,0.01
56,MetaDrive-td3combine-expt2,49,93.9937661887682,58068,636,1183.942029953003,19.888561248779297,,2.107480049133301,0.01
57,MetaDrive-td3combine-expt2,48,96.4989157324134,59103,643,1210.778418302536,19.19579315185547,-19.81773567199707,13.767143249511719,0.01
58,MetaDrive-td3combine-expt2,48,96.1546492938895,60082,652,1233.0855340957642,19.56695556640625,,3.568918228149414,0.01
59,MetaDrive-td3combine-expt2,48,92.03371655763593,61064,662,1255.9423146247864,22.009401321411133,,1.701927900314331,0.01
60,MetaDrive-td3combine-expt2,48,92.60496269830706,62022,670,1278.709284543991,21.30528450012207,,4.814903259277344,0.01
61,MetaDrive-td3combine-expt2,48,93.38948043365455,63053,678,1301.3466494083405,21.591472625732422,-21.427074432373047,21.737518310546875,0.01
62,MetaDrive-td3combine-expt2,48,94.14179768135074,64072,686,1328.231195449829,23.914386749267578,,11.27574348449707,0.02
63,MetaDrive-td3combine-expt2,48,91.95174440692719,65024,695,1349.811653137207,23.998891830444336,,1.7453365325927734,0.01
64,MetaDrive-td3combine-expt2,48,92.47617299693734,66052,703,1374.0419838428497,21.229610443115234,,3.7135729789733887,0.01
65,MetaDrive-td3combine-expt2,48,91.45809296146834,67071,712,1397.2442350387573,23.925079345703125,-24.251131057739258,23.55807113647461,0.01
66,MetaDrive-td3combine-expt2,47,94.7264206997828,68174,719,1422.7519190311432,23.502832412719727,,2.9646925926208496,0.01
67,MetaDrive-td3combine-expt2,47,93.97943775228612,69012,727,1443.357885837555,26.226730346679688,,1.9391515254974365,0.01
68,MetaDrive-td3combine-expt2,47,93.63289268676562,70002,735,1470.9913613796234,24.394149780273438,,19.318784713745117,0.01
69,MetaDrive-td3combine-expt2,47,94.17798315802882,71058,742,1497.2316055297852,25.179929733276367,,10.107442855834961,0.01
70,MetaDrive-td3combine-expt2,47,92.92988616640778,72067,752,1520.0445847511292,25.617006301879883,-26.293142318725586,13.957561492919922,0.01
71,MetaDrive-td3combine-expt2,47,96.63694983808668,73097,759,1544.8397555351257,26.88336944580078,-27.001327514648438,25.93315887451172,0.01
72,MetaDrive-td3combine-expt2,47,99.14617666838456,74079,766,1568.7828252315521,28.664636611938477,-28.555442810058594,3.4283084869384766,0.02
73,MetaDrive-td3combine-expt2,47,101.27312957194786,75208,773,1598.48206615448,27.688796997070312,,47.01528549194336,0.02
74,MetaDrive-td3combine-expt2,46,101.82291466029363,76085,780,1619.0793886184692,29.38129425048828,-29.742176055908203,2.210855484008789,0.02
75,MetaDrive-td3combine-expt2,46,101.07819518722621,77024,787,1642.825689315796,28.70566177368164,,19.836917877197266,0.01
76,MetaDrive-td3combine-expt2,46,103.8694844111955,78218,794,1674.974612236023,30.37378692626953,,4.681612014770508,0.01
77,MetaDrive-td3combine-expt2,46,105.44765885842578,79131,800,1699.5404348373413,29.453147888183594,-29.542631149291992,3.694546937942505,0.02
78,MetaDrive-td3combine-expt2,46,104.79159877808945,80016,807,1722.0505447387695,26.992610931396484,,5.912557601928711,0.02
79,MetaDrive-td3combine-expt2,46,108.53202640204545,81015,812,1751.2343990802765,30.81007957458496,-32.368499755859375,37.068931579589844,0.03
80,MetaDrive-td3combine-expt2,46,108.3727964957384,82039,818,1775.603438615799,27.547775268554688,-28.71537971496582,13.599843978881836,0.04
81,MetaDrive-td3combine-expt2,46,109.24929407177301,83076,826,1801.774596452713,33.42959976196289,,2.879927396774292,0.04
82,MetaDrive-td3combine-expt2,46,107.53808663481652,84088,834,1826.7281222343445,31.426551818847656,,7.66269063949585,0.04
83,MetaDrive-td3combine-expt2,45,107.37343755238237,85080,839,1852.746574640274,31.860429763793945,,2.5442192554473877,0.04
84,MetaDrive-td3combine-expt2,45,111.88302389483826,86094,845,1878.92711520195,33.14665985107422,,6.695693016052246,0.04
85,MetaDrive-td3combine-expt2,45,113.0513452015765,87021,852,1903.673408985138,33.15174102783203,-33.34746170043945,6.331782341003418,0.04
86,MetaDrive-td3combine-expt2,45,106.52724101472391,88066,861,1930.002685546875,34.65727996826172,,9.276275634765625,0.03
87,MetaDrive-td3combine-expt2,45,106.19300125902069,89143,869,1957.6515367031097,31.956226348876953,-32.35887908935547,59.44394302368164,0.03
88,MetaDrive-td3combine-expt2,45,105.98758620344013,90188,874,1984.5878884792328,35.171630859375,,6.05126953125,0.03
89,MetaDrive-td3combine-expt2,45,106.34865202513218,91209,881,2010.9805660247803,36.3475456237793,-36.48976135253906,7.987685203552246,0.03
90,MetaDrive-td3combine-expt2,45,109.12230838493346,92134,886,2034.5295994281769,36.42076873779297,,7.823487758636475,0.05
91,MetaDrive-td3combine-expt2,45,105.88026364942888,93112,894,2060.0686061382294,34.06665802001953,,6.47134256362915,0.05
92,MetaDrive-td3combine-expt2,45,103.44856270073004,94102,903,2084.6609580516815,36.491214752197266,,12.891517639160156,0.04
93,MetaDrive-td3combine-expt2,45,100.26066972666045,95132,911,2112.1692304611206,31.731090545654297,,3.887211322784424,0.03
94,MetaDrive-td3combine-expt2,44,98.21634231062606,96051,918,2135.98601603508,32.1317138671875,-31.88760757446289,13.067731857299805,0.02
95,MetaDrive-td3combine-expt2,44,98.21942897946266,97032,925,2160.9780747890472,33.762054443359375,,42.364662170410156,0.02
96,MetaDrive-td3combine-expt2,44,94.22401307707555,98024,935,2190.4139223098755,35.16916275024414,,13.865419387817383,0.02
97,MetaDrive-td3combine-expt2,44,93.66586762666847,99159,943,2221.237898826599,34.13145446777344,-34.416141510009766,20.697521209716797,0.02
98,MetaDrive-td3combine-expt2,44,93.39685354767269,100066,949,2245.89759016037,33.582393646240234,,13.699531555175781,0.02
99,MetaDrive-td3combine-expt2,44,94.120679502753,101103,958,2272.9306349754333,33.77426528930664,-34.60869598388672,7.5087738037109375,0.02
100,MetaDrive-td3combine-expt2,44,97.84102743296069,102179,964,2304.6421122550964,34.4206657409668,-34.43849182128906,6.038576126098633,0.03
101,MetaDrive-td3combine-expt2,44,100.5765627878429,103257,968,2341.597786426544,33.337100982666016,-33.51339340209961,75.19473266601562,0.03
102,MetaDrive-td3combine-expt2,44,96.75299193039902,104097,975,2363.695025205612,34.128719329833984,-35.69439697265625,13.979310989379883,0.03
103,MetaDrive-td3combine-expt2,43,98.10568034189829,105144,981,2394.1463947296143,34.25200653076172,,7.65955924987793,0.03
104,MetaDrive-td3combine-expt2,43,94.22425931194908,106126,990,2421.153989315033,33.448028564453125,,7.843188762664795,0.01
105,MetaDrive-td3combine-expt2,43,95.5467358777218,107021,995,2448.447481393814,36.744667053222656,-36.60832595825195,6.012535572052002,0.01
106,MetaDrive-td3combine-expt2,43,97.04985119937137,108135,1003,2482.82030916214,36.81442642211914,-37.50526428222656,9.91427993774414,0.01
107,MetaDrive-td3combine-expt2,43,97.73594573559532,109151,1010,2511.3773860931396,34.93136215209961,-35.57261276245117,54.56913757324219,0.01
108,MetaDrive-td3combine-expt2,43,94.24166299457738,110047,1018,2537.073806285858,39.062164306640625,-38.85776138305664,4.101443290710449,0.01
109,MetaDrive-td3combine-expt2,43,95.47369454375264,111117,1025,2566.0577986240387,35.533180236816406,-36.364437103271484,4.313867568969727,0.01
110,MetaDrive-td3combine-expt2,43,99.36483408191239,112086,1031,2591.3161499500275,32.224918365478516,,14.33830451965332,0.01
111,MetaDrive-td3combine-expt2,43,104.28012783833154,113297,1037,2629.097123146057,37.54498291015625,-37.281410217285156,4.715825080871582,0.02
112,MetaDrive-td3combine-expt2,43,102.82085508739584,114159,1043,2654.021736383438,36.82720947265625,-37.98873519897461,10.298465728759766,0.02
113,MetaDrive-td3combine-expt2,42,102.80459770664348,115106,1050,2680.9835522174835,34.19286346435547,,4.395928382873535,0.03
114,MetaDrive-td3combine-expt2,42,105.24056577192523,116480,1057,2721.7044155597687,34.23933410644531,,9.676712036132812,0.04
115,MetaDrive-td3combine-expt2,42,105.92355614780257,117043,1060,2736.9036614894867,36.70917892456055,-37.857261657714844,67.23649597167969,0.04
116,MetaDrive-td3combine-expt2,42,104.37897554829676,118001,1066,2764.2692704200745,37.4296989440918,-38.345237731933594,4.542799949645996,0.03
117,MetaDrive-td3combine-expt2,42,104.16753606304421,119009,1073,2792.9537892341614,38.93130111694336,-38.61042022705078,3.788788080215454,0.03
118,MetaDrive-td3combine-expt2,42,106.54010449344943,120127,1079,2827.373430252075,38.52302169799805,-38.68840408325195,12.087028503417969,0.04
119,MetaDrive-td3combine-expt2,42,110.65220985941909,121327,1085,2861.8187708854675,36.098365783691406,-36.21775817871094,10.853673934936523,0.06
120,MetaDrive-td3combine-expt2,42,110.3570932200488,122068,1091,2881.592631816864,34.60062789916992,,9.135360717773438,0.06
121,MetaDrive-td3combine-expt2,42,112.30474693736873,123190,1097,2917.8854308128357,31.177791595458984,,161.7056884765625,0.06
122,MetaDrive-td3combine-expt2,42,113.58698008721878,124052,1102,2942.423746109009,33.30796813964844,,21.603097915649414,0.06
123,MetaDrive-td3combine-expt2,42,115.10517851996755,125064,1109,2969.543245792389,37.85895538330078,,8.26618480682373,0.06
124,MetaDrive-td3combine-expt2,42,116.89121914040152,126169,1116,3002.1169571876526,35.86484909057617,-36.81264114379883,10.010954856872559,0.06
125,MetaDrive-td3combine-expt2,41,117.43985473335668,127067,1122,3027.6489338874817,35.57046890258789,-35.90526580810547,40.51690673828125,0.06
126,MetaDrive-td3combine-expt2,41,116.915154448651,128025,1128,3057.8030076026917,35.31907653808594,-35.680301666259766,25.749467849731445,0.06
127,MetaDrive-td3combine-expt2,41,118.42684129976872,129048,1132,3087.7898502349854,41.015953063964844,,17.69886016845703,0.06
128,MetaDrive-td3combine-expt2,41,118.93203660769694,130086,1137,3118.0908052921295,36.57855224609375,,6.241000175476074,0.06
129,MetaDrive-td3combine-expt2,41,123.79022226235274,131324,1141,3157.034456014633,37.940330505371094,,20.553939819335938,0.07
130,MetaDrive-td3combine-expt2,41,125.35303090635358,132059,1145,3179.0603330135345,33.47509002685547,-33.764801025390625,14.944415092468262,0.07
131,MetaDrive-td3combine-expt2,41,125.79772449657793,133042,1150,3210.057247877121,36.222633361816406,,31.953563690185547,0.06
132,MetaDrive-td3combine-expt2,41,130.46974955937685,134111,1154,3241.4943976402283,33.684452056884766,-34.24766159057617,5.61849308013916,0.07
133,MetaDrive-td3combine-expt2,41,127.5812046964766,135017,1160,3266.8462765216827,35.8368034362793,-35.770843505859375,5.074779987335205,0.06
134,MetaDrive-td3combine-expt2,41,128.33749594694441,136079,1165,3299.628687620163,35.853790283203125,-36.74152755737305,10.934558868408203,0.06
135,MetaDrive-td3combine-expt2,41,130.21029728354512,137082,1170,3327.657733440399,33.815670013427734,,13.051586151123047,0.07
136,MetaDrive-td3combine-expt2,41,132.37932641660873,138038,1174,3357.5364801883698,35.5567741394043,,4.001705169677734,0.08
137,MetaDrive-td3combine-expt2,41,134.77066095795405,139116,1178,3390.8953585624695,36.541446685791016,,15.775789260864258,0.09
138,MetaDrive-td3combine-expt2,40,133.9404964447995,140176,1183,3420.0936150550842,36.002044677734375,,34.31944274902344,0.07
139,MetaDrive-td3combine-expt2,40,135.4884756074139,141056,1187,3445.187488555908,36.385623931884766,,12.021018981933594,0.07
140,MetaDrive-td3combine-expt2,40,136.86706766522727,142312,1194,3481.3933680057526,34.59142303466797,,56.03276443481445,0.08
141,MetaDrive-td3combine-expt2,40,138.17274183492944,143286,1198,3511.400298833847,34.984432220458984,,5.093996047973633,0.09
142,MetaDrive-td3combine-expt2,40,137.30539078777593,144184,1203,3539.7662456035614,36.48032760620117,,9.676203727722168,0.09
143,MetaDrive-td3combine-expt2,40,138.4204719077553,145099,1207,3566.1925332546234,38.748844146728516,-38.85907745361328,6.9565582275390625,0.09
144,MetaDrive-td3combine-expt2,40,140.11511755548452,146040,1211,3593.3748364448547,36.03193664550781,,12.648591041564941,0.1
145,MetaDrive-td3combine-expt2,40,141.94614808895122,147169,1216,3630.451156139374,40.36750411987305,-40.778411865234375,7.992187023162842,0.11
146,MetaDrive-td3combine-expt2,40,144.04828936490387,148010,1219,3656.2980406284332,37.50261306762695,,10.726511001586914,0.11
147,MetaDrive-td3combine-expt2,40,146.53392142807618,149173,1224,3691.1758937835693,37.24341583251953,-37.46188735961914,6.991686820983887,0.11
148,MetaDrive-td3combine-expt2,40,149.76566989552342,150388,1228,3730.1834371089935,40.72626876831055,,8.801839828491211,0.12
149,MetaDrive-td3combine-expt2,40,147.0634062972728,151006,1232,3751.2144775390625,34.82545471191406,,11.214219093322754,0.11
150,MetaDrive-td3combine-expt2,40,145.8471736872928,152296,1238,3791.876173734665,37.15922546386719,,66.99031066894531,0.12
151,MetaDrive-td3combine-expt2,40,142.57257661675746,153001,1242,3810.9788060188293,35.870182037353516,-36.76338577270508,5.003531455993652,0.12
152,MetaDrive-td3combine-expt2,40,140.72816240424788,154145,1250,3845.815547466278,37.873661041259766,-37.35289764404297,12.501537322998047,0.12
153,MetaDrive-td3combine-expt2,40,139.34958153038792,155044,1254,3873.0379824638367,41.317970275878906,,4.27383279800415,0.12
154,MetaDrive-td3combine-expt2,39,140.9987827309225,156022,1259,3904.2869181632996,37.115909576416016,,39.870765686035156,0.12
155,MetaDrive-td3combine-expt2,39,144.78859964872413,157113,1264,3937.6165568828583,38.70777893066406,-38.98223876953125,9.11242389678955,0.13
156,MetaDrive-td3combine-expt2,39,143.8042789900589,158084,1270,3967.447297811508,39.764930725097656,,4.156082630157471,0.12
157,MetaDrive-td3combine-expt2,39,140.7198104767629,159001,1276,3994.1803226470947,37.32084655761719,-37.98185729980469,47.89012145996094,0.11
158,MetaDrive-td3combine-expt2,39,137.8491787527386,160110,1282,4027.5754175186157,36.50981903076172,,6.529672622680664,0.1
159,MetaDrive-td3combine-expt2,39,136.90550780702716,161123,1287,4059.519336938858,40.014217376708984,-40.28575134277344,16.133726119995117,0.09
160,MetaDrive-td3combine-expt2,39,139.75919292811236,162067,1292,4087.455493211746,37.22909927368164,-37.970890045166016,5.252677917480469,0.09
161,MetaDrive-td3combine-expt2,39,138.57797958370367,163017,1297,4116.525001049042,34.314395904541016,-34.36669921875,5.050100326538086,0.08
162,MetaDrive-td3combine-expt2,39,135.24506824258842,164050,1304,4145.935400724411,38.25115203857422,,8.887784957885742,0.07
163,MetaDrive-td3combine-expt2,39,135.13096447467504,165069,1310,4175.34871339798,41.589176177978516,-41.26615905761719,4.313905239105225,0.07
164,MetaDrive-td3combine-expt2,39,138.32896204917142,166041,1314,4206.971251487732,34.077274322509766,-35.80602264404297,6.983004570007324,0.07
165,MetaDrive-td3combine-expt2,39,134.6793831167455,167081,1319,4239.012446880341,36.93508529663086,-38.14494705200195,52.04002380371094,0.06
166,MetaDrive-td3combine-expt2,39,133.90476238902903,168098,1324,4268.88871216774,40.923728942871094,,2.6723642349243164,0.06
167,MetaDrive-td3combine-expt2,39,132.23851885321704,169052,1328,4296.59486246109,41.4549674987793,,11.281641006469727,0.06
168,MetaDrive-td3combine-expt2,39,135.47026228717564,170242,1333,4333.770446538925,39.214195251464844,,34.95862579345703,0.07
169,MetaDrive-td3combine-expt2,39,134.88698835704818,171047,1337,4360.59775185585,36.89189910888672,-37.44976043701172,10.283700942993164,0.06
170,MetaDrive-td3combine-expt2,39,134.52391711819212,172017,1342,4391.427792787552,38.8179817199707,-39.60042953491211,5.309996604919434,0.05
171,MetaDrive-td3combine-expt2,39,136.80516563160626,173030,1347,4423.0549437999725,41.15919494628906,,4.703135013580322,0.05
172,MetaDrive-td3combine-expt2,39,140.70652701967182,174272,1353,4464.499092578888,37.047882080078125,,6.046489715576172,0.05
173,MetaDrive-td3combine-expt2,38,142.84789553268882,175142,1356,4493.895218372345,38.96995544433594,,6.807431221008301,0.05
174,MetaDrive-td3combine-expt2,38,141.7738840195618,176098,1360,4530.987845182419,43.81474685668945,,5.206080913543701,0.04
175,MetaDrive-td3combine-expt2,38,138.91052584278103,177126,1367,4562.4318652153015,38.29041290283203,,4.277307510375977,0.04
176,MetaDrive-td3combine-expt2,38,141.73531948433472,178136,1371,4591.8688752651215,37.9271125793457,,11.049127578735352,0.04
177,MetaDrive-td3combine-expt2,38,142.5221309274693,179008,1376,4618.454456806183,39.342594146728516,,5.975309371948242,0.04
178,MetaDrive-td3combine-expt2,38,144.84942680625284,180071,1380,4653.7588326931,38.249942779541016,-39.264591217041016,3.526101589202881,0.05
179,MetaDrive-td3combine-expt2,38,147.45395035208338,181186,1384,4685.873479127884,38.05966567993164,,4.967876434326172,0.07
180,MetaDrive-td3combine-expt2,38,149.55060175973185,182335,1388,4724.29362654686,37.365875244140625,-37.24021911621094,5.684910297393799,0.08
181,MetaDrive-td3combine-expt2,38,151.63941214474434,183204,1391,4750.770124435425,41.87643814086914,,7.859166145324707,0.09
182,MetaDrive-td3combine-expt2,38,150.654601178372,184096,1396,4776.535558462143,37.75746536254883,,7.090565204620361,0.1
183,MetaDrive-td3combine-expt2,38,151.08611923976946,185069,1402,4808.50475358963,36.480525970458984,-36.74241256713867,5.4236040115356445,0.1
184,MetaDrive-td3combine-expt2,38,147.85833085846843,186187,1410,4840.914014339447,37.30329132080078,-37.5695915222168,7.035187244415283,0.09
185,MetaDrive-td3combine-expt2,38,149.45565054807506,187182,1414,4873.580904006958,40.15526580810547,,2.676520824432373,0.1
186,MetaDrive-td3combine-expt2,38,149.99160002079614,188229,1419,4905.108043193817,41.57056427001953,-42.574832916259766,5.586441516876221,0.1
187,MetaDrive-td3combine-expt2,38,151.5227773253168,189133,1423,4932.930212020874,38.99070358276367,-40.02640151977539,8.756936073303223,0.1
188,MetaDrive-td3combine-expt2,38,155.07393897256304,190321,1427,4972.538612604141,35.615238189697266,-36.10451126098633,18.63550567626953,0.1
189,MetaDrive-td3combine-expt2,38,156.67127530855544,191017,1429,4994.468799591064,39.92108154296875,-40.397647857666016,7.751764297485352,0.1
190,MetaDrive-td3combine-expt2,38,156.48928934654236,192114,1433,5029.701147556305,40.97026824951172,,5.844564437866211,0.09
191,MetaDrive-td3combine-expt2,38,157.7075754459557,193049,1437,5058.191303014755,39.92528533935547,-40.216270446777344,5.898618698120117,0.09
192,MetaDrive-td3combine-expt2,38,159.90104873484938,194160,1441,5091.121958732605,38.20921325683594,,9.326044082641602,0.1
193,MetaDrive-td3combine-expt2,38,160.30976222973558,195063,1446,5120.015644788742,40.400230407714844,-41.255531311035156,7.509269714355469,0.1
194,MetaDrive-td3combine-expt2,38,157.8411256851872,196058,1451,5148.939099311829,37.34523010253906,,24.488243103027344,0.1
195,MetaDrive-td3combine-expt2,38,154.50525624083934,197035,1456,5177.30592250824,39.07228469848633,-39.86110305786133,22.480133056640625,0.1
196,MetaDrive-td3combine-expt2,38,155.58858787999648,198129,1460,5209.278449058533,40.868133544921875,-41.30384826660156,9.177947998046875,0.11
197,MetaDrive-td3combine-expt2,37,155.43078555773255,199038,1465,5239.400897502899,36.11098861694336,,31.390708923339844,0.11
198,MetaDrive-td3combine-expt2,37,159.63219640610455,200246,1469,5280.753385066986,39.41518783569336,,10.946218490600586,0.12
199,MetaDrive-td3combine-expt2,37,160.29156404480537,201050,1472,5306.066709280014,37.45895004272461,,53.29846954345703,0.12
200,MetaDrive-td3combine-expt2,37,155.29572621065785,202124,1479,5337.50802397728,36.581363677978516,,6.582204341888428,0.11
201,MetaDrive-td3combine-expt2,37,149.6184808056105,203006,1485,5363.708281517029,35.44883728027344,,21.451183319091797,0.09
202,MetaDrive-td3combine-expt2,37,149.95184760816394,204135,1490,5397.492833137512,40.524375915527344,-41.017642974853516,6.566531181335449,0.08
203,MetaDrive-td3combine-expt2,37,152.60498274694663,205183,1493,5429.639365911484,40.274723052978516,-40.994056701660156,10.479745864868164,0.08
204,MetaDrive-td3combine-expt2,37,152.22025812774646,206006,1498,5453.947741985321,40.562068939208984,,7.407110214233398,0.07
205,MetaDrive-td3combine-expt2,37,154.0054367657616,207066,1504,5486.786291599274,36.20572280883789,,7.532920837402344,0.07
206,MetaDrive-td3combine-expt2,37,157.12669459882588,208412,1510,5531.776566028595,38.53581237792969,,4.616408348083496,0.07
207,MetaDrive-td3combine-expt2,37,154.2025199672065,209123,1514,5556.624702215195,38.63762283325195,-39.31629180908203,9.80026626586914,0.06
208,MetaDrive-td3combine-expt2,37,156.78892829004005,210105,1517,5589.103694200516,37.69422149658203,-38.014495849609375,17.875261306762695,0.06
209,MetaDrive-td3combine-expt2,37,157.44653171342287,211242,1521,5623.765685081482,41.269744873046875,,5.446180820465088,0.07
210,MetaDrive-td3combine-expt2,37,158.0486255090405,212021,1524,5646.81268954277,41.34161376953125,-42.12881088256836,6.278226852416992,0.09
211,MetaDrive-td3combine-expt2,37,148.4283431905421,213220,1532,5685.090600967407,44.84188461303711,,9.16706657409668,0.08
212,MetaDrive-td3combine-expt2,37,147.09338639342744,214302,1537,5718.373296260834,39.77819061279297,,59.91865539550781,0.09
213,MetaDrive-td3combine-expt2,37,146.02252506874612,215188,1540,5745.544332265854,39.815521240234375,,5.436102867126465,0.08
214,MetaDrive-td3combine-expt2,37,149.60950680183828,216094,1542,5771.715802669525,39.74708938598633,,12.762672424316406,0.09
215,MetaDrive-td3combine-expt2,37,155.76094510803566,217615,1546,5814.664082527161,42.69658279418945,-42.78142547607422,5.663348197937012,0.12
216,MetaDrive-td3combine-expt2,37,158.00716738758126,218013,1547,5830.649775981903,42.02912902832031,-42.551292419433594,5.502132892608643,0.12
217,MetaDrive-td3combine-expt2,37,160.6490003735039,219319,1552,5868.524849891663,44.85282516479492,-44.78681945800781,5.464576244354248,0.13
218,MetaDrive-td3combine-expt2,37,161.34948002874583,220123,1554,5897.450782299042,39.490997314453125,-38.97207260131836,7.954500198364258,0.13
219,MetaDrive-td3combine-expt2,37,159.9817997181298,221271,1559,5935.809301137924,44.18231201171875,-44.076351165771484,6.36468505859375,0.12
220,MetaDrive-td3combine-expt2,37,159.8746214041813,222157,1564,5963.342320203781,41.86745834350586,-42.080963134765625,3.2586004734039307,0.12
221,MetaDrive-td3combine-expt2,37,156.44345804354228,223016,1569,5991.585567235947,42.15239334106445,,9.950803756713867,0.11
222,MetaDrive-td3combine-expt2,37,157.40791977122515,224434,1574,6036.786536216736,42.21648025512695,,10.320337295532227,0.12
223,MetaDrive-td3combine-expt2,37,159.23021720147955,225126,1578,6057.855720281601,38.68844223022461,,5.416898250579834,0.12
224,MetaDrive-td3combine-expt2,37,162.38114440189673,226400,1583,6094.560859441757,39.66161346435547,,6.979163646697998,0.13
225,MetaDrive-td3combine-expt2,37,161.6326298025254,227123,1587,6115.715663194656,41.029720306396484,-41.1552848815918,5.175270080566406,0.13
226,MetaDrive-td3combine-expt2,37,162.4602523111048,228116,1591,6147.205653190613,39.518333435058594,,9.848737716674805,0.14
227,MetaDrive-td3combine-expt2,37,163.21624439134956,229214,1593,6185.270843744278,36.821739196777344,,6.921673774719238,0.14
228,MetaDrive-td3combine-expt2,37,167.32271214950032,230340,1596,6221.92924284935,40.59262466430664,,8.088888168334961,0.15
229,MetaDrive-td3combine-expt2,37,167.2124445068274,231145,1600,6245.407087564468,39.61777877807617,-40.34943389892578,8.549005508422852,0.15
230,MetaDrive-td3combine-expt2,36,171.3904884587434,232250,1602,6283.746208190918,40.35383605957031,,13.4486722946167,0.16
231,MetaDrive-td3combine-expt2,36,170.61619321809744,233214,1606,6313.014577627182,41.87833023071289,,7.802461624145508,0.16
232,MetaDrive-td3combine-expt2,36,174.10814017607768,234132,1608,6339.950571298599,39.41099548339844,,11.97838306427002,0.17
233,MetaDrive-td3combine-expt2,36,176.4691763624928,235299,1612,6375.424751520157,38.443843841552734,-38.774627685546875,42.03226089477539,0.17
234,MetaDrive-td3combine-expt2,36,178.08449889816984,236018,1614,6398.811781167984,41.08522033691406,,83.73861694335938,0.18
235,MetaDrive-td3combine-expt2,36,178.8189256507286,237243,1617,6441.1447467803955,43.2581901550293,-44.28034210205078,50.642913818359375,0.19
236,MetaDrive-td3combine-expt2,36,178.09494887164473,238189,1621,6470.328767776489,42.95323181152344,-42.1198844909668,7.150873184204102,0.18
237,MetaDrive-td3combine-expt2,36,177.86194799885303,239135,1624,6503.013461828232,40.09430694580078,-39.756866455078125,52.23338317871094,0.16
238,MetaDrive-td3combine-expt2,36,181.9064945800924,240277,1627,6540.4667291641235,39.76091766357422,-40.78458023071289,15.72535514831543,0.17
239,MetaDrive-td3combine-expt2,36,185.19797295446642,241169,1631,6568.773454904556,40.65877151489258,-40.125431060791016,7.444624900817871,0.18
240,MetaDrive-td3combine-expt2,36,190.56811511852334,242400,1634,6609.078097105026,41.11562728881836,,6.962609767913818,0.19
241,MetaDrive-td3combine-expt2,36,187.56369181047714,243115,1638,6629.225029706955,37.410430908203125,-38.39337921142578,4.083482265472412,0.18
242,MetaDrive-td3combine-expt2,36,183.3814284558926,244006,1642,6655.122116804123,42.91718292236328,,10.168603897094727,0.17
243,MetaDrive-td3combine-expt2,36,180.31531337213673,245284,1646,6694.273447751999,42.249847412109375,,5.395854949951172,0.15
244,MetaDrive-td3combine-expt2,36,180.04687970088867,246049,1649,6720.158754110336,43.189964294433594,-43.280120849609375,5.128173828125,0.15
245,MetaDrive-td3combine-expt2,36,179.80130050761608,247020,1653,6751.4718770980835,42.536354064941406,,8.121057510375977,0.14
246,MetaDrive-td3combine-expt2,36,178.44778020008525,248262,1657,6790.1318917274475,40.76061248779297,,5.196319580078125,0.14
247,MetaDrive-td3combine-expt2,36,181.81351356915468,249648,1659,6841.903101444244,45.09394073486328,,4.801289081573486,0.14
248,MetaDrive-td3combine-expt2,36,184.17794597383033,250368,1660,6862.831072568893,42.052127838134766,,5.7695746421813965,0.15
249,MetaDrive-td3combine-expt2,36,188.25298122202148,251772,1663,6909.010214090347,44.12071228027344,,7.12745475769043,0.16
250,MetaDrive-td3combine-expt2,36,188.82704669005867,252089,1664,6918.2700827121735,40.42306900024414,-41.25862503051758,5.6977338790893555,0.16
251,MetaDrive-td3combine-expt2,36,191.48467427987677,253116,1667,6947.915817260742,39.30758285522461,,8.805887222290039,0.17
252,MetaDrive-td3combine-expt2,36,194.5232884702365,254098,1671,6978.823843002319,38.729881286621094,,4.878877639770508,0.17
253,MetaDrive-td3combine-expt2,36,192.86096335343024,255093,1675,7009.655935764313,41.10272979736328,-41.095176696777344,14.299361228942871,0.17
254,MetaDrive-td3combine-expt2,36,192.52466446113058,256437,1679,7053.133375883102,37.14352035522461,-38.454322814941406,11.178621292114258,0.17
255,MetaDrive-td3combine-expt2,36,196.4472742502011,257291,1681,7080.891213417053,38.49400329589844,-38.67693328857422,4.779456615447998,0.18
256,MetaDrive-td3combine-expt2,36,199.715546481668,258377,1683,7116.378993034363,42.41397476196289,-42.65321731567383,6.538745880126953,0.19
257,MetaDrive-td3combine-expt2,36,200.64023192175017,259477,1687,7148.390841722488,41.753135681152344,-42.3983154296875,6.106624603271484,0.2
258,MetaDrive-td3combine-expt2,36,201.44677699235532,260268,1690,7171.210053920746,40.8972053527832,,5.016983509063721,0.21
259,MetaDrive-td3combine-expt2,36,198.85246312672498,261321,1693,7204.333902359009,37.86688232421875,-38.27621841430664,5.354568004608154,0.2
260,MetaDrive-td3combine-expt2,36,199.4203785253884,262081,1695,7227.749340057373,38.787689208984375,-39.49017333984375,5.752171993255615,0.2
261,MetaDrive-td3combine-expt2,36,199.7848915695965,263266,1698,7266.188481807709,37.96478271484375,,10.303173065185547,0.2
262,MetaDrive-td3combine-expt2,36,203.9822652001312,264288,1700,7296.245853900909,36.371002197265625,,5.6462321281433105,0.22
263,MetaDrive-td3combine-expt2,36,200.15194842161068,265193,1704,7324.3913950920105,39.30931854248047,-39.740379333496094,5.242114543914795,0.21
264,MetaDrive-td3combine-expt2,36,202.99920006172528,266337,1707,7358.908258676529,40.34230041503906,-40.00969314575195,10.307344436645508,0.23
265,MetaDrive-td3combine-expt2,36,198.70955310290222,267397,1711,7390.806628704071,42.92994689941406,-43.08717346191406,5.899060249328613,0.22
266,MetaDrive-td3combine-expt2,36,198.58917074677137,268206,1713,7416.560510873795,41.93256378173828,,23.165979385375977,0.22
267,MetaDrive-td3combine-expt2,36,200.12808456513747,269173,1715,7450.069130182266,37.60309982299805,-38.13845443725586,39.4725341796875,0.22
268,MetaDrive-td3combine-expt2,36,198.66042253183412,270340,1719,7487.625384092331,46.60466766357422,,4.664692401885986,0.23
269,MetaDrive-td3combine-expt2,36,201.21853072998138,271149,1720,7515.134652853012,37.12142562866211,-37.17231369018555,10.041557312011719,0.24
270,MetaDrive-td3combine-expt2,36,202.79908760976716,272412,1723,7555.6973922252655,37.67082977294922,,9.769201278686523,0.25
271,MetaDrive-td3combine-expt2,36,204.2524197031344,273004,1724,7572.832113981247,39.993919372558594,,19.229026794433594,0.26
272,MetaDrive-td3combine-expt2,36,202.3924799423763,274127,1728,7610.22003698349,42.97093200683594,-43.14997100830078,52.9504280090332,0.25
273,MetaDrive-td3combine-expt2,35,197.0802686108238,275035,1733,7640.32878112793,41.79216766357422,-41.065608978271484,5.891001224517822,0.24
274,MetaDrive-td3combine-expt2,35,197.2040258831004,276168,1736,7674.803958654404,44.8577995300293,,7.1443681716918945,0.23
275,MetaDrive-td3combine-expt2,35,195.05138171992158,277133,1740,7708.508305311203,33.7646598815918,-34.67387008666992,10.075016021728516,0.23
276,MetaDrive-td3combine-expt2,35,196.04120475280018,278061,1744,7737.69855427742,45.12047576904297,-44.105220794677734,57.592132568359375,0.22
277,MetaDrive-td3combine-expt2,35,195.00551040541356,279122,1748,7771.745983839035,42.79450225830078,,4.508628845214844,0.22
278,MetaDrive-td3combine-expt2,35,198.00553452699285,280270,1750,7808.1524131298065,43.9943962097168,,4.731015682220459,0.23
279,MetaDrive-td3combine-expt2,35,199.16492856657413,281381,1753,7845.883196592331,42.140045166015625,-43.00074005126953,7.479276180267334,0.23
280,MetaDrive-td3combine-expt2,35,199.01364390739846,282048,1755,7868.5306396484375,37.78630447387695,,9.38581657409668,0.23
281,MetaDrive-td3combine-expt2,35,192.64583473396485,283153,1760,7904.561927080154,34.77262496948242,-35.5560188293457,8.271707534790039,0.21
282,MetaDrive-td3combine-expt2,35,190.00491635943308,284094,1763,7932.392119407654,46.261661529541016,,6.504057884216309,0.2
283,MetaDrive-td3combine-expt2,35,190.41739677955928,285331,1767,7970.2973601818085,40.69789123535156,-40.963375091552734,10.021368026733398,0.2
284,MetaDrive-td3combine-expt2,35,191.5718040778225,286307,1770,8000.936222076416,43.40167999267578,-44.63182830810547,7.269746780395508,0.21
285,MetaDrive-td3combine-expt2,35,194.2033261729704,287071,1772,8024.443097829819,41.17823791503906,-42.6634407043457,9.298574447631836,0.21
286,MetaDrive-td3combine-expt2,35,195.18720993892347,288193,1776,8061.107968568802,45.58971405029297,-44.45269012451172,12.026113510131836,0.2
287,MetaDrive-td3combine-expt2,35,197.89739937305313,289128,1778,8088.429568052292,42.72502899169922,,10.515518188476562,0.22
288,MetaDrive-td3combine-expt2,35,194.33190257307672,290023,1781,8115.929237365723,44.87801742553711,-45.68988037109375,4.415183067321777,0.2
289,MetaDrive-td3combine-expt2,35,194.86885477457596,291360,1784,8159.180568218231,45.86743927001953,,5.888943672180176,0.19
290,MetaDrive-td3combine-expt2,35,195.61884683548348,292420,1787,8194.119686365128,42.324031829833984,,13.954086303710938,0.18
291,MetaDrive-td3combine-expt2,35,194.39540775198054,293036,1790,8213.91218996048,37.72344970703125,,29.82503318786621,0.16
292,MetaDrive-td3combine-expt2,35,196.2502677754961,294383,1793,8252.527466535568,49.47889709472656,-50.21613693237305,3.6045734882354736,0.17
293,MetaDrive-td3combine-expt2,35,196.77765612875592,295148,1795,8280.374986886978,42.16195297241211,,5.457507133483887,0.17
294,MetaDrive-td3combine-expt2,35,197.87478911213694,296082,1797,8309.71670126915,43.06105422973633,,11.942991256713867,0.17
295,MetaDrive-td3combine-expt2,35,198.073816363408,297411,1801,8350.220290899277,42.351539611816406,-43.016300201416016,7.441054344177246,0.16
296,MetaDrive-td3combine-expt2,35,200.0719629086322,298453,1804,8380.084484815598,42.389122009277344,-42.996917724609375,51.49354934692383,0.18
297,MetaDrive-td3combine-expt2,35,200.33530165634164,299163,1806,8399.565614700317,44.67280578613281,-44.53743362426758,8.948766708374023,0.19
298,MetaDrive-td3combine-expt2,35,200.45465587543535,300128,1810,8427.756306648254,45.08664321899414,,18.84218978881836,0.19
299,MetaDrive-td3combine-expt2,35,203.29943454886484,301604,1812,8471.676307678223,41.7507438659668,,5.509352684020996,0.2
300,MetaDrive-td3combine-expt2,35,203.9455653567468,302116,1813,8485.23598241806,43.85668182373047,,12.990550994873047,0.21
301,MetaDrive-td3combine-expt2,35,203.41833204711725,303030,1816,8513.194865703583,41.995704650878906,,51.16260528564453,0.21
302,MetaDrive-td3combine-expt2,35,204.54506904228566,304167,1818,8552.945460319519,42.68217849731445,-42.61497116088867,9.491079330444336,0.2
303,MetaDrive-td3combine-expt2,35,200.25623746774147,305375,1822,8587.162704467773,46.174903869628906,-46.543331146240234,6.946569442749023,0.19
304,MetaDrive-td3combine-expt2,35,197.75156162371226,306122,1825,8608.61507678032,40.60430908203125,,7.910519123077393,0.18
305,MetaDrive-td3combine-expt2,35,201.19428975288406,307223,1827,8648.318813085556,43.853275299072266,-44.64044189453125,44.70286560058594,0.19
306,MetaDrive-td3combine-expt2,35,203.47186211172848,308192,1829,8678.57133436203,42.7014274597168,,9.849831581115723,0.2
307,MetaDrive-td3combine-expt2,35,208.9676006944177,309664,1832,8720.861766576767,44.8590202331543,,6.485687255859375,0.21
308,MetaDrive-td3combine-expt2,35,210.6238568528215,310267,1834,8739.139433860779,44.47283935546875,-44.47621154785156,4.370578765869141,0.21
309,MetaDrive-td3combine-expt2,35,211.59563013650765,311221,1836,8765.935037136078,43.82011032104492,-43.74190902709961,4.464414596557617,0.22
310,MetaDrive-td3combine-expt2,35,214.55369645342037,312010,1839,8788.952015638351,44.81291580200195,,2.2493505477905273,0.22
311,MetaDrive-td3combine-expt2,35,215.4862733270432,313207,1842,8825.577320814133,42.040809631347656,-41.78450012207031,6.007513999938965,0.23
312,MetaDrive-td3combine-expt2,35,214.16679039279424,314218,1847,8854.172632932663,43.73313903808594,,137.08181762695312,0.25
313,MetaDrive-td3combine-expt2,35,215.79451164899868,315303,1849,8888.974020242691,41.39239501953125,-40.74891662597656,13.691900253295898,0.25
314,MetaDrive-td3combine-expt2,35,215.2458286618911,316514,1851,8925.89819431305,40.481956481933594,,9.843832015991211,0.26
315,MetaDrive-td3combine-expt2,35,218.0700972491728,317035,1852,8941.604395627975,42.240699768066406,-42.372554779052734,5.968510627746582,0.27
316,MetaDrive-td3combine-expt2,35,219.950224860427,318229,1854,8977.333375930786,45.65690231323242,-44.89091110229492,11.527762413024902,0.29
317,MetaDrive-td3combine-expt2,35,221.2376353643533,319054,1855,9006.092317342758,45.37544250488281,,5.035123825073242,0.3
318,MetaDrive-td3combine-expt2,35,222.9208018931044,320095,1859,9034.534371376038,43.381866455078125,-43.214012145996094,6.010225296020508,0.32
319,MetaDrive-td3combine-expt2,35,223.4912451329419,321464,1863,9077.086374759674,43.2475471496582,,6.007654190063477,0.33
320,MetaDrive-td3combine-expt2,35,221.5850954756909,322002,1865,9092.715497255325,42.73790740966797,,3.8407161235809326,0.33
321,MetaDrive-td3combine-expt2,35,222.77565625831056,323790,1869,9150.125483751297,44.35785675048828,,5.210437774658203,0.34
322,MetaDrive-td3combine-expt2,35,224.83054737463723,324442,1870,9168.95878815651,44.2385368347168,,178.9967041015625,0.34
323,MetaDrive-td3combine-expt2,35,225.22898443335282,325053,1871,9191.774860620499,45.598350524902344,-44.880794525146484,5.3332319259643555,0.34
324,MetaDrive-td3combine-expt2,35,225.6487695518103,326115,1874,9224.50596523285,42.105010986328125,-42.613555908203125,10.567317962646484,0.34
325,MetaDrive-td3combine-expt2,35,223.32906157577432,327351,1878,9261.604838848114,42.51762771606445,-42.5076904296875,4.607450008392334,0.33
326,MetaDrive-td3combine-expt2,35,224.12294219667666,328200,1880,9288.501546621323,45.37080383300781,,4.823817253112793,0.33
327,MetaDrive-td3combine-expt2,35,226.28690185564435,329360,1882,9324.252935886383,40.481380462646484,,6.289319038391113,0.34
328,MetaDrive-td3combine-expt2,35,225.57652639645627,330224,1884,9352.280657052994,44.06690979003906,,5.791250705718994,0.34
329,MetaDrive-td3combine-expt2,35,227.73952565467187,331184,1886,9380.292109966278,41.156429290771484,,35.13445281982422,0.36
330,MetaDrive-td3combine-expt2,35,227.34789283887673,332189,1889,9413.961595773697,40.253963470458984,-40.458946228027344,10.437658309936523,0.37
331,MetaDrive-td3combine-expt2,35,228.35899919389968,333199,1891,9448.891434669495,42.08038330078125,-42.52805709838867,9.030357360839844,0.36
332,MetaDrive-td3combine-expt2,35,226.06238441883485,334013,1893,9474.142458438873,43.77457809448242,-43.74352264404297,5.511135101318359,0.36
333,MetaDrive-td3combine-expt2,35,227.93820997398808,335730,1895,9531.999930858612,40.64189910888672,,6.1609930992126465,0.36
334,MetaDrive-td3combine-expt2,35,225.6140545889333,336070,1896,9541.878669261932,43.77039337158203,,6.2474565505981445,0.35
335,MetaDrive-td3combine-expt2,35,228.78147085128577,337122,1898,9573.548747301102,45.30256271362305,,13.756669998168945,0.36
336,MetaDrive-td3combine-expt2,35,230.40741047169956,338202,1900,9604.554654359818,42.47509002685547,,5.555137634277344,0.38
337,MetaDrive-td3combine-expt2,35,228.3415926506059,339029,1903,9633.194565296173,41.223045349121094,-42.22133255004883,4.922057151794434,0.36
338,MetaDrive-td3combine-expt2,35,225.49406309828927,340594,1908,9681.300696849823,44.624515533447266,,13.790962219238281,0.34
339,MetaDrive-td3combine-expt2,35,228.05925194177232,341173,1909,9698.085696220398,45.53791427612305,-46.21772766113281,7.548299312591553,0.35
340,MetaDrive-td3combine-expt2,35,227.6172323292328,342267,1911,9737.207566022873,44.417152404785156,-45.05187225341797,7.60683536529541,0.34
341,MetaDrive-td3combine-expt2,35,228.027172353866,343838,1913,9785.674115419388,44.324256896972656,,4.701415061950684,0.34
342,MetaDrive-td3combine-expt2,35,227.25427933037057,344019,1914,9790.50145149231,45.61943054199219,-45.37389373779297,7.553814888000488,0.34
343,MetaDrive-td3combine-expt2,35,232.29695814639464,345970,1916,9860.569717168808,45.823055267333984,,11.418861389160156,0.34
344,MetaDrive-td3combine-expt2,35,229.93527380732732,346094,1917,9864.486670732498,43.94535827636719,,5.431465148925781,0.34
345,MetaDrive-td3combine-expt2,35,232.43625374159876,347102,1919,9898.533628225327,45.862483978271484,,4.542268753051758,0.35
346,MetaDrive-td3combine-expt2,35,231.4200603441523,348173,1922,9930.670990467072,41.05567932128906,-40.39295196533203,8.910296440124512,0.35
347,MetaDrive-td3combine-expt2,35,233.735598676861,349158,1924,9960.644451379776,43.45063781738281,,6.917254447937012,0.36
348,MetaDrive-td3combine-expt2,35,235.57095440265806,350345,1926,9998.89681982994,47.267356872558594,-47.93327713012695,4.522979736328125,0.35
349,MetaDrive-td3combine-expt2,35,230.25395000739448,351022,1929,10020.07722234726,42.15768814086914,,6.89801025390625,0.34
350,MetaDrive-td3combine-expt2,34,230.16955143876203,352023,1930,10061.19507598877,45.23247528076172,-45.653953552246094,4.103935241699219,0.34
351,MetaDrive-td3combine-expt2,34,231.01472829681347,353345,1932,10103.274669408798,43.520652770996094,-43.35261535644531,6.3874688148498535,0.35
352,MetaDrive-td3combine-expt2,34,233.02525942230284,354338,1934,10132.648780822754,39.87100601196289,,6.753052711486816,0.37
353,MetaDrive-td3combine-expt2,34,232.54499934420306,355258,1936,10162.185374259949,46.35919189453125,,72.43244171142578,0.36
354,MetaDrive-td3combine-expt2,34,232.39031635752224,356292,1938,10196.497828483582,39.78385543823242,,11.23274040222168,0.36
355,MetaDrive-td3combine-expt2,34,233.51491470810194,357238,1940,10226.818324327469,47.36548614501953,,6.837091445922852,0.36
356,MetaDrive-td3combine-expt2,34,231.0670326475021,358032,1944,10252.283613443375,41.5750732421875,,8.940164566040039,0.35
357,MetaDrive-td3combine-expt2,34,234.0552388461486,359586,1947,10300.664336204529,45.934654235839844,,7.503499984741211,0.35
358,MetaDrive-td3combine-expt2,34,235.20660371474284,360584,1949,10330.283303976059,44.69673538208008,,109.7734375,0.36
359,MetaDrive-td3combine-expt2,34,236.15817428412615,361146,1950,10346.569610834122,42.404518127441406,,7.104153633117676,0.36
360,MetaDrive-td3combine-expt2,34,230.456518056216,362002,1953,10374.323098659515,42.209571838378906,,5.222765922546387,0.33
361,MetaDrive-td3combine-expt2,34,229.75678878878205,363308,1956,10409.986588001251,40.7677001953125,,17.328624725341797,0.33
362,MetaDrive-td3combine-expt2,34,232.92681110898096,364704,1958,10463.809882164001,41.527645111083984,,6.447431564331055,0.33
363,MetaDrive-td3combine-expt2,34,234.64816147925234,365403,1959,10489.487055540085,42.688758850097656,-43.011138916015625,6.389081001281738,0.33
364,MetaDrive-td3combine-expt2,34,235.87404996873755,366001,1960,10506.931124687195,50.34356689453125,-50.64375686645508,2.658231735229492,0.33
365,MetaDrive-td3combine-expt2,34,237.8086668430869,367123,1963,10543.978600502014,44.7464485168457,-45.53067398071289,11.216197967529297,0.34
366,MetaDrive-td3combine-expt2,34,240.126162545468,368145,1965,10579.212140083313,44.67055130004883,-45.70842742919922,42.86248016357422,0.34
367,MetaDrive-td3combine-expt2,34,237.7621008500186,369543,1969,10628.631932735443,42.25174331665039,-42.518165588378906,3.9226202964782715,0.33
368,MetaDrive-td3combine-expt2,34,236.10774856651682,370129,1970,10647.297591924667,46.219242095947266,-46.71775817871094,6.826011657714844,0.32
369,MetaDrive-td3combine-expt2,34,236.1522970549213,371345,1972,10687.385121583939,42.65336990356445,-43.627838134765625,6.909945964813232,0.32
370,MetaDrive-td3combine-expt2,34,239.8815343622881,372883,1974,10737.230244398117,49.68071746826172,-49.22477340698242,7.246452808380127,0.34
371,MetaDrive-td3combine-expt2,34,239.58853268324086,373065,1975,10742.597833156586,43.258888244628906,-43.387638092041016,7.216391563415527,0.34
372,MetaDrive-td3combine-expt2,34,242.07427633006708,374394,1977,10788.19173359871,42.073238372802734,,21.65427017211914,0.34
373,MetaDrive-td3combine-expt2,34,243.65775261000843,375250,1978,10816.259483575821,43.917205810546875,,29.356136322021484,0.34
374,MetaDrive-td3combine-expt2,34,246.0344351443065,376451,1980,10854.935158967972,44.749290466308594,-44.92007064819336,5.538268089294434,0.35
375,MetaDrive-td3combine-expt2,34,246.27163889646835,377205,1981,10879.35343837738,43.998714447021484,-44.65898132324219,8.386995315551758,0.35
376,MetaDrive-td3combine-expt2,34,247.64497705712597,378010,1982,10904.818997621536,41.18954086303711,,8.752830505371094,0.36
377,MetaDrive-td3combine-expt2,34,248.23898787256934,379402,1985,10951.817432165146,43.12882995605469,,4.711845874786377,0.37
378,MetaDrive-td3combine-expt2,34,249.92345009091602,380431,1988,10981.379843235016,40.73942565917969,-41.89496994018555,73.72425079345703,0.37
379,MetaDrive-td3combine-expt2,34,248.6916149294298,381155,1990,11000.406733512878,43.98432540893555,-44.75223159790039,81.767822265625,0.38
380,MetaDrive-td3combine-expt2,34,250.9921185541481,382367,1992,11037.057605981827,39.73221969604492,-40.032470703125,4.32981014251709,0.39
381,MetaDrive-td3combine-expt2,34,252.17594231512635,383477,1994,11071.408153772354,41.701942443847656,-42.262413024902344,6.337514877319336,0.41
382,MetaDrive-td3combine-expt2,34,252.37544192240867,384603,1996,11109.824197292328,40.82603073120117,-41.36128234863281,6.7831878662109375,0.42
383,MetaDrive-td3combine-expt2,34,250.5835591526059,385253,1998,11131.755414247513,44.6085319519043,-44.63434982299805,6.8553972244262695,0.42
384,MetaDrive-td3combine-expt2,34,250.63266075008158,386614,2001,11172.96598148346,43.641929626464844,,7.287940502166748,0.41
385,MetaDrive-td3combine-expt2,34,252.74896037569175,387153,2002,11190.523688554764,42.001197814941406,-41.99736404418945,4.547055721282959,0.41
386,MetaDrive-td3combine-expt2,34,256.02256822808386,388134,2004,11221.98403763771,42.06914520263672,,9.793461799621582,0.42
387,MetaDrive-td3combine-expt2,34,258.1178153450555,389249,2007,11254.470566272736,43.06603240966797,-44.36074447631836,7.79861307144165,0.42
388,MetaDrive-td3combine-expt2,34,258.2668345546942,390519,2009,11292.278613090515,44.087833404541016,-44.948081970214844,9.69499397277832,0.43
389,MetaDrive-td3combine-expt2,34,257.76021734604063,391309,2011,11317.785929441452,41.56706619262695,-41.98042297363281,5.018292427062988,0.43
390,MetaDrive-td3combine-expt2,34,255.56168351470106,392529,2014,11353.175211429596,45.358463287353516,-45.895992279052734,4.7773284912109375,0.44
391,MetaDrive-td3combine-expt2,34,254.46200465782266,393124,2015,11370.152063131332,43.492462158203125,,9.042790412902832,0.44
392,MetaDrive-td3combine-expt2,34,254.19189858533733,394366,2017,11405.85174036026,42.25331497192383,,15.115900039672852,0.44
393,MetaDrive-td3combine-expt2,34,253.43046330232505,395696,2019,11449.101587057114,44.139617919921875,,13.543997764587402,0.43
394,MetaDrive-td3combine-expt2,34,251.90504894026944,396114,2020,11463.294711351395,43.154945373535156,,8.558910369873047,0.42
395,MetaDrive-td3combine-expt2,34,256.12538520893736,397235,2022,11496.790676116943,46.5159797668457,-46.926082611083984,5.601378440856934,0.44
396,MetaDrive-td3combine-expt2,34,258.0044730715612,398588,2024,11549.36679315567,49.02988815307617,,7.078540802001953,0.43
397,MetaDrive-td3combine-expt2,34,257.09404297621796,399184,2025,11566.928368091583,44.97707748413086,,8.101456642150879,0.43
398,MetaDrive-td3combine-expt2,34,257.3589571530955,400185,2026,11605.156566381454,41.72475051879883,-41.82831954956055,7.279887676239014,0.43
399,MetaDrive-td3combine-expt2,34,262.6857348517471,401338,2028,11642.152491569519,48.349937438964844,,34.98720169067383,0.44
400,MetaDrive-td3combine-expt2,34,264.8163512887084,402676,2030,11682.801158428192,44.47275924682617,,8.86939811706543,0.46
401,MetaDrive-td3combine-expt2,34,259.844338728088,403046,2032,11693.780753850937,42.0371208190918,,6.429187297821045,0.44
402,MetaDrive-td3combine-expt2,34,260.89907609633434,404106,2034,11725.760282039642,44.8233757019043,,4.252902507781982,0.44
403,MetaDrive-td3combine-expt2,34,260.074509886271,405230,2037,11760.552739858627,45.14530944824219,,6.719481468200684,0.46
404,MetaDrive-td3combine-expt2,34,261.3390193978943,406412,2040,11798.832031011581,45.329002380371094,,6.367241382598877,0.47
405,MetaDrive-td3combine-expt2,34,261.44345180441684,407057,2043,11817.550598859787,45.70646286010742,-46.48835372924805,6.299844741821289,0.48
406,MetaDrive-td3combine-expt2,34,265.50938971447135,408387,2046,11854.413726329803,41.28030776977539,-41.4139289855957,7.788209438323975,0.5
407,MetaDrive-td3combine-expt2,34,268.2761570073599,409667,2048,11893.191169023514,45.96507263183594,-45.80625534057617,4.987617492675781,0.51
408,MetaDrive-td3combine-expt2,34,267.4705816072973,410263,2049,11913.008475065231,42.08091735839844,-42.10443878173828,14.679244041442871,0.51
409,MetaDrive-td3combine-expt2,34,266.8026409106396,411004,2051,11934.173855781555,39.75178909301758,,5.262202739715576,0.51
410,MetaDrive-td3combine-expt2,34,266.94578270870466,412113,2054,11966.431361675262,45.358436584472656,-45.95060348510742,7.5894622802734375,0.52
411,MetaDrive-td3combine-expt2,34,265.66534654727957,413303,2057,12008.089991807938,45.39091110229492,-45.735076904296875,4.997889518737793,0.51
412,MetaDrive-td3combine-expt2,34,263.6132667928309,414199,2059,12035.410056352615,44.88711166381836,-44.71965789794922,10.593015670776367,0.51
413,MetaDrive-td3combine-expt2,34,263.4512579248727,415396,2062,12073.889578580856,38.429931640625,,4.556074142456055,0.51
414,MetaDrive-td3combine-expt2,34,266.0134240763704,416914,2064,12124.819283008575,41.10411071777344,,5.18243408203125,0.52
415,MetaDrive-td3combine-expt2,34,262.0387401801386,417051,2065,12128.76789689064,44.72892761230469,-45.504234313964844,13.038151741027832,0.51
416,MetaDrive-td3combine-expt2,34,268.21445542396947,418323,2068,12166.52746629715,45.54341125488281,-45.902347564697266,5.080575466156006,0.53
417,MetaDrive-td3combine-expt2,34,265.7067323174108,419203,2069,12192.63003897667,40.50669479370117,-40.61785888671875,18.129825592041016,0.53
418,MetaDrive-td3combine-expt2,34,265.5327509850681,420500,2072,12233.06536078453,46.784908294677734,,10.306156158447266,0.55
419,MetaDrive-td3combine-expt2,34,264.18988244382297,421017,2073,12249.87571811676,47.36320877075195,-47.81460952758789,8.64750862121582,0.54
420,MetaDrive-td3combine-expt2,34,265.92281770177226,422105,2075,12282.993968725204,41.01889419555664,-41.7373046875,6.723153591156006,0.54
421,MetaDrive-td3combine-expt2,34,259.5421608472657,423375,2079,12320.157634496689,42.28843688964844,-42.55685043334961,15.951166152954102,0.54
422,MetaDrive-td3combine-expt2,34,252.00659429149206,424351,2082,12350.12864780426,46.421180725097656,-46.171112060546875,10.033219337463379,0.52
423,MetaDrive-td3combine-expt2,34,253.19879932931426,425529,2084,12388.195875406265,44.97148132324219,-45.6427001953125,9.256197929382324,0.52
424,MetaDrive-td3combine-expt2,34,254.1841325142515,426530,2085,12420.402940750122,40.052207946777344,,7.101149559020996,0.51
425,MetaDrive-td3combine-expt2,34,257.87497911379097,427710,2087,12457.824796676636,42.01144027709961,,5.895208835601807,0.52
426,MetaDrive-td3combine-expt2,34,255.84590888733496,428653,2089,12485.403526306152,45.53059387207031,-45.92129898071289,4.501406192779541,0.51
427,MetaDrive-td3combine-expt2,34,256.8214571448506,429321,2090,12504.169739484787,48.111183166503906,-48.04677963256836,19.276493072509766,0.51
428,MetaDrive-td3combine-expt2,34,256.7118046185002,430608,2092,12542.892096996307,47.11697006225586,,4.752524375915527,0.52
429,MetaDrive-td3combine-expt2,34,254.26755564061747,431264,2094,12565.109969854355,43.86306381225586,,5.520626544952393,0.5
430,MetaDrive-td3combine-expt2,34,256.88693808484896,432508,2096,12605.11526107788,48.15077590942383,,6.724821090698242,0.5
431,MetaDrive-td3combine-expt2,34,255.80666906983896,433121,2098,12623.483077764511,43.524234771728516,-43.92845916748047,9.742155075073242,0.49
432,MetaDrive-td3combine-expt2,34,256.91826512739686,434748,2101,12673.047582387924,43.54465866088867,,8.402743339538574,0.5
433,MetaDrive-td3combine-expt2,34,256.5793794424073,435215,2102,12688.67798089981,41.820884704589844,-42.30567932128906,29.31283187866211,0.5
434,MetaDrive-td3combine-expt2,34,257.2310235204234,436558,2104,12729.861247777939,45.39619064331055,,7.312284469604492,0.51
435,MetaDrive-td3combine-expt2,34,260.6765888126419,437423,2105,12757.365273952484,46.06526184082031,-46.06287384033203,3.9409258365631104,0.51
436,MetaDrive-td3combine-expt2,34,262.76008799745773,438338,2106,12789.882972955704,45.33209991455078,,4.532270431518555,0.51
437,MetaDrive-td3combine-expt2,34,262.3257779620984,439305,2108,12818.22755765915,45.39093780517578,-45.15107345581055,4.347194671630859,0.51
438,MetaDrive-td3combine-expt2,34,263.31090515026347,440591,2110,12857.257545471191,44.129764556884766,-44.56061553955078,14.555997848510742,0.51
439,MetaDrive-td3combine-expt2,34,265.1360799218578,441329,2112,12881.017323970795,48.51068878173828,-48.4678955078125,4.924917697906494,0.51
440,MetaDrive-td3combine-expt2,34,261.54846060112607,442266,2115,12907.374482631683,42.26376724243164,,7.719688892364502,0.5
441,MetaDrive-td3combine-expt2,34,262.5922680479856,443455,2118,12940.04727435112,48.097434997558594,-49.7931022644043,100.83096313476562,0.52
442,MetaDrive-td3combine-expt2,34,262.5888823891062,444249,2120,12965.940586566925,42.483272552490234,-42.755130767822266,6.741339683532715,0.52
443,MetaDrive-td3combine-expt2,34,261.40455561477467,445143,2122,12991.70252752304,45.6980094909668,-45.57150650024414,19.114871978759766,0.52
444,MetaDrive-td3combine-expt2,34,258.56305728360184,446575,2125,13038.294551372528,46.015586853027344,-46.482749938964844,7.324771881103516,0.52
445,MetaDrive-td3combine-expt2,34,258.0057118655264,447006,2126,13049.704416036606,43.5064582824707,,8.66044807434082,0.53
446,MetaDrive-td3combine-expt2,34,255.92743762387767,448275,2129,13089.962267875671,51.1768913269043,-51.06474685668945,6.684933662414551,0.52
447,MetaDrive-td3combine-expt2,34,257.0502437229298,449360,2132,13122.338829994202,44.88827133178711,,5.789496898651123,0.53
448,MetaDrive-td3combine-expt2,34,254.91589268847477,450179,2134,13148.433970451355,44.060916900634766,-44.332157135009766,5.451184272766113,0.52
449,MetaDrive-td3combine-expt2,34,256.8475425901269,451844,2138,13201.577208518982,46.34790802001953,,4.059769630432129,0.52
450,MetaDrive-td3combine-expt2,34,256.91299158495167,452180,2139,13211.754832029343,41.51112747192383,,10.861187934875488,0.52
451,MetaDrive-td3combine-expt2,34,259.90366291424203,453377,2141,13253.26083612442,39.826210021972656,-39.631229400634766,5.9060845375061035,0.52
452,MetaDrive-td3combine-expt2,34,260.1360157508281,454287,2143,13280.854619979858,46.02307891845703,-46.451820373535156,5.733198165893555,0.51
453,MetaDrive-td3combine-expt2,34,261.78038891154426,455084,2144,13304.094367265701,47.62820816040039,,3.035338878631592,0.51
454,MetaDrive-td3combine-expt2,34,259.9328684632263,456251,2146,13346.637918949127,46.434024810791016,-46.674827575683594,7.882701873779297,0.49
455,MetaDrive-td3combine-expt2,34,257.5949118279684,457185,2148,13377.000305175781,47.419219970703125,-47.343994140625,7.068216323852539,0.48
456,MetaDrive-td3combine-expt2,34,252.6171432209777,458592,2152,13423.865024089813,45.995487213134766,,6.705580234527588,0.45
457,MetaDrive-td3combine-expt2,34,251.56783171687897,459026,2153,13436.841221570969,47.289344787597656,,4.062310218811035,0.44
458,MetaDrive-td3combine-expt2,34,253.52831995916011,460805,2157,13490.834344387054,44.212852478027344,-44.876625061035156,4.805098533630371,0.45
459,MetaDrive-td3combine-expt2,34,254.88227715592845,461396,2158,13508.531648635864,42.577728271484375,,51.677467346191406,0.46
460,MetaDrive-td3combine-expt2,34,252.38529739195764,462070,2160,13530.307031393051,43.728111267089844,,5.4126739501953125,0.45
461,MetaDrive-td3combine-expt2,34,251.39215964113475,463107,2163,13562.645912408829,44.96601104736328,-45.628448486328125,9.608591079711914,0.45
462,MetaDrive-td3combine-expt2,34,251.76332895040974,464448,2166,13600.704734325409,44.67261505126953,,25.195423126220703,0.46
463,MetaDrive-td3combine-expt2,34,250.6960977972002,465246,2168,13625.957659244537,43.100059509277344,,4.765278339385986,0.46
464,MetaDrive-td3combine-expt2,34,254.86143448680497,466163,2170,13653.50129699707,45.72816848754883,-45.69403076171875,7.040121078491211,0.48
465,MetaDrive-td3combine-expt2,34,250.1966855103608,467035,2173,13680.407684803009,49.07682800292969,-49.09034729003906,25.924240112304688,0.46
466,MetaDrive-td3combine-expt2,34,251.4982882951604,468925,2175,13740.778796195984,41.0771484375,-41.53282165527344,49.85776901245117,0.47
467,MetaDrive-td3combine-expt2,34,255.15623860656407,469874,2176,13770.55155825615,46.020179748535156,,3.8679141998291016,0.48
468,MetaDrive-td3combine-expt2,34,256.90705450598705,470474,2177,13791.155822753906,46.47413635253906,,7.369478225708008,0.49
469,MetaDrive-td3combine-expt2,34,256.01575884215566,471378,2180,13817.96313714981,43.005104064941406,,8.622041702270508,0.49
470,MetaDrive-td3combine-expt2,34,258.16201676841126,472296,2182,13846.988006830215,42.760955810546875,,6.159287452697754,0.49
471,MetaDrive-td3combine-expt2,34,258.97007581791837,473536,2184,13885.316512346268,44.2265625,,5.870743751525879,0.5
472,MetaDrive-td3combine-expt2,34,258.2160736101271,474503,2186,13913.575694084167,45.747127532958984,-46.62541198730469,6.838678359985352,0.51
473,MetaDrive-td3combine-expt2,34,258.9546633548995,475120,2187,13932.125948429108,39.002418518066406,,9.416909217834473,0.52
474,MetaDrive-td3combine-expt2,34,260.24332381430924,476248,2189,13974.37772321701,47.999141693115234,,5.248387813568115,0.52
475,MetaDrive-td3combine-expt2,34,261.0352355635148,477249,2190,14014.972984552383,43.26110076904297,-43.676551818847656,9.259926795959473,0.51
476,MetaDrive-td3combine-expt2,34,259.08748170041525,478621,2193,14059.82629108429,41.16631317138672,-42.514686584472656,35.77784729003906,0.49
477,MetaDrive-td3combine-expt2,34,253.95171601457875,479007,2195,14073.090091466904,46.01918411254883,-45.689910888671875,5.418433666229248,0.48
478,MetaDrive-td3combine-expt2,34,254.29714586559567,480077,2197,14110.997434139252,43.455078125,-43.75652313232422,7.968742370605469,0.48
479,MetaDrive-td3combine-expt2,34,250.9737755584175,481288,2201,14152.96347951889,47.290531158447266,,5.674070835113525,0.46
480,MetaDrive-td3combine-expt2,34,250.82541226168217,482225,2203,14180.791140317917,43.42375946044922,-45.00893783569336,8.379150390625,0.46
481,MetaDrive-td3combine-expt2,33,249.86714878590533,483664,2205,14227.40617442131,40.984519958496094,,7.919759750366211,0.46
482,MetaDrive-td3combine-expt2,33,247.4427159763608,484194,2206,14246.207743644714,46.199893951416016,,4.871837615966797,0.45
483,MetaDrive-td3combine-expt2,33,244.36111609756102,485005,2208,14272.060506820679,46.716304779052734,-46.8017463684082,5.203523635864258,0.44
484,MetaDrive-td3combine-expt2,33,240.1219095380724,486058,2211,14305.010066747665,46.72827911376953,,141.0950927734375,0.42
485,MetaDrive-td3combine-expt2,33,238.91304618367366,487352,2215,14344.716861486435,45.441070556640625,,37.37638854980469,0.42
486,MetaDrive-td3combine-expt2,33,239.92807492524898,488156,2217,14368.577412128448,44.039955139160156,,5.667052268981934,0.42
487,MetaDrive-td3combine-expt2,33,239.04458759150063,489200,2220,14402.123490095139,45.37675476074219,,9.629493713378906,0.41
488,MetaDrive-td3combine-expt2,33,238.0550716737907,490081,2222,14428.538331270218,41.14912033081055,-41.27619934082031,7.182731628417969,0.4
489,MetaDrive-td3combine-expt2,33,241.04786527070394,491330,2224,14469.117129564285,47.394805908203125,,13.5524263381958,0.42
490,MetaDrive-td3combine-expt2,33,240.1090805440052,492217,2226,14495.016599416733,44.014183044433594,-44.310081481933594,6.419671058654785,0.42
491,MetaDrive-td3combine-expt2,33,240.79095156246885,493338,2228,14530.777450561523,44.96881866455078,,11.488986015319824,0.42
492,MetaDrive-td3combine-expt2,33,243.0944401438789,494400,2230,14563.627987623215,46.108219146728516,,8.204201698303223,0.43
493,MetaDrive-td3combine-expt2,33,242.36371196821838,495277,2232,14590.120823144913,47.139686584472656,-47.573829650878906,4.902092933654785,0.42
494,MetaDrive-td3combine-expt2,33,242.60482965096872,496264,2235,14624.29800271988,42.31761169433594,,8.263466835021973,0.41
495,MetaDrive-td3combine-expt2,33,238.19982758766548,497003,2238,14648.645471811295,46.51994323730469,-46.71046829223633,4.466845512390137,0.39
496,MetaDrive-td3combine-expt2,33,239.39432696126028,498488,2240,14707.242262601852,45.136138916015625,,5.762630462646484,0.39
497,MetaDrive-td3combine-expt2,33,239.88065019348542,499172,2242,14727.070571660995,50.179893493652344,,5.668408393859863,0.4
