TanmayH/CS269-RL-project-code/MetaDrive-td3combine-expt_with_safe-leaky-adamw-in-q-weighted-corrected/MetaDrive-Gen-Next-v1/td3/progress.csv
,log_dir,frame_per_second,episode_reward,total_steps,total_episodes,total_time,actor_loss,critic_loss,target_q,success_rate
0,MetaDrive-td3combine-expt_with_safe-leaky-adamw-in-q-weighted-corrected,146,75.5750404209064,1563,2,10.69275975227356,-56.07085418701172,5.60911750793457,55.65789794921875,0.0
1,MetaDrive-td3combine-expt_with_safe-leaky-adamw-in-q-weighted-corrected,106,140.90700161385848,2822,4,26.489338874816895,,8.260905265808105,56.636714935302734,0.0
2,MetaDrive-td3combine-expt_with_safe-leaky-adamw-in-q-weighted-corrected,79,161.59204588358187,3823,5,48.02666974067688,-40.69011306762695,5.898899078369141,40.545833587646484,0.0
3,MetaDrive-td3combine-expt_with_safe-leaky-adamw-in-q-weighted-corrected,79,130.46327266790453,4387,7,55.378901958465576,-45.60871887207031,4.616796493530273,45.57209777832031,0.0
4,MetaDrive-td3combine-expt_with_safe-leaky-adamw-in-q-weighted-corrected,79,123.84788349449597,5388,8,68.012286901474,,126.68316650390625,46.467529296875,0.0
5,MetaDrive-td3combine-expt_with_safe-leaky-adamw-in-q-weighted-corrected,77,129.5872733540975,6389,9,82.15313386917114,-47.82195281982422,8.506834030151367,47.41517639160156,0.0
6,MetaDrive-td3combine-expt_with_safe-leaky-adamw-in-q-weighted-corrected,78,127.95487809931842,7104,10,90.94512796401978,,7.160958290100098,47.15643310546875,0.0
7,MetaDrive-td3combine-expt_with_safe-leaky-adamw-in-q-weighted-corrected,79,119.81086389110868,8105,11,102.34403491020203,-46.73524475097656,3.121570587158203,46.83571243286133,0.0
8,MetaDrive-td3combine-expt_with_safe-leaky-adamw-in-q-weighted-corrected,79,111.6550917412004,9106,12,113.9652259349823,,3.5221714973449707,38.676124572753906,0.0
9,MetaDrive-td3combine-expt_with_safe-leaky-adamw-in-q-weighted-corrected,77,106.06836385923475,10712,15,138.07181692123413,,3.4312744140625,46.017330169677734,0.0
10,MetaDrive-td3combine-expt_with_safe-leaky-adamw-in-q-weighted-corrected,76,110.43408173407462,11713,16,153.36682081222534,-43.096988677978516,2.1694717407226562,42.43967056274414,0.0
11,MetaDrive-td3combine-expt_with_safe-leaky-adamw-in-q-weighted-corrected,74,110.8858193765597,12714,17,169.5952558517456,,85.8543701171875,45.450279235839844,0.0
12,MetaDrive-td3combine-expt_with_safe-leaky-adamw-in-q-weighted-corrected,73,110.31039785561514,13693,20,187.06966400146484,-41.62068176269531,6.460065841674805,41.835968017578125,0.0
13,MetaDrive-td3combine-expt_with_safe-leaky-adamw-in-q-weighted-corrected,72,109.54058291525668,14631,21,201.30898594856262,-41.67379379272461,7.528742790222168,41.54212951660156,0.0
14,MetaDrive-td3combine-expt_with_safe-leaky-adamw-in-q-weighted-corrected,71,110.94620153066025,15632,22,219.1276957988739,,4.357791423797607,43.75042724609375,0.0
15,MetaDrive-td3combine-expt_with_safe-leaky-adamw-in-q-weighted-corrected,70,114.03254876452948,16081,23,226.98629689216614,-38.44527816772461,3.2489423751831055,37.99458312988281,0.0
16,MetaDrive-td3combine-expt_with_safe-leaky-adamw-in-q-weighted-corrected,70,118.80817984081563,17915,27,254.87467288970947,-39.321712493896484,4.7539215087890625,39.344627380371094,0.0
17,MetaDrive-td3combine-expt_with_safe-leaky-adamw-in-q-weighted-corrected,69,117.99478072543631,18916,28,271.05910778045654,,3.7678732872009277,38.99873352050781,0.0
18,MetaDrive-td3combine-expt_with_safe-leaky-adamw-in-q-weighted-corrected,69,118.14990448121287,19312,29,276.682532787323,,6.65029239654541,39.95577621459961,0.0
19,MetaDrive-td3combine-expt_with_safe-leaky-adamw-in-q-weighted-corrected,70,118.46430390381184,20313,30,289.9332308769226,-39.98841857910156,6.868496417999268,40.101036071777344,0.0
20,MetaDrive-td3combine-expt_with_safe-leaky-adamw-in-q-weighted-corrected,69,121.38046953427435,21348,33,305.43482089042664,,7.188658714294434,38.89409637451172,0.0
21,MetaDrive-td3combine-expt_with_safe-leaky-adamw-in-q-weighted-corrected,69,121.93467564530725,22204,36,317.8731107711792,,68.23020935058594,37.91547393798828,0.0
22,MetaDrive-td3combine-expt_with_safe-leaky-adamw-in-q-weighted-corrected,69,121.62950070177976,23280,38,333.61720991134644,,16.134254455566406,36.35248947143555,0.0
23,MetaDrive-td3combine-expt_with_safe-leaky-adamw-in-q-weighted-corrected,69,115.17717481072762,24070,42,346.2091257572174,,2.540193557739258,36.427650451660156,0.0
24,MetaDrive-td3combine-expt_with_safe-leaky-adamw-in-q-weighted-corrected,69,120.18772824036795,25057,44,360.00358510017395,-39.4957275390625,6.405554294586182,39.332923889160156,0.0
25,MetaDrive-td3combine-expt_with_safe-leaky-adamw-in-q-weighted-corrected,69,119.93279850131482,26058,45,377.5279369354248,,8.848945617675781,33.66375732421875,0.0
26,MetaDrive-td3combine-expt_with_safe-leaky-adamw-in-q-weighted-corrected,69,123.42372264455854,27600,49,396.8538477420807,,6.2138824462890625,33.6715087890625,0.04081632653061224
27,MetaDrive-td3combine-expt_with_safe-leaky-adamw-in-q-weighted-corrected,69,125.5031087996627,28408,51,408.6462059020996,,4.370796203613281,36.47404098510742,0.0392156862745098
28,MetaDrive-td3combine-expt_with_safe-leaky-adamw-in-q-weighted-corrected,69,128.3395027340102,29239,53,419.53194284439087,-39.93117141723633,4.751279830932617,39.976959228515625,0.05660377358490566
29,MetaDrive-td3combine-expt_with_safe-leaky-adamw-in-q-weighted-corrected,69,125.7086915903801,30396,57,437.29168796539307,,6.025525093078613,34.953575134277344,0.05263157894736842
30,MetaDrive-td3combine-expt_with_safe-leaky-adamw-in-q-weighted-corrected,69,124.5638305129169,31810,60,458.1934769153595,,5.157718658447266,33.35455322265625,0.05
31,MetaDrive-td3combine-expt_with_safe-leaky-adamw-in-q-weighted-corrected,68,125.28425293043044,32811,61,476.0693919658661,-35.081748962402344,3.1988072395324707,34.90351104736328,0.04918032786885246
32,MetaDrive-td3combine-expt_with_safe-leaky-adamw-in-q-weighted-corrected,68,124.43609936111301,33895,63,492.3215067386627,-38.29307174682617,7.505594253540039,37.97267150878906,0.047619047619047616
33,MetaDrive-td3combine-expt_with_safe-leaky-adamw-in-q-weighted-corrected,69,124.79481425053982,34868,65,504.4693818092346,,4.242789268493652,33.098175048828125,0.046153846153846156
34,MetaDrive-td3combine-expt_with_safe-leaky-adamw-in-q-weighted-corrected,68,124.20274202511341,35376,67,513.6223659515381,,10.825603485107422,34.045509338378906,0.04477611940298507
35,MetaDrive-td3combine-expt_with_safe-leaky-adamw-in-q-weighted-corrected,68,126.83251944512013,36841,70,539.868008852005,-34.68928527832031,79.81420135498047,34.383358001708984,0.04285714285714286
36,MetaDrive-td3combine-expt_with_safe-leaky-adamw-in-q-weighted-corrected,68,128.39550584476953,37263,71,547.0470798015594,-32.4694938659668,4.614031791687012,32.39086151123047,0.04225352112676056
37,MetaDrive-td3combine-expt_with_safe-leaky-adamw-in-q-weighted-corrected,68,125.55086288553737,38656,77,568.3282430171967,,6.597332954406738,34.88335418701172,0.03896103896103896
38,MetaDrive-td3combine-expt_with_safe-leaky-adamw-in-q-weighted-corrected,68,126.44738486665709,39657,78,582.3487010002136,-35.83599090576172,8.6126708984375,36.62223815917969,0.038461538461538464
39,MetaDrive-td3combine-expt_with_safe-leaky-adamw-in-q-weighted-corrected,67,124.86154930257207,40970,81,602.9361259937286,,9.521160125732422,31.94921112060547,0.037037037037037035
40,MetaDrive-td3combine-expt_with_safe-leaky-adamw-in-q-weighted-corrected,68,126.84457319276936,41514,82,610.288450717926,,17.226293563842773,30.93582534790039,0.04878048780487805
41,MetaDrive-td3combine-expt_with_safe-leaky-adamw-in-q-weighted-corrected,67,123.440829044878,42048,86,618.4736549854279,,7.9730224609375,33.766448974609375,0.046511627906976744
42,MetaDrive-td3combine-expt_with_safe-leaky-adamw-in-q-weighted-corrected,67,122.71823257215726,43049,87,634.22123503685,-31.41134262084961,6.4941911697387695,31.164472579956055,0.04597701149425287
43,MetaDrive-td3combine-expt_with_safe-leaky-adamw-in-q-weighted-corrected,67,123.95309181159458,44137,91,650.4380049705505,-35.39862060546875,6.589565753936768,35.051231384277344,0.054945054945054944
44,MetaDrive-td3combine-expt_with_safe-leaky-adamw-in-q-weighted-corrected,67,123.2682913990194,45375,96,669.7998337745667,-31.899311065673828,3.7733545303344727,31.9843807220459,0.0625
45,MetaDrive-td3combine-expt_with_safe-leaky-adamw-in-q-weighted-corrected,67,122.16792223943187,46690,99,687.9768047332764,,6.0862836837768555,28.602806091308594,0.06060606060606061
46,MetaDrive-td3combine-expt_with_safe-leaky-adamw-in-q-weighted-corrected,67,123.01718171498644,47993,101,707.3143339157104,-35.9966926574707,5.314881801605225,35.33661651611328,0.06
47,MetaDrive-td3combine-expt_with_safe-leaky-adamw-in-q-weighted-corrected,67,123.33069081208086,48994,102,723.5399067401886,,4.131608963012695,35.20029067993164,0.06
48,MetaDrive-td3combine-expt_with_safe-leaky-adamw-in-q-weighted-corrected,67,124.69553056647118,49995,103,739.673595905304,-29.58765983581543,3.571214199066162,29.959266662597656,0.06
49,MetaDrive-td3combine-expt_with_safe-leaky-adamw-in-q-weighted-corrected,67,125.79595570122994,50900,104,752.4284908771515,,9.27031135559082,30.671173095703125,0.06
50,MetaDrive-td3combine-expt_with_safe-leaky-adamw-in-q-weighted-corrected,67,125.31770598954762,51901,105,769.0376808643341,-33.00069046020508,4.027297019958496,33.06950378417969,0.06
51,MetaDrive-td3combine-expt_with_safe-leaky-adamw-in-q-weighted-corrected,67,127.01378141351499,52177,106,772.9030818939209,-32.53179168701172,3.9124531745910645,32.606590270996094,0.06
52,MetaDrive-td3combine-expt_with_safe-leaky-adamw-in-q-weighted-corrected,67,128.41979977293707,53073,108,787.4759650230408,-29.353878021240234,2.3893747329711914,29.212732315063477,0.06
53,MetaDrive-td3combine-expt_with_safe-leaky-adamw-in-q-weighted-corrected,67,128.2564831880923,54074,109,802.5944578647614,,6.950246810913086,25.601350784301758,0.06
54,MetaDrive-td3combine-expt_with_safe-leaky-adamw-in-q-weighted-corrected,67,130.30302452525194,55804,113,827.6522178649902,,2.674266815185547,26.53963279724121,0.06
55,MetaDrive-td3combine-expt_with_safe-leaky-adamw-in-q-weighted-corrected,67,133.016822811898,56805,114,842.1450619697571,-30.7441463470459,4.80546760559082,30.858562469482422,0.06
56,MetaDrive-td3combine-expt_with_safe-leaky-adamw-in-q-weighted-corrected,67,134.35366768276705,57748,116,856.291800737381,,6.624509811401367,35.52872848510742,0.07
57,MetaDrive-td3combine-expt_with_safe-leaky-adamw-in-q-weighted-corrected,67,135.16983488187645,58237,117,864.5548639297485,-33.55372619628906,2.58359956741333,33.24015808105469,0.07
58,MetaDrive-td3combine-expt_with_safe-leaky-adamw-in-q-weighted-corrected,66,137.516476778847,59352,119,888.6903479099274,,9.781522750854492,34.960906982421875,0.07
59,MetaDrive-td3combine-expt_with_safe-leaky-adamw-in-q-weighted-corrected,66,135.91225495765656,60071,121,900.3993418216705,-32.71261215209961,5.034242630004883,32.01702117919922,0.07
60,MetaDrive-td3combine-expt_with_safe-leaky-adamw-in-q-weighted-corrected,66,136.44199276793373,61072,122,921.3752398490906,,5.51399040222168,32.13551712036133,0.07
61,MetaDrive-td3combine-expt_with_safe-leaky-adamw-in-q-weighted-corrected,66,137.45912000822128,62103,124,936.2127540111542,-29.80499267578125,10.794427871704102,30.24057960510254,0.08
62,MetaDrive-td3combine-expt_with_safe-leaky-adamw-in-q-weighted-corrected,66,136.81626470617698,63765,127,965.831475019455,-35.93223571777344,18.262208938598633,35.81559371948242,0.08
63,MetaDrive-td3combine-expt_with_safe-leaky-adamw-in-q-weighted-corrected,66,137.96735463943446,64106,128,971.0185296535492,,5.424503326416016,34.41343688964844,0.08
64,MetaDrive-td3combine-expt_with_safe-leaky-adamw-in-q-weighted-corrected,65,139.51898717632616,65107,129,989.8991758823395,-31.671815872192383,3.518217086791992,31.70362091064453,0.08
65,MetaDrive-td3combine-expt_with_safe-leaky-adamw-in-q-weighted-corrected,65,140.89496271070456,66101,131,1005.2886867523193,-28.58374786376953,4.854016304016113,28.519990921020508,0.09
66,MetaDrive-td3combine-expt_with_safe-leaky-adamw-in-q-weighted-corrected,65,140.2944220425938,67583,133,1029.0682668685913,-28.29555320739746,4.744454383850098,27.983089447021484,0.09
67,MetaDrive-td3combine-expt_with_safe-leaky-adamw-in-q-weighted-corrected,65,140.54531965702805,68267,135,1040.5039649009705,-30.041481018066406,22.357372283935547,30.55264663696289,0.09
68,MetaDrive-td3combine-expt_with_safe-leaky-adamw-in-q-weighted-corrected,65,141.8634305147245,69262,138,1056.0943739414215,,7.5146684646606445,30.434871673583984,0.1
69,MetaDrive-td3combine-expt_with_safe-leaky-adamw-in-q-weighted-corrected,65,143.53564653192424,70263,139,1075.6696960926056,-32.70861053466797,7.945620536804199,32.57734298706055,0.1
70,MetaDrive-td3combine-expt_with_safe-leaky-adamw-in-q-weighted-corrected,65,146.15063026979658,71175,141,1091.1233139038086,-30.966020584106445,35.407432556152344,30.244510650634766,0.1
71,MetaDrive-td3combine-expt_with_safe-leaky-adamw-in-q-weighted-corrected,65,147.3844088240013,72176,142,1107.977873802185,,6.521786689758301,30.16228485107422,0.1
72,MetaDrive-td3combine-expt_with_safe-leaky-adamw-in-q-weighted-corrected,64,145.87169136701146,73061,144,1124.999077796936,-32.16874313354492,5.475343704223633,31.787267684936523,0.1
73,MetaDrive-td3combine-expt_with_safe-leaky-adamw-in-q-weighted-corrected,64,145.5822645996177,74101,146,1141.7841470241547,-29.622028350830078,7.846161842346191,29.265195846557617,0.09
74,MetaDrive-td3combine-expt_with_safe-leaky-adamw-in-q-weighted-corrected,65,149.36276908745072,75778,148,1165.19731092453,,25.641679763793945,32.001365661621094,0.1
75,MetaDrive-td3combine-expt_with_safe-leaky-adamw-in-q-weighted-corrected,64,149.83876107405246,76478,149,1177.4490020275116,,4.965409755706787,30.75166893005371,0.1
76,MetaDrive-td3combine-expt_with_safe-leaky-adamw-in-q-weighted-corrected,64,151.14843832390272,77531,152,1194.26531291008,-30.48865509033203,8.810857772827148,30.701030731201172,0.11
77,MetaDrive-td3combine-expt_with_safe-leaky-adamw-in-q-weighted-corrected,64,149.7777688746715,78174,154,1205.0686588287354,,7.081942558288574,33.653839111328125,0.1
78,MetaDrive-td3combine-expt_with_safe-leaky-adamw-in-q-weighted-corrected,64,151.8621312227683,79067,155,1216.8364489078522,-32.7514762878418,6.010436534881592,32.13705825805664,0.11
79,MetaDrive-td3combine-expt_with_safe-leaky-adamw-in-q-weighted-corrected,64,153.63938614227945,80068,156,1236.4329206943512,,4.381776809692383,28.11152458190918,0.11
80,MetaDrive-td3combine-expt_with_safe-leaky-adamw-in-q-weighted-corrected,64,156.71461713214913,81322,158,1254.97984790802,,8.12176513671875,36.362449645996094,0.13
81,MetaDrive-td3combine-expt_with_safe-leaky-adamw-in-q-weighted-corrected,64,158.63066820774674,82075,159,1269.1266808509827,-36.444644927978516,5.248061180114746,36.02422332763672,0.13
82,MetaDrive-td3combine-expt_with_safe-leaky-adamw-in-q-weighted-corrected,64,158.0951221345219,83246,161,1286.4625079631805,,2.948180675506592,32.102840423583984,0.13
83,MetaDrive-td3combine-expt_with_safe-leaky-adamw-in-q-weighted-corrected,64,159.5447647958352,84247,162,1307.7387988567352,-31.490154266357422,7.071747779846191,31.954952239990234,0.13
84,MetaDrive-td3combine-expt_with_safe-leaky-adamw-in-q-weighted-corrected,64,158.8371293266305,85662,165,1327.5911779403687,,8.058972358703613,35.2279167175293,0.13
85,MetaDrive-td3combine-expt_with_safe-leaky-adamw-in-q-weighted-corrected,64,159.40660869864246,86663,166,1345.7028169631958,-32.54821014404297,8.970455169677734,32.32419967651367,0.13
86,MetaDrive-td3combine-expt_with_safe-leaky-adamw-in-q-weighted-corrected,64,160.0750742673155,87664,167,1360.750394821167,,8.959678649902344,29.358154296875,0.13
87,MetaDrive-td3combine-expt_with_safe-leaky-adamw-in-q-weighted-corrected,64,161.33328709690232,88665,168,1375.2652969360352,-31.166025161743164,4.165053844451904,30.522354125976562,0.13
88,MetaDrive-td3combine-expt_with_safe-leaky-adamw-in-q-weighted-corrected,64,163.20516072626103,89338,169,1385.8027157783508,,7.141514778137207,34.00893783569336,0.14
89,MetaDrive-td3combine-expt_with_safe-leaky-adamw-in-q-weighted-corrected,64,163.48467477431475,90215,170,1397.3966488838196,-29.51386260986328,3.5735793113708496,28.8292236328125,0.15
90,MetaDrive-td3combine-expt_with_safe-leaky-adamw-in-q-weighted-corrected,64,164.2711659328918,91668,172,1420.1204969882965,,4.947935581207275,28.52197265625,0.15
91,MetaDrive-td3combine-expt_with_safe-leaky-adamw-in-q-weighted-corrected,64,164.2660247345934,92258,173,1427.7039189338684,,6.374251842498779,30.71660041809082,0.15
92,MetaDrive-td3combine-expt_with_safe-leaky-adamw-in-q-weighted-corrected,64,168.83755091829676,93842,176,1454.6063261032104,,10.421957015991211,30.716262817382812,0.16
93,MetaDrive-td3combine-expt_with_safe-leaky-adamw-in-q-weighted-corrected,64,168.5098586977412,94843,177,1473.9451718330383,-33.13288116455078,7.335272789001465,32.23854446411133,0.16
94,MetaDrive-td3combine-expt_with_safe-leaky-adamw-in-q-weighted-corrected,63,169.0582852161605,95844,178,1499.0426268577576,,5.156586647033691,30.044578552246094,0.16
95,MetaDrive-td3combine-expt_with_safe-leaky-adamw-in-q-weighted-corrected,63,169.10613196809078,96054,179,1502.2359488010406,,8.055654525756836,32.76422119140625,0.16
96,MetaDrive-td3combine-expt_with_safe-leaky-adamw-in-q-weighted-corrected,63,171.32778539111933,97529,181,1530.7207658290863,-31.458879470825195,4.759237766265869,31.829025268554688,0.16
97,MetaDrive-td3combine-expt_with_safe-leaky-adamw-in-q-weighted-corrected,63,169.78482885264864,98419,182,1544.2267088890076,-30.854042053222656,7.979500770568848,30.472309112548828,0.15
98,MetaDrive-td3combine-expt_with_safe-leaky-adamw-in-q-weighted-corrected,63,171.91720162054068,99916,184,1572.4336228370667,,3.856579303741455,30.232746124267578,0.15
99,MetaDrive-td3combine-expt_with_safe-leaky-adamw-in-q-weighted-corrected,63,171.95202990282579,100058,185,1574.5016269683838,,6.266681671142578,33.062843322753906,0.15
100,MetaDrive-td3combine-expt_with_safe-leaky-adamw-in-q-weighted-corrected,63,177.24772978685894,101768,187,1599.7148549556732,,94.93692779541016,30.48530387878418,0.17
101,MetaDrive-td3combine-expt_with_safe-leaky-adamw-in-q-weighted-corrected,63,178.10206200563005,102099,188,1605.245825767517,-32.96102523803711,5.997779369354248,32.9008903503418,0.17
102,MetaDrive-td3combine-expt_with_safe-leaky-adamw-in-q-weighted-corrected,63,179.79071854879706,103100,189,1626.1950657367706,,7.24729585647583,31.13237762451172,0.17
103,MetaDrive-td3combine-expt_with_safe-leaky-adamw-in-q-weighted-corrected,63,180.1873324150226,104097,190,1641.3845210075378,-30.64043617248535,6.31198787689209,30.407913208007812,0.16
104,MetaDrive-td3combine-expt_with_safe-leaky-adamw-in-q-weighted-corrected,63,182.36124560869027,105638,192,1663.857979774475,,4.752801418304443,31.21112823486328,0.17
105,MetaDrive-td3combine-expt_with_safe-leaky-adamw-in-q-weighted-corrected,63,184.46236320934548,106639,193,1684.9416539669037,-32.46776580810547,6.528232574462891,32.240142822265625,0.17
106,MetaDrive-td3combine-expt_with_safe-leaky-adamw-in-q-weighted-corrected,63,186.54680272365727,107592,195,1698.5562980175018,,6.835559844970703,29.665346145629883,0.18
107,MetaDrive-td3combine-expt_with_safe-leaky-adamw-in-q-weighted-corrected,63,187.08463945195228,108475,196,1712.9990746974945,-29.944955825805664,3.7651591300964355,29.843608856201172,0.18
108,MetaDrive-td3combine-expt_with_safe-leaky-adamw-in-q-weighted-corrected,63,190.60880116117886,109439,197,1729.8107960224152,-32.55759811401367,6.108823776245117,32.937339782714844,0.19
109,MetaDrive-td3combine-expt_with_safe-leaky-adamw-in-q-weighted-corrected,63,192.74097219570987,110231,198,1740.6397187709808,-32.66285705566406,9.822364807128906,32.05183410644531,0.2
110,MetaDrive-td3combine-expt_with_safe-leaky-adamw-in-q-weighted-corrected,63,195.38104187993824,111232,199,1755.2706348896027,,4.529372692108154,33.17661666870117,0.2
111,MetaDrive-td3combine-expt_with_safe-leaky-adamw-in-q-weighted-corrected,63,196.84884155449973,112024,200,1765.6409318447113,,3.5635499954223633,31.260765075683594,0.21
112,MetaDrive-td3combine-expt_with_safe-leaky-adamw-in-q-weighted-corrected,63,197.41846631653908,113118,202,1785.4066798686981,,5.542777061462402,31.373214721679688,0.21
113,MetaDrive-td3combine-expt_with_safe-leaky-adamw-in-q-weighted-corrected,63,195.67631186571273,114763,204,1813.1092910766602,-33.031341552734375,9.291099548339844,32.48337936401367,0.22
114,MetaDrive-td3combine-expt_with_safe-leaky-adamw-in-q-weighted-corrected,63,197.52250904335455,115693,205,1826.2138957977295,-34.44797897338867,5.70358943939209,33.977264404296875,0.23
115,MetaDrive-td3combine-expt_with_safe-leaky-adamw-in-q-weighted-corrected,63,198.4702599199574,116694,206,1840.370629787445,,9.67932415008545,27.421857833862305,0.23
116,MetaDrive-td3combine-expt_with_safe-leaky-adamw-in-q-weighted-corrected,63,198.90600337805535,117695,207,1858.5413019657135,-28.3731689453125,95.20867156982422,27.809213638305664,0.23
117,MetaDrive-td3combine-expt_with_safe-leaky-adamw-in-q-weighted-corrected,63,200.43536998924364,118341,208,1867.1972978115082,-29.58243751525879,8.268115997314453,30.291231155395508,0.24
118,MetaDrive-td3combine-expt_with_safe-leaky-adamw-in-q-weighted-corrected,63,200.46789166402164,119308,210,1882.3108270168304,,33.148277282714844,33.21880340576172,0.24
119,MetaDrive-td3combine-expt_with_safe-leaky-adamw-in-q-weighted-corrected,63,201.61510943167323,120309,211,1900.605535030365,-33.152156829833984,5.878810882568359,33.47053527832031,0.24
120,MetaDrive-td3combine-expt_with_safe-leaky-adamw-in-q-weighted-corrected,63,203.23700868155527,121310,212,1923.2902526855469,,6.281308650970459,31.071941375732422,0.24
121,MetaDrive-td3combine-expt_with_safe-leaky-adamw-in-q-weighted-corrected,62,202.2463665093732,122628,214,1949.6142437458038,,7.114253997802734,30.684389114379883,0.24
122,MetaDrive-td3combine-expt_with_safe-leaky-adamw-in-q-weighted-corrected,62,203.13802493893473,123281,215,1958.9561128616333,-33.82054901123047,5.855562210083008,33.27974319458008,0.24
123,MetaDrive-td3combine-expt_with_safe-leaky-adamw-in-q-weighted-corrected,62,201.69038697800414,124816,218,1985.8016860485077,,10.016803741455078,30.32213020324707,0.24
124,MetaDrive-td3combine-expt_with_safe-leaky-adamw-in-q-weighted-corrected,62,200.02784148833337,125970,220,2003.0591928958893,,6.185076713562012,32.11785125732422,0.24
125,MetaDrive-td3combine-expt_with_safe-leaky-adamw-in-q-weighted-corrected,62,200.79858751966887,126971,221,2021.7690119743347,-31.88339614868164,5.753481864929199,31.914770126342773,0.24
126,MetaDrive-td3combine-expt_with_safe-leaky-adamw-in-q-weighted-corrected,62,202.6925524190439,127637,222,2030.8205828666687,-34.35832214355469,5.645681858062744,34.03020477294922,0.25
127,MetaDrive-td3combine-expt_with_safe-leaky-adamw-in-q-weighted-corrected,62,204.03451088062866,128638,223,2048.296144962311,,7.147356986999512,26.650474548339844,0.25
128,MetaDrive-td3combine-expt_with_safe-leaky-adamw-in-q-weighted-corrected,62,203.18619975321326,129163,224,2054.681088924408,-32.40607833862305,6.3924994468688965,32.159793853759766,0.25
129,MetaDrive-td3combine-expt_with_safe-leaky-adamw-in-q-weighted-corrected,62,203.9524572220542,130164,225,2069.966892719269,,6.768654823303223,25.309486389160156,0.25
130,MetaDrive-td3combine-expt_with_safe-leaky-adamw-in-q-weighted-corrected,62,203.96136608632577,131165,226,2087.2570130825043,-31.009265899658203,5.2834014892578125,31.0633602142334,0.25
131,MetaDrive-td3combine-expt_with_safe-leaky-adamw-in-q-weighted-corrected,62,203.87466920496016,132166,227,2105.4375009536743,,8.234768867492676,32.465511322021484,0.25
132,MetaDrive-td3combine-expt_with_safe-leaky-adamw-in-q-weighted-corrected,62,204.46429785328732,133167,228,2119.764314889908,-33.571739196777344,3.2726311683654785,33.267669677734375,0.25
133,MetaDrive-td3combine-expt_with_safe-leaky-adamw-in-q-weighted-corrected,62,205.6956182226744,134073,229,2134.1195979118347,-31.4808292388916,6.587488174438477,30.739093780517578,0.26
134,MetaDrive-td3combine-expt_with_safe-leaky-adamw-in-q-weighted-corrected,62,206.31860118493032,135074,230,2151.8171169757843,,3.6608333587646484,30.749332427978516,0.26
135,MetaDrive-td3combine-expt_with_safe-leaky-adamw-in-q-weighted-corrected,62,204.93984475546222,136075,231,2167.222084760666,-29.900205612182617,8.034014701843262,29.1267032623291,0.25
136,MetaDrive-td3combine-expt_with_safe-leaky-adamw-in-q-weighted-corrected,62,205.57166785575703,137076,232,2183.6487040519714,,6.537175178527832,29.52048683166504,0.25
137,MetaDrive-td3combine-expt_with_safe-leaky-adamw-in-q-weighted-corrected,62,207.03335217944706,138077,233,2197.3099949359894,-32.502716064453125,5.409661293029785,32.64837646484375,0.25
138,MetaDrive-td3combine-expt_with_safe-leaky-adamw-in-q-weighted-corrected,62,210.31512860815738,139405,235,2215.261889696121,-32.320926666259766,3.830132007598877,31.94643211364746,0.27
139,MetaDrive-td3combine-expt_with_safe-leaky-adamw-in-q-weighted-corrected,62,212.52202254357505,140406,236,2231.9418449401855,,7.443344593048096,28.239864349365234,0.27
140,MetaDrive-td3combine-expt_with_safe-leaky-adamw-in-q-weighted-corrected,62,214.4354301850061,141095,237,2240.4480147361755,-27.42041778564453,72.0003662109375,26.92995834350586,0.28
141,MetaDrive-td3combine-expt_with_safe-leaky-adamw-in-q-weighted-corrected,62,215.5252592661583,142096,238,2256.978721857071,,9.621173858642578,30.5148868560791,0.27
142,MetaDrive-td3combine-expt_with_safe-leaky-adamw-in-q-weighted-corrected,62,215.0881363447677,143596,241,2282.330066919327,,6.4530863761901855,28.706485748291016,0.27
143,MetaDrive-td3combine-expt_with_safe-leaky-adamw-in-q-weighted-corrected,62,214.98678226711786,144048,242,2287.895085811615,,11.5609769821167,30.007490158081055,0.27
144,MetaDrive-td3combine-expt_with_safe-leaky-adamw-in-q-weighted-corrected,63,219.46382095583328,145410,244,2307.082755804062,,6.116050720214844,28.707210540771484,0.28
145,MetaDrive-td3combine-expt_with_safe-leaky-adamw-in-q-weighted-corrected,62,220.6431165334576,146411,245,2325.159399986267,-28.94025421142578,10.05001163482666,29.914011001586914,0.28
146,MetaDrive-td3combine-expt_with_safe-leaky-adamw-in-q-weighted-corrected,63,221.13841771284325,147412,246,2338.8276948928833,,6.354887962341309,29.634855270385742,0.28
147,MetaDrive-td3combine-expt_with_safe-leaky-adamw-in-q-weighted-corrected,63,221.6067951489627,148099,247,2348.630089044571,-28.148258209228516,5.185732841491699,27.494924545288086,0.28
148,MetaDrive-td3combine-expt_with_safe-leaky-adamw-in-q-weighted-corrected,62,219.92418544885874,149699,249,2377.8533849716187,-32.16612243652344,6.812213897705078,31.404088973999023,0.27
149,MetaDrive-td3combine-expt_with_safe-leaky-adamw-in-q-weighted-corrected,62,222.66608659432407,150700,250,2395.975119829178,,20.86669921875,28.867982864379883,0.27
150,MetaDrive-td3combine-expt_with_safe-leaky-adamw-in-q-weighted-corrected,62,223.20945925988283,151466,251,2407.9713480472565,,15.675132751464844,30.497108459472656,0.27
151,MetaDrive-td3combine-expt_with_safe-leaky-adamw-in-q-weighted-corrected,62,222.40224836047807,152423,253,2420.410979747772,-33.479515075683594,4.814549446105957,33.29184341430664,0.26
152,MetaDrive-td3combine-expt_with_safe-leaky-adamw-in-q-weighted-corrected,63,223.27421600033506,153737,255,2440.048501968384,-30.815250396728516,8.410421371459961,30.288742065429688,0.26
153,MetaDrive-td3combine-expt_with_safe-leaky-adamw-in-q-weighted-corrected,63,220.9612211666895,154486,257,2450.181385040283,,7.13741397857666,26.459339141845703,0.26
154,MetaDrive-td3combine-expt_with_safe-leaky-adamw-in-q-weighted-corrected,63,220.20180259751723,155487,258,2465.0765850543976,-29.49496078491211,9.957586288452148,28.484783172607422,0.25
155,MetaDrive-td3combine-expt_with_safe-leaky-adamw-in-q-weighted-corrected,62,220.04304753046364,156488,259,2487.5535130500793,,6.158063888549805,29.246707916259766,0.25
156,MetaDrive-td3combine-expt_with_safe-leaky-adamw-in-q-weighted-corrected,62,222.40496129412267,157023,260,2494.4202687740326,-32.16688919067383,6.857033729553223,31.91854476928711,0.26
157,MetaDrive-td3combine-expt_with_safe-leaky-adamw-in-q-weighted-corrected,62,222.93315849560022,158024,261,2510.6100039482117,,4.986506462097168,26.995288848876953,0.26
158,MetaDrive-td3combine-expt_with_safe-leaky-adamw-in-q-weighted-corrected,62,227.73662944586096,159517,263,2532.8667500019073,-30.032564163208008,6.240809917449951,29.64989471435547,0.28
159,MetaDrive-td3combine-expt_with_safe-leaky-adamw-in-q-weighted-corrected,62,228.90911756662186,160518,264,2549.7007586956024,,6.3871307373046875,31.91939353942871,0.28
160,MetaDrive-td3combine-expt_with_safe-leaky-adamw-in-q-weighted-corrected,63,230.4904069134743,161397,266,2560.4460978507996,-31.558176040649414,7.3687005043029785,31.0406494140625,0.29
161,MetaDrive-td3combine-expt_with_safe-leaky-adamw-in-q-weighted-corrected,63,230.69453452629386,162398,267,2576.722025871277,,6.469799041748047,26.952619552612305,0.29
162,MetaDrive-td3combine-expt_with_safe-leaky-adamw-in-q-weighted-corrected,63,231.75771912939524,163362,268,2590.316900730133,,8.77751350402832,33.04503631591797,0.3
163,MetaDrive-td3combine-expt_with_safe-leaky-adamw-in-q-weighted-corrected,63,230.0299666961426,164321,269,2605.9314889907837,-29.96246337890625,10.814828872680664,29.51988983154297,0.29
164,MetaDrive-td3combine-expt_with_safe-leaky-adamw-in-q-weighted-corrected,63,229.76079684968684,165270,271,2618.460357904434,,6.711199760437012,27.182266235351562,0.29
165,MetaDrive-td3combine-expt_with_safe-leaky-adamw-in-q-weighted-corrected,63,229.35167931831595,166483,273,2641.7034587860107,-29.202116012573242,6.394148826599121,29.159461975097656,0.29
166,MetaDrive-td3combine-expt_with_safe-leaky-adamw-in-q-weighted-corrected,63,229.70614151162994,167484,274,2658.0444507598877,,18.560009002685547,27.802745819091797,0.28
167,MetaDrive-td3combine-expt_with_safe-leaky-adamw-in-q-weighted-corrected,63,231.2863156084634,168485,275,2672.5199398994446,-32.52686309814453,4.610538005828857,32.10187530517578,0.28
168,MetaDrive-td3combine-expt_with_safe-leaky-adamw-in-q-weighted-corrected,63,231.00599413115754,169033,276,2680.595249891281,-26.610836029052734,5.667880535125732,26.085948944091797,0.29
169,MetaDrive-td3combine-expt_with_safe-leaky-adamw-in-q-weighted-corrected,63,228.3698027579953,170118,278,2699.779454946518,,6.080654144287109,26.080596923828125,0.29
170,MetaDrive-td3combine-expt_with_safe-leaky-adamw-in-q-weighted-corrected,62,231.52018403637283,171119,279,2716.407198905945,-30.21276092529297,11.893365859985352,30.745302200317383,0.29
171,MetaDrive-td3combine-expt_with_safe-leaky-adamw-in-q-weighted-corrected,63,231.73337849640006,172120,280,2731.308594942093,,63.143585205078125,28.72814178466797,0.29
172,MetaDrive-td3combine-expt_with_safe-leaky-adamw-in-q-weighted-corrected,62,231.365283623835,173121,281,2751.245391845703,-29.571548461914062,7.923612594604492,29.230510711669922,0.29
173,MetaDrive-td3combine-expt_with_safe-leaky-adamw-in-q-weighted-corrected,62,225.14871493071547,174512,287,2775.4514429569244,,9.121728897094727,25.450599670410156,0.27
174,MetaDrive-td3combine-expt_with_safe-leaky-adamw-in-q-weighted-corrected,62,226.25567716379933,175314,288,2790.0134840011597,,8.961554527282715,31.17034339904785,0.27
175,MetaDrive-td3combine-expt_with_safe-leaky-adamw-in-q-weighted-corrected,62,227.3282853609792,176315,289,2804.945207834244,-29.765039443969727,9.82431697845459,29.28104019165039,0.27
176,MetaDrive-td3combine-expt_with_safe-leaky-adamw-in-q-weighted-corrected,62,223.8393017886654,177260,291,2822.5764739513397,,42.06745910644531,22.408748626708984,0.26
177,MetaDrive-td3combine-expt_with_safe-leaky-adamw-in-q-weighted-corrected,62,222.99088293308472,178261,292,2837.2777428627014,-30.58541488647461,7.93836784362793,29.831802368164062,0.26
178,MetaDrive-td3combine-expt_with_safe-leaky-adamw-in-q-weighted-corrected,62,222.34223476997482,179262,293,2856.1927309036255,,8.992254257202148,32.413230895996094,0.26
179,MetaDrive-td3combine-expt_with_safe-leaky-adamw-in-q-weighted-corrected,62,224.164407189589,180714,295,2877.1689138412476,,6.477286338806152,31.903030395507812,0.26
180,MetaDrive-td3combine-expt_with_safe-leaky-adamw-in-q-weighted-corrected,62,223.51890591990556,181494,296,2887.1713070869446,,20.065265655517578,25.498397827148438,0.26
181,MetaDrive-td3combine-expt_with_safe-leaky-adamw-in-q-weighted-corrected,62,221.86691443570396,182495,297,2910.7812328338623,-24.864299774169922,8.794118881225586,24.768600463867188,0.25
182,MetaDrive-td3combine-expt_with_safe-leaky-adamw-in-q-weighted-corrected,62,220.2465790207656,183061,298,2919.7461659908295,-28.901880264282227,4.95963716506958,28.80415153503418,0.24
183,MetaDrive-td3combine-expt_with_safe-leaky-adamw-in-q-weighted-corrected,62,219.31483567586787,184623,301,2946.1587369441986,-24.915447235107422,6.5013108253479,26.054357528686523,0.24
184,MetaDrive-td3combine-expt_with_safe-leaky-adamw-in-q-weighted-corrected,62,218.5403424346583,185624,302,2966.410763025284,,4.670721530914307,28.83179473876953,0.24
185,MetaDrive-td3combine-expt_with_safe-leaky-adamw-in-q-weighted-corrected,62,216.11831374426677,186981,304,2992.5723147392273,-27.596282958984375,6.7751874923706055,27.330509185791016,0.23
186,MetaDrive-td3combine-expt_with_safe-leaky-adamw-in-q-weighted-corrected,62,214.8051313805772,187467,305,2999.7269518375397,-29.342756271362305,10.646415710449219,29.158445358276367,0.23
187,MetaDrive-td3combine-expt_with_safe-leaky-adamw-in-q-weighted-corrected,62,210.62379488704212,188224,308,3010.331923007965,,6.200256824493408,29.39344596862793,0.22
188,MetaDrive-td3combine-expt_with_safe-leaky-adamw-in-q-weighted-corrected,62,212.5409030892014,189736,311,3034.4269518852234,,5.621909141540527,29.60219383239746,0.23
189,MetaDrive-td3combine-expt_with_safe-leaky-adamw-in-q-weighted-corrected,62,212.30726767996822,190946,313,3056.825320005417,,5.61264705657959,28.782133102416992,0.23
190,MetaDrive-td3combine-expt_with_safe-leaky-adamw-in-q-weighted-corrected,62,212.89120306066866,191615,314,3067.0813477039337,-31.240840911865234,4.642985820770264,30.68255615234375,0.24
191,MetaDrive-td3combine-expt_with_safe-leaky-adamw-in-q-weighted-corrected,62,211.42552968237825,192882,316,3090.6087050437927,,5.966151237487793,23.98785400390625,0.23
192,MetaDrive-td3combine-expt_with_safe-leaky-adamw-in-q-weighted-corrected,62,213.75619063471734,193565,317,3101.9831800460815,-28.691463470458984,14.338160514831543,28.396629333496094,0.24
193,MetaDrive-td3combine-expt_with_safe-leaky-adamw-in-q-weighted-corrected,62,214.96075278945932,194262,318,3112.857437849045,,8.509629249572754,32.86700439453125,0.25
194,MetaDrive-td3combine-expt_with_safe-leaky-adamw-in-q-weighted-corrected,62,216.32125170992913,195263,319,3135.642861843109,-32.07946014404297,5.788447380065918,31.723073959350586,0.25
195,MetaDrive-td3combine-expt_with_safe-leaky-adamw-in-q-weighted-corrected,62,216.5064830177749,196264,320,3153.890483856201,,5.754657745361328,26.616369247436523,0.25
196,MetaDrive-td3combine-expt_with_safe-leaky-adamw-in-q-weighted-corrected,62,218.7000795445584,197097,321,3166.695089817047,-24.55326271057129,6.324117183685303,24.287595748901367,0.26
197,MetaDrive-td3combine-expt_with_safe-leaky-adamw-in-q-weighted-corrected,62,216.99782033194458,198098,322,3183.7670867443085,,7.995816707611084,29.27253532409668,0.25
198,MetaDrive-td3combine-expt_with_safe-leaky-adamw-in-q-weighted-corrected,62,218.06672677073792,199025,323,3198.9964249134064,-26.60580825805664,25.495746612548828,26.119871139526367,0.26
199,MetaDrive-td3combine-expt_with_safe-leaky-adamw-in-q-weighted-corrected,62,218.1595130876163,200804,326,3229.4690487384796,,8.080612182617188,29.570344924926758,0.25
200,MetaDrive-td3combine-expt_with_safe-leaky-adamw-in-q-weighted-corrected,62,220.4100040970722,201805,327,3247.3288509845734,-25.850990295410156,6.346704483032227,26.29780387878418,0.25
201,MetaDrive-td3combine-expt_with_safe-leaky-adamw-in-q-weighted-corrected,62,219.21396393508604,202806,328,3264.399271965027,,18.049549102783203,28.75642204284668,0.25
202,MetaDrive-td3combine-expt_with_safe-leaky-adamw-in-q-weighted-corrected,62,217.97630480966689,203370,329,3271.713809967041,,9.359519958496094,32.867881774902344,0.25
203,MetaDrive-td3combine-expt_with_safe-leaky-adamw-in-q-weighted-corrected,62,219.6432528326219,204931,331,3294.9166688919067,-29.905000686645508,5.681148052215576,29.899765014648438,0.26
204,MetaDrive-td3combine-expt_with_safe-leaky-adamw-in-q-weighted-corrected,62,220.45771549257523,205391,332,3300.59951376915,-30.410215377807617,14.338294982910156,30.045360565185547,0.27
205,MetaDrive-td3combine-expt_with_safe-leaky-adamw-in-q-weighted-corrected,62,220.2131656224194,206327,333,3314.1868250370026,-31.3309326171875,9.120523452758789,31.095134735107422,0.28
206,MetaDrive-td3combine-expt_with_safe-leaky-adamw-in-q-weighted-corrected,62,214.6280810235105,207474,336,3331.959065914154,,5.4187912940979,26.19923973083496,0.26
207,MetaDrive-td3combine-expt_with_safe-leaky-adamw-in-q-weighted-corrected,62,211.9052958958424,208477,338,3345.854898929596,-29.5196590423584,5.945425987243652,28.847089767456055,0.26
208,MetaDrive-td3combine-expt_with_safe-leaky-adamw-in-q-weighted-corrected,62,213.334719757172,209886,340,3371.130927801132,,7.568576335906982,29.881011962890625,0.26
209,MetaDrive-td3combine-expt_with_safe-leaky-adamw-in-q-weighted-corrected,62,211.74616496196978,210191,341,3375.834000825882,-30.03519058227539,8.560077667236328,29.602313995361328,0.26
210,MetaDrive-td3combine-expt_with_safe-leaky-adamw-in-q-weighted-corrected,62,208.60980076446984,211542,344,3396.0071148872375,,10.954559326171875,32.66820526123047,0.26
211,MetaDrive-td3combine-expt_with_safe-leaky-adamw-in-q-weighted-corrected,62,205.96461291929555,212082,346,3403.8653540611267,,5.90586519241333,25.939075469970703,0.26
212,MetaDrive-td3combine-expt_with_safe-leaky-adamw-in-q-weighted-corrected,62,204.08543753634788,213366,348,3426.31191778183,,9.498424530029297,30.971860885620117,0.25
213,MetaDrive-td3combine-expt_with_safe-leaky-adamw-in-q-weighted-corrected,62,204.8898441237609,214367,349,3444.533477783203,-32.392723083496094,5.427423477172852,32.28526306152344,0.25
214,MetaDrive-td3combine-expt_with_safe-leaky-adamw-in-q-weighted-corrected,62,203.80065351384138,215368,350,3465.6266498565674,,7.157046794891357,29.61471939086914,0.25
215,MetaDrive-td3combine-expt_with_safe-leaky-adamw-in-q-weighted-corrected,62,204.82598195977297,216886,352,3495.322995901108,,8.512535095214844,28.01898956298828,0.25
216,MetaDrive-td3combine-expt_with_safe-leaky-adamw-in-q-weighted-corrected,62,203.3954243828267,217258,353,3501.2033858299255,,9.169750213623047,30.34740447998047,0.25
217,MetaDrive-td3combine-expt_with_safe-leaky-adamw-in-q-weighted-corrected,62,205.2251900202893,218021,354,3514.450117826462,-25.821727752685547,9.931268692016602,26.389101028442383,0.26
218,MetaDrive-td3combine-expt_with_safe-leaky-adamw-in-q-weighted-corrected,62,205.71419615652155,219243,356,3534.104497909546,-30.25180435180664,6.294935703277588,29.97760581970215,0.25
219,MetaDrive-td3combine-expt_with_safe-leaky-adamw-in-q-weighted-corrected,62,204.67445980164754,220244,357,3549.210124731064,,10.385679244995117,32.79178237915039,0.24
220,MetaDrive-td3combine-expt_with_safe-leaky-adamw-in-q-weighted-corrected,62,200.1606468259188,221309,360,3567.817363023758,-30.574155807495117,6.771998405456543,31.11075782775879,0.23
221,MetaDrive-td3combine-expt_with_safe-leaky-adamw-in-q-weighted-corrected,61,200.10613342077707,222310,361,3587.297947883606,,5.642663478851318,27.734649658203125,0.23
222,MetaDrive-td3combine-expt_with_safe-leaky-adamw-in-q-weighted-corrected,61,199.51291050881667,223297,362,3603.1267766952515,-30.647808074951172,10.734381675720215,30.872093200683594,0.23
223,MetaDrive-td3combine-expt_with_safe-leaky-adamw-in-q-weighted-corrected,61,199.5131622352702,224229,363,3618.618353843689,-27.115055084228516,7.332174777984619,27.93689727783203,0.23
224,MetaDrive-td3combine-expt_with_safe-leaky-adamw-in-q-weighted-corrected,61,197.18667769621206,225333,365,3635.6709809303284,-29.369264602661133,6.2512311935424805,29.65412139892578,0.23
225,MetaDrive-td3combine-expt_with_safe-leaky-adamw-in-q-weighted-corrected,61,196.78700368741474,226472,367,3659.640444993973,,5.3981218338012695,30.895002365112305,0.22
226,MetaDrive-td3combine-expt_with_safe-leaky-adamw-in-q-weighted-corrected,61,194.71538347452008,227939,369,3684.093155860901,-23.36736297607422,11.885845184326172,24.209308624267578,0.21
227,MetaDrive-td3combine-expt_with_safe-leaky-adamw-in-q-weighted-corrected,61,195.8945808869017,228940,370,3706.808861017227,,6.458189964294434,29.716934204101562,0.21
228,MetaDrive-td3combine-expt_with_safe-leaky-adamw-in-q-weighted-corrected,61,193.78358674533797,229252,371,3711.852840900421,,5.962122917175293,25.48423194885254,0.2
229,MetaDrive-td3combine-expt_with_safe-leaky-adamw-in-q-weighted-corrected,61,194.8339421183934,230031,373,3726.3008828163147,-30.994173049926758,4.2720208168029785,30.364089965820312,0.2
230,MetaDrive-td3combine-expt_with_safe-leaky-adamw-in-q-weighted-corrected,61,196.17116876777544,231412,375,3746.7290267944336,,4.057890892028809,29.152345657348633,0.22
231,MetaDrive-td3combine-expt_with_safe-leaky-adamw-in-q-weighted-corrected,61,195.4534939268516,232362,377,3761.556652069092,,9.380197525024414,26.655494689941406,0.21
232,MetaDrive-td3combine-expt_with_safe-leaky-adamw-in-q-weighted-corrected,61,192.87110355125662,233435,379,3779.965969800949,-28.469453811645508,7.003914833068848,27.578990936279297,0.21
233,MetaDrive-td3combine-expt_with_safe-leaky-adamw-in-q-weighted-corrected,61,193.87740029884077,234436,380,3799.946886777878,,4.621899127960205,25.45458984375,0.21
234,MetaDrive-td3combine-expt_with_safe-leaky-adamw-in-q-weighted-corrected,61,192.78884486329088,235437,381,3814.671732902527,-29.372386932373047,6.424072265625,29.38595199584961,0.21
235,MetaDrive-td3combine-expt_with_safe-leaky-adamw-in-q-weighted-corrected,61,193.7122426357177,236438,382,3830.2406389713287,,15.829398155212402,33.688507080078125,0.21
236,MetaDrive-td3combine-expt_with_safe-leaky-adamw-in-q-weighted-corrected,61,196.13149336662784,237212,384,3841.0191888809204,,9.815532684326172,32.40907287597656,0.22
237,MetaDrive-td3combine-expt_with_safe-leaky-adamw-in-q-weighted-corrected,61,197.68914058935377,238213,385,3856.3186938762665,-26.014698028564453,5.03225040435791,25.80716323852539,0.22
238,MetaDrive-td3combine-expt_with_safe-leaky-adamw-in-q-weighted-corrected,61,198.70206989233264,239214,386,3876.063157081604,,9.387643814086914,28.09402084350586,0.22
239,MetaDrive-td3combine-expt_with_safe-leaky-adamw-in-q-weighted-corrected,61,198.72597701769436,240215,387,3893.6140270233154,-30.152982711791992,4.362804412841797,30.357521057128906,0.22
240,MetaDrive-td3combine-expt_with_safe-leaky-adamw-in-q-weighted-corrected,61,196.39781491678048,241444,389,3915.278744697571,,3.621856212615967,25.61931610107422,0.22
241,MetaDrive-td3combine-expt_with_safe-leaky-adamw-in-q-weighted-corrected,61,196.73756098085582,242445,390,3930.1300559043884,-26.431264877319336,13.108100891113281,25.95461654663086,0.22
242,MetaDrive-td3combine-expt_with_safe-leaky-adamw-in-q-weighted-corrected,61,196.83876277261675,243446,391,3948.414124727249,,7.178450584411621,27.10417366027832,0.22
243,MetaDrive-td3combine-expt_with_safe-leaky-adamw-in-q-weighted-corrected,61,199.0878403719105,244163,392,3958.9857878684998,-26.276826858520508,10.397716522216797,26.4986629486084,0.23
244,MetaDrive-td3combine-expt_with_safe-leaky-adamw-in-q-weighted-corrected,61,199.79893714503544,245792,394,3989.4668288230896,,7.863327980041504,30.365962982177734,0.22
245,MetaDrive-td3combine-expt_with_safe-leaky-adamw-in-q-weighted-corrected,61,199.10622312239602,246793,395,4009.824355840683,-29.396865844726562,8.57020378112793,29.32266616821289,0.22
246,MetaDrive-td3combine-expt_with_safe-leaky-adamw-in-q-weighted-corrected,61,198.60084243815254,247794,396,4028.693818807602,,7.923469543457031,28.362998962402344,0.21
247,MetaDrive-td3combine-expt_with_safe-leaky-adamw-in-q-weighted-corrected,61,194.73980103192935,248881,399,4043.873778820038,-25.99020004272461,7.339134216308594,25.536348342895508,0.21
248,MetaDrive-td3combine-expt_with_safe-leaky-adamw-in-q-weighted-corrected,61,195.537772842729,249882,400,4059.1970019340515,,3.1762466430664062,31.691099166870117,0.21
249,MetaDrive-td3combine-expt_with_safe-leaky-adamw-in-q-weighted-corrected,61,196.36140551531116,250339,401,4065.0693278312683,-33.6002082824707,8.37169075012207,33.14023208618164,0.22
250,MetaDrive-td3combine-expt_with_safe-leaky-adamw-in-q-weighted-corrected,61,195.91694243714858,251340,402,4082.470251083374,,8.282261848449707,24.916574478149414,0.22
251,MetaDrive-td3combine-expt_with_safe-leaky-adamw-in-q-weighted-corrected,61,197.15287014084745,252341,403,4104.1821167469025,-28.619277954101562,8.80416488647461,28.792381286621094,0.22
252,MetaDrive-td3combine-expt_with_safe-leaky-adamw-in-q-weighted-corrected,61,195.69691166466907,253230,406,4117.546595811844,,11.84762954711914,25.37303924560547,0.22
253,MetaDrive-td3combine-expt_with_safe-leaky-adamw-in-q-weighted-corrected,61,196.7117111242342,254231,407,4135.874429941177,-27.1939754486084,4.71844482421875,26.6820068359375,0.22
254,MetaDrive-td3combine-expt_with_safe-leaky-adamw-in-q-weighted-corrected,61,198.68129072176816,255130,408,4150.087335824966,,4.905640602111816,28.530179977416992,0.23
255,MetaDrive-td3combine-expt_with_safe-leaky-adamw-in-q-weighted-corrected,61,198.69705377589239,256293,410,4170.807067871094,-25.20044708251953,15.836160659790039,23.949668884277344,0.22
256,MetaDrive-td3combine-expt_with_safe-leaky-adamw-in-q-weighted-corrected,61,195.9251366289432,257771,413,4193.441014051437,-27.09134864807129,6.714565277099609,26.237810134887695,0.23
257,MetaDrive-td3combine-expt_with_safe-leaky-adamw-in-q-weighted-corrected,61,194.5645177240219,258772,414,4213.152528762817,,8.684638023376465,29.322433471679688,0.22
258,MetaDrive-td3combine-expt_with_safe-leaky-adamw-in-q-weighted-corrected,61,196.9991443203813,259773,415,4232.714285850525,-28.764997482299805,6.1541337966918945,28.09222412109375,0.22
259,MetaDrive-td3combine-expt_with_safe-leaky-adamw-in-q-weighted-corrected,61,198.0966582227931,260774,416,4250.894954919815,,3.927844524383545,24.0284481048584,0.22
260,MetaDrive-td3combine-expt_with_safe-leaky-adamw-in-q-weighted-corrected,61,196.30178129594634,261775,417,4266.095263004303,-22.509265899658203,41.94416046142578,23.120872497558594,0.21
261,MetaDrive-td3combine-expt_with_safe-leaky-adamw-in-q-weighted-corrected,61,197.01295391781932,262605,418,4278.87197804451,-22.78515625,25.541706085205078,22.28318977355957,0.21
262,MetaDrive-td3combine-expt_with_safe-leaky-adamw-in-q-weighted-corrected,61,199.8395564767032,263949,420,4304.8439218997955,-28.236360549926758,7.098454475402832,27.668916702270508,0.21
263,MetaDrive-td3combine-expt_with_safe-leaky-adamw-in-q-weighted-corrected,61,196.79912732127974,264041,421,4307.097100734711,-25.009355545043945,5.703001976013184,24.76581573486328,0.2
264,MetaDrive-td3combine-expt_with_safe-leaky-adamw-in-q-weighted-corrected,61,194.65545157362718,265303,423,4335.900701999664,-29.967071533203125,5.065157890319824,29.781997680664062,0.19
265,MetaDrive-td3combine-expt_with_safe-leaky-adamw-in-q-weighted-corrected,61,195.461326284932,266235,425,4351.595480918884,-24.066160202026367,8.83161735534668,24.220829010009766,0.2
266,MetaDrive-td3combine-expt_with_safe-leaky-adamw-in-q-weighted-corrected,61,196.65160902658124,267236,426,4373.619626045227,,6.412861347198486,26.548480987548828,0.2
267,MetaDrive-td3combine-expt_with_safe-leaky-adamw-in-q-weighted-corrected,60,195.37436606110066,268237,427,4398.491796016693,-28.33161163330078,6.932843208312988,28.206270217895508,0.2
268,MetaDrive-td3combine-expt_with_safe-leaky-adamw-in-q-weighted-corrected,60,198.03777896274292,269238,428,4417.269177913666,,5.498217582702637,22.704710006713867,0.2
269,MetaDrive-td3combine-expt_with_safe-leaky-adamw-in-q-weighted-corrected,60,198.31572642273983,270239,429,4437.416416883469,-31.42135238647461,5.30402946472168,32.06205368041992,0.19
270,MetaDrive-td3combine-expt_with_safe-leaky-adamw-in-q-weighted-corrected,60,197.43825723388946,271084,431,4450.660355806351,,13.357505798339844,27.560165405273438,0.19
271,MetaDrive-td3combine-expt_with_safe-leaky-adamw-in-q-weighted-corrected,60,195.53382830453913,272079,433,4475.077038764954,-28.808290481567383,7.645395278930664,28.167789459228516,0.17
272,MetaDrive-td3combine-expt_with_safe-leaky-adamw-in-q-weighted-corrected,60,198.4162193505761,273742,435,4504.2426817417145,,6.908958911895752,28.535842895507812,0.18
273,MetaDrive-td3combine-expt_with_safe-leaky-adamw-in-q-weighted-corrected,60,200.1380324014755,274743,436,4524.14950299263,-23.996801376342773,5.249943733215332,23.90751838684082,0.18
274,MetaDrive-td3combine-expt_with_safe-leaky-adamw-in-q-weighted-corrected,60,200.4184360951823,275292,437,4532.419885873795,,7.546103000640869,28.208354949951172,0.18
275,MetaDrive-td3combine-expt_with_safe-leaky-adamw-in-q-weighted-corrected,60,201.5530973796437,276137,438,4543.273449897766,-31.847434997558594,8.065767288208008,31.64801025390625,0.18
276,MetaDrive-td3combine-expt_with_safe-leaky-adamw-in-q-weighted-corrected,60,202.92568029009777,277591,440,4561.438143968582,-30.55872917175293,4.367751121520996,30.07940101623535,0.2
277,MetaDrive-td3combine-expt_with_safe-leaky-adamw-in-q-weighted-corrected,60,204.24360740588705,278592,441,4584.612978935242,,10.182100296020508,30.45176124572754,0.2
278,MetaDrive-td3combine-expt_with_safe-leaky-adamw-in-q-weighted-corrected,60,205.37962423567737,279318,442,4595.6670179367065,,8.649269104003906,27.48814582824707,0.2
279,MetaDrive-td3combine-expt_with_safe-leaky-adamw-in-q-weighted-corrected,60,203.2215169598624,280198,444,4612.263655900955,,6.579442977905273,24.98373031616211,0.19
280,MetaDrive-td3combine-expt_with_safe-leaky-adamw-in-q-weighted-corrected,60,205.59875131929456,281569,446,4632.027907848358,-27.61847686767578,6.4817399978637695,27.649057388305664,0.2
281,MetaDrive-td3combine-expt_with_safe-leaky-adamw-in-q-weighted-corrected,60,205.4344785611645,282570,447,4646.350688934326,,6.898246765136719,31.670368194580078,0.2
282,MetaDrive-td3combine-expt_with_safe-leaky-adamw-in-q-weighted-corrected,60,207.25767089994702,283571,448,4663.925081729889,-26.334354400634766,5.51882791519165,26.17464828491211,0.2
283,MetaDrive-td3combine-expt_with_safe-leaky-adamw-in-q-weighted-corrected,60,208.02486916144713,284572,449,4685.874213933945,,5.0214643478393555,30.355953216552734,0.2
284,MetaDrive-td3combine-expt_with_safe-leaky-adamw-in-q-weighted-corrected,60,208.24170066872466,285573,450,4705.581755876541,-31.06932830810547,6.0705060958862305,31.406251907348633,0.2
285,MetaDrive-td3combine-expt_with_safe-leaky-adamw-in-q-weighted-corrected,60,209.392708074827,286221,451,4715.068677902222,-29.686473846435547,6.804215431213379,29.72020149230957,0.21
286,MetaDrive-td3combine-expt_with_safe-leaky-adamw-in-q-weighted-corrected,60,209.35662650139759,287045,452,4734.455488920212,-32.1085319519043,7.1109466552734375,31.85814094543457,0.21
287,MetaDrive-td3combine-expt_with_safe-leaky-adamw-in-q-weighted-corrected,60,209.45306250169014,288540,454,4753.660192966461,,8.552436828613281,26.651721954345703,0.22
288,MetaDrive-td3combine-expt_with_safe-leaky-adamw-in-q-weighted-corrected,60,210.72759468517518,289236,455,4762.117183923721,,7.992609024047852,28.567028045654297,0.23
289,MetaDrive-td3combine-expt_with_safe-leaky-adamw-in-q-weighted-corrected,60,209.68135423934484,290237,456,4781.0571808815,-26.403278350830078,6.842476844787598,26.438936233520508,0.23
290,MetaDrive-td3combine-expt_with_safe-leaky-adamw-in-q-weighted-corrected,60,210.34897105825183,291238,457,4802.284924983978,,9.923437118530273,24.71512794494629,0.23
291,MetaDrive-td3combine-expt_with_safe-leaky-adamw-in-q-weighted-corrected,60,210.10262784487662,292239,458,4815.88271689415,-28.263505935668945,16.21819496154785,28.742780685424805,0.23
292,MetaDrive-td3combine-expt_with_safe-leaky-adamw-in-q-weighted-corrected,60,212.23152058051434,293377,461,4832.576443910599,-26.415517807006836,5.14619255065918,26.44449806213379,0.23
293,MetaDrive-td3combine-expt_with_safe-leaky-adamw-in-q-weighted-corrected,60,207.8866006049422,294411,463,4850.6302399635315,-23.695533752441406,6.94584846496582,22.988142013549805,0.21
294,MetaDrive-td3combine-expt_with_safe-leaky-adamw-in-q-weighted-corrected,60,210.1333446279637,295318,465,4862.783165931702,,3.4645490646362305,24.564722061157227,0.22
295,MetaDrive-td3combine-expt_with_safe-leaky-adamw-in-q-weighted-corrected,60,206.71763592779965,296087,468,4873.133925914764,-27.405902862548828,6.019697189331055,27.186586380004883,0.23
296,MetaDrive-td3combine-expt_with_safe-leaky-adamw-in-q-weighted-corrected,60,209.63688832135912,297088,469,4892.270303010941,,5.179146766662598,25.088394165039062,0.23
297,MetaDrive-td3combine-expt_with_safe-leaky-adamw-in-q-weighted-corrected,60,210.1217033944606,298189,471,4909.302666902542,-28.299196243286133,8.168149948120117,28.250349044799805,0.24
298,MetaDrive-td3combine-expt_with_safe-leaky-adamw-in-q-weighted-corrected,60,211.3461047516941,299227,473,4925.809132099152,-25.849294662475586,7.468610763549805,26.540382385253906,0.25
299,MetaDrive-td3combine-expt_with_safe-leaky-adamw-in-q-weighted-corrected,60,209.41846889259216,300368,475,4941.784162759781,,15.823030471801758,33.6055908203125,0.23
300,MetaDrive-td3combine-expt_with_safe-leaky-adamw-in-q-weighted-corrected,60,210.64307029466036,301369,476,4959.138904809952,-29.530099868774414,8.3985595703125,28.92231559753418,0.23
301,MetaDrive-td3combine-expt_with_safe-leaky-adamw-in-q-weighted-corrected,60,212.61999381447006,302309,477,4972.13981795311,-26.698104858398438,11.624499320983887,26.603681564331055,0.24
302,MetaDrive-td3combine-expt_with_safe-leaky-adamw-in-q-weighted-corrected,60,212.79845432402536,303911,480,5002.414306879044,-23.126405715942383,6.564704895019531,23.071468353271484,0.24
303,MetaDrive-td3combine-expt_with_safe-leaky-adamw-in-q-weighted-corrected,60,212.9369225076081,304588,481,5012.783660888672,,9.032028198242188,30.068946838378906,0.24
304,MetaDrive-td3combine-expt_with_safe-leaky-adamw-in-q-weighted-corrected,60,212.78470446295313,305589,482,5031.434295892715,-26.557376861572266,7.727898597717285,26.760467529296875,0.24
305,MetaDrive-td3combine-expt_with_safe-leaky-adamw-in-q-weighted-corrected,60,214.9892385688527,306590,483,5049.085505723953,,5.129510879516602,23.716829299926758,0.24
306,MetaDrive-td3combine-expt_with_safe-leaky-adamw-in-q-weighted-corrected,60,215.18794242690635,307536,484,5061.459970712662,,26.609859466552734,27.017732620239258,0.24
307,MetaDrive-td3combine-expt_with_safe-leaky-adamw-in-q-weighted-corrected,60,213.79111355936965,308247,486,5071.3552877902985,-31.739532470703125,6.189901828765869,31.124977111816406,0.24
308,MetaDrive-td3combine-expt_with_safe-leaky-adamw-in-q-weighted-corrected,60,212.98937131822774,309372,488,5096.548507928848,,5.05732536315918,29.938732147216797,0.24
309,MetaDrive-td3combine-expt_with_safe-leaky-adamw-in-q-weighted-corrected,60,213.16247716926983,310373,489,5118.284460783005,-26.878646850585938,7.388869285583496,27.09406852722168,0.24
310,MetaDrive-td3combine-expt_with_safe-leaky-adamw-in-q-weighted-corrected,60,213.25415214101352,311039,491,5129.977986812592,-23.96369171142578,12.897666931152344,23.455463409423828,0.25
311,MetaDrive-td3combine-expt_with_safe-leaky-adamw-in-q-weighted-corrected,60,212.52937136506836,312575,493,5158.321141958237,-32.29315185546875,4.776639938354492,32.2557487487793,0.25
312,MetaDrive-td3combine-expt_with_safe-leaky-adamw-in-q-weighted-corrected,60,213.39409664635045,313576,494,5175.650971889496,,7.121607780456543,29.79392433166504,0.25
313,MetaDrive-td3combine-expt_with_safe-leaky-adamw-in-q-weighted-corrected,60,213.8470844744217,314200,495,5185.165390729904,,4.142083644866943,29.176692962646484,0.26
314,MetaDrive-td3combine-expt_with_safe-leaky-adamw-in-q-weighted-corrected,60,216.17719720312175,315482,498,5205.757968902588,,4.914187908172607,26.50464630126953,0.27
315,MetaDrive-td3combine-expt_with_safe-leaky-adamw-in-q-weighted-corrected,60,215.31140923952393,316056,499,5214.679116010666,,6.305744171142578,31.5855770111084,0.27
316,MetaDrive-td3combine-expt_with_safe-leaky-adamw-in-q-weighted-corrected,60,217.81521436798994,317035,500,5229.121676683426,-29.064908981323242,4.724708557128906,28.482797622680664,0.28
317,MetaDrive-td3combine-expt_with_safe-leaky-adamw-in-q-weighted-corrected,60,216.23640866850005,318368,502,5249.781512975693,,9.48600959777832,25.834182739257812,0.27
318,MetaDrive-td3combine-expt_with_safe-leaky-adamw-in-q-weighted-corrected,60,217.53436179883988,319135,503,5260.623217821121,-31.801029205322266,5.623050689697266,32.24196243286133,0.28
319,MetaDrive-td3combine-expt_with_safe-leaky-adamw-in-q-weighted-corrected,60,218.22874515152714,320590,506,5281.151849031448,,10.666821479797363,27.70040512084961,0.28
320,MetaDrive-td3combine-expt_with_safe-leaky-adamw-in-q-weighted-corrected,60,219.44507673650708,321261,507,5290.932570934296,-26.59215545654297,6.053946495056152,26.299793243408203,0.29
321,MetaDrive-td3combine-expt_with_safe-leaky-adamw-in-q-weighted-corrected,60,217.54527888845857,322262,508,5311.775681018829,,5.8904829025268555,30.59069061279297,0.28
322,MetaDrive-td3combine-expt_with_safe-leaky-adamw-in-q-weighted-corrected,60,219.15976574269268,323263,509,5332.210310935974,-29.59527015686035,4.908269882202148,29.597023010253906,0.28
323,MetaDrive-td3combine-expt_with_safe-leaky-adamw-in-q-weighted-corrected,60,219.14979286187634,324973,511,5358.726265907288,-26.349746704101562,8.295751571655273,25.187889099121094,0.28
324,MetaDrive-td3combine-expt_with_safe-leaky-adamw-in-q-weighted-corrected,60,221.9571834409431,325670,512,5366.504003763199,,16.355690002441406,28.975120544433594,0.29
325,MetaDrive-td3combine-expt_with_safe-leaky-adamw-in-q-weighted-corrected,60,222.39914911920522,326671,513,5385.775288820267,-26.3507137298584,8.432413101196289,25.476408004760742,0.29
326,MetaDrive-td3combine-expt_with_safe-leaky-adamw-in-q-weighted-corrected,60,221.2454174805033,327360,515,5395.958082675934,,5.672833442687988,27.423391342163086,0.3
327,MetaDrive-td3combine-expt_with_safe-leaky-adamw-in-q-weighted-corrected,60,221.7643288343703,328131,516,5407.001392841339,-28.98065185546875,4.4524126052856445,28.202484130859375,0.31
328,MetaDrive-td3combine-expt_with_safe-leaky-adamw-in-q-weighted-corrected,60,216.47648046686444,329650,520,5428.403866767883,,4.665806770324707,31.405052185058594,0.31
329,MetaDrive-td3combine-expt_with_safe-leaky-adamw-in-q-weighted-corrected,60,216.5197216116896,330784,523,5443.3743398189545,,4.279537200927734,25.359350204467773,0.32
330,MetaDrive-td3combine-expt_with_safe-leaky-adamw-in-q-weighted-corrected,60,218.54751353251478,331783,524,5458.801999807358,-26.398475646972656,6.173627853393555,26.15566635131836,0.33
331,MetaDrive-td3combine-expt_with_safe-leaky-adamw-in-q-weighted-corrected,60,219.5572009162506,332572,525,5470.252755880356,,7.8054986000061035,28.97474479675293,0.33
332,MetaDrive-td3combine-expt_with_safe-leaky-adamw-in-q-weighted-corrected,60,219.12860491517674,333173,526,5477.70201086998,-29.51668930053711,3.826145648956299,29.867639541625977,0.34
333,MetaDrive-td3combine-expt_with_safe-leaky-adamw-in-q-weighted-corrected,60,219.95517557013594,334063,527,5488.964001655579,-29.213945388793945,7.518698692321777,28.226795196533203,0.35
334,MetaDrive-td3combine-expt_with_safe-leaky-adamw-in-q-weighted-corrected,60,217.59060685393183,335064,528,5504.988674879074,,7.4605913162231445,31.852108001708984,0.35
335,MetaDrive-td3combine-expt_with_safe-leaky-adamw-in-q-weighted-corrected,60,216.13357054068015,336517,530,5533.701027870178,-26.895292282104492,9.81863021850586,27.20682144165039,0.34
336,MetaDrive-td3combine-expt_with_safe-leaky-adamw-in-q-weighted-corrected,60,217.5327124129404,337181,531,5545.477271795273,-30.87590980529785,9.674185752868652,31.044048309326172,0.34
337,MetaDrive-td3combine-expt_with_safe-leaky-adamw-in-q-weighted-corrected,60,216.77950059340813,338285,533,5565.210685968399,-28.431825637817383,5.688669204711914,28.180355072021484,0.34
338,MetaDrive-td3combine-expt_with_safe-leaky-adamw-in-q-weighted-corrected,60,217.21698022664359,339286,534,5588.07786989212,,6.74424934387207,28.374340057373047,0.33
339,MetaDrive-td3combine-expt_with_safe-leaky-adamw-in-q-weighted-corrected,60,218.18444283222667,340287,535,5601.965805768967,-23.275814056396484,4.592305660247803,23.4678897857666,0.33
340,MetaDrive-td3combine-expt_with_safe-leaky-adamw-in-q-weighted-corrected,60,215.53453005984565,341288,536,5620.372077703476,,9.002436637878418,32.58547592163086,0.33
341,MetaDrive-td3combine-expt_with_safe-leaky-adamw-in-q-weighted-corrected,60,217.30779184771418,342200,537,5631.728234052658,,5.154383659362793,31.737394332885742,0.34
342,MetaDrive-td3combine-expt_with_safe-leaky-adamw-in-q-weighted-corrected,60,213.81232026033177,343411,539,5649.09761095047,-32.080467224121094,6.305885314941406,32.29176330566406,0.32
343,MetaDrive-td3combine-expt_with_safe-leaky-adamw-in-q-weighted-corrected,60,213.45698199994976,344061,540,5658.292376756668,-30.86847686767578,5.773197650909424,30.390281677246094,0.31
344,MetaDrive-td3combine-expt_with_safe-leaky-adamw-in-q-weighted-corrected,60,211.86839347596427,345177,542,5674.7907247543335,-24.90679168701172,4.267487525939941,25.125680923461914,0.31
345,MetaDrive-td3combine-expt_with_safe-leaky-adamw-in-q-weighted-corrected,60,213.54056574649854,346178,543,5688.665158987045,,8.263747215270996,29.433231353759766,0.31
346,MetaDrive-td3combine-expt_with_safe-leaky-adamw-in-q-weighted-corrected,60,213.53795044076156,347251,545,5703.6000509262085,-29.745445251464844,7.327020645141602,29.692670822143555,0.32
347,MetaDrive-td3combine-expt_with_safe-leaky-adamw-in-q-weighted-corrected,60,211.52589743845883,348601,547,5723.516715049744,-25.46965980529785,16.130769729614258,24.935056686401367,0.31
348,MetaDrive-td3combine-expt_with_safe-leaky-adamw-in-q-weighted-corrected,60,210.25971869890353,349140,548,5732.026054859161,,6.262445449829102,29.34785270690918,0.31
349,MetaDrive-td3combine-expt_with_safe-leaky-adamw-in-q-weighted-corrected,60,207.6066787564102,350354,551,5748.672428846359,,6.7470703125,28.27431297302246,0.31
350,MetaDrive-td3combine-expt_with_safe-leaky-adamw-in-q-weighted-corrected,61,204.03134207371238,351603,554,5763.5130450725555,-26.8563175201416,4.692334175109863,26.767858505249023,0.3
351,MetaDrive-td3combine-expt_with_safe-leaky-adamw-in-q-weighted-corrected,60,203.98572529642155,352604,555,5781.443413972855,,6.165575981140137,28.46961784362793,0.29
352,MetaDrive-td3combine-expt_with_safe-leaky-adamw-in-q-weighted-corrected,61,204.90646840406572,353200,556,5788.5177228450775,,8.22291088104248,28.3156681060791,0.3
353,MetaDrive-td3combine-expt_with_safe-leaky-adamw-in-q-weighted-corrected,61,203.4675465036015,354236,558,5804.076183795929,,6.692609786987305,27.50792694091797,0.3
354,MetaDrive-td3combine-expt_with_safe-leaky-adamw-in-q-weighted-corrected,61,204.70545904386591,355237,559,5819.490442991257,-32.08632278442383,59.58934783935547,31.83865737915039,0.3
355,MetaDrive-td3combine-expt_with_safe-leaky-adamw-in-q-weighted-corrected,61,204.12956659243594,356247,562,5833.540503740311,-30.43153953552246,12.484106063842773,30.216032028198242,0.31
356,MetaDrive-td3combine-expt_with_safe-leaky-adamw-in-q-weighted-corrected,61,202.7215708319103,357297,564,5853.936940670013,-29.46718978881836,9.993217468261719,29.776470184326172,0.31
357,MetaDrive-td3combine-expt_with_safe-leaky-adamw-in-q-weighted-corrected,61,202.22602242711287,358298,565,5869.466797828674,,4.275042533874512,29.729679107666016,0.3
358,MetaDrive-td3combine-expt_with_safe-leaky-adamw-in-q-weighted-corrected,61,203.9585184323213,359085,567,5881.880988836288,-26.276845932006836,8.378751754760742,25.818317413330078,0.3
359,MetaDrive-td3combine-expt_with_safe-leaky-adamw-in-q-weighted-corrected,61,203.75631228005625,360813,569,5905.802049875259,-30.645740509033203,8.990226745605469,30.294095993041992,0.31
360,MetaDrive-td3combine-expt_with_safe-leaky-adamw-in-q-weighted-corrected,61,203.38992737696418,361814,570,5922.438494920731,,10.909881591796875,29.99767303466797,0.3
361,MetaDrive-td3combine-expt_with_safe-leaky-adamw-in-q-weighted-corrected,61,203.7954594294472,362249,571,5928.596186876297,-30.051408767700195,10.349735260009766,28.939109802246094,0.3
362,MetaDrive-td3combine-expt_with_safe-leaky-adamw-in-q-weighted-corrected,61,197.59856159077478,363246,576,5942.5467529296875,,8.572423934936523,27.276561737060547,0.29
363,MetaDrive-td3combine-expt_with_safe-leaky-adamw-in-q-weighted-corrected,61,195.2336744727006,364247,577,5957.542212724686,-30.555625915527344,13.26784610748291,30.336015701293945,0.28
364,MetaDrive-td3combine-expt_with_safe-leaky-adamw-in-q-weighted-corrected,61,193.77889189676935,365653,581,5981.330895900726,-25.37944793701172,5.138617992401123,25.349031448364258,0.28
365,MetaDrive-td3combine-expt_with_safe-leaky-adamw-in-q-weighted-corrected,61,193.64338726837195,366982,583,6000.680793762207,,7.819754600524902,30.870899200439453,0.28
366,MetaDrive-td3combine-expt_with_safe-leaky-adamw-in-q-weighted-corrected,61,191.521293961938,367501,584,6008.405414819717,-31.938941955566406,6.548126697540283,32.21940612792969,0.27
367,MetaDrive-td3combine-expt_with_safe-leaky-adamw-in-q-weighted-corrected,61,190.72889728027968,368241,587,6018.926250934601,-32.846519470214844,6.892978668212891,32.17496109008789,0.27
368,MetaDrive-td3combine-expt_with_safe-leaky-adamw-in-q-weighted-corrected,61,190.13205171472876,369004,589,6030.016480922699,,8.815423965454102,25.60176658630371,0.28
369,MetaDrive-td3combine-expt_with_safe-leaky-adamw-in-q-weighted-corrected,61,188.68837258551147,370070,591,6049.3361847400665,,5.261288642883301,29.339567184448242,0.27
370,MetaDrive-td3combine-expt_with_safe-leaky-adamw-in-q-weighted-corrected,61,189.34906399108405,371559,593,6068.842290878296,-25.558443069458008,3.748556137084961,25.396188735961914,0.28
371,MetaDrive-td3combine-expt_with_safe-leaky-adamw-in-q-weighted-corrected,61,187.7301529774171,372431,594,6082.199702739716,-30.208168029785156,9.985082626342773,30.223548889160156,0.28
372,MetaDrive-td3combine-expt_with_safe-leaky-adamw-in-q-weighted-corrected,61,187.12116868891775,373352,597,6093.847326040268,,5.403141021728516,26.85612678527832,0.28
373,MetaDrive-td3combine-expt_with_safe-leaky-adamw-in-q-weighted-corrected,61,179.46090702975883,374448,602,6109.131688833237,,6.0987653732299805,30.894437789916992,0.26
374,MetaDrive-td3combine-expt_with_safe-leaky-adamw-in-q-weighted-corrected,61,178.46267989320134,375406,604,6121.860014915466,,7.882271766662598,28.97891616821289,0.26
375,MetaDrive-td3combine-expt_with_safe-leaky-adamw-in-q-weighted-corrected,61,178.1496142080162,376373,606,6134.757097959518,-26.3800048828125,7.226949691772461,25.72576904296875,0.25
376,MetaDrive-td3combine-expt_with_safe-leaky-adamw-in-q-weighted-corrected,61,175.9987848304045,377413,608,6154.859227895737,-33.172542572021484,5.508062362670898,32.953826904296875,0.24
377,MetaDrive-td3combine-expt_with_safe-leaky-adamw-in-q-weighted-corrected,61,170.2755380459582,378785,612,6172.84023976326,-24.148672103881836,5.690990447998047,24.07229995727539,0.23
378,MetaDrive-td3combine-expt_with_safe-leaky-adamw-in-q-weighted-corrected,61,169.09914153944385,379111,613,6178.107055902481,-29.573959350585938,16.035524368286133,29.25078582763672,0.23
379,MetaDrive-td3combine-expt_with_safe-leaky-adamw-in-q-weighted-corrected,61,165.19378576653008,380912,618,6203.797410726547,,20.656007766723633,27.204017639160156,0.21
380,MetaDrive-td3combine-expt_with_safe-leaky-adamw-in-q-weighted-corrected,61,164.32577790081373,381097,619,6206.53245806694,-30.100107192993164,5.92341423034668,30.082538604736328,0.21
381,MetaDrive-td3combine-expt_with_safe-leaky-adamw-in-q-weighted-corrected,61,148.21655333567634,382901,627,6230.928908109665,-29.867393493652344,5.29414176940918,29.162790298461914,0.15
382,MetaDrive-td3combine-expt_with_safe-leaky-adamw-in-q-weighted-corrected,61,146.64814010466904,383972,629,6246.147087812424,,7.641803741455078,30.309593200683594,0.15
383,MetaDrive-td3combine-expt_with_safe-leaky-adamw-in-q-weighted-corrected,61,147.03658751391214,384973,630,6260.91521692276,-26.14505958557129,4.7983293533325195,26.664737701416016,0.15
384,MetaDrive-td3combine-expt_with_safe-leaky-adamw-in-q-weighted-corrected,61,144.95608116392177,385142,631,6262.977431774139,,6.717869758605957,29.821945190429688,0.15
385,MetaDrive-td3combine-expt_with_safe-leaky-adamw-in-q-weighted-corrected,61,142.38536123428662,386278,634,6279.595159769058,,7.892425060272217,31.900556564331055,0.15
386,MetaDrive-td3combine-expt_with_safe-leaky-adamw-in-q-weighted-corrected,61,141.48905790078504,387298,636,6294.008189916611,,8.14782428741455,32.9032096862793,0.16
387,MetaDrive-td3combine-expt_with_safe-leaky-adamw-in-q-weighted-corrected,61,138.97615376530828,388417,639,6308.938275814056,-32.88766098022461,4.8479814529418945,31.68743896484375,0.16
388,MetaDrive-td3combine-expt_with_safe-leaky-adamw-in-q-weighted-corrected,61,135.64253900848635,389452,643,6323.614330768585,,8.293535232543945,31.842586517333984,0.17
389,MetaDrive-td3combine-expt_with_safe-leaky-adamw-in-q-weighted-corrected,61,134.64704902877995,390017,645,6331.850795030594,-32.91865539550781,6.7916388511657715,32.787353515625,0.16
390,MetaDrive-td3combine-expt_with_safe-leaky-adamw-in-q-weighted-corrected,61,136.44495547684218,391065,647,6346.892919778824,-27.30223274230957,10.27018928527832,27.160964965820312,0.17
391,MetaDrive-td3combine-expt_with_safe-leaky-adamw-in-q-weighted-corrected,61,135.80822423115436,392066,648,6363.236697912216,,7.044552803039551,28.03764533996582,0.17
392,MetaDrive-td3combine-expt_with_safe-leaky-adamw-in-q-weighted-corrected,61,136.83559288932068,393115,650,6377.374700784683,-25.029769897460938,5.717893600463867,24.57913589477539,0.17
393,MetaDrive-td3combine-expt_with_safe-leaky-adamw-in-q-weighted-corrected,61,134.99591870088798,394113,652,6395.608303785324,-30.947723388671875,6.630707740783691,30.226268768310547,0.16
394,MetaDrive-td3combine-expt_with_safe-leaky-adamw-in-q-weighted-corrected,61,134.06710370266782,395799,655,6422.817396879196,-34.66020584106445,5.631669044494629,34.13972091674805,0.15
395,MetaDrive-td3combine-expt_with_safe-leaky-adamw-in-q-weighted-corrected,61,133.57790669421524,396800,656,6436.405946969986,,19.393415451049805,28.757810592651367,0.14
396,MetaDrive-td3combine-expt_with_safe-leaky-adamw-in-q-weighted-corrected,61,135.16258787658157,397459,657,6448.7655708789825,-27.428977966308594,4.025296688079834,26.83826446533203,0.14
397,MetaDrive-td3combine-expt_with_safe-leaky-adamw-in-q-weighted-corrected,61,134.83656696795697,398054,658,6456.925400733948,,4.786823272705078,26.5311222076416,0.14
398,MetaDrive-td3combine-expt_with_safe-leaky-adamw-in-q-weighted-corrected,61,134.0203057769861,399385,661,6480.286906957626,-33.98673629760742,12.994190216064453,32.89942932128906,0.13
