TanmayH/CS269-RL-project-code/MetaDrive-testbn1/td3/progress.csv
,log_dir,frame_per_second,episode_reward,total_steps,total_episodes,total_time,actor_loss,critic_loss,target_q,success_rate
0,MetaDrive-testbn1,202,4.949568596249835,1021,2,5.053931713104248,-0.021930556744337082,0.0024875726085156202,0.017001565545797348,0.0
1,MetaDrive-testbn1,123,-0.9232277227732452,2546,18,20.570016384124756,,0.817470908164978,-0.04734237864613533,0.0
2,MetaDrive-testbn1,121,-1.1856639923374617,3662,20,30.23807716369629,,0.6758743524551392,-0.06152208894491196,0.0
3,MetaDrive-testbn1,119,-1.3843512663030946,4393,21,36.87194538116455,-0.03361942619085312,0.621524453163147,-0.06328443437814713,0.0
4,MetaDrive-testbn1,116,-1.3893047765768949,5010,23,42.865575075149536,,0.0062931003049016,0.008116696029901505,0.0
5,MetaDrive-testbn1,113,-1.9065949666681106,6613,32,58.178335189819336,0.05728587508201599,0.02284047193825245,-0.006250373553484678,0.0
6,MetaDrive-testbn1,112,-1.9611548891163302,7922,37,70.70614695549011,,0.030107147991657257,-0.03215288370847702,0.0
7,MetaDrive-testbn1,111,-1.8530392919813203,8923,38,79.9894585609436,0.05751122906804085,0.005325757898390293,-0.08742598444223404,0.0
8,MetaDrive-testbn1,111,-1.908684875342962,9093,39,81.52261877059937,-0.009195193648338318,0.008798844181001186,-0.05676194280385971,0.0
9,MetaDrive-testbn1,112,-1.8734721606058766,10483,42,93.19825196266174,0.06725428998470306,1.3999207019805908,-0.19244469702243805,0.0
10,MetaDrive-testbn1,111,-1.7574388764548545,11484,43,102.71909689903259,,0.00351972714997828,0.0032518114894628525,0.0
11,MetaDrive-testbn1,111,-1.9977701491506863,12059,48,108.24653959274292,-0.13569723069667816,0.000904411543160677,0.09895576536655426,0.0
12,MetaDrive-testbn1,109,-1.9508254276196024,13060,49,118.99597072601318,,0.019947368651628494,-0.00976496934890747,0.0
13,MetaDrive-testbn1,109,-2.017308218358772,14282,53,130.1417531967163,,0.006699183024466038,0.13994792103767395,0.0
14,MetaDrive-testbn1,109,-1.9282682079501785,15283,54,140.14996695518494,-0.11673443019390106,0.006045974791049957,0.10934285074472427,0.0
15,MetaDrive-testbn1,109,-1.829643237181275,16284,55,149.15061616897583,,0.001424618298187852,0.17988881468772888,0.0
16,MetaDrive-testbn1,108,-1.940283009341542,17169,58,157.54766869544983,-0.04788394644856453,0.014119423925876617,0.1304682046175003,0.0
17,MetaDrive-testbn1,109,-1.9166142194866949,18170,59,165.3624312877655,,0.008328782394528389,0.17933765053749084,0.0
18,MetaDrive-testbn1,109,-1.9154589750312936,19793,64,180.8252055644989,-0.1498732715845108,0.01372138038277626,0.19144533574581146,0.0
19,MetaDrive-testbn1,109,-1.8527487449245394,20794,65,190.22901892662048,,0.0024717815686017275,0.22638815641403198,0.0
20,MetaDrive-testbn1,109,-1.90373030361991,21477,67,196.94295930862427,-0.09522849321365356,0.015332506038248539,0.16202199459075928,0.0
21,MetaDrive-testbn1,109,-1.9024162750016504,22134,68,202.9307894706726,,0.009944671764969826,0.07679431885480881,0.0
22,MetaDrive-testbn1,109,-1.7817650776971976,23984,72,219.73332023620605,,0.018756024539470673,0.2010081559419632,0.0
23,MetaDrive-testbn1,109,-1.753679054804829,24840,73,227.018874168396,,0.003489299677312374,0.15000687539577484,0.0
24,MetaDrive-testbn1,109,-1.82761870400117,25003,76,229.32718706130981,-0.27742862701416016,0.001448945258744061,0.24949327111244202,0.0
25,MetaDrive-testbn1,109,-1.6938830955001651,26186,78,239.23530769348145,,0.0016209656605497003,0.2592933177947998,0.0
26,MetaDrive-testbn1,109,-1.7851474769741136,27250,82,248.78541254997253,,0.003449831623584032,0.15366500616073608,0.0
27,MetaDrive-testbn1,108,-1.7495005198104225,28060,86,259.4961817264557,,0.0007136963540688157,0.21128368377685547,0.0
28,MetaDrive-testbn1,107,-1.6966946570541235,29061,87,270.301730632782,-0.2098289132118225,0.008736643940210342,0.17078040540218353,0.0
29,MetaDrive-testbn1,107,-1.6063438545100823,30370,89,282.13473534584045,,0.9437689781188965,0.10374464839696884,0.0
30,MetaDrive-testbn1,107,-1.5351366179808783,31790,92,294.7729790210724,,0.012428103014826775,0.22992879152297974,0.0
31,MetaDrive-testbn1,107,-1.6032661883210888,32108,94,298.02998208999634,,0.004219372756779194,0.2507867217063904,0.0
32,MetaDrive-testbn1,107,-1.5970284510203934,33574,96,311.0774405002594,,0.010208407416939735,0.27012908458709717,0.0
33,MetaDrive-testbn1,107,-1.585754707207038,34052,98,315.63393354415894,,0.009822268038988113,0.2797396779060364,0.0
34,MetaDrive-testbn1,107,-1.5598417999398755,35028,100,326.32812428474426,,0.001923350035212934,0.2163221538066864,0.0
35,MetaDrive-testbn1,107,-1.703072508241045,36029,101,335.3367738723755,-0.25715017318725586,0.008684257045388222,0.2258753776550293,0.0
36,MetaDrive-testbn1,107,-1.6411317118486268,37030,102,343.67996287345886,,0.09391346573829651,0.12338915467262268,0.0
37,MetaDrive-testbn1,107,-1.6642614396468383,38658,106,358.0778181552887,,0.030290544033050537,0.20825591683387756,0.0
38,MetaDrive-testbn1,107,-1.5483207206067937,39109,108,362.13555550575256,-0.1768839955329895,0.898414134979248,0.09945660084486008,0.0
39,MetaDrive-testbn1,108,-1.489784488774031,40110,109,371.31773591041565,,0.009423959068953991,0.13501495122909546,0.0
40,MetaDrive-testbn1,108,-1.5778884934210553,41244,111,380.9715073108673,,0.6754844784736633,0.18539240956306458,0.0
41,MetaDrive-testbn1,108,-1.2922829759407972,42245,112,388.6358621120453,-0.2900211215019226,0.6864514350891113,0.2552492022514343,0.0
42,MetaDrive-testbn1,108,0.6964232047355802,43214,114,398.38001680374146,,0.0064342026598751545,0.16346807777881622,0.0
43,MetaDrive-testbn1,107,3.906263970943344,44004,128,408.5304114818573,,0.004047020338475704,0.27146679162979126,0.0
44,MetaDrive-testbn1,106,5.45186849563849,45015,159,423.21128249168396,-0.6641428470611572,0.017398130148649216,0.5465715527534485,0.0
45,MetaDrive-testbn1,105,7.638090238720958,46012,184,436.887713432312,,0.9346300959587097,0.6360556483268738,0.0
46,MetaDrive-testbn1,104,11.59080202274421,47012,202,449.5767824649811,,0.6695313453674316,0.780087947845459,0.0
47,MetaDrive-testbn1,103,8.816977522731076,48063,226,462.8282973766327,-1.2757563591003418,0.028082910925149918,1.1337850093841553,0.0
48,MetaDrive-testbn1,103,15.23782012106008,49001,234,475.5739781856537,-1.4205886125564575,0.0773526281118393,1.2846406698226929,0.01
49,MetaDrive-testbn1,102,19.35356904889401,50003,246,488.47845005989075,-1.8288724422454834,0.17836159467697144,1.8595505952835083,0.01
50,MetaDrive-testbn1,101,24.164817833742358,51025,263,502.23262119293213,-2.2131989002227783,0.07606024295091629,2.051893711090088,0.01
51,MetaDrive-testbn1,101,28.224081985111265,52023,275,513.9297618865967,-2.6261534690856934,0.09521172940731049,2.541139841079712,0.01
52,MetaDrive-testbn1,100,33.680096550708136,53028,283,525.9671924114227,,0.056408897042274475,2.7846617698669434,0.01
53,MetaDrive-testbn1,100,38.15153674719466,54094,291,538.6242253780365,,3.7395477294921875,3.316092014312744,0.01
54,MetaDrive-testbn1,99,42.84427544855277,55148,296,551.9331204891205,,0.1405377835035324,4.360645294189453,0.01
55,MetaDrive-testbn1,99,44.251552574671656,56219,305,567.1122252941132,-4.671871662139893,0.11018776893615723,4.447254180908203,0.01
56,MetaDrive-testbn1,98,46.09201739730404,57102,312,577.9828724861145,,1.8486428260803223,3.8449742794036865,0.01
57,MetaDrive-testbn1,98,48.26530574040626,58007,316,587.2184619903564,-5.272834777832031,0.15981462597846985,5.107317924499512,0.01
58,MetaDrive-testbn1,98,52.49217146806022,59111,320,599.8704888820648,-5.812135696411133,0.23698900640010834,5.516105651855469,0.01
59,MetaDrive-testbn1,98,54.9894698647206,60113,327,611.5642623901367,-6.469147682189941,0.5151598453521729,6.480632305145264,0.01
60,MetaDrive-testbn1,98,50.64274463791588,61080,335,623.1905429363251,,0.37859225273132324,6.782552719116211,0.0
61,MetaDrive-testbn1,97,47.466010975184865,62052,347,634.8719596862793,,0.35145652294158936,7.044792175292969,0.0
62,MetaDrive-testbn1,97,47.2509839513259,63004,358,646.0501146316528,,0.8358321189880371,8.103887557983398,0.0
63,MetaDrive-testbn1,97,44.73688529416716,64029,372,657.9310441017151,-7.902804374694824,12.898868560791016,7.84902286529541,0.0
64,MetaDrive-testbn1,97,40.76925991977106,65141,381,668.9870676994324,-8.472898483276367,0.24557919800281525,8.18968391418457,0.0
65,MetaDrive-testbn1,96,42.54459438622552,66092,389,681.4543843269348,,0.6874887943267822,8.856584548950195,0.0
66,MetaDrive-testbn1,96,36.732578781119145,67045,400,692.1851425170898,-9.655647277832031,0.6119495630264282,9.562252044677734,0.0
67,MetaDrive-testbn1,96,35.77696047764206,68033,407,705.600937128067,-9.374123573303223,13.884796142578125,8.975020408630371,0.0
68,MetaDrive-testbn1,96,35.81402370689204,69062,417,717.6061961650848,,0.4016982913017273,9.871208190917969,0.0
69,MetaDrive-testbn1,96,34.44494369060444,70009,425,728.1431736946106,-10.437341690063477,0.8691442012786865,10.026477813720703,0.0
70,MetaDrive-testbn1,95,35.06222468268338,71126,436,741.437792301178,,1.302463412284851,11.495246887207031,0.0
71,MetaDrive-testbn1,95,39.59970707666983,72063,442,753.0179488658905,-11.367204666137695,0.11646528542041779,11.038056373596191,0.0
72,MetaDrive-testbn1,95,40.94273569580034,73010,455,764.3897593021393,,11.039371490478516,11.429975509643555,0.0
73,MetaDrive-testbn1,95,45.352035684206115,74067,464,777.5678913593292,-11.159584999084473,0.2995963394641876,10.902502059936523,0.0
74,MetaDrive-testbn1,95,48.733643951450766,75090,475,789.6964244842529,,0.2832573652267456,11.595622062683105,0.0
75,MetaDrive-testbn1,94,49.951891140784326,76032,484,801.2968475818634,,9.050422668457031,12.742759704589844,0.0
76,MetaDrive-testbn1,94,51.18531114805354,77117,495,814.0905406475067,-13.238330841064453,15.407548904418945,12.90621566772461,0.0
77,MetaDrive-testbn1,94,54.194434333428646,78088,503,823.4923033714294,,1.5147945880889893,12.449708938598633,0.0
78,MetaDrive-testbn1,94,57.571452529004404,79074,510,834.7004220485687,,8.387638092041016,13.06454849243164,0.0
79,MetaDrive-testbn1,94,59.66433314017475,80073,518,846.2015023231506,-12.764032363891602,16.78777313232422,12.4003324508667,0.0
80,MetaDrive-testbn1,94,63.151489370804576,81116,527,859.4289593696594,,1.8008137941360474,14.229040145874023,0.0
81,MetaDrive-testbn1,94,62.749170920630235,82024,537,869.9450600147247,,0.3959975838661194,14.224004745483398,0.0
82,MetaDrive-testbn1,94,61.60757830131144,83006,542,880.7848968505859,,0.9979321956634521,16.48682403564453,0.0
83,MetaDrive-testbn1,94,64.87850637086413,84023,553,892.4742765426636,-14.781230926513672,9.009401321411133,14.445914268493652,0.0
84,MetaDrive-testbn1,94,63.523399123702305,85076,564,904.3841307163239,,19.11381721496582,15.849920272827148,0.0
85,MetaDrive-testbn1,93,65.10908045791885,86225,569,918.8534951210022,-16.09654998779297,11.030988693237305,15.742755889892578,0.0
86,MetaDrive-testbn1,93,67.43750890123766,87032,574,929.5202531814575,,0.5639820098876953,15.992561340332031,0.0
87,MetaDrive-testbn1,93,68.03939243618039,88051,581,942.5842249393463,-16.998245239257812,1.1441264152526855,16.919708251953125,0.0
88,MetaDrive-testbn1,93,68.16781657710149,89897,592,966.5424785614014,-17.123912811279297,1.3822977542877197,17.014270782470703,0.0
89,MetaDrive-testbn1,92,68.49639457643133,90003,593,967.9979517459869,-16.883525848388672,8.781961441040039,16.951759338378906,0.0
90,MetaDrive-testbn1,93,65.91965009937257,91983,605,987.7166485786438,-18.742015838623047,2.09108829498291,18.754676818847656,0.0
91,MetaDrive-testbn1,93,65.95674200300898,92275,606,990.9415965080261,-18.565784454345703,13.464372634887695,18.431835174560547,0.0
92,MetaDrive-testbn1,93,63.593330287299516,93041,611,998.8487615585327,-18.560367584228516,12.602624893188477,18.020286560058594,0.0
93,MetaDrive-testbn1,92,61.73713258186213,94030,620,1011.7355854511261,,1.2169878482818604,18.896799087524414,0.0
94,MetaDrive-testbn1,92,61.32754634868566,95033,631,1022.7939395904541,-18.713102340698242,11.410802841186523,18.07659149169922,0.0
95,MetaDrive-testbn1,92,61.181078938188485,96039,641,1034.2492280006409,-18.24785614013672,0.7554423809051514,18.276103973388672,0.0
96,MetaDrive-testbn1,92,62.55554859097954,97147,652,1046.8563754558563,-21.02888298034668,55.55178451538086,19.959972381591797,0.0
97,MetaDrive-testbn1,92,63.19138318360872,98600,658,1060.8732142448425,,3.230166435241699,19.511167526245117,0.0
98,MetaDrive-testbn1,92,63.40378979009686,99008,662,1065.8485918045044,,1.13065505027771,18.785419464111328,0.0
99,MetaDrive-testbn1,92,61.42039169579185,100219,673,1079.6356258392334,-20.47698974609375,6.8591766357421875,19.913166046142578,0.0
100,MetaDrive-testbn1,92,61.40168052827104,101049,682,1088.9407589435577,-19.845279693603516,1.6603281497955322,19.948776245117188,0.0
101,MetaDrive-testbn1,92,62.46254351644552,102028,692,1099.4691081047058,,3.0585975646972656,20.017019271850586,0.0
102,MetaDrive-testbn1,92,64.40456528816962,103074,702,1111.6416993141174,,4.047656059265137,20.74738883972168,0.0
103,MetaDrive-testbn1,92,66.38781839277102,104009,711,1122.0633985996246,-20.754764556884766,23.25757598876953,20.35501480102539,0.0
104,MetaDrive-testbn1,92,68.51209222157085,105926,717,1146.133684873581,,17.534099578857422,23.061634063720703,0.0
105,MetaDrive-testbn1,92,68.4769665932285,106019,718,1147.5546815395355,-23.28746223449707,3.1105310916900635,23.57726287841797,0.0
106,MetaDrive-testbn1,92,71.18875318813878,107072,727,1161.3908338546753,,45.70668029785156,21.59354019165039,0.0
107,MetaDrive-testbn1,92,73.75712753191331,108175,735,1173.8650121688843,-21.694561004638672,16.155715942382812,22.051252365112305,0.0
108,MetaDrive-testbn1,92,77.16162671848807,109417,743,1188.3957376480103,-23.0773868560791,13.35561752319336,22.527055740356445,0.01
109,MetaDrive-testbn1,92,77.442114247554,110039,749,1195.221274614334,-20.57986068725586,12.291450500488281,20.588497161865234,0.01
110,MetaDrive-testbn1,91,80.438700824,111478,752,1215.789121389389,,2.3329010009765625,25.763050079345703,0.02
111,MetaDrive-testbn1,91,81.26712243644172,112112,756,1224.0916259288788,,2.1094627380371094,23.473983764648438,0.02
112,MetaDrive-testbn1,91,86.09507113011772,113100,761,1235.8533992767334,,11.20711612701416,24.904094696044922,0.03
113,MetaDrive-testbn1,91,87.40260643319932,114096,767,1248.1949756145477,,2.9600627422332764,26.99130630493164,0.04
114,MetaDrive-testbn1,91,90.62369152441441,115892,773,1272.117573261261,,39.67212677001953,23.68959617614746,0.04
115,MetaDrive-testbn1,91,90.93157554026753,116019,774,1273.4008646011353,-24.476726531982422,7.487910270690918,23.948017120361328,0.04
116,MetaDrive-testbn1,91,92.7194022822216,117024,784,1284.7821986675262,,2.732327461242676,25.037261962890625,0.04
117,MetaDrive-testbn1,90,93.61236558459645,118487,789,1307.0210263729095,-26.989604949951172,1.4015337228775024,26.921871185302734,0.04
118,MetaDrive-testbn1,90,96.20276957148762,119192,792,1314.4887235164642,,3.283433437347412,24.208450317382812,0.05
119,MetaDrive-testbn1,90,98.04252188718613,120415,796,1329.5719799995422,-25.445497512817383,51.57471466064453,24.9717960357666,0.05
120,MetaDrive-testbn1,90,98.81395143384907,121322,800,1340.93265914917,,1.5093376636505127,26.7451114654541,0.05
121,MetaDrive-testbn1,90,99.2899810113356,122057,805,1348.6163878440857,-26.66206932067871,4.860492706298828,26.78719711303711,0.06
122,MetaDrive-testbn1,90,102.20369654789387,123888,809,1366.4032988548279,,2.300541400909424,27.559648513793945,0.06
123,MetaDrive-testbn1,90,102.87667329800479,124889,810,1376.4897253513336,-26.844945907592773,14.386578559875488,26.692916870117188,0.06
124,MetaDrive-testbn1,90,102.70426957810854,125975,812,1389.8477387428284,-24.756000518798828,7.65443229675293,25.578575134277344,0.06
125,MetaDrive-testbn1,90,101.46005474439342,126065,813,1390.906911611557,-27.282934188842773,43.67365264892578,26.351530075073242,0.06
126,MetaDrive-testbn1,90,106.04076414197282,127736,817,1415.2365214824677,,5.322257995605469,29.442258834838867,0.06
127,MetaDrive-testbn1,90,105.72285680591158,128148,818,1420.2333827018738,,2.7511467933654785,26.88970947265625,0.06
128,MetaDrive-testbn1,90,110.05511678536539,129447,821,1434.7753067016602,-28.415876388549805,54.15137481689453,28.38371467590332,0.08
129,MetaDrive-testbn1,90,112.27354718690795,130069,823,1442.2241492271423,-30.070755004882812,13.238150596618652,30.018306732177734,0.09
130,MetaDrive-testbn1,90,114.36176842849777,131025,827,1454.945708990097,-29.458356857299805,8.193511962890625,29.442962646484375,0.09
131,MetaDrive-testbn1,89,117.52984438401978,132044,830,1468.9656279087067,,9.514952659606934,28.88597297668457,0.1
132,MetaDrive-testbn1,89,117.27429511258552,133743,835,1487.1860036849976,-28.008018493652344,2.4100735187530518,27.49871826171875,0.1
133,MetaDrive-testbn1,89,118.33255176165791,134105,837,1491.850067615509,-29.992706298828125,17.8408203125,29.730548858642578,0.1
134,MetaDrive-testbn1,89,118.96093844626428,135106,838,1501.3575501441956,,21.20716667175293,30.57634925842285,0.1
135,MetaDrive-testbn1,89,120.07827862572076,136772,843,1519.723667383194,,75.27433776855469,29.100753784179688,0.09
136,MetaDrive-testbn1,89,122.70763449077371,137680,844,1531.8156304359436,,9.229576110839844,29.103919982910156,0.1
137,MetaDrive-testbn1,89,123.5041792065358,138038,846,1537.9113154411316,,3.377412796020508,32.24705505371094,0.1
138,MetaDrive-testbn1,89,127.50864954727352,139105,849,1549.5838160514832,-26.55962371826172,4.399720191955566,25.950387954711914,0.11
139,MetaDrive-testbn1,89,127.57216808495593,140022,852,1562.013041973114,,6.335557460784912,29.097492218017578,0.1
140,MetaDrive-testbn1,89,129.4510725883731,141061,858,1576.5586650371552,-30.54470443725586,9.334269523620605,30.936553955078125,0.1
141,MetaDrive-testbn1,89,126.87280020681375,142147,865,1590.0123391151428,-31.135984420776367,27.20551300048828,30.248443603515625,0.08
142,MetaDrive-testbn1,89,127.19576740901513,143142,868,1603.90323138237,,2.3035731315612793,33.769859313964844,0.08
143,MetaDrive-testbn1,89,127.73415085537894,144766,872,1621.4672524929047,,32.868438720703125,31.03881072998047,0.08
144,MetaDrive-testbn1,89,128.5404913013872,145385,874,1630.9830899238586,-32.87366485595703,3.15930438041687,32.62620162963867,0.08
145,MetaDrive-testbn1,89,131.94904206088583,146256,877,1642.3056664466858,,46.624916076660156,27.929550170898438,0.08
146,MetaDrive-testbn1,88,135.92163462248607,147029,878,1652.6613190174103,-31.945865631103516,7.2203874588012695,31.325252532958984,0.09
147,MetaDrive-testbn1,88,139.0758920156986,148028,881,1663.448740720749,,13.99880599975586,29.89263916015625,0.1
148,MetaDrive-testbn1,89,140.20962954721858,149014,888,1674.1853482723236,,33.08476257324219,31.013927459716797,0.1
149,MetaDrive-testbn1,88,141.1335733942007,150634,894,1695.5321328639984,,5.276650428771973,29.927518844604492,0.1
150,MetaDrive-testbn1,88,142.09891207862046,151035,897,1699.5785677433014,-33.4747314453125,4.188312530517578,33.21233367919922,0.1
151,MetaDrive-testbn1,88,145.73250024657708,152114,901,1712.913048028946,,2.677483081817627,32.140567779541016,0.1
152,MetaDrive-testbn1,88,147.98143218761322,153117,903,1725.3056359291077,-35.55607604980469,36.339805603027344,35.03008270263672,0.1
153,MetaDrive-testbn1,88,149.69027927032982,154071,906,1740.0204503536224,-29.81875991821289,3.986776351928711,28.87334442138672,0.1
154,MetaDrive-testbn1,88,150.5935787909304,155073,910,1754.8034863471985,-32.25862503051758,3.1455204486846924,32.2454833984375,0.11
155,MetaDrive-testbn1,88,152.575672179962,156386,915,1771.6587355136871,,6.502728462219238,33.9556999206543,0.11
156,MetaDrive-testbn1,88,151.0566081493571,157521,919,1788.3794462680817,-31.308082580566406,3.7699804306030273,30.820589065551758,0.11
157,MetaDrive-testbn1,88,148.22398531480437,158377,923,1798.4115388393402,-35.43885040283203,5.810103416442871,34.86318588256836,0.1
158,MetaDrive-testbn1,87,144.01468385448626,159225,928,1809.4228963851929,-33.93764877319336,2.7858896255493164,33.90769958496094,0.09
159,MetaDrive-testbn1,87,147.3776482999736,160077,931,1821.912891626358,-36.38243103027344,10.014772415161133,36.60054016113281,0.09
160,MetaDrive-testbn1,87,148.69110266268376,161027,935,1834.8714501857758,-33.31755828857422,7.778444766998291,33.36267852783203,0.09
161,MetaDrive-testbn1,87,146.9547499550562,162050,941,1847.1567015647888,,7.68711519241333,35.528717041015625,0.09
162,MetaDrive-testbn1,87,149.18416576954095,163344,945,1862.971179485321,,33.47262954711914,31.59856414794922,0.08
163,MetaDrive-testbn1,87,149.27482708257753,164178,948,1873.010025024414,,3.2099382877349854,34.738731384277344,0.09
164,MetaDrive-testbn1,87,146.81078307642886,165218,952,1884.8803584575653,,2.9293251037597656,37.01353073120117,0.08
165,MetaDrive-testbn1,87,144.1112596082199,166085,958,1894.2372131347656,-36.37798309326172,2.522904396057129,35.98113250732422,0.08
166,MetaDrive-testbn1,87,145.5363464910316,167144,963,1907.848214149475,,26.86196517944336,32.56081771850586,0.09
167,MetaDrive-testbn1,87,148.1583897987763,168200,966,1921.7051768302917,,3.60809588432312,37.52619171142578,0.1
168,MetaDrive-testbn1,87,151.66131167328786,169536,970,1938.9576346874237,,21.793270111083984,34.66326904296875,0.12
169,MetaDrive-testbn1,87,153.71645664199244,170237,971,1951.066598892212,-37.28441619873047,5.078136444091797,36.7415771484375,0.12
170,MetaDrive-testbn1,87,152.57865771902513,171002,974,1960.648540019989,,21.86060333251953,34.14891052246094,0.12
171,MetaDrive-testbn1,87,142.79767104626904,172034,981,1972.4442644119263,,36.35059356689453,35.383480072021484,0.11
172,MetaDrive-testbn1,87,146.93825098767775,173091,983,1984.688645362854,-32.58368682861328,5.002793312072754,32.45054626464844,0.12
173,MetaDrive-testbn1,87,146.5690110282795,174046,989,1994.8117425441742,,8.579238891601562,34.00749206542969,0.12
174,MetaDrive-testbn1,87,147.87026497788537,175008,991,2005.1709718704224,,3.8462705612182617,33.367469787597656,0.13
175,MetaDrive-testbn1,87,145.54712407913766,176004,995,2015.5898694992065,,2.8794002532958984,36.412078857421875,0.12
176,MetaDrive-testbn1,87,150.87082532446072,177367,999,2033.2184810638428,-34.769935607910156,6.715435028076172,34.91322326660156,0.13
177,MetaDrive-testbn1,87,149.3449110385984,178071,1002,2041.0648539066315,-37.28364944458008,3.5054268836975098,36.78645324707031,0.13
178,MetaDrive-testbn1,87,144.46373146215282,179302,1007,2055.8644573688507,,3.9566471576690674,30.30343246459961,0.12
179,MetaDrive-testbn1,87,144.88067190333902,180063,1011,2064.068322658539,-34.73279571533203,4.800273895263672,34.732521057128906,0.12
180,MetaDrive-testbn1,87,143.14500560935727,181295,1017,2078.348297357559,-33.966461181640625,6.434818267822266,33.32220458984375,0.12
181,MetaDrive-testbn1,87,144.59730824833426,182172,1019,2086.9598915576935,,2.6866302490234375,34.193504333496094,0.13
182,MetaDrive-testbn1,87,147.33936311133684,183347,1021,2102.3733429908752,-35.36008834838867,2.763115406036377,34.784481048583984,0.13
183,MetaDrive-testbn1,87,148.8190819966804,184744,1023,2121.274605989456,,14.258712768554688,34.47352981567383,0.13
184,MetaDrive-testbn1,87,149.60598114537666,185085,1024,2126.3893768787384,-35.053932189941406,16.8958740234375,34.581878662109375,0.13
185,MetaDrive-testbn1,86,151.00454718976772,186182,1027,2140.41268157959,,3.839406728744507,36.15314483642578,0.13
186,MetaDrive-testbn1,86,147.73675545139974,187048,1031,2150.5030512809753,,5.180859565734863,34.718502044677734,0.13
187,MetaDrive-testbn1,86,148.0526849460565,188759,1034,2170.3711223602295,-34.6972541809082,3.529524803161621,34.22950744628906,0.14
188,MetaDrive-testbn1,86,147.32438398230755,189335,1036,2178.443972826004,-35.93904113769531,87.08565521240234,33.62837600708008,0.14
189,MetaDrive-testbn1,86,150.29296597331233,190076,1037,2189.4789650440216,,2.136033058166504,35.87361145019531,0.15
190,MetaDrive-testbn1,86,153.5892221704843,191112,1040,2203.757488012314,,5.481653213500977,37.25663757324219,0.15
191,MetaDrive-testbn1,86,152.53692859626352,192163,1043,2215.9846863746643,-34.42711639404297,9.287105560302734,35.190589904785156,0.15
192,MetaDrive-testbn1,86,154.5462541424825,193223,1045,2230.3352088928223,-35.804443359375,4.775447845458984,35.838172912597656,0.16
193,MetaDrive-testbn1,86,156.0257624462366,194135,1046,2244.503550052643,-36.01536560058594,4.478182792663574,35.37322235107422,0.16
194,MetaDrive-testbn1,86,159.02001753223914,195011,1048,2256.7283697128296,-35.93113708496094,2.4667887687683105,35.84947967529297,0.17
195,MetaDrive-testbn1,86,158.2720600355921,196064,1050,2267.5713169574738,,2.912898540496826,36.300472259521484,0.17
196,MetaDrive-testbn1,86,160.86794837482853,197220,1056,2278.1658272743225,,7.052491188049316,35.44194412231445,0.19
197,MetaDrive-testbn1,86,163.27644764391707,198042,1057,2290.0730357170105,,4.822694778442383,37.056610107421875,0.2
198,MetaDrive-testbn1,86,161.37848293395555,199142,1060,2302.230012655258,,9.055298805236816,35.00843048095703,0.19
199,MetaDrive-testbn1,86,166.09709217415227,200159,1063,2314.7307353019714,-38.35179901123047,60.73614501953125,37.567848205566406,0.2
200,MetaDrive-testbn1,86,162.7684865778674,201270,1068,2328.086391210556,,5.055301666259766,37.380882263183594,0.19
201,MetaDrive-testbn1,86,164.53324352814812,202271,1069,2344.7569127082825,-37.40916442871094,8.708422660827637,36.722267150878906,0.19
202,MetaDrive-testbn1,86,165.8595533823059,203035,1070,2357.5233523845673,-36.34171676635742,5.8105268478393555,35.643577575683594,0.19
203,MetaDrive-testbn1,86,168.31307273272046,204127,1072,2371.980165719986,-36.328819274902344,36.92023468017578,35.25328826904297,0.2
204,MetaDrive-testbn1,86,169.52118778375495,205287,1076,2384.586688518524,-35.90772247314453,2.963700294494629,35.35690689086914,0.21
205,MetaDrive-testbn1,86,170.50153980144776,206288,1077,2398.325996160507,,5.835714340209961,38.467159271240234,0.21
206,MetaDrive-testbn1,86,171.46603515600484,207368,1081,2409.2171471118927,,3.972188949584961,35.37133026123047,0.21
207,MetaDrive-testbn1,86,171.1468239911965,208412,1084,2420.131012916565,,3.7526910305023193,36.94795608520508,0.21
208,MetaDrive-testbn1,86,173.21936280904026,209135,1087,2428.8480265140533,-38.605865478515625,6.470378875732422,38.141727447509766,0.22
209,MetaDrive-testbn1,85,175.67328935601458,210136,1088,2444.9993257522583,,3.048384189605713,37.19117736816406,0.22
210,MetaDrive-testbn1,85,176.25945191490206,211218,1090,2456.4768872261047,,6.192604064941406,39.364501953125,0.23
211,MetaDrive-testbn1,86,178.82266980629873,212187,1093,2466.621085882187,-37.67001724243164,2.5980632305145264,38.145240783691406,0.24
212,MetaDrive-testbn1,85,180.98485186993702,213206,1095,2479.524951696396,,6.8894758224487305,37.63117980957031,0.25
213,MetaDrive-testbn1,85,178.23648829096652,214109,1098,2492.098541021347,-38.75718688964844,4.79262638092041,37.85562515258789,0.25
214,MetaDrive-testbn1,85,179.9447089009169,215124,1100,2504.1297478675842,,5.521739959716797,35.044227600097656,0.26
215,MetaDrive-testbn1,85,179.4938348404062,216097,1105,2517.2313644886017,-37.591854095458984,42.65852355957031,36.816558837890625,0.27
216,MetaDrive-testbn1,85,178.2163444900954,217047,1110,2528.520646095276,-40.02758026123047,6.812770366668701,39.84266662597656,0.26
217,MetaDrive-testbn1,85,178.1737524948888,218048,1111,2538.778778553009,,3.8901901245117188,38.974365234375,0.26
218,MetaDrive-testbn1,85,182.52579935977232,219549,1115,2558.7870831489563,-37.88746643066406,6.0967864990234375,36.334136962890625,0.27
219,MetaDrive-testbn1,85,179.3138308587295,220956,1118,2574.9145164489746,,2.9020116329193115,38.93449020385742,0.27
220,MetaDrive-testbn1,85,180.49554333713354,221804,1119,2586.2584071159363,,3.6466002464294434,41.1168212890625,0.27
221,MetaDrive-testbn1,85,180.74398803609955,222571,1120,2594.491288661957,-39.865020751953125,5.45017671585083,40.20226287841797,0.27
222,MetaDrive-testbn1,85,178.39314701054874,223216,1122,2601.669510126114,,4.1922807693481445,38.74985885620117,0.27
223,MetaDrive-testbn1,85,181.51834372836598,224940,1124,2619.8856053352356,,5.664759159088135,38.587257385253906,0.28
224,MetaDrive-testbn1,85,182.70247879183864,225292,1125,2623.9341094493866,,4.1204752922058105,38.898765563964844,0.28
225,MetaDrive-testbn1,85,183.2967779479869,226128,1128,2632.0879073143005,,4.028469562530518,36.25117492675781,0.29
226,MetaDrive-testbn1,85,187.88058196341302,227170,1130,2643.391876220703,,2.8416404724121094,38.681209564208984,0.3
227,MetaDrive-testbn1,85,189.8318182329984,228271,1133,2656.8769397735596,-39.023170471191406,3.184774398803711,38.85235595703125,0.31
228,MetaDrive-testbn1,85,192.99025427407344,229455,1136,2672.9085125923157,-37.05024719238281,6.288459777832031,36.352745056152344,0.32
229,MetaDrive-testbn1,85,194.50013896744164,230707,1138,2688.5617480278015,-38.63920974731445,3.3990278244018555,39.015174865722656,0.33
230,MetaDrive-testbn1,85,193.7447665883757,231020,1139,2691.364906311035,,88.85619354248047,35.48471450805664,0.33
231,MetaDrive-testbn1,85,193.37180408154327,232247,1143,2703.090806722641,-37.730308532714844,5.30354642868042,37.771793365478516,0.35
232,MetaDrive-testbn1,85,191.50627669476498,233026,1144,2711.9283006191254,,6.239507675170898,37.74547576904297,0.34
233,MetaDrive-testbn1,85,188.00488906977353,234381,1146,2727.8084666728973,-35.509986877441406,3.877052068710327,35.3213005065918,0.33
234,MetaDrive-testbn1,85,187.942941264503,235467,1149,2739.4327442646027,-39.9803352355957,12.5023775100708,39.97193145751953,0.34
235,MetaDrive-testbn1,85,189.73279381663005,236056,1151,2745.489674091339,,4.200415134429932,40.7740478515625,0.35
236,MetaDrive-testbn1,85,193.51075221287462,237181,1154,2760.890013694763,-37.62617874145508,6.505314826965332,37.81032180786133,0.36
237,MetaDrive-testbn1,85,190.49013432268964,238461,1157,2777.0680091381073,-40.27953338623047,15.8270902633667,39.821067810058594,0.34
238,MetaDrive-testbn1,85,193.03943322779122,239753,1160,2795.3687875270844,-38.99628829956055,4.027857780456543,38.10723114013672,0.35
239,MetaDrive-testbn1,85,195.31501043642703,240120,1161,2799.1073842048645,,3.3865137100219727,35.52893829345703,0.36
240,MetaDrive-testbn1,85,190.3764817582559,241104,1166,2813.2079758644104,,5.065005302429199,34.44929885864258,0.34
241,MetaDrive-testbn1,85,191.69351881379407,242192,1168,2826.6859726905823,,7.694215774536133,41.13587188720703,0.35
242,MetaDrive-testbn1,85,190.37816853401296,243193,1169,2839.3771934509277,-41.10820770263672,2.344362735748291,40.583518981933594,0.35
243,MetaDrive-testbn1,85,185.56973538585186,244229,1172,2851.3598771095276,-37.876136779785156,5.155658721923828,37.90761184692383,0.35
244,MetaDrive-testbn1,85,189.08240442721555,245787,1174,2870.240352153778,-39.40914535522461,7.249617099761963,39.353294372558594,0.36
245,MetaDrive-testbn1,85,186.36826525324747,246041,1176,2873.113531112671,-37.78546905517578,4.4693803787231445,37.37835693359375,0.35
246,MetaDrive-testbn1,85,186.6731139003583,247168,1178,2887.254891872406,,6.936285972595215,37.07281494140625,0.35
247,MetaDrive-testbn1,85,185.0496399894595,248336,1183,2899.9921922683716,,5.1409406661987305,39.813629150390625,0.34
248,MetaDrive-testbn1,85,186.5754495499561,249109,1185,2907.9414281845093,-40.583885192871094,6.777980327606201,39.76491928100586,0.35
249,MetaDrive-testbn1,85,186.77433353469215,250196,1188,2922.378933429718,,5.201621055603027,39.246421813964844,0.35
250,MetaDrive-testbn1,85,185.42836433909284,251530,1191,2938.2304315567017,,61.02903747558594,39.88273620605469,0.34
251,MetaDrive-testbn1,85,184.51208781178732,252019,1193,2943.400279045105,-36.641483306884766,6.368937969207764,37.55809020996094,0.34
252,MetaDrive-testbn1,85,187.00713283206528,253477,1197,2958.806088209152,-37.800819396972656,6.1551666259765625,38.076690673828125,0.35
253,MetaDrive-testbn1,85,189.81834871174965,254049,1198,2968.7427933216095,-39.83978271484375,3.43460750579834,39.59590530395508,0.36
254,MetaDrive-testbn1,85,190.31700707581828,255294,1201,2982.7460465431213,,2.1589035987854004,39.78368377685547,0.36
255,MetaDrive-testbn1,85,195.21137318441728,256665,1203,2998.173082590103,-36.98588562011719,6.855500221252441,36.50006866455078,0.37
256,MetaDrive-testbn1,85,194.86937730320864,257757,1205,3010.1243937015533,-37.321659088134766,5.516940116882324,37.24837112426758,0.37
257,MetaDrive-testbn1,85,194.4521720506183,258063,1206,3014.8134939670563,-35.46105194091797,65.77790069580078,34.79448699951172,0.37
258,MetaDrive-testbn1,85,195.67172282482326,259119,1209,3027.9224886894226,-35.429969787597656,9.242729187011719,35.49909973144531,0.37
259,MetaDrive-testbn1,85,200.61637235952583,260241,1211,3041.8497467041016,-37.829681396484375,44.28136444091797,37.493186950683594,0.39
260,MetaDrive-testbn1,85,203.00832799054078,261006,1212,3050.548933506012,,70.5959243774414,37.88251495361328,0.4
261,MetaDrive-testbn1,85,209.67616533518233,262367,1214,3067.7814111709595,-37.07328796386719,3.9325554370880127,36.682220458984375,0.42
262,MetaDrive-testbn1,85,206.54524099143018,263640,1217,3085.9633877277374,,6.194774150848389,37.86691665649414,0.4
263,MetaDrive-testbn1,85,208.3153773306675,264062,1218,3092.2330820560455,,4.394990921020508,38.42992401123047,0.4
264,MetaDrive-testbn1,85,208.14781676656395,265514,1221,3109.070636987686,,4.957273483276367,38.91155242919922,0.4
265,MetaDrive-testbn1,85,208.61767193901,266315,1223,3120.4406700134277,-38.06633377075195,4.82690954208374,37.6281852722168,0.4
266,MetaDrive-testbn1,85,210.79511440141493,267843,1225,3141.735053539276,-40.07646942138672,5.002682685852051,39.880489349365234,0.41
267,MetaDrive-testbn1,85,212.5728019751231,269001,1227,3160.9413974285126,-42.27323913574219,9.321128845214844,41.60107421875,0.4
268,MetaDrive-testbn1,85,214.73654213365532,270009,1229,3172.0185401439667,-40.930641174316406,5.2111735343933105,40.25300979614258,0.42
269,MetaDrive-testbn1,85,212.01317034105523,271065,1232,3187.002495288849,-38.20500946044922,6.229247093200684,37.93501281738281,0.4
270,MetaDrive-testbn1,85,215.08500547173563,272211,1234,3198.9788348674774,-36.75994873046875,64.66073608398438,36.50627517700195,0.41
271,MetaDrive-testbn1,85,211.7249110649443,273144,1237,3208.4816920757294,,4.23082160949707,37.08449935913086,0.4
272,MetaDrive-testbn1,85,214.846824040029,274562,1239,3226.3760590553284,,5.2355475425720215,39.469032287597656,0.41
273,MetaDrive-testbn1,85,213.57922103008408,275073,1242,3231.6813673973083,-39.286033630371094,19.851726531982422,38.68927001953125,0.4
274,MetaDrive-testbn1,85,217.39404642046313,276072,1244,3245.66770029068,,77.15196228027344,40.106170654296875,0.41
275,MetaDrive-testbn1,85,217.38673070760774,277358,1248,3262.0731930732727,,3.8833560943603516,38.482688903808594,0.4
276,MetaDrive-testbn1,84,219.52987929118444,278110,1250,3272.212194442749,,5.126452922821045,37.25859069824219,0.41
277,MetaDrive-testbn1,85,220.606922149933,279303,1253,3285.712099790573,-40.10315704345703,6.500304222106934,39.419639587402344,0.41
278,MetaDrive-testbn1,84,217.91990655095145,280411,1255,3299.946843147278,-42.611122131347656,4.29911994934082,42.951053619384766,0.4
279,MetaDrive-testbn1,84,221.53203400603937,281035,1256,3306.392148733139,-37.82012176513672,5.526642799377441,37.90550994873047,0.41
280,MetaDrive-testbn1,84,224.41808245683814,282206,1258,3320.1225638389587,,7.840063571929932,38.274600982666016,0.42
281,MetaDrive-testbn1,85,223.24721124076314,283207,1259,3331.474207878113,-36.6808967590332,5.61060905456543,37.07609176635742,0.41
282,MetaDrive-testbn1,84,223.61189129336498,284354,1262,3346.7658326625824,,103.96835327148438,37.82653045654297,0.41
283,MetaDrive-testbn1,84,229.51518196803224,285733,1264,3366.3202958106995,-39.21560287475586,3.265228748321533,38.431358337402344,0.43
284,MetaDrive-testbn1,84,231.40037124905103,286225,1265,3372.146331548691,-40.72930145263672,41.2909049987793,40.7049560546875,0.44
285,MetaDrive-testbn1,84,234.39128941937423,287228,1267,3383.9176032543182,,13.344484329223633,37.7431755065918,0.44
286,MetaDrive-testbn1,84,233.74833588758804,288229,1268,3397.514950990677,-40.85814666748047,59.52001953125,40.095314025878906,0.43
287,MetaDrive-testbn1,84,232.22565690436974,289230,1271,3409.2003262043,,4.627165794372559,40.32221221923828,0.42
288,MetaDrive-testbn1,84,233.49458776238447,290712,1273,3429.4799678325653,,5.401904106140137,39.13502883911133,0.42
289,MetaDrive-testbn1,84,235.22294993612223,291713,1274,3442.041410446167,-41.270042419433594,5.8013081550598145,40.0788688659668,0.42
290,MetaDrive-testbn1,84,237.42715679915062,292028,1275,3444.946910381317,,21.281930923461914,42.04393005371094,0.43
291,MetaDrive-testbn1,84,242.0243464342742,293360,1278,3460.485863685608,,4.7302727699279785,37.38572311401367,0.45
292,MetaDrive-testbn1,84,242.35605600664982,294455,1280,3474.0859656333923,-39.90571594238281,5.7502593994140625,39.48393249511719,0.45
293,MetaDrive-testbn1,84,244.42060701032042,295044,1282,3479.6974124908447,,5.411922454833984,39.012088775634766,0.46
294,MetaDrive-testbn1,84,247.195827138316,296259,1284,3494.587715625763,-40.31658935546875,9.18718433380127,38.740638732910156,0.46
295,MetaDrive-testbn1,84,249.9962015355846,297243,1286,3506.640326499939,-37.50596237182617,5.375493049621582,37.94377899169922,0.47
296,MetaDrive-testbn1,84,250.7345734541728,298083,1287,3515.910665988922,-41.83112716674805,59.799354553222656,41.34770584106445,0.48
297,MetaDrive-testbn1,84,255.43944829124268,299511,1289,3534.729714155197,-40.86613464355469,13.273153305053711,40.61444854736328,0.49
298,MetaDrive-testbn1,84,253.83451862846985,300561,1291,3545.0893013477325,-40.229007720947266,6.793940544128418,41.21295166015625,0.49
299,MetaDrive-testbn1,84,257.0331370069687,301188,1292,3552.045973300934,,80.98500061035156,42.97000503540039,0.5
300,MetaDrive-testbn1,84,259.1630812689064,302296,1294,3566.147340297699,,5.831969738006592,38.03129959106445,0.5
301,MetaDrive-testbn1,84,261.86886027761625,303140,1296,3574.6153979301453,,5.715336799621582,41.46783447265625,0.52
302,MetaDrive-testbn1,84,259.95232007282743,304544,1299,3593.1653566360474,,5.1936516761779785,39.52604675292969,0.51
303,MetaDrive-testbn1,84,262.6408368854352,305120,1300,3599.2042446136475,,5.513384819030762,43.293067932128906,0.52
304,MetaDrive-testbn1,84,262.6952834161535,306121,1301,3612.523428916931,-41.18054962158203,6.213438034057617,41.02354431152344,0.51
305,MetaDrive-testbn1,84,261.9431046608532,307114,1303,3622.4394731521606,,7.546204090118408,38.948158264160156,0.52
306,MetaDrive-testbn1,84,264.8994576154517,308204,1305,3636.735856771469,,3.9004769325256348,40.336883544921875,0.53
307,MetaDrive-testbn1,84,268.34932515359486,309205,1306,3653.3709688186646,-41.35685729980469,3.912700891494751,40.232139587402344,0.53
308,MetaDrive-testbn1,84,270.0817713425196,310139,1309,3663.8960378170013,-39.0013427734375,19.52911376953125,40.437496185302734,0.54
309,MetaDrive-testbn1,84,272.1303420907027,311013,1310,3678.5542204380035,-40.79218673706055,3.9840033054351807,40.764671325683594,0.54
310,MetaDrive-testbn1,84,272.1720201353311,312477,1312,3699.403612613678,-43.12605285644531,3.602480888366699,42.638023376464844,0.54
311,MetaDrive-testbn1,84,269.639554454843,313042,1313,3706.6219272613525,,13.040475845336914,38.243690490722656,0.53
312,MetaDrive-testbn1,84,269.6057280350612,314239,1315,3720.223713159561,-37.368003845214844,9.460168838500977,36.57545471191406,0.53
313,MetaDrive-testbn1,84,271.0055253603074,315014,1317,3731.078910589218,,10.978312492370605,40.96521759033203,0.54
314,MetaDrive-testbn1,84,270.6631295949538,316033,1319,3744.0067191123962,-37.96707534790039,10.097314834594727,37.417030334472656,0.54
315,MetaDrive-testbn1,84,271.91346725557605,317330,1322,3756.8127069473267,,3.090399980545044,35.99510955810547,0.56
316,MetaDrive-testbn1,84,271.3981645533406,318690,1324,3780.6956627368927,,7.443605422973633,41.59931945800781,0.55
317,MetaDrive-testbn1,84,270.8604790666651,319691,1325,3795.680779695511,-42.500633239746094,5.535508155822754,41.86305618286133,0.54
318,MetaDrive-testbn1,84,272.3415820569146,320120,1326,3800.0204904079437,,9.62299919128418,41.1990852355957,0.55
319,MetaDrive-testbn1,84,270.5296632688484,321054,1328,3809.1312313079834,,10.674114227294922,38.69468688964844,0.56
320,MetaDrive-testbn1,84,271.20489136429035,322935,1331,3831.796525478363,-43.474735260009766,4.86984920501709,42.69593811035156,0.56
321,MetaDrive-testbn1,84,272.0403863039774,323211,1332,3834.4627737998962,-42.58027648925781,4.3404645919799805,42.237632751464844,0.56
322,MetaDrive-testbn1,84,273.88061271620745,324202,1333,3849.652965784073,,7.239051818847656,36.43159484863281,0.56
323,MetaDrive-testbn1,84,277.0596689754502,325606,1335,3866.4431641101837,,7.095710754394531,42.61711502075195,0.57
324,MetaDrive-testbn1,84,279.40930742699237,326221,1336,3873.5865247249603,-40.85565185546875,2.164834976196289,39.85221481323242,0.57
325,MetaDrive-testbn1,84,277.4719238613668,327245,1338,3887.927456855774,-40.81513977050781,23.77528953552246,40.5861930847168,0.56
326,MetaDrive-testbn1,84,278.8827477760638,328085,1339,3903.274081468582,-41.41822052001953,8.786893844604492,41.55929946899414,0.56
327,MetaDrive-testbn1,84,284.22060468359814,329191,1341,3914.3005549907684,-42.68191146850586,8.043200492858887,41.757591247558594,0.58
328,MetaDrive-testbn1,83,288.9047403346833,330170,1342,3931.1743063926697,,7.929368019104004,39.12350082397461,0.59
329,MetaDrive-testbn1,83,288.8721353894558,331635,1344,3950.9095764160156,-39.550758361816406,10.261739730834961,39.75588607788086,0.59
330,MetaDrive-testbn1,83,292.0041593719704,332617,1345,3961.7710943222046,-39.8287353515625,4.953548431396484,39.250553131103516,0.6
331,MetaDrive-testbn1,83,293.56748108996334,333260,1346,3967.844296693802,,5.137055397033691,43.64635467529297,0.61
332,MetaDrive-testbn1,84,295.2662962851756,334181,1348,3977.4679062366486,-44.634666442871094,5.757303237915039,43.480194091796875,0.63
333,MetaDrive-testbn1,84,297.6023758624365,335859,1350,3998.1831312179565,-39.4691162109375,4.137167453765869,40.25358963012695,0.63
334,MetaDrive-testbn1,83,298.6267276917427,336860,1351,4014.036027908325,,6.821889877319336,38.76007080078125,0.63
335,MetaDrive-testbn1,83,297.3644966281782,337089,1352,4017.851449251175,-41.8073616027832,6.241084098815918,41.24890899658203,0.62
336,MetaDrive-testbn1,83,299.2730327808994,338382,1355,4030.558669567108,,4.699061393737793,41.334938049316406,0.63
337,MetaDrive-testbn1,83,299.2018558502776,339015,1356,4039.195543050766,-41.09534454345703,8.862531661987305,39.6566047668457,0.63
338,MetaDrive-testbn1,83,298.8385043252688,340207,1359,4052.680400133133,-44.81785583496094,4.6546478271484375,43.946571350097656,0.64
339,MetaDrive-testbn1,83,301.6657913495749,341519,1361,4070.336773633957,-41.54106903076172,7.273589611053467,42.436954498291016,0.64
340,MetaDrive-testbn1,83,301.86075607916047,342218,1362,4077.9180238246918,,3.8282437324523926,38.78685760498047,0.65
341,MetaDrive-testbn1,83,303.24954820679915,343913,1364,4100.987263441086,-44.110477447509766,14.899300575256348,42.70226287841797,0.64
342,MetaDrive-testbn1,83,303.65400044595947,344665,1365,4110.185381889343,-43.161590576171875,11.101360321044922,41.530723571777344,0.64
343,MetaDrive-testbn1,83,305.64360271219834,345658,1367,4122.079545736313,,11.88662338256836,40.93315887451172,0.66
344,MetaDrive-testbn1,83,304.95721116830913,346063,1368,4127.37703037262,-43.81947326660156,5.1456451416015625,43.483646392822266,0.66
345,MetaDrive-testbn1,83,306.6917376361647,347499,1370,4152.9749484062195,-43.97807693481445,4.738203048706055,43.463958740234375,0.65
346,MetaDrive-testbn1,83,310.5024858366172,348304,1371,4165.175767183304,,77.97206115722656,41.236122131347656,0.66
347,MetaDrive-testbn1,83,311.335771481733,349005,1372,4174.372857570648,-41.240867614746094,3.942774772644043,41.3804817199707,0.66
348,MetaDrive-testbn1,83,313.297375214266,350610,1374,4200.729191303253,,10.697782516479492,39.14619827270508,0.67
349,MetaDrive-testbn1,83,310.83157662018203,351270,1376,4208.57692694664,,7.679930210113525,41.369110107421875,0.66
350,MetaDrive-testbn1,83,311.49215510547896,352078,1378,4218.056063890457,,5.122516632080078,44.679073333740234,0.66
351,MetaDrive-testbn1,83,315.01441610449893,353280,1380,4229.4534912109375,,4.725053787231445,42.26099395751953,0.68
352,MetaDrive-testbn1,83,318.19677741876234,354289,1382,4239.1444618701935,-41.86601257324219,4.238401889801025,41.394554138183594,0.69
353,MetaDrive-testbn1,83,317.9631262270152,355290,1383,4253.667488336563,,9.566486358642578,45.39497756958008,0.68
354,MetaDrive-testbn1,83,319.8637662968489,356174,1384,4270.563917636871,,13.140339851379395,43.24937438964844,0.69
355,MetaDrive-testbn1,83,316.10922008862394,357125,1387,4281.094614744186,-41.47749328613281,12.914224624633789,39.93743133544922,0.68
356,MetaDrive-testbn1,83,313.95984566809256,358123,1389,4295.744415044785,-41.25758743286133,4.812804222106934,40.20260238647461,0.67
357,MetaDrive-testbn1,83,315.2217147664258,359124,1390,4312.49147439003,,7.660881042480469,42.867591857910156,0.66
358,MetaDrive-testbn1,83,314.97498756512994,360255,1392,4324.2981543540955,-43.1968994140625,10.559223175048828,42.639686584472656,0.66
359,MetaDrive-testbn1,83,318.51648720170454,361217,1393,4336.339205026627,-41.148529052734375,4.087275981903076,40.93047332763672,0.67
360,MetaDrive-testbn1,83,319.41204279621184,362667,1395,4357.689299821854,-45.62065124511719,5.365390777587891,44.8133430480957,0.67
361,MetaDrive-testbn1,83,320.3881592766453,363384,1396,4365.287729263306,,6.660158157348633,44.42217254638672,0.67
362,MetaDrive-testbn1,83,322.35154277710853,364684,1398,4381.555655479431,,3.789363384246826,46.159278869628906,0.67
363,MetaDrive-testbn1,83,322.55181676859,365658,1399,4392.35934138298,,4.421883583068848,38.153053283691406,0.67
364,MetaDrive-testbn1,83,321.69859251949475,366130,1400,4396.878364562988,,10.118453025817871,38.71712112426758,0.66
365,MetaDrive-testbn1,83,319.7682020288732,367078,1402,4406.368186950684,,8.395782470703125,44.7872200012207,0.66
366,MetaDrive-testbn1,83,321.1404213351207,368079,1403,4421.241317510605,-46.503082275390625,11.037718772888184,45.98347854614258,0.65
367,MetaDrive-testbn1,83,318.74849776788614,369821,1406,4443.809884548187,-38.69447326660156,9.856825828552246,40.03016662597656,0.65
368,MetaDrive-testbn1,83,321.00615393863575,370348,1407,4450.1469004154205,,3.7163186073303223,46.48814010620117,0.66
369,MetaDrive-testbn1,83,319.02164404245,371023,1409,4457.762875318527,-41.97856140136719,4.803906440734863,41.715736389160156,0.66
370,MetaDrive-testbn1,83,317.8392226854681,372024,1410,4474.825492143631,,15.588271141052246,38.464866638183594,0.65
371,MetaDrive-testbn1,83,318.0405314087436,373497,1412,4491.476603984833,-41.388916015625,4.153988838195801,40.891815185546875,0.65
372,MetaDrive-testbn1,83,316.1150389488646,374012,1414,4496.507338762283,,7.745819091796875,41.64177322387695,0.64
373,MetaDrive-testbn1,83,319.5548858321353,375072,1416,4506.922188997269,,6.435177326202393,40.581871032714844,0.66
374,MetaDrive-testbn1,83,318.3947816672556,376258,1418,4523.312665224075,,9.93443489074707,42.00634002685547,0.65
375,MetaDrive-testbn1,83,319.02780734691555,377324,1420,4536.77862405777,,23.35347557067871,43.02416229248047,0.65
376,MetaDrive-testbn1,83,321.82254241153237,378900,1422,4561.573323011398,,37.270713806152344,42.815284729003906,0.64
377,MetaDrive-testbn1,83,322.6161677216091,379536,1423,4568.8938064575195,,77.56214904785156,44.24713897705078,0.65
378,MetaDrive-testbn1,83,321.31837577046184,380035,1424,4573.70784330368,-48.03729248046875,8.13206672668457,46.7570915222168,0.66
379,MetaDrive-testbn1,83,319.63618418733296,381006,1426,4586.717704296112,,90.88394165039062,43.525753021240234,0.66
380,MetaDrive-testbn1,83,321.9699548527018,382646,1428,4607.815610170364,,16.02939224243164,38.35470199584961,0.66
381,MetaDrive-testbn1,83,319.592191848296,383204,1430,4614.002567052841,,64.04387664794922,42.97135925292969,0.66
382,MetaDrive-testbn1,82,321.13158453538443,384205,1431,4633.541165828705,-45.59568786621094,4.658023357391357,45.341087341308594,0.66
383,MetaDrive-testbn1,82,323.57199916105407,385206,1432,4648.595321178436,,7.469161033630371,42.43486785888672,0.66
384,MetaDrive-testbn1,82,321.2553912075986,386207,1433,4660.7180762290955,-42.724952697753906,70.53709411621094,42.32563781738281,0.65
385,MetaDrive-testbn1,82,319.24411884597043,387135,1435,4669.873225450516,-43.55056381225586,5.4103007316589355,42.35363006591797,0.64
386,MetaDrive-testbn1,82,317.95001787294456,388136,1436,4683.608227491379,,5.601998329162598,45.13689041137695,0.64
387,MetaDrive-testbn1,82,318.8503974369615,389917,1438,4707.199969530106,-42.02630615234375,4.148624420166016,41.90116500854492,0.65
388,MetaDrive-testbn1,82,314.4045550971683,390069,1439,4708.817392110825,-43.10115051269531,17.569019317626953,42.42768478393555,0.64
389,MetaDrive-testbn1,82,314.45407380983886,391367,1441,4722.736624002457,-43.01310729980469,8.270150184631348,42.42743682861328,0.64
390,MetaDrive-testbn1,82,313.1749466162738,392224,1442,4732.60121178627,,6.059405326843262,44.98133087158203,0.64
391,MetaDrive-testbn1,82,311.5701795453569,393130,1444,4744.885605573654,,3.9665751457214355,45.817562103271484,0.63
392,MetaDrive-testbn1,82,306.70002107666284,394225,1447,4755.665522575378,-41.6841926574707,4.554474830627441,41.934654235839844,0.61
393,MetaDrive-testbn1,82,307.5857586990656,395051,1448,4768.218344926834,-44.304012298583984,9.7169189453125,42.772891998291016,0.61
394,MetaDrive-testbn1,82,304.0869840241205,396524,1451,4785.1264770030975,,17.718486785888672,41.920806884765625,0.6
395,MetaDrive-testbn1,82,305.77670709460347,397109,1452,4791.95724773407,-43.75651550292969,3.087639570236206,42.87569808959961,0.61
396,MetaDrive-testbn1,82,302.80220451364966,398995,1456,4813.527347803116,-44.759788513183594,4.4586687088012695,44.71097183227539,0.6
397,MetaDrive-testbn1,82,303.8591266091195,399553,1457,4818.925019741058,-44.39076232910156,124.9157943725586,43.76856994628906,0.6
398,MetaDrive-testbn1,82,307.1966711143057,400461,1458,4832.211851358414,-43.85502624511719,4.794889450073242,43.79364776611328,0.61
399,MetaDrive-testbn1,82,304.66189469743836,401462,1459,4846.9085958004,,14.527517318725586,41.49186706542969,0.6
400,MetaDrive-testbn1,82,306.780277663519,402190,1460,4854.818160057068,,5.918295860290527,41.98282241821289,0.61
401,MetaDrive-testbn1,82,305.8532076428286,403191,1461,4874.48068356514,-47.61246109008789,3.6334140300750732,46.979278564453125,0.6
402,MetaDrive-testbn1,82,306.2795542718775,404631,1463,4890.174339056015,-42.379356384277344,14.213618278503418,41.535125732421875,0.6
403,MetaDrive-testbn1,82,302.02794549487663,405461,1465,4899.075214147568,-43.66264343261719,6.399843215942383,42.965065002441406,0.6
404,MetaDrive-testbn1,82,303.4327743002716,406292,1466,4907.851803064346,,73.57601165771484,45.511844635009766,0.6
405,MetaDrive-testbn1,82,305.1843290944798,407729,1468,4927.360202550888,-43.66168975830078,3.999187469482422,43.693687438964844,0.61
406,MetaDrive-testbn1,82,305.36385830232206,408219,1469,4933.616121530533,-44.16846466064453,5.145524024963379,43.91172790527344,0.62
407,MetaDrive-testbn1,82,302.5039195308146,409855,1471,4956.578569173813,-46.13459014892578,8.527965545654297,46.08621597290039,0.62
408,MetaDrive-testbn1,82,302.8056738314323,410594,1472,4964.59480381012,,2.492739677429199,41.802547454833984,0.62
409,MetaDrive-testbn1,82,303.61425784653346,411281,1473,4974.367540359497,-46.491661071777344,12.722677230834961,45.96076965332031,0.62
410,MetaDrive-testbn1,82,303.28707056418506,412155,1475,4985.249390602112,-45.72325897216797,10.213613510131836,44.18901062011719,0.63
411,MetaDrive-testbn1,82,302.69894190014935,413089,1477,4994.793160676956,-45.96211242675781,7.284881591796875,45.32248306274414,0.63
412,MetaDrive-testbn1,82,302.31694227420826,414362,1480,5009.297832489014,,4.767863750457764,43.87089920043945,0.62
413,MetaDrive-testbn1,82,302.5083663010268,415026,1481,5015.522264003754,,6.401066780090332,45.12507629394531,0.62
414,MetaDrive-testbn1,82,301.101280768525,416027,1482,5031.567581653595,-48.061279296875,12.264751434326172,47.545066833496094,0.61
415,MetaDrive-testbn1,82,299.07364830547505,417760,1484,5054.7672510147095,,13.907186508178711,40.49707794189453,0.61
416,MetaDrive-testbn1,82,300.3739672040994,418129,1485,5058.537637233734,-45.63021469116211,8.091718673706055,44.14741516113281,0.62
417,MetaDrive-testbn1,82,301.9760311492535,419130,1486,5071.95757651329,,6.7051215171813965,44.80858612060547,0.61
418,MetaDrive-testbn1,82,301.13308081406956,420131,1487,5084.648211956024,-39.63371658325195,7.898386478424072,39.77306365966797,0.6
419,MetaDrive-testbn1,82,302.7356836619089,421432,1489,5098.881259202957,,9.198844909667969,49.145652770996094,0.61
420,MetaDrive-testbn1,82,301.98054908329664,422257,1490,5109.212535381317,-46.274444580078125,4.741410255432129,45.48426818847656,0.62
421,MetaDrive-testbn1,82,302.3453292726464,423138,1491,5122.864594936371,,7.9561920166015625,45.842185974121094,0.62
422,MetaDrive-testbn1,82,301.70865767486015,424598,1493,5137.396530628204,,6.832429885864258,42.187965393066406,0.62
423,MetaDrive-testbn1,82,297.79873433844705,425187,1495,5144.143311262131,-44.84184646606445,28.25054168701172,43.88551330566406,0.61
424,MetaDrive-testbn1,82,297.1197108340954,426151,1496,5155.749822616577,-40.95084762573242,25.06800651550293,40.90972900390625,0.61
425,MetaDrive-testbn1,82,297.01719208432115,427302,1498,5167.252710580826,,5.032390594482422,43.773704528808594,0.62
426,MetaDrive-testbn1,82,294.0113221495222,428553,1501,5181.368417978287,-44.42741775512695,5.493468284606934,44.285560607910156,0.62
427,MetaDrive-testbn1,82,294.95829179969365,429554,1502,5198.8106071949005,,4.469703674316406,45.50197219848633,0.61
428,MetaDrive-testbn1,82,294.0524877463984,430555,1503,5211.452250003815,-44.848304748535156,6.034250259399414,44.998863220214844,0.61
429,MetaDrive-testbn1,82,293.3311023184609,431251,1505,5219.825667381287,-41.99055862426758,7.655699729919434,42.17442321777344,0.6
430,MetaDrive-testbn1,82,290.6026528298563,432521,1508,5232.039697647095,-45.32970428466797,19.46404457092285,45.104286193847656,0.59
431,MetaDrive-testbn1,82,292.6573720332801,433085,1509,5237.795002222061,-44.328468322753906,4.2439117431640625,43.98886489868164,0.59
432,MetaDrive-testbn1,82,289.4003056490779,434125,1511,5253.223828792572,-46.98386001586914,4.606171607971191,46.732234954833984,0.59
433,MetaDrive-testbn1,82,288.90136508942965,435216,1513,5266.6461663246155,,4.9272074699401855,47.61043930053711,0.59
434,MetaDrive-testbn1,82,292.6397301428344,436124,1514,5279.026169538498,,3.1282927989959717,41.662742614746094,0.6
435,MetaDrive-testbn1,82,294.29176746923434,437637,1516,5299.032279729843,-45.20024871826172,5.271139621734619,45.171443939208984,0.6
436,MetaDrive-testbn1,82,296.33874652667055,438260,1517,5306.701036453247,,3.6635806560516357,46.04684829711914,0.61
437,MetaDrive-testbn1,82,296.53852702577115,439444,1519,5319.499673843384,,8.288956642150879,42.138587951660156,0.62
438,MetaDrive-testbn1,82,293.5890671554668,440190,1521,5326.829983472824,,11.907615661621094,41.8087158203125,0.61
439,MetaDrive-testbn1,82,292.4176203568393,441378,1523,5340.288857221603,,9.346323013305664,44.810997009277344,0.62
440,MetaDrive-testbn1,82,293.007233753311,442450,1525,5353.6489844322205,,5.578996658325195,43.013999938964844,0.61
441,MetaDrive-testbn1,82,292.1040332123469,443311,1527,5363.858756780624,-46.576446533203125,6.688068866729736,46.72187423706055,0.61
442,MetaDrive-testbn1,82,292.50197157755946,444898,1529,5384.592287302017,,8.473991394042969,50.683677673339844,0.61
443,MetaDrive-testbn1,82,294.9032385181882,445660,1530,5393.110803604126,,4.89991569519043,44.857330322265625,0.62
444,MetaDrive-testbn1,82,293.72135436420336,446120,1531,5398.378452062607,,4.980506896972656,46.54761505126953,0.63
445,MetaDrive-testbn1,82,293.91901439133267,447050,1532,5408.982441663742,,9.503006935119629,42.5992431640625,0.64
446,MetaDrive-testbn1,82,295.48270460035667,448617,1535,5427.99259352684,-43.798614501953125,5.264764785766602,43.24245834350586,0.66
447,MetaDrive-testbn1,82,297.2071473643195,449361,1536,5436.149096488953,-40.7598762512207,88.45072174072266,40.453208923339844,0.67
448,MetaDrive-testbn1,82,296.5165184001742,450664,1538,5451.8808805942535,,4.546730041503906,42.587188720703125,0.67
449,MetaDrive-testbn1,82,297.21328138889027,451465,1540,5461.634532213211,-47.02436828613281,8.712701797485352,45.98663330078125,0.66
450,MetaDrive-testbn1,82,294.1495369938663,452502,1542,5472.597958564758,,8.137869834899902,43.87450408935547,0.65
451,MetaDrive-testbn1,82,295.6512349430557,453503,1543,5484.802299976349,-40.56240463256836,10.735280990600586,40.84755325317383,0.65
452,MetaDrive-testbn1,82,296.2959790096999,454504,1544,5498.159223556519,,7.1238179206848145,47.482940673828125,0.64
453,MetaDrive-testbn1,82,299.42198341338576,455505,1545,5511.692815542221,-46.233314514160156,8.533172607421875,45.03825378417969,0.64
454,MetaDrive-testbn1,82,299.0475635319715,456060,1546,5517.031687259674,,9.069554328918457,44.41835403442383,0.64
455,MetaDrive-testbn1,82,302.8510185168898,457058,1547,5533.734801054001,,5.942059516906738,43.82771301269531,0.65
456,MetaDrive-testbn1,82,302.73722579908866,458327,1549,5555.412292957306,-43.778724670410156,4.474344253540039,43.155479431152344,0.64
457,MetaDrive-testbn1,82,304.5905938745013,459028,1550,5562.70810508728,,3.8544044494628906,40.542572021484375,0.65
458,MetaDrive-testbn1,82,305.52489780833554,460587,1552,5583.821884870529,-47.920135498046875,4.268665790557861,47.478965759277344,0.65
459,MetaDrive-testbn1,82,305.98152951457644,461132,1553,5589.927196264267,,5.192058563232422,46.01242446899414,0.65
460,MetaDrive-testbn1,82,309.5339254416724,462001,1554,5601.403896808624,-47.16310119628906,4.969399929046631,47.19792938232422,0.66
461,MetaDrive-testbn1,82,311.919881028079,463652,1556,5623.382059574127,,5.879026889801025,42.52565002441406,0.67
462,MetaDrive-testbn1,82,311.93497997199165,464653,1557,5635.867626428604,-47.320560455322266,8.160362243652344,47.34960174560547,0.66
463,MetaDrive-testbn1,82,312.1385722882007,465654,1558,5655.84000992775,,7.445899963378906,44.92741012573242,0.65
464,MetaDrive-testbn1,82,314.1020245315469,466342,1559,5662.263529539108,,5.17590856552124,45.235172271728516,0.66
465,MetaDrive-testbn1,82,313.2986264401736,467174,1560,5670.359790325165,,13.804157257080078,44.51409912109375,0.66
466,MetaDrive-testbn1,82,306.81640820393915,468400,1564,5681.864278078079,,9.266770362854004,45.90458679199219,0.65
467,MetaDrive-testbn1,82,308.5643747797381,469401,1565,5695.332179307938,-40.15380096435547,9.689255714416504,39.807884216308594,0.64
468,MetaDrive-testbn1,82,306.699827339842,470695,1567,5709.277875185013,-41.67090606689453,43.66582489013672,40.72759246826172,0.64
469,MetaDrive-testbn1,82,305.26014874319,471197,1568,5714.333914518356,-43.92536163330078,12.559271812438965,43.69493103027344,0.64
470,MetaDrive-testbn1,82,307.19952261457115,472031,1569,5726.957943916321,-44.05135726928711,128.28704833984375,43.52357482910156,0.64
471,MetaDrive-testbn1,82,308.76019580154525,473821,1571,5749.080690860748,-48.45732879638672,12.59085750579834,49.04494857788086,0.65
472,MetaDrive-testbn1,82,307.0204047543437,474326,1572,5754.523868083954,,6.39272928237915,44.574867248535156,0.64
473,MetaDrive-testbn1,82,309.0107426587198,475960,1574,5772.63658952713,,9.664800643920898,42.78862380981445,0.64
474,MetaDrive-testbn1,82,307.9387712736397,476436,1575,5778.048077821732,,6.688633918762207,42.934261322021484,0.64
475,MetaDrive-testbn1,82,308.53955939920013,477154,1576,5784.841832637787,,5.823721885681152,50.199951171875,0.64
476,MetaDrive-testbn1,82,309.96525924518886,478155,1577,5795.628960132599,-42.518829345703125,2.808434009552002,42.14836502075195,0.63
477,MetaDrive-testbn1,82,311.34527561037106,479353,1579,5806.074560403824,-42.34210205078125,5.977320671081543,42.49591827392578,0.64
478,MetaDrive-testbn1,82,310.2920200357671,480489,1581,5815.731523513794,-43.38431167602539,7.688912391662598,42.27684020996094,0.65
479,MetaDrive-testbn1,82,310.2857840701847,481787,1583,5829.2530653476715,-48.99958801269531,6.4788641929626465,48.42725372314453,0.65
480,MetaDrive-testbn1,82,307.80732131360435,482426,1585,5836.358650445938,,6.688051223754883,42.383628845214844,0.65
481,MetaDrive-testbn1,82,307.7729334441659,483427,1586,5853.5114760398865,-46.274070739746094,4.82846212387085,46.28870391845703,0.65
482,MetaDrive-testbn1,82,307.78573028703704,484580,1588,5865.715173244476,,5.089202880859375,42.967002868652344,0.65
483,MetaDrive-testbn1,82,305.60784794881255,485979,1590,5882.881108522415,-45.01594543457031,4.3556318283081055,44.432525634765625,0.63
484,MetaDrive-testbn1,82,307.0375866751153,486980,1591,5900.34562253952,,26.941204071044922,40.10950469970703,0.62
485,MetaDrive-testbn1,82,307.9196150280409,487945,1592,5915.3185658454895,-49.060455322265625,6.016661643981934,48.35474395751953,0.62
486,MetaDrive-testbn1,82,307.1248857439458,488946,1593,5933.121813774109,,7.402382850646973,43.79445266723633,0.61
487,MetaDrive-testbn1,82,310.24136785402465,489552,1594,5940.269373893738,,9.949766159057617,46.52417755126953,0.62
488,MetaDrive-testbn1,82,311.0875694095514,490409,1595,5950.182145833969,-44.07484436035156,7.398860931396484,43.349891662597656,0.62
489,MetaDrive-testbn1,82,312.07160362888254,491410,1596,5967.206329584122,,4.049693584442139,42.69102478027344,0.61
490,MetaDrive-testbn1,82,312.53227363228865,492145,1597,5976.001759529114,-40.5424919128418,6.710090637207031,40.20984649658203,0.61
491,MetaDrive-testbn1,82,311.9498107914286,493146,1598,5996.448779582977,,13.392333984375,45.29505157470703,0.6
492,MetaDrive-testbn1,82,314.7728013865917,494503,1600,6011.776178359985,-44.694297790527344,4.700345993041992,45.15513610839844,0.6
493,MetaDrive-testbn1,82,314.1082551267321,495020,1601,6017.558974504471,,6.276562690734863,43.87195587158203,0.61
494,MetaDrive-testbn1,82,312.82945557207466,496455,1603,6031.373574018478,-47.41325378417969,4.1397504806518555,47.04056930541992,0.63
495,MetaDrive-testbn1,82,314.82718216909683,497456,1604,6046.74803352356,,5.962719917297363,42.94649124145508,0.63
496,MetaDrive-testbn1,82,316.82315311249613,498264,1605,6054.841884613037,,5.729079246520996,43.297325134277344,0.64
497,MetaDrive-testbn1,82,318.551925377306,499106,1606,6066.827162504196,,9.038703918457031,46.39860153198242,0.64
498,MetaDrive-testbn1,82,317.71626492158134,500002,1608,6076.924898147583,,3.0599684715270996,42.57152557373047,0.63
499,MetaDrive-testbn1,82,316.6553202344852,501308,1611,6094.295233488083,,7.000795364379883,44.74794387817383,0.63
500,MetaDrive-testbn1,82,316.3654545495895,502045,1612,6102.738798379898,-51.99319839477539,5.258700370788574,51.550437927246094,0.63
501,MetaDrive-testbn1,82,315.02223871069737,503255,1614,6118.708112239838,-44.6928596496582,34.90752029418945,44.58441925048828,0.63
502,MetaDrive-testbn1,82,313.8220677610763,504846,1616,6135.395276069641,,65.94866943359375,42.09856033325195,0.62
503,MetaDrive-testbn1,82,312.68860406606996,505416,1617,6144.298389911652,,35.047080993652344,46.719791412353516,0.61
504,MetaDrive-testbn1,82,312.4926419211986,506252,1618,6151.983898639679,,6.61357307434082,45.435707092285156,0.6
505,MetaDrive-testbn1,82,311.85869195185603,507253,1619,6160.324209213257,-42.4521484375,70.1375961303711,42.74208068847656,0.59
506,MetaDrive-testbn1,82,307.32030817141816,508165,1622,6170.085530757904,-45.46538543701172,7.849333763122559,46.35699462890625,0.58
507,MetaDrive-testbn1,82,308.8451163479681,509093,1623,6181.6415004730225,-45.49876403808594,4.174139022827148,45.300819396972656,0.58
508,MetaDrive-testbn1,82,308.16030738947813,510125,1625,6192.8810749053955,-46.84217071533203,6.517604827880859,45.95157241821289,0.58
509,MetaDrive-testbn1,82,309.7838311461573,511782,1627,6216.452828168869,,12.306735038757324,45.134483337402344,0.57
510,MetaDrive-testbn1,82,308.4830287491258,512783,1628,6229.099203586578,-48.17212677001953,7.142637252807617,47.91379928588867,0.56
511,MetaDrive-testbn1,82,307.2418845584741,513341,1629,6234.148938655853,-42.77156066894531,5.563051223754883,42.50677490234375,0.56
512,MetaDrive-testbn1,82,307.1426354425071,514342,1630,6244.803555727005,,12.036005020141602,43.172393798828125,0.55
513,MetaDrive-testbn1,82,308.3447503091021,515109,1631,6256.487059354782,-42.09770202636719,30.922557830810547,41.87797546386719,0.55
514,MetaDrive-testbn1,82,306.8733173824547,516338,1633,6270.253655195236,,6.822361469268799,42.14728546142578,0.53
515,MetaDrive-testbn1,82,307.49334919911706,517339,1634,6286.536804199219,-43.64556884765625,7.024431228637695,43.91960906982422,0.52
516,MetaDrive-testbn1,82,307.05919360936133,518532,1636,6302.246906280518,,6.728892803192139,50.76728820800781,0.51
517,MetaDrive-testbn1,82,305.8010052977265,519533,1637,6313.87872171402,-47.3516845703125,3.6853744983673096,47.145179748535156,0.5
518,MetaDrive-testbn1,82,305.09900053664666,520449,1639,6325.557529449463,-44.483726501464844,20.01168441772461,43.059478759765625,0.5
519,MetaDrive-testbn1,82,304.8979484066681,521450,1640,6341.9133541584015,,7.054197311401367,47.14152908325195,0.5
520,MetaDrive-testbn1,82,306.57328824112966,522191,1641,6350.326565742493,-48.15941619873047,5.524274826049805,47.81244659423828,0.51
521,MetaDrive-testbn1,82,304.2770340263843,523429,1643,6366.03612279892,-46.729591369628906,4.596905708312988,46.49445343017578,0.51
522,MetaDrive-testbn1,82,304.20622448067786,524391,1644,6375.964545965195,-43.05528259277344,8.020162582397461,42.541961669921875,0.52
523,MetaDrive-testbn1,82,303.57819803441356,525094,1645,6385.42323923111,,8.553897857666016,45.05311584472656,0.53
524,MetaDrive-testbn1,82,301.4623888872232,526297,1647,6400.8485379219055,-40.775169372558594,9.500114440917969,41.49322509765625,0.52
525,MetaDrive-testbn1,82,302.12263198447187,527318,1649,6411.8067038059235,,4.2877092361450195,43.29618835449219,0.54
526,MetaDrive-testbn1,82,301.1545675445692,528614,1651,6428.299887418747,,6.802713394165039,44.915618896484375,0.53
527,MetaDrive-testbn1,82,299.14995987117726,529214,1652,6434.20961689949,,6.145813465118408,45.38097381591797,0.53
528,MetaDrive-testbn1,82,297.5386199415001,530451,1654,6445.552492618561,-43.90495300292969,5.645759582519531,44.18260955810547,0.53
529,MetaDrive-testbn1,82,293.85926452004054,531855,1656,6460.208234548569,-47.505592346191406,5.822998046875,46.660972595214844,0.51
530,MetaDrive-testbn1,82,293.9529139039285,532753,1657,6470.549071073532,-45.34223175048828,4.731860160827637,44.955780029296875,0.52
531,MetaDrive-testbn1,82,291.3299787525468,533076,1658,6473.657116174698,,10.12164306640625,41.90717315673828,0.52
532,MetaDrive-testbn1,82,287.3036160044632,534210,1661,6484.62100148201,,6.956249237060547,43.73075866699219,0.51
533,MetaDrive-testbn1,82,290.0082725236578,535211,1662,6497.970871210098,-45.73866653442383,4.8708720207214355,45.70431137084961,0.51
534,MetaDrive-testbn1,82,292.9277898548292,536151,1663,6509.113897323608,-41.70014953613281,11.341765403747559,41.195838928222656,0.52
535,MetaDrive-testbn1,82,291.68547607939706,537229,1665,6520.119958639145,-46.86216735839844,3.617248058319092,46.9954833984375,0.52
536,MetaDrive-testbn1,82,290.69440725609877,538930,1668,6544.50307559967,,5.619107723236084,46.53985595703125,0.5
537,MetaDrive-testbn1,82,286.5127534677566,539084,1669,6546.102269887924,,5.696855068206787,46.276161193847656,0.49
538,MetaDrive-testbn1,82,286.98947595209165,540085,1670,6560.774304389954,-41.64916229248047,8.512505531311035,41.66740417480469,0.48
539,MetaDrive-testbn1,82,282.9053770688351,541756,1673,6579.2597506046295,,73.24565124511719,46.014835357666016,0.47
540,MetaDrive-testbn1,82,284.0002482437051,542757,1674,6595.147093057632,-46.2164421081543,5.794411659240723,46.1856689453125,0.47
541,MetaDrive-testbn1,82,281.7861902439401,543839,1676,6608.062746524811,-45.696868896484375,4.8177289962768555,45.26775360107422,0.46
542,MetaDrive-testbn1,82,280.60142956161803,544462,1677,6612.996723175049,,7.190760612487793,45.2031364440918,0.47
543,MetaDrive-testbn1,82,280.18100481957373,545463,1678,6622.072125911713,-44.34858703613281,4.878317832946777,43.681884765625,0.46
544,MetaDrive-testbn1,82,277.3914502132512,546138,1680,6629.451504230499,,10.456367492675781,39.22520446777344,0.45
545,MetaDrive-testbn1,82,275.513580397862,547846,1683,6649.358243465424,,3.964293956756592,47.933448791503906,0.43
546,MetaDrive-testbn1,82,277.93254787605105,548847,1684,6659.113601207733,-46.660736083984375,10.59630298614502,46.413509368896484,0.43
547,MetaDrive-testbn1,82,279.0670441025704,549848,1685,6672.484349012375,,4.286287307739258,42.896942138671875,0.42
548,MetaDrive-testbn1,82,276.7720816372781,550243,1686,6678.562200546265,-46.239219665527344,18.05243682861328,44.882816314697266,0.42
549,MetaDrive-testbn1,82,276.97698482569405,551468,1688,6693.279608249664,,6.539763927459717,44.27668380737305,0.42
550,MetaDrive-testbn1,82,278.50792486063847,552107,1689,6699.082901954651,-48.15073776245117,9.286903381347656,47.13552474975586,0.43
551,MetaDrive-testbn1,82,275.2538614141315,553309,1691,6710.338408231735,-42.859580993652344,10.43038272857666,43.05200958251953,0.44
552,MetaDrive-testbn1,82,273.269231514514,554104,1692,6717.64906835556,,7.1114349365234375,44.899131774902344,0.44
553,MetaDrive-testbn1,82,274.21607164349984,555680,1694,6738.150245428085,,22.54778480529785,42.12348937988281,0.45
554,MetaDrive-testbn1,82,273.9181335893295,556439,1695,6748.95437335968,-43.60636901855469,7.396309852600098,42.933040618896484,0.45
555,MetaDrive-testbn1,82,273.0293626261529,557010,1696,6754.924604654312,,7.3098530769348145,45.50041961669922,0.46
556,MetaDrive-testbn1,82,273.6074342329122,558011,1697,6768.87807059288,-42.29329299926758,4.164690971374512,41.97480010986328,0.45
557,MetaDrive-testbn1,82,273.8828818817115,559011,1698,6783.04248046875,-42.62443542480469,5.7073774337768555,41.74390411376953,0.46
558,MetaDrive-testbn1,82,274.45261674043377,560258,1700,6796.083054065704,,20.300193786621094,40.97370910644531,0.47
559,MetaDrive-testbn1,82,274.67146421868665,561615,1702,6811.144382715225,-39.86628723144531,7.1821393966674805,40.37245178222656,0.46
560,MetaDrive-testbn1,82,273.211034173183,562654,1704,6823.718723535538,,3.8977527618408203,46.726806640625,0.46
561,MetaDrive-testbn1,82,271.20174758448064,563041,1705,6827.317531108856,-41.04302978515625,7.343006134033203,40.12000274658203,0.45
562,MetaDrive-testbn1,82,267.23482001906206,564023,1708,6839.56045126915,-46.95652770996094,71.97045135498047,46.128578186035156,0.44
563,MetaDrive-testbn1,82,271.20990567976537,565378,1710,6857.51203751564,,13.430754661560059,44.431610107421875,0.45
564,MetaDrive-testbn1,82,268.9019723074427,566148,1712,6867.3601269721985,,8.494667053222656,40.99803924560547,0.44
565,MetaDrive-testbn1,82,269.55449531797456,567221,1714,6881.237943649292,-47.305152893066406,3.9735450744628906,47.14588928222656,0.44
566,MetaDrive-testbn1,82,269.1369273528079,568644,1716,6901.785019397736,,5.96278190612793,42.861942291259766,0.44
567,MetaDrive-testbn1,82,270.51213600297336,569191,1717,6906.905299425125,-43.802398681640625,3.3660261631011963,43.02803039550781,0.45
568,MetaDrive-testbn1,82,272.0884092656239,570192,1718,6921.385930299759,,4.19791316986084,42.36079025268555,0.45
569,MetaDrive-testbn1,82,274.2566320762998,571065,1720,6931.438998699188,-44.13064956665039,6.529863357543945,43.342140197753906,0.46
570,MetaDrive-testbn1,82,276.62451653896807,572353,1722,6943.390598773956,-47.125389099121094,5.149263381958008,46.68394470214844,0.47
571,MetaDrive-testbn1,82,276.0080300909764,573342,1723,6953.558225870132,,4.082530498504639,44.942440032958984,0.47
572,MetaDrive-testbn1,82,274.7325718607286,574343,1724,6963.844069480896,-42.94654083251953,75.43987274169922,41.889793395996094,0.46
573,MetaDrive-testbn1,82,276.09536879237976,575006,1725,6969.656143188477,,18.723344802856445,45.26116943359375,0.47
574,MetaDrive-testbn1,82,277.44734582282024,576731,1727,6996.747115850449,-43.0130729675293,81.71769714355469,42.42729949951172,0.48
575,MetaDrive-testbn1,82,278.62111157955997,577316,1728,7003.444459676743,,3.9205322265625,44.82772445678711,0.49
576,MetaDrive-testbn1,82,277.7150002179245,578431,1730,7014.001709461212,-45.18193817138672,5.553048133850098,44.80127716064453,0.5
577,MetaDrive-testbn1,82,277.71047976978093,579119,1731,7022.639633655548,-40.771514892578125,7.5954365730285645,39.860862731933594,0.5
578,MetaDrive-testbn1,82,278.10992212263164,580199,1733,7034.625474214554,-43.056396484375,3.7040138244628906,42.6710319519043,0.52
579,MetaDrive-testbn1,82,277.68661089330374,581200,1734,7047.719754934311,,11.528284072875977,41.53732681274414,0.52
580,MetaDrive-testbn1,82,277.3448659635965,582371,1736,7060.665946960449,-41.16661071777344,10.293256759643555,40.93140411376953,0.53
581,MetaDrive-testbn1,82,279.23042473933384,583138,1737,7069.962443351746,,8.436471939086914,43.49172592163086,0.54
582,MetaDrive-testbn1,82,282.12449635806126,584483,1739,7088.0971002578735,-42.570655822753906,9.343935012817383,42.65135192871094,0.54
583,MetaDrive-testbn1,82,283.47365702576354,585160,1740,7095.476080656052,,8.904314041137695,44.406089782714844,0.55
584,MetaDrive-testbn1,82,283.9158020341514,586262,1742,7106.428872823715,,8.618240356445312,42.32542419433594,0.56
585,MetaDrive-testbn1,82,282.5860927606108,587289,1744,7118.474906921387,-44.90337371826172,27.745864868164062,44.574859619140625,0.55
586,MetaDrive-testbn1,82,281.4756877104664,588250,1746,7129.253839969635,,10.14510726928711,41.996116638183594,0.54
587,MetaDrive-testbn1,82,280.79540893553974,589176,1748,7139.033083438873,,5.48887825012207,41.04022216796875,0.54
588,MetaDrive-testbn1,82,279.7998832940166,590196,1750,7149.300100326538,,5.7108612060546875,40.556495666503906,0.54
589,MetaDrive-testbn1,82,280.71354445790774,591072,1751,7157.63343334198,,16.391937255859375,38.12798309326172,0.54
590,MetaDrive-testbn1,82,281.20818283975956,592330,1753,7171.2332146167755,,4.735547065734863,43.326751708984375,0.53
591,MetaDrive-testbn1,82,281.54095146257725,593822,1756,7189.007938623428,,10.359513282775879,41.42265701293945,0.53
592,MetaDrive-testbn1,82,280.51701463211595,594567,1758,7197.554682731628,-43.491477966308594,4.517361640930176,43.108551025390625,0.53
593,MetaDrive-testbn1,82,282.97907372725,595115,1759,7202.170956611633,-43.413841247558594,7.314185619354248,42.24211883544922,0.54
594,MetaDrive-testbn1,82,283.13906222269117,596413,1761,7221.054502725601,-43.50324630737305,12.570711135864258,43.29701232910156,0.53
595,MetaDrive-testbn1,82,283.15574593581607,597414,1762,7237.533714294434,,7.140578746795654,40.24709701538086,0.53
596,MetaDrive-testbn1,82,283.6723029585458,598082,1763,7245.632662773132,,12.455314636230469,45.28704833984375,0.53
597,MetaDrive-testbn1,82,282.5767445555086,599071,1765,7257.750668048859,-41.88151168823242,6.565314769744873,41.47468566894531,0.53
598,MetaDrive-testbn1,82,283.23360790734347,600208,1767,7267.293221950531,,4.2923583984375,40.94651794433594,0.54
599,MetaDrive-testbn1,82,283.7183733837727,601156,1769,7276.664533376694,,8.98880386352539,44.08345031738281,0.55
600,MetaDrive-testbn1,82,284.2810304714488,602157,1770,7294.095822811127,-43.36394119262695,3.640312671661377,43.34223175048828,0.55
601,MetaDrive-testbn1,82,283.93385307841663,603158,1771,7307.1708035469055,,8.085763931274414,41.925140380859375,0.54
602,MetaDrive-testbn1,82,288.2157455237787,604159,1772,7324.552207946777,-42.406227111816406,38.34770202636719,42.097476959228516,0.54
603,MetaDrive-testbn1,82,284.7391458920333,605183,1774,7337.044340133667,-37.69091796875,4.536796569824219,37.56195068359375,0.55
604,MetaDrive-testbn1,82,285.08050353529893,606041,1776,7345.606709480286,-38.2060546875,16.7936954498291,38.063663482666016,0.55
605,MetaDrive-testbn1,82,289.0361565023902,607778,1778,7368.079713582993,,5.440893650054932,43.469730377197266,0.56
606,MetaDrive-testbn1,82,288.8254114662112,608387,1779,7376.635315656662,-43.25845718383789,7.425538539886475,42.311309814453125,0.55
607,MetaDrive-testbn1,82,291.1436486201526,609354,1781,7386.841589927673,,126.28282165527344,38.79290008544922,0.56
608,MetaDrive-testbn1,82,289.02258254484843,610294,1783,7397.61762547493,,7.532230377197266,42.28548812866211,0.56
609,MetaDrive-testbn1,82,289.00072151380084,611964,1785,7418.28733921051,,5.442778587341309,44.27428436279297,0.57
610,MetaDrive-testbn1,82,290.87931186051924,612619,1786,7426.4574110507965,-43.513648986816406,10.44898509979248,43.627708435058594,0.58
611,MetaDrive-testbn1,82,291.70051155772353,613479,1787,7438.118327617645,-44.33693313598633,7.207808494567871,44.25711441040039,0.58
612,MetaDrive-testbn1,82,289.0946127985929,614428,1789,7446.175290346146,,2.7641990184783936,43.26326370239258,0.58
613,MetaDrive-testbn1,82,289.0480477621279,615740,1791,7467.447974205017,,13.835261344909668,40.114280700683594,0.57
614,MetaDrive-testbn1,82,288.8442951220437,616356,1792,7473.751307964325,,6.871549129486084,43.356910705566406,0.57
615,MetaDrive-testbn1,82,284.55345850893775,617099,1794,7479.967657327652,-41.88947677612305,5.512539863586426,42.097511291503906,0.56
616,MetaDrive-testbn1,82,283.7866834569658,618390,1796,7492.136643409729,,101.13151550292969,46.190162658691406,0.56
617,MetaDrive-testbn1,82,280.91331049711783,619316,1798,7502.271910190582,,4.486488342285156,45.605369567871094,0.56
618,MetaDrive-testbn1,82,279.9248512717115,620317,1799,7518.31175494194,-40.29949188232422,3.859976053237915,39.899044036865234,0.55
619,MetaDrive-testbn1,82,280.4598780478622,621386,1801,7529.873139858246,,5.029293060302734,42.798095703125,0.54
620,MetaDrive-testbn1,82,280.34986791602915,622034,1802,7541.067083835602,,6.013776779174805,45.67346954345703,0.54
621,MetaDrive-testbn1,82,282.2421850334972,623035,1803,7553.968531131744,-42.693748474121094,4.829709053039551,42.41929626464844,0.54
622,MetaDrive-testbn1,82,281.5305318914216,624610,1805,7567.422913789749,,70.01841735839844,39.537498474121094,0.54
623,MetaDrive-testbn1,82,281.79770541045787,625470,1806,7576.390829563141,,5.992127895355225,44.680137634277344,0.55
624,MetaDrive-testbn1,82,285.1233217228879,626152,1807,7583.349333286285,,21.088356018066406,40.801944732666016,0.56
625,MetaDrive-testbn1,82,287.87042651252256,627030,1808,7593.981661081314,,5.429791450500488,39.28689956665039,0.57
626,MetaDrive-testbn1,82,286.4865392846009,628438,1810,7610.316960334778,,6.83709716796875,39.514488220214844,0.56
627,MetaDrive-testbn1,82,286.652552865222,629439,1811,7620.930814027786,-44.582210540771484,5.0465240478515625,43.830047607421875,0.56
628,MetaDrive-testbn1,82,289.25243723552694,630965,1813,7634.964464426041,-42.03380584716797,9.47337532043457,41.98554229736328,0.57
629,MetaDrive-testbn1,82,286.4821995397234,631380,1814,7641.474454641342,,5.836716175079346,39.50244903564453,0.56
630,MetaDrive-testbn1,82,286.0283646743936,632939,1816,7665.950178861618,-35.59196472167969,5.472219944000244,35.765960693359375,0.56
631,MetaDrive-testbn1,82,286.06303461009696,633658,1817,7672.424918174744,,3.442032814025879,38.66421127319336,0.56
632,MetaDrive-testbn1,82,286.07531597378915,634659,1818,7681.701756477356,-46.16558074951172,4.946638107299805,45.932403564453125,0.56
633,MetaDrive-testbn1,82,287.0340906769466,635474,1819,7690.6778202056885,,6.0995774269104,39.833316802978516,0.56
634,MetaDrive-testbn1,82,287.8901162606563,636103,1820,7699.101363182068,-42.38890075683594,9.262739181518555,42.53397750854492,0.56
635,MetaDrive-testbn1,82,288.7938926642193,637104,1821,7715.7976841926575,,4.030660629272461,39.774688720703125,0.55
636,MetaDrive-testbn1,82,289.66145438202915,638093,1822,7727.651323318481,-37.14764404296875,7.300682544708252,37.378318786621094,0.55
637,MetaDrive-testbn1,82,290.18232011930024,639551,1824,7744.291477203369,-40.27992630004883,8.451913833618164,40.19329833984375,0.54
638,MetaDrive-testbn1,82,289.4625426114543,640552,1825,7754.275080442429,,8.235115051269531,38.992164611816406,0.53
639,MetaDrive-testbn1,82,289.42034969732975,641553,1826,7767.060479640961,-41.35322952270508,5.631003379821777,41.36213684082031,0.52
640,MetaDrive-testbn1,82,288.67156654807314,642280,1827,7773.713891506195,,6.515852928161621,40.430206298828125,0.53
641,MetaDrive-testbn1,82,288.63912227311533,643590,1829,7785.411440610886,,4.696544170379639,41.9009895324707,0.53
642,MetaDrive-testbn1,82,288.5101673615499,644282,1830,7792.47905421257,,5.790615558624268,37.731651306152344,0.53
643,MetaDrive-testbn1,82,287.87267343130924,645820,1832,7810.962522983551,,7.306721210479736,40.974151611328125,0.51
644,MetaDrive-testbn1,82,288.0040723080242,646542,1833,7819.262647628784,,6.538393974304199,39.394866943359375,0.51
645,MetaDrive-testbn1,82,287.57127802790444,647543,1834,7829.073076725006,-43.33043670654297,13.225105285644531,43.508522033691406,0.51
646,MetaDrive-testbn1,82,287.99498260394944,648544,1835,7840.074211835861,,5.632043838500977,38.8083381652832,0.5
647,MetaDrive-testbn1,82,288.06675365637165,649296,1836,7850.958022594452,,3.430720329284668,39.611297607421875,0.49
648,MetaDrive-testbn1,82,288.04696257097925,650098,1837,7858.694749832153,,6.991343975067139,39.088897705078125,0.49
649,MetaDrive-testbn1,82,288.2636412820224,651855,1839,7879.230046033859,-45.7174072265625,6.237725257873535,45.03689193725586,0.48
650,MetaDrive-testbn1,82,287.3191605996142,652502,1840,7885.7234580516815,,8.113714218139648,41.55453109741211,0.48
651,MetaDrive-testbn1,82,288.6954241423213,653503,1841,7896.522382736206,-42.3120002746582,5.014837265014648,41.52286911010742,0.47
652,MetaDrive-testbn1,82,288.01625915195143,654295,1842,7905.234646081924,-41.201351165771484,4.547196865081787,41.106327056884766,0.47
653,MetaDrive-testbn1,82,288.4234839611457,655205,1843,7918.2738173007965,-40.340206146240234,5.097579002380371,39.77116775512695,0.47
654,MetaDrive-testbn1,82,290.505391696819,656744,1845,7933.626826047897,,3.429818630218506,40.38716125488281,0.48
655,MetaDrive-testbn1,82,291.34257519881595,657223,1846,7938.22089099884,-40.211517333984375,4.552990913391113,40.129249572753906,0.49
656,MetaDrive-testbn1,82,292.28179225171846,658256,1848,7948.709946632385,,4.701632499694824,43.55385971069336,0.49
657,MetaDrive-testbn1,82,292.2785567956947,659349,1850,7961.577750444412,-43.731727600097656,6.301677703857422,43.314903259277344,0.49
658,MetaDrive-testbn1,82,286.32203078893946,660194,1853,7972.769610404968,,6.515919208526611,36.73737716674805,0.47
659,MetaDrive-testbn1,82,289.8930695389516,661195,1854,7983.957464694977,-36.14266586303711,23.812971115112305,36.087890625,0.47
660,MetaDrive-testbn1,82,287.00320096850965,662201,1857,7994.510909318924,-39.11913299560547,6.687129020690918,39.073753356933594,0.47
661,MetaDrive-testbn1,82,286.44097403438116,663275,1859,8007.194815158844,-37.691261291503906,5.373068332672119,37.273277282714844,0.46
662,MetaDrive-testbn1,82,288.80162167258055,664142,1860,8016.210507154465,,4.948028564453125,37.930152893066406,0.47
663,MetaDrive-testbn1,82,288.60953353130725,665143,1861,8029.740944623947,-37.71123504638672,12.136621475219727,37.70906066894531,0.47
664,MetaDrive-testbn1,82,288.72582858872556,666144,1862,8041.132076263428,,8.440437316894531,38.364479064941406,0.47
665,MetaDrive-testbn1,82,289.08563306067,667068,1863,8050.400656938553,,6.942625999450684,37.79064178466797,0.47
666,MetaDrive-testbn1,82,289.98785898917924,668569,1866,8066.228688240051,-34.26816940307617,7.0272603034973145,34.52086639404297,0.47
667,MetaDrive-testbn1,82,289.28025433650583,669570,1867,8078.81040096283,,3.688931465148926,35.31353759765625,0.46
668,MetaDrive-testbn1,82,290.30654598225857,670165,1868,8085.438156843185,-41.62664031982422,5.157217502593994,40.86354064941406,0.47
669,MetaDrive-testbn1,82,291.35341446204944,671166,1869,8097.526116609573,,4.680124282836914,40.86104202270508,0.46
670,MetaDrive-testbn1,82,290.38877361657904,672183,1871,8105.6924386024475,-40.54015350341797,6.0251336097717285,40.52833557128906,0.48
671,MetaDrive-testbn1,82,287.2744772296502,673184,1872,8118.841037988663,,2.572173833847046,39.37481689453125,0.48
672,MetaDrive-testbn1,82,287.8354892818974,674036,1874,8129.3688707351685,,12.999853134155273,42.96855545043945,0.48
673,MetaDrive-testbn1,82,289.68660071511044,675037,1875,8142.272516012192,-43.03801345825195,25.061534881591797,42.53434753417969,0.47
674,MetaDrive-testbn1,82,289.6923872459534,676401,1877,8155.597704410553,-41.969825744628906,5.842264175415039,42.24473571777344,0.48
675,MetaDrive-testbn1,82,288.88056731107184,677891,1879,8171.8824009895325,-38.77576446533203,6.396716594696045,38.95061111450195,0.47
676,MetaDrive-testbn1,82,290.19105259046995,678868,1880,8182.3527319431305,,7.524821758270264,41.01518249511719,0.47
677,MetaDrive-testbn1,82,292.1692360466707,679818,1881,8192.960942983627,,2.7215380668640137,36.87890625,0.48
678,MetaDrive-testbn1,82,293.41721357671446,680430,1882,8200.098427057266,,6.0294599533081055,39.731971740722656,0.49
679,MetaDrive-testbn1,82,295.8571869205946,681271,1883,8210.665415525436,-39.315093994140625,9.059320449829102,38.99120330810547,0.5
680,MetaDrive-testbn1,83,295.9292064619992,682520,1885,8223.034760951996,,6.499333381652832,35.7757568359375,0.51
681,MetaDrive-testbn1,83,295.05114024499375,683086,1886,8228.207956552505,,6.793103218078613,33.62799835205078,0.51
682,MetaDrive-testbn1,83,296.6172010383701,684564,1888,8245.973325252533,,2.8781280517578125,34.321380615234375,0.52
683,MetaDrive-testbn1,83,298.04024937798755,685905,1890,8261.327589511871,-38.71774673461914,3.9995410442352295,38.00056076049805,0.52
684,MetaDrive-testbn1,82,298.96468622777934,686906,1891,8280.405075073242,,5.254048824310303,41.933868408203125,0.52
685,MetaDrive-testbn1,82,298.76046955680624,687907,1892,8292.308852672577,-42.2192497253418,8.38852310180664,41.23174285888672,0.51
686,MetaDrive-testbn1,82,299.4928154787313,688824,1894,8301.610106945038,,4.8020920753479,31.465843200683594,0.51
687,MetaDrive-testbn1,82,299.44799591283606,689446,1895,8307.269384860992,,5.7901291847229,35.277183532714844,0.51
688,MetaDrive-testbn1,83,298.61275789887793,690171,1897,8315.145221710205,-43.627235412597656,14.221689224243164,43.082061767578125,0.5
689,MetaDrive-testbn1,83,295.50433981895435,691358,1900,8328.344447374344,,16.481407165527344,37.386146545410156,0.49
690,MetaDrive-testbn1,83,298.47798063310046,692206,1901,8338.460599899292,,4.010568618774414,36.17851257324219,0.5
691,MetaDrive-testbn1,83,299.9610750650178,693041,1902,8347.47600722313,-38.010284423828125,17.282087326049805,38.09129333496094,0.51
692,MetaDrive-testbn1,83,299.5636401006956,694040,1904,8357.985149621964,,7.253171920776367,42.71536636352539,0.51
693,MetaDrive-testbn1,83,299.3716342759303,695124,1906,8373.680891752243,,11.128254890441895,40.2064323425293,0.51
694,MetaDrive-testbn1,83,297.7867119445624,696136,1908,8384.607519865036,,2.7378828525543213,38.453338623046875,0.51
695,MetaDrive-testbn1,83,297.49784744316844,697122,1910,8395.59760427475,,5.225765228271484,35.355812072753906,0.51
696,MetaDrive-testbn1,83,296.33314784541113,698121,1912,8408.429473400116,-39.27058792114258,9.981134414672852,38.18388366699219,0.51
697,MetaDrive-testbn1,83,297.24299788682106,699122,1913,8421.397790908813,,16.108829498291016,42.45751953125,0.51
698,MetaDrive-testbn1,82,297.8526518380006,700652,1915,8443.363258361816,,6.666309833526611,38.997779846191406,0.51
699,MetaDrive-testbn1,82,298.19435344183677,701304,1916,8449.870934724808,,4.760529041290283,36.32855987548828,0.52
700,MetaDrive-testbn1,83,293.9548448871472,702038,1918,8457.532935380936,,89.70557403564453,36.134361267089844,0.52
701,MetaDrive-testbn1,83,293.11678715823933,703290,1920,8469.37976717949,,4.269047260284424,39.20758819580078,0.52
702,MetaDrive-testbn1,83,292.9392881196778,704291,1921,8480.313000202179,-41.187591552734375,5.268719673156738,40.608089447021484,0.52
703,MetaDrive-testbn1,83,290.3001846905298,705292,1922,8492.5427339077,,4.369783401489258,34.974037170410156,0.51
704,MetaDrive-testbn1,83,291.78332405424374,706168,1923,8501.793057918549,,7.14953088760376,41.76509094238281,0.52
705,MetaDrive-testbn1,82,291.87755342016703,707169,1924,8522.223841905594,-33.57762908935547,4.462010383605957,33.701141357421875,0.52
706,MetaDrive-testbn1,82,291.1449344310843,708254,1926,8534.321494102478,,5.357458114624023,40.4034309387207,0.53
707,MetaDrive-testbn1,82,290.63912470333196,709255,1927,8546.940562725067,-33.84885025024414,3.127976417541504,33.59213638305664,0.52
708,MetaDrive-testbn1,82,292.78766584957543,710144,1928,8557.853411197662,,17.46902084350586,39.43750762939453,0.52
709,MetaDrive-testbn1,82,292.40076792590867,711148,1930,8568.869104623795,,3.520285129547119,36.75954818725586,0.51
710,MetaDrive-testbn1,83,290.2493904732995,712150,1932,8579.976616382599,,4.316682815551758,35.88166809082031,0.52
711,MetaDrive-testbn1,82,290.0802782315343,713562,1934,8599.019146680832,,4.71860408782959,36.73692321777344,0.52
712,MetaDrive-testbn1,82,290.1639514527825,714303,1935,8606.941734552383,-35.59584045410156,6.389617443084717,34.84795379638672,0.53
713,MetaDrive-testbn1,82,288.31403262178475,715749,1937,8625.532181739807,-37.2180290222168,10.745713233947754,37.15495300292969,0.52
714,MetaDrive-testbn1,83,287.01815920509597,716473,1938,8631.39096403122,-39.498252868652344,4.410435199737549,39.010643005371094,0.52
715,MetaDrive-testbn1,83,286.60764347403125,717424,1939,8643.042847156525,,46.620147705078125,37.40245056152344,0.53
716,MetaDrive-testbn1,83,286.63260622920416,718368,1940,8651.789888858795,,5.870342254638672,36.62471008300781,0.53
717,MetaDrive-testbn1,83,284.64805747130237,719263,1942,8659.77328300476,-40.50798797607422,18.73175048828125,40.03337860107422,0.54
718,MetaDrive-testbn1,83,283.406309484933,720040,1943,8666.421619415283,,4.748237133026123,34.315269470214844,0.54
719,MetaDrive-testbn1,83,283.3514538343019,721293,1945,8680.28659582138,-36.599388122558594,5.382757186889648,36.328651428222656,0.53
720,MetaDrive-testbn1,83,284.7690755036127,722294,1946,8694.53061056137,,5.177402496337891,39.44651412963867,0.52
721,MetaDrive-testbn1,83,285.1207446247854,723072,1947,8704.93825674057,,4.2850542068481445,36.17192459106445,0.52
722,MetaDrive-testbn1,83,285.5239214697504,724073,1948,8716.675137996674,-37.06916046142578,4.03295373916626,36.59087371826172,0.52
723,MetaDrive-testbn1,83,287.29448110534616,725384,1950,8731.517398357391,,5.272944450378418,40.0348014831543,0.53
724,MetaDrive-testbn1,83,289.07971511425114,726216,1951,8740.185302257538,,88.04417419433594,36.797142028808594,0.54
725,MetaDrive-testbn1,83,292.1458617038966,727890,1953,8762.957940101624,,4.496026515960693,36.94118118286133,0.55
726,MetaDrive-testbn1,83,291.07392312382603,728379,1954,8767.013643741608,-40.411376953125,10.495035171508789,40.96162033081055,0.56
727,MetaDrive-testbn1,83,294.33202221694023,729019,1955,8773.93090558052,-38.662986755371094,5.053560256958008,38.28657913208008,0.57
728,MetaDrive-testbn1,83,296.30068278230624,730467,1957,8789.508100748062,-32.496498107910156,4.80316686630249,31.7233829498291,0.57
729,MetaDrive-testbn1,83,295.151933206325,731132,1958,8796.92413687706,,5.332975387573242,37.742469787597656,0.57
730,MetaDrive-testbn1,83,292.8271293895757,732203,1961,8809.749274969101,-40.56603240966797,6.713512420654297,39.24647903442383,0.57
731,MetaDrive-testbn1,83,291.43551172799647,733443,1963,8823.109641313553,-35.17475128173828,6.58937931060791,34.51755905151367,0.58
732,MetaDrive-testbn1,83,292.215940458414,734444,1964,8836.937271118164,,9.07369613647461,38.522560119628906,0.57
733,MetaDrive-testbn1,83,294.5501636464728,735061,1965,8843.31958937645,-37.37261199951172,5.35526180267334,36.975250244140625,0.58
734,MetaDrive-testbn1,83,290.51253569650936,736683,1969,8862.41337132454,-35.265541076660156,3.6236677169799805,34.758243560791016,0.57
735,MetaDrive-testbn1,83,291.08012706061055,737350,1970,8869.53854060173,,12.070032119750977,41.47062683105469,0.57
736,MetaDrive-testbn1,83,293.85805172759024,738573,1972,8882.718428373337,-36.06672668457031,85.236083984375,34.83903503417969,0.58
737,MetaDrive-testbn1,83,292.26991676181484,739106,1973,8888.410740852356,,13.848305702209473,37.31861877441406,0.58
738,MetaDrive-testbn1,83,293.6691293640889,740817,1975,8910.697418689728,-37.17884063720703,4.213284492492676,36.45919418334961,0.59
739,MetaDrive-testbn1,83,295.1353230031619,741740,1976,8922.814903020859,,11.081101417541504,34.55132293701172,0.59
740,MetaDrive-testbn1,83,296.18194270669375,742674,1977,8932.43060016632,,14.919130325317383,35.972068786621094,0.59
741,MetaDrive-testbn1,83,296.3651189621796,743181,1978,8937.8022544384,-36.72050094604492,6.853699207305908,36.80717468261719,0.59
742,MetaDrive-testbn1,83,296.7486358711351,744388,1980,8950.44490981102,,7.651834487915039,33.42995834350586,0.59
743,MetaDrive-testbn1,83,294.6393145379419,745668,1982,8972.722793340683,,4.439504623413086,37.16236114501953,0.57
744,MetaDrive-testbn1,83,290.7979348951987,746565,1984,8982.9284927845,-40.040802001953125,3.271806240081787,39.62394332885742,0.56
745,MetaDrive-testbn1,83,290.9291196866368,747099,1985,8988.136118412018,-36.76106262207031,5.0053863525390625,36.29261779785156,0.56
746,MetaDrive-testbn1,83,292.3426444758395,748297,1987,9002.529420137405,-38.483306884765625,10.765050888061523,38.46882247924805,0.56
747,MetaDrive-testbn1,83,291.4678645783806,749518,1989,9019.843481302261,,7.266696929931641,36.207523345947266,0.55
748,MetaDrive-testbn1,83,291.91086971770346,750255,1990,9028.781758785248,-37.71786117553711,4.981128692626953,37.590946197509766,0.55
749,MetaDrive-testbn1,83,289.72404146080464,751203,1992,9039.897243976593,-36.55396270751953,4.666908264160156,36.63508224487305,0.56
750,MetaDrive-testbn1,83,293.33046313253294,752483,1994,9055.092617988586,-36.578163146972656,6.119288444519043,36.09221649169922,0.57
751,MetaDrive-testbn1,83,293.29281996755253,753395,1996,9069.583307266235,-33.508026123046875,4.994926452636719,33.77467346191406,0.57
752,MetaDrive-testbn1,83,293.52817430880344,754354,1998,9081.41234087944,,8.15086555480957,37.90400314331055,0.57
753,MetaDrive-testbn1,83,295.6525959224053,755267,2000,9090.226696014404,-38.41929626464844,5.035127639770508,38.375465393066406,0.58
754,MetaDrive-testbn1,83,289.2728750854257,756883,2003,9111.288880348206,-35.82656478881836,3.7402515411376953,35.74883270263672,0.55
755,MetaDrive-testbn1,83,289.39207309806227,757791,2004,9120.168603181839,-33.424339294433594,10.435955047607422,32.01072692871094,0.56
756,MetaDrive-testbn1,83,288.21541715224436,758860,2006,9134.22986292839,,4.095969200134277,34.51573181152344,0.55
757,MetaDrive-testbn1,83,288.6947349193773,759861,2007,9152.417836666107,-33.00494384765625,5.806514739990234,32.60893630981445,0.54
758,MetaDrive-testbn1,82,287.4508715467146,760862,2008,9167.982752084732,,4.84832763671875,37.4595947265625,0.53
759,MetaDrive-testbn1,82,284.6677933574655,761234,2009,9172.260731697083,,5.951135635375977,32.29454803466797,0.52
760,MetaDrive-testbn1,83,286.6478955168626,762495,2011,9185.566488742828,-37.66128921508789,42.377220153808594,37.806636810302734,0.53
761,MetaDrive-testbn1,83,289.16068452466936,763001,2012,9190.378196239471,-39.841854095458984,5.64469575881958,39.384159088134766,0.54
762,MetaDrive-testbn1,83,288.7527132924131,764403,2014,9205.134486913681,-39.53407669067383,5.605833053588867,39.82618713378906,0.55
763,MetaDrive-testbn1,83,290.0040547877895,765319,2015,9218.361032485962,-38.74497604370117,7.133530616760254,38.08185958862305,0.55
764,MetaDrive-testbn1,83,288.98841562112085,766133,2018,9226.04089307785,-38.732154846191406,4.054020881652832,38.43476104736328,0.54
765,MetaDrive-testbn1,83,288.7927667885652,767201,2020,9238.043937444687,-38.91694641113281,4.859737396240234,39.16660690307617,0.55
766,MetaDrive-testbn1,83,284.6964027447751,768053,2023,9246.923124790192,-39.219520568847656,6.157088279724121,37.86944580078125,0.55
767,MetaDrive-testbn1,83,286.77081510035043,769345,2025,9261.910064220428,-39.067955017089844,7.912913799285889,38.208282470703125,0.56
768,MetaDrive-testbn1,83,286.01457786244026,770165,2026,9271.048618555069,-34.92259979248047,8.089250564575195,35.32610321044922,0.56
769,MetaDrive-testbn1,83,283.6387537109434,771409,2028,9285.091072559357,-40.190040588378906,3.1954636573791504,39.90155792236328,0.55
770,MetaDrive-testbn1,83,284.5620218508388,772410,2029,9297.775422811508,,13.580394744873047,34.866546630859375,0.55
771,MetaDrive-testbn1,83,283.3499832446571,773411,2030,9308.532022476196,-38.03662109375,6.06533145904541,37.26811981201172,0.54
772,MetaDrive-testbn1,83,282.8890340248687,774019,2031,9314.897224187851,-35.710670471191406,82.52698516845703,35.0540657043457,0.53
773,MetaDrive-testbn1,83,278.7868652508507,775272,2035,9329.10930466652,,24.04729652404785,37.62356185913086,0.52
774,MetaDrive-testbn1,83,281.0648931463835,776678,2037,9346.806115627289,,3.863985538482666,35.23753356933594,0.54
775,MetaDrive-testbn1,83,281.66137104873985,777360,2038,9354.331887245178,,4.212581634521484,30.916732788085938,0.55
776,MetaDrive-testbn1,83,277.7447031692173,778232,2041,9362.66494512558,,6.005171775817871,37.289451599121094,0.52
777,MetaDrive-testbn1,83,277.5307090077437,779508,2044,9381.396264314651,,7.810945510864258,37.61112594604492,0.51
778,MetaDrive-testbn1,83,276.6353964904455,780509,2045,9395.636173725128,-35.88307189941406,8.26992130279541,35.063499450683594,0.5
779,MetaDrive-testbn1,83,276.45840163531034,781371,2046,9408.276132583618,-33.40087127685547,2.6777777671813965,33.52909851074219,0.51
780,MetaDrive-testbn1,83,274.9958805718498,782099,2048,9415.596637010574,-36.891937255859375,4.5988006591796875,36.943199157714844,0.51
781,MetaDrive-testbn1,83,270.79147610943625,783104,2051,9425.957275390625,,5.736944675445557,36.350914001464844,0.49
782,MetaDrive-testbn1,83,273.63113238913286,784575,2053,9444.913218259811,-39.6854248046875,10.069409370422363,39.54737091064453,0.5
783,MetaDrive-testbn1,83,270.9062236814291,785966,2055,9460.471917390823,,7.736690044403076,36.539031982421875,0.48
784,MetaDrive-testbn1,83,271.2953771094294,786362,2056,9464.883428573608,,21.222999572753906,36.14826202392578,0.47
785,MetaDrive-testbn1,83,270.38759373455207,787606,2058,9482.20978474617,,5.816661834716797,35.09412384033203,0.47
786,MetaDrive-testbn1,83,271.9626610288762,788467,2059,9493.690061807632,-37.237823486328125,4.270457744598389,36.843162536621094,0.47
787,MetaDrive-testbn1,83,274.0318784170835,789203,2061,9502.985691308975,-33.532440185546875,6.188170433044434,33.97882080078125,0.48
788,MetaDrive-testbn1,83,270.2422206803516,790463,2064,9517.785420894623,-34.774635314941406,7.53206729888916,34.88748550415039,0.47
789,MetaDrive-testbn1,83,270.39958003048486,791353,2066,9529.024567127228,-36.51870346069336,4.779763221740723,36.009605407714844,0.46
790,MetaDrive-testbn1,83,274.30747131820846,792717,2068,9550.500893354416,-35.664894104003906,4.032784461975098,35.42696762084961,0.46
791,MetaDrive-testbn1,82,273.7688459664781,793518,2069,9561.971486091614,,6.248838424682617,37.002384185791016,0.46
792,MetaDrive-testbn1,82,271.82789410277616,794245,2070,9570.936499595642,-35.527679443359375,34.25541687011719,35.49126434326172,0.45
793,MetaDrive-testbn1,82,271.7894506704467,795485,2072,9584.344791650772,-36.15174102783203,5.485057353973389,35.18111801147461,0.45
794,MetaDrive-testbn1,83,272.1321686996588,796125,2073,9591.1920440197,-38.253265380859375,3.2604176998138428,37.770267486572266,0.45
795,MetaDrive-testbn1,83,270.8099937738565,797126,2074,9603.787917137146,,7.251307010650635,33.75951385498047,0.44
796,MetaDrive-testbn1,83,269.28515550013765,798495,2076,9619.100689411163,-37.705299377441406,5.469627380371094,36.76958465576172,0.45
797,MetaDrive-testbn1,83,267.0194379534997,799667,2078,9634.262567043304,-38.364749908447266,5.699756622314453,37.892173767089844,0.45
798,MetaDrive-testbn1,83,266.76954696783486,800479,2079,9643.718564748764,-37.92369079589844,3.173441171646118,37.609642028808594,0.44
