TanmayH/CS269-RL-project-code/MetaDrive-test-conv-dropout-norm-lr-lesser/td3/progress.csv
,log_dir,frame_per_second,episode_reward,total_steps,total_episodes,total_time,target_q,actor_loss,critic_loss,success_rate
0,MetaDrive-test-conv-dropout-norm-lr-lesser,160,11.716677297290522,2001,2,12.440499305725098,,,,0.0
1,MetaDrive-test-conv-dropout-norm-lr-lesser,198,12.003751204011108,3002,3,15.118546485900879,,,,0.0
2,MetaDrive-test-conv-dropout-norm-lr-lesser,240,9.31762784550106,4811,5,20.010356187820435,,,,0.0
3,MetaDrive-test-conv-dropout-norm-lr-lesser,173,7.85046880907635,5030,6,28.946306943893433,-0.12710091471672058,,0.0009421103168278933,0.0
4,MetaDrive-test-conv-dropout-norm-lr-lesser,127,-0.1217078889140194,6577,25,51.392860651016235,-0.06605599820613861,0.08592359721660614,0.0044432152062654495,0.0
5,MetaDrive-test-conv-dropout-norm-lr-lesser,117,0.024386812697343337,7578,26,64.3888247013092,-0.0437006875872612,,0.007155010476708412,0.0
6,MetaDrive-test-conv-dropout-norm-lr-lesser,111,-0.0404268783881525,8579,27,77.25370597839355,-0.11421411484479904,0.05678512156009674,0.7678403258323669,0.0
7,MetaDrive-test-conv-dropout-norm-lr-lesser,108,-0.5758319953306988,9160,30,84.59898924827576,-0.0434098094701767,,0.0028354544192552567,0.0
8,MetaDrive-test-conv-dropout-norm-lr-lesser,104,-0.7371783972081415,10340,33,98.93767809867859,-0.05370522290468216,,0.0012231520377099514,0.0
9,MetaDrive-test-conv-dropout-norm-lr-lesser,100,-0.7412563523423688,11442,35,113.98272252082825,-0.05785837024450302,,0.0007392086554318666,0.0
10,MetaDrive-test-conv-dropout-norm-lr-lesser,96,-0.6486728827977911,12443,36,128.7274158000946,-0.06447705626487732,0.06859879195690155,0.001051467377692461,0.0
11,MetaDrive-test-conv-dropout-norm-lr-lesser,95,-0.5325684726805026,13444,37,140.04282522201538,-0.1459975391626358,,0.7605153322219849,0.0
12,MetaDrive-test-conv-dropout-norm-lr-lesser,94,-0.6436707743799881,14260,38,150.30775332450867,-0.0652315616607666,,0.0008874830091372132,0.0
13,MetaDrive-test-conv-dropout-norm-lr-lesser,93,-0.6805918004371768,15261,39,163.2204942703247,-0.06569565087556839,0.07523290812969208,0.003837529569864273,0.0
14,MetaDrive-test-conv-dropout-norm-lr-lesser,92,-0.6025219199459915,16262,40,176.127108335495,-0.06692919880151749,,0.0009073053952306509,0.0
15,MetaDrive-test-conv-dropout-norm-lr-lesser,90,-0.7353267568688265,17794,43,195.9944441318512,-0.06213214248418808,,0.004211565479636192,0.0
16,MetaDrive-test-conv-dropout-norm-lr-lesser,89,-0.7593913926937883,18795,44,209.53035640716553,-0.06932299584150314,0.06810312718153,0.00030247250106185675,0.0
17,MetaDrive-test-conv-dropout-norm-lr-lesser,89,-0.7865419619777085,19796,45,222.10931825637817,-0.07119501382112503,,0.001131918397732079,0.0
18,MetaDrive-test-conv-dropout-norm-lr-lesser,88,-0.9670916459548873,20073,47,225.89700651168823,-0.07172662019729614,0.07333745807409286,0.00020763723296113312,0.0
19,MetaDrive-test-conv-dropout-norm-lr-lesser,88,-1.0464635562544478,21343,50,242.17742156982422,-0.0772336795926094,0.08149010688066483,0.0002075025113299489,0.0
20,MetaDrive-test-conv-dropout-norm-lr-lesser,87,-1.2363510514432985,22904,53,262.0778489112854,-0.08076426386833191,,0.0015159060712903738,0.0
21,MetaDrive-test-conv-dropout-norm-lr-lesser,86,-1.2191887971912854,23992,55,275.9327440261841,-0.08654417097568512,,0.0009796437807381153,0.0
22,MetaDrive-test-conv-dropout-norm-lr-lesser,86,-1.1415435150651632,24993,56,289.5268940925598,-0.08740857243537903,0.09579972922801971,0.002416356233879924,0.0
23,MetaDrive-test-conv-dropout-norm-lr-lesser,86,-1.0644556964443113,25994,57,301.99283504486084,-0.0921609103679657,,0.00016077651525847614,0.0
24,MetaDrive-test-conv-dropout-norm-lr-lesser,85,-1.1522916115937614,26484,58,308.10946559906006,-0.0874931588768959,,0.0014548000181093812,0.0
25,MetaDrive-test-conv-dropout-norm-lr-lesser,85,-1.0714216526863847,27485,59,320.84692788124084,-0.16872549057006836,0.09601239860057831,0.7522497177124023,0.0
26,MetaDrive-test-conv-dropout-norm-lr-lesser,85,-0.9926302114839477,28486,60,333.6188952922821,-0.09084080159664154,,0.0015417411923408508,0.0
27,MetaDrive-test-conv-dropout-norm-lr-lesser,85,-0.9161349935144706,29487,61,346.4468858242035,-0.09650607407093048,0.11442242562770844,0.0019660082180052996,0.0
28,MetaDrive-test-conv-dropout-norm-lr-lesser,84,-0.8554142532518131,30488,62,359.0183312892914,-0.0965951681137085,,0.0015390387270599604,0.0
29,MetaDrive-test-conv-dropout-norm-lr-lesser,84,-0.9437815696257021,31810,64,376.5587782859802,-0.09935453534126282,,0.000740360701456666,0.0
30,MetaDrive-test-conv-dropout-norm-lr-lesser,84,-1.021127640154771,32246,65,381.82160782814026,-0.10226832330226898,,9.871785005088896e-05,0.0
31,MetaDrive-test-conv-dropout-norm-lr-lesser,84,-1.0338656014858278,33247,66,394.4362950325012,-0.10386670380830765,0.11919216811656952,0.0009377391543239355,0.0
32,MetaDrive-test-conv-dropout-norm-lr-lesser,84,-1.1043980284667603,34356,68,408.1428039073944,-0.10410697758197784,,0.0008773271110840142,0.0
33,MetaDrive-test-conv-dropout-norm-lr-lesser,83,-1.1754815520589499,35536,70,423.29168009757996,-0.10153480619192123,,0.0010434137657284737,0.0
34,MetaDrive-test-conv-dropout-norm-lr-lesser,83,-1.1841031632577819,36537,71,436.44644689559937,-0.10797765851020813,0.12549391388893127,0.0009415416279807687,0.0
35,MetaDrive-test-conv-dropout-norm-lr-lesser,83,-1.1687727558238796,37610,73,451.8428268432617,-0.11074013262987137,,0.00027228929684497416,0.0
36,MetaDrive-test-conv-dropout-norm-lr-lesser,83,-1.1297496215325984,38611,74,464.4683926105499,-0.10937084257602692,0.11140497028827667,0.00019711807544808835,0.0
37,MetaDrive-test-conv-dropout-norm-lr-lesser,83,-1.068857772370624,39612,75,476.2767596244812,-0.10934163630008698,,0.00026650785002857447,0.0
38,MetaDrive-test-conv-dropout-norm-lr-lesser,83,-1.1865742057100825,40222,77,483.7892258167267,-0.11267505586147308,,0.0001095338593586348,0.0
39,MetaDrive-test-conv-dropout-norm-lr-lesser,82,-1.1984624224048224,41522,79,501.0173716545105,-0.1950690895318985,,0.7446515560150146,0.0
40,MetaDrive-test-conv-dropout-norm-lr-lesser,82,-1.2421409906072893,42633,81,514.600860118866,-0.1210208535194397,0.1234484612941742,0.0002654106356203556,0.0
41,MetaDrive-test-conv-dropout-norm-lr-lesser,82,-1.3119712419285512,43505,82,525.8436689376831,-0.12253682315349579,0.13450711965560913,0.0005442105466499925,0.0
42,MetaDrive-test-conv-dropout-norm-lr-lesser,82,-1.3198331537182497,44506,83,537.6030161380768,-0.12444354593753815,,0.0003020050935447216,0.0
43,MetaDrive-test-conv-dropout-norm-lr-lesser,82,-1.3307156224281191,45507,84,550.8789660930634,-0.12769052386283875,0.12751752138137817,1.948329372680746e-05,0.0
44,MetaDrive-test-conv-dropout-norm-lr-lesser,82,-1.3352871828273065,46634,86,564.2580964565277,-0.12838035821914673,,0.0001776781864464283,0.0
45,MetaDrive-test-conv-dropout-norm-lr-lesser,82,-1.3378381775544914,47635,87,578.7377452850342,-0.13105428218841553,0.14553183317184448,0.0005346400430426002,0.0
46,MetaDrive-test-conv-dropout-norm-lr-lesser,82,-1.361062953699127,48875,89,594.0147123336792,-0.13336698710918427,0.12989285588264465,6.139752804301679e-05,0.0
47,MetaDrive-test-conv-dropout-norm-lr-lesser,82,-1.3215605719740489,49876,90,607.6761949062347,-0.12827244400978088,,0.0010512250009924173,0.0
48,MetaDrive-test-conv-dropout-norm-lr-lesser,82,-1.3564514241890024,50189,91,611.582941532135,-0.12778061628341675,0.1335589736700058,0.001143115689046681,0.0
49,MetaDrive-test-conv-dropout-norm-lr-lesser,82,-1.3147276236119534,51190,92,623.2499215602875,-0.13263055682182312,,0.00011687235382851213,0.0
50,MetaDrive-test-conv-dropout-norm-lr-lesser,82,-1.291314784032568,52191,93,636.0073397159576,-0.12918078899383545,0.144432932138443,0.001453273929655552,0.0
51,MetaDrive-test-conv-dropout-norm-lr-lesser,82,-1.341548697310357,53878,95,654.972403049469,-0.13354095816612244,,0.00040579133201390505,0.0
52,MetaDrive-test-conv-dropout-norm-lr-lesser,82,-1.3797322734655955,54031,96,656.9651782512665,-0.13398633897304535,0.1480598747730255,0.0007217025267891586,0.0
53,MetaDrive-test-conv-dropout-norm-lr-lesser,82,-1.3967573910771254,55321,98,672.4715340137482,-0.1360785961151123,0.13611029088497162,0.00016912102000787854,0.0
54,MetaDrive-test-conv-dropout-norm-lr-lesser,82,-1.4125207487686577,56238,99,683.2430393695831,-0.1383683979511261,,0.00010856408334802836,0.0
55,MetaDrive-test-conv-dropout-norm-lr-lesser,82,-1.4017851568196,57239,100,695.9280486106873,-0.1385517120361328,0.14405132830142975,0.0002471592160873115,0.0
56,MetaDrive-test-conv-dropout-norm-lr-lesser,82,-1.5441124646959152,58240,101,707.9973304271698,-0.13938437402248383,,0.0008195055415853858,0.0
57,MetaDrive-test-conv-dropout-norm-lr-lesser,82,-1.8466783159383362,59356,103,722.1932983398438,-0.13944527506828308,,0.0014807842671871185,0.0
58,MetaDrive-test-conv-dropout-norm-lr-lesser,82,-1.8935105488573776,60357,104,736.000415802002,-0.1486392468214035,0.14965860545635223,7.781654130667448e-05,0.0
59,MetaDrive-test-conv-dropout-norm-lr-lesser,81,-1.991423050654622,61358,105,750.0972163677216,-0.14789247512817383,,8.797127520665526e-05,0.0
60,MetaDrive-test-conv-dropout-norm-lr-lesser,81,-2.06835162537028,62080,107,762.3561894893646,-0.15063783526420593,,9.278916695620865e-05,0.0
61,MetaDrive-test-conv-dropout-norm-lr-lesser,81,-2.0468760529154286,63081,108,776.1468005180359,-0.1461287885904312,0.15764698386192322,0.002117888070642948,0.0
62,MetaDrive-test-conv-dropout-norm-lr-lesser,81,-2.0204605539915566,64082,109,788.0269684791565,-0.14999932050704956,,0.0005290695698931813,0.0
63,MetaDrive-test-conv-dropout-norm-lr-lesser,81,-2.013026760113163,65683,111,808.7716000080109,-0.14953333139419556,0.1623334139585495,0.0011443576076999307,0.0
64,MetaDrive-test-conv-dropout-norm-lr-lesser,81,-2.01583081190127,66816,113,823.2665464878082,-0.15856248140335083,,0.00032468358404003084,0.0
65,MetaDrive-test-conv-dropout-norm-lr-lesser,81,-1.9795484789029376,67817,114,835.4965226650238,-0.16092492640018463,0.16556976735591888,0.00011141589493490756,0.0
66,MetaDrive-test-conv-dropout-norm-lr-lesser,81,-2.039858439614434,68016,116,837.9999496936798,-0.16316312551498413,,7.517852645833045e-05,0.0
67,MetaDrive-test-conv-dropout-norm-lr-lesser,81,-2.034529150663869,69534,120,857.8990252017975,-0.16946280002593994,,6.770133040845394e-05,0.0
68,MetaDrive-test-conv-dropout-norm-lr-lesser,81,-2.036276495188493,70535,121,870.209180355072,-0.17152555286884308,0.17706994712352753,0.00018685231043491513,0.0
69,MetaDrive-test-conv-dropout-norm-lr-lesser,80,-2.0038525390692987,71639,123,885.1937851905823,-0.17244267463684082,0.17719820141792297,0.00036716583417728543,0.0
70,MetaDrive-test-conv-dropout-norm-lr-lesser,80,-2.0980278410527706,72981,125,901.41015791893,-0.17517705261707306,0.1751648485660553,6.0006423154845834e-05,0.0
71,MetaDrive-test-conv-dropout-norm-lr-lesser,80,-2.110469949903108,73982,126,916.451945066452,-0.17731966078281403,,0.00011109558545285836,0.0
72,MetaDrive-test-conv-dropout-norm-lr-lesser,80,-2.058230706351608,74983,127,929.2498917579651,-0.1770636886358261,0.19050274789333344,0.0004556643543764949,0.0
73,MetaDrive-test-conv-dropout-norm-lr-lesser,80,-2.0621081152012026,75373,128,934.0735371112823,-0.17825771868228912,0.18251094222068787,0.0001402841880917549,0.0
74,MetaDrive-test-conv-dropout-norm-lr-lesser,80,-2.031418829614119,76374,129,947.0368647575378,-0.17963650822639465,,0.00029307985096238554,0.0
75,MetaDrive-test-conv-dropout-norm-lr-lesser,80,-1.9386098289587983,77375,130,958.3988711833954,-0.18278402090072632,0.1881767362356186,0.00013902748469263315,0.0
76,MetaDrive-test-conv-dropout-norm-lr-lesser,80,-1.9400272624093966,78681,133,974.2395305633545,-0.18577633798122406,0.1944652497768402,0.00021332425239961594,0.0
77,MetaDrive-test-conv-dropout-norm-lr-lesser,80,-1.9471610261246375,79020,134,978.5996286869049,-0.17860564589500427,,0.0018764964770525694,0.0
78,MetaDrive-test-conv-dropout-norm-lr-lesser,80,-1.958531162171925,80021,135,990.5380568504333,-0.1846829652786255,0.18808972835540771,0.00034373783273622394,0.0
79,MetaDrive-test-conv-dropout-norm-lr-lesser,80,-2.0001150455869263,81022,136,1003.4584572315216,-0.1870664656162262,,0.0002729245461523533,0.0
80,MetaDrive-test-conv-dropout-norm-lr-lesser,80,-2.0107547114108493,82023,137,1016.0692849159241,-0.1905602365732193,0.1899392306804657,4.687111504608765e-05,0.0
81,MetaDrive-test-conv-dropout-norm-lr-lesser,80,-1.9427897824590614,83024,138,1028.825340270996,-0.18689018487930298,,0.0014754633884876966,0.0
82,MetaDrive-test-conv-dropout-norm-lr-lesser,80,-1.9857857801155425,84762,141,1050.2684626579285,-0.19334366917610168,,9.701147791929543e-05,0.0
83,MetaDrive-test-conv-dropout-norm-lr-lesser,80,-1.9198765240522713,85763,142,1062.308408498764,-0.1942894011735916,0.19441449642181396,6.635783211095259e-05,0.0
84,MetaDrive-test-conv-dropout-norm-lr-lesser,80,-1.921697022913185,86764,143,1076.3959140777588,-0.19578732550144196,,0.00010878621833398938,0.0
85,MetaDrive-test-conv-dropout-norm-lr-lesser,80,-1.8673914804729148,87765,144,1088.9384393692017,-0.1951504945755005,0.20221379399299622,0.0004934739554300904,0.0
86,MetaDrive-test-conv-dropout-norm-lr-lesser,80,-1.8164760426925985,88766,145,1101.235596895218,-0.1952575445175171,,8.180669829016551e-05,0.0
87,MetaDrive-test-conv-dropout-norm-lr-lesser,80,-1.7332293558955303,89767,146,1113.0648002624512,-0.2702762186527252,0.19654704630374908,0.7212895154953003,0.0
88,MetaDrive-test-conv-dropout-norm-lr-lesser,80,-1.7013017225112517,90884,148,1126.9152822494507,-0.19424530863761902,,0.00011419953807489946,0.0
89,MetaDrive-test-conv-dropout-norm-lr-lesser,80,-1.70332457848125,91172,149,1130.6245460510254,-0.19258132576942444,,0.0012893471866846085,0.0
90,MetaDrive-test-conv-dropout-norm-lr-lesser,80,-1.7219273750055768,92173,150,1143.832490682602,-0.19468140602111816,0.19907991588115692,6.565928924828768e-05,0.0
91,MetaDrive-test-conv-dropout-norm-lr-lesser,80,-1.6839720104625568,93174,151,1157.315949678421,-0.19617441296577454,,5.506553497980349e-05,0.0
92,MetaDrive-test-conv-dropout-norm-lr-lesser,80,-1.6876879754061955,94560,153,1174.5098185539246,-0.19845271110534668,,0.00014742437633685768,0.0
93,MetaDrive-test-conv-dropout-norm-lr-lesser,80,-1.6556891669572633,95561,154,1186.668046951294,-0.19770194590091705,0.19847732782363892,0.00011971878848271444,0.0
94,MetaDrive-test-conv-dropout-norm-lr-lesser,80,-1.668494098877819,96562,155,1200.5263528823853,-0.19811514019966125,,4.2853767808992416e-05,0.0
95,MetaDrive-test-conv-dropout-norm-lr-lesser,80,-1.8028226599903423,97659,157,1214.9120168685913,-0.19701732695102692,0.1957695037126541,3.6244833609089255e-05,0.0
96,MetaDrive-test-conv-dropout-norm-lr-lesser,80,-1.704809480078069,98660,158,1228.2717180252075,-0.19714301824569702,,0.000581437605433166,0.0
97,MetaDrive-test-conv-dropout-norm-lr-lesser,80,-1.755542320620756,99661,159,1241.61802983284,-0.2740413248538971,0.20679840445518494,0.7182055711746216,0.0
98,MetaDrive-test-conv-dropout-norm-lr-lesser,80,-1.7893619525040554,100662,160,1254.1228606700897,-0.1989004909992218,,0.00019079403136856854,0.0
99,MetaDrive-test-conv-dropout-norm-lr-lesser,80,-1.8409864753376022,101663,161,1267.6080441474915,-0.1949911117553711,0.20018793642520905,0.000440782867372036,0.0
100,MetaDrive-test-conv-dropout-norm-lr-lesser,80,-1.9195326857364838,102336,162,1276.1046333312988,-0.19968342781066895,,3.00163355859695e-05,0.0
101,MetaDrive-test-conv-dropout-norm-lr-lesser,80,-1.855750728870104,103337,163,1287.8920712471008,-0.19778400659561157,0.19712918996810913,2.659454730746802e-05,0.0
102,MetaDrive-test-conv-dropout-norm-lr-lesser,80,-1.8454678254528207,104338,164,1299.9815640449524,-0.2724652588367462,,0.7195751070976257,0.0
103,MetaDrive-test-conv-dropout-norm-lr-lesser,80,-1.8048149445716866,105339,165,1312.4611706733704,-0.1962076723575592,0.19703108072280884,5.4829804867040366e-05,0.0
104,MetaDrive-test-conv-dropout-norm-lr-lesser,80,-1.788641165615115,106340,166,1324.77672457695,-0.19210822880268097,,0.0008597729611210525,0.0
105,MetaDrive-test-conv-dropout-norm-lr-lesser,80,-1.7379949587356398,107341,167,1337.0685691833496,-0.190604105591774,0.19806024432182312,0.00017400886281393468,0.0
106,MetaDrive-test-conv-dropout-norm-lr-lesser,80,-1.7146101671296663,108627,169,1352.7233409881592,-0.19220943748950958,0.19720318913459778,0.00010954697791021317,0.0
107,MetaDrive-test-conv-dropout-norm-lr-lesser,80,-1.6938806162127185,109628,170,1364.5501391887665,-0.26958006620407104,,0.7208631038665771,0.0
108,MetaDrive-test-conv-dropout-norm-lr-lesser,80,-1.6879397693223601,110629,171,1376.9942800998688,-0.1946098804473877,0.19592173397541046,5.4395444749388844e-05,0.0
109,MetaDrive-test-conv-dropout-norm-lr-lesser,80,-1.636871622210717,111630,172,1390.9216401576996,-0.19293679296970367,,3.635179018601775e-05,0.0
110,MetaDrive-test-conv-dropout-norm-lr-lesser,80,-1.671124408301331,112631,173,1404.0923445224762,-0.18960735201835632,0.1915469765663147,0.00035457895137369633,0.0
111,MetaDrive-test-conv-dropout-norm-lr-lesser,80,-1.7014516665804789,113632,174,1415.5250253677368,-0.1910427063703537,,0.0005981839494779706,0.0
112,MetaDrive-test-conv-dropout-norm-lr-lesser,80,-1.793119905903198,114139,175,1421.4583461284637,-0.1821121871471405,0.1944960057735443,0.0035267299972474575,0.0
113,MetaDrive-test-conv-dropout-norm-lr-lesser,80,-1.72938296059737,115915,178,1442.5757489204407,-0.1910528540611267,0.19560784101486206,7.999779336387292e-05,0.0
114,MetaDrive-test-conv-dropout-norm-lr-lesser,80,-1.7220563751404043,116916,179,1455.0203521251678,-0.19029028713703156,,7.817300502210855e-05,0.0
115,MetaDrive-test-conv-dropout-norm-lr-lesser,80,-1.7242336969931316,117100,180,1457.2929944992065,-0.19096998870372772,,6.937136640772223e-05,0.0
116,MetaDrive-test-conv-dropout-norm-lr-lesser,80,-1.6813843503807957,118493,182,1474.9815564155579,-0.19157597422599792,0.19382934272289276,9.746282012201846e-05,0.0
117,MetaDrive-test-conv-dropout-norm-lr-lesser,80,-1.7002007728613113,119693,184,1489.704025030136,-0.19289854168891907,0.19406549632549286,4.086561966687441e-05,0.0
118,MetaDrive-test-conv-dropout-norm-lr-lesser,80,-1.6976655015876858,120971,186,1505.8362128734589,-0.19192832708358765,0.19308631122112274,0.00011327098764013499,0.0
119,MetaDrive-test-conv-dropout-norm-lr-lesser,80,-1.7296690783511308,121147,187,1508.4550108909607,-0.19128069281578064,0.19569307565689087,7.666830788366497e-05,0.0
120,MetaDrive-test-conv-dropout-norm-lr-lesser,80,-1.7150363723199646,122090,188,1520.467651605606,-0.19076083600521088,,0.0003620149800553918,0.0
121,MetaDrive-test-conv-dropout-norm-lr-lesser,80,-1.7388176026531872,123091,189,1533.3717439174652,-0.19146455824375153,0.199809730052948,0.00016182522813323885,0.0
122,MetaDrive-test-conv-dropout-norm-lr-lesser,80,-1.7304161497149724,124092,190,1547.5666151046753,-0.19570839405059814,,0.000206046795938164,0.0
123,MetaDrive-test-conv-dropout-norm-lr-lesser,80,-1.7710356850301676,125270,192,1562.1992914676666,-0.19741980731487274,,7.031748828012496e-05,0.0
124,MetaDrive-test-conv-dropout-norm-lr-lesser,80,-1.7632961001239098,126271,193,1573.8190648555756,-0.19623561203479767,0.19822625815868378,8.239032467827201e-05,0.0
125,MetaDrive-test-conv-dropout-norm-lr-lesser,80,-1.6931122424378955,127272,194,1587.3493359088898,-0.1954033374786377,,6.742343975929543e-05,0.0
126,MetaDrive-test-conv-dropout-norm-lr-lesser,80,-1.6721662847306176,128273,195,1599.9083366394043,-0.19340252876281738,0.19347286224365234,0.0001269266940653324,0.0
127,MetaDrive-test-conv-dropout-norm-lr-lesser,80,-1.6424457889275788,129274,196,1612.571552991867,-0.19357851147651672,,0.0001228894107043743,0.0
128,MetaDrive-test-conv-dropout-norm-lr-lesser,80,-1.6014684684899512,130275,197,1625.0707635879517,-0.19609177112579346,0.1994612067937851,0.00014285827637650073,0.0
129,MetaDrive-test-conv-dropout-norm-lr-lesser,80,-1.6331768595669731,131276,198,1637.6333692073822,-0.19572080671787262,,0.0004079944919794798,0.0
130,MetaDrive-test-conv-dropout-norm-lr-lesser,80,-1.5896626273598937,132277,199,1650.4804525375366,-0.1980166733264923,0.1991676390171051,4.7891684516798705e-05,0.0
131,MetaDrive-test-conv-dropout-norm-lr-lesser,80,-1.5787626931761434,133278,200,1662.8921167850494,-0.194967582821846,,0.00010866368393180892,0.0
132,MetaDrive-test-conv-dropout-norm-lr-lesser,80,-1.6111469579315738,134773,204,1681.6612000465393,-0.1968567669391632,0.2069944143295288,0.000240943263634108,0.0
133,MetaDrive-test-conv-dropout-norm-lr-lesser,80,-1.62692032121647,135653,205,1693.1224195957184,-0.1935698688030243,0.19637718796730042,0.00015856331447139382,0.0
134,MetaDrive-test-conv-dropout-norm-lr-lesser,79,-1.5790740691188008,136840,207,1711.9908413887024,-0.19098305702209473,,0.0009788763709366322,0.0
135,MetaDrive-test-conv-dropout-norm-lr-lesser,79,-1.5819046190175237,137841,208,1724.518520116806,-0.19402891397476196,0.19811813533306122,6.557289452757686e-05,0.0
136,MetaDrive-test-conv-dropout-norm-lr-lesser,79,-1.5629512319175713,138842,209,1736.7957873344421,-0.19301080703735352,,0.00021480546274688095,0.0
137,MetaDrive-test-conv-dropout-norm-lr-lesser,79,-1.5539240795237488,139035,210,1739.3797028064728,-0.19412216544151306,0.19381341338157654,5.8196164900437e-05,0.0
138,MetaDrive-test-conv-dropout-norm-lr-lesser,79,-1.5455012782145232,140036,211,1751.2907347679138,-0.19458913803100586,,0.00010703470616135746,0.0
139,MetaDrive-test-conv-dropout-norm-lr-lesser,79,-1.5783986186599315,141277,213,1768.231841802597,-0.1921485960483551,0.19574037194252014,0.0003058768925257027,0.0
140,MetaDrive-test-conv-dropout-norm-lr-lesser,79,-1.5806718220563087,142278,214,1782.2770841121674,-0.19357141852378845,,8.015159983187914e-05,0.0
141,MetaDrive-test-conv-dropout-norm-lr-lesser,79,-1.5325247609394776,143279,215,1794.9596095085144,-0.1941162645816803,0.19527214765548706,3.1100891646929085e-05,0.0
142,MetaDrive-test-conv-dropout-norm-lr-lesser,79,-1.5005153624125669,144280,216,1807.6241784095764,-0.19382399320602417,,7.802843902027234e-05,0.0
143,MetaDrive-test-conv-dropout-norm-lr-lesser,79,-1.4634908593215639,145281,217,1819.8756380081177,-0.19447556138038635,0.19664986431598663,4.488005652092397e-05,0.0
144,MetaDrive-test-conv-dropout-norm-lr-lesser,79,-1.4064949883818227,146282,218,1833.0773475170135,-0.1969606876373291,,3.1928975658956915e-05,0.0
145,MetaDrive-test-conv-dropout-norm-lr-lesser,79,-1.3699483452388637,147283,219,1845.4650778770447,-0.19700287282466888,0.19707231223583221,2.9805421945638955e-05,0.0
146,MetaDrive-test-conv-dropout-norm-lr-lesser,79,-1.4057316845615295,148284,220,1858.0205256938934,-0.19586442410945892,,3.146065864712e-05,0.0
147,MetaDrive-test-conv-dropout-norm-lr-lesser,79,-1.388244962810927,149285,221,1873.6883790493011,-0.19609622657299042,0.20044973492622375,7.107487908797339e-05,0.0
148,MetaDrive-test-conv-dropout-norm-lr-lesser,79,-1.3448889532866373,150286,222,1886.4672849178314,-0.19317211210727692,,4.197826638119295e-05,0.0
149,MetaDrive-test-conv-dropout-norm-lr-lesser,79,-1.3826888312906447,151287,223,1899.8495151996613,-0.18830019235610962,0.19298218190670013,0.0011401348747313023,0.0
150,MetaDrive-test-conv-dropout-norm-lr-lesser,79,-1.376595200244062,152139,224,1909.4970977306366,-0.19168052077293396,0.1923571228981018,9.712495375424623e-05,0.0
151,MetaDrive-test-conv-dropout-norm-lr-lesser,79,-1.3687124882402666,153140,225,1921.5228612422943,-0.19222354888916016,,7.848849782021716e-05,0.0
152,MetaDrive-test-conv-dropout-norm-lr-lesser,79,-1.379492972686561,154141,226,1933.1259319782257,-0.19130367040634155,0.19373446702957153,4.162705590715632e-05,0.0
153,MetaDrive-test-conv-dropout-norm-lr-lesser,79,-1.3935424880834473,155142,227,1944.7591829299927,-0.1921147108078003,,0.00012040452565997839,0.0
154,MetaDrive-test-conv-dropout-norm-lr-lesser,79,-1.3978856998090203,156066,229,1956.0405414104462,-0.19223754107952118,,4.738635107059963e-05,0.0
155,MetaDrive-test-conv-dropout-norm-lr-lesser,79,-1.3847155085614076,157067,230,1968.2713358402252,-0.19272896647453308,0.19541926681995392,0.00010160147212445736,0.0
156,MetaDrive-test-conv-dropout-norm-lr-lesser,79,-1.2833002606800068,158203,232,1982.577421426773,-0.19211649894714355,0.2006022185087204,0.00024330540327355266,0.0
157,MetaDrive-test-conv-dropout-norm-lr-lesser,79,-1.2753422388060884,159204,233,1995.2381355762482,-0.19321948289871216,,8.866509597282857e-05,0.0
158,MetaDrive-test-conv-dropout-norm-lr-lesser,79,-1.313963576445427,160086,236,2006.692869901657,-0.19302412867546082,,0.00017177281551994383,0.0
159,MetaDrive-test-conv-dropout-norm-lr-lesser,79,-1.3656576033972823,161449,240,2025.8384795188904,-0.19182460010051727,0.19849243760108948,0.00013098391355015337,0.0
160,MetaDrive-test-conv-dropout-norm-lr-lesser,79,-1.330536608944467,162450,241,2039.8085577487946,-0.1893957406282425,,0.0002345047250855714,0.0
161,MetaDrive-test-conv-dropout-norm-lr-lesser,79,-1.323108264301455,163451,242,2052.1728422641754,-0.19015924632549286,0.1950032263994217,0.0001359169982606545,0.0
162,MetaDrive-test-conv-dropout-norm-lr-lesser,79,-1.3207162731042572,164452,243,2064.462774991989,-0.19065292179584503,,9.925606718752533e-05,0.0
163,MetaDrive-test-conv-dropout-norm-lr-lesser,79,-1.3691876047705944,165101,244,2073.1013662815094,-0.19167521595954895,0.19188091158866882,2.4946324629127048e-05,0.0
164,MetaDrive-test-conv-dropout-norm-lr-lesser,79,-1.4593923156652502,166314,248,2087.7276146411896,-0.1903233826160431,,0.00012572406558319926,0.0
165,MetaDrive-test-conv-dropout-norm-lr-lesser,79,-1.3800684948260482,167315,249,2100.294001340866,-0.2638063430786133,0.18955790996551514,0.7233426570892334,0.0
166,MetaDrive-test-conv-dropout-norm-lr-lesser,79,-1.3948020217343264,168413,252,2114.242749929428,-0.18959513306617737,0.19181782007217407,5.730655539082363e-05,0.0
167,MetaDrive-test-conv-dropout-norm-lr-lesser,79,-1.470334137753083,169336,256,2126.8840701580048,-0.19021227955818176,,4.011995770270005e-05,0.0
168,MetaDrive-test-conv-dropout-norm-lr-lesser,79,-1.5642563203752757,170200,260,2137.8665409088135,-0.18816745281219482,,5.7762379583436996e-05,0.0
169,MetaDrive-test-conv-dropout-norm-lr-lesser,79,-1.5655579569360618,171145,264,2150.0203580856323,-0.18730926513671875,0.1886528730392456,8.2070313510485e-05,0.0
170,MetaDrive-test-conv-dropout-norm-lr-lesser,79,-1.615123377559568,172088,267,2162.3343439102173,-0.18521934747695923,,7.568446744699031e-05,0.0
171,MetaDrive-test-conv-dropout-norm-lr-lesser,79,-1.687430918457831,173414,271,2180.4733896255493,-0.18827340006828308,,8.857640204951167e-05,0.0
172,MetaDrive-test-conv-dropout-norm-lr-lesser,79,-1.8234698369176454,174322,275,2195.0633602142334,-0.1877618432044983,,0.0002992986119352281,0.0
173,MetaDrive-test-conv-dropout-norm-lr-lesser,79,-1.9507412124536854,175013,290,2206.7349021434784,-0.1887565702199936,0.1924019306898117,0.0003471574163995683,0.0
174,MetaDrive-test-conv-dropout-norm-lr-lesser,79,-2.4959404613442477,176015,327,2224.1642315387726,-0.18936322629451752,0.19522686302661896,0.0010291568469256163,0.0
175,MetaDrive-test-conv-dropout-norm-lr-lesser,78,-3.07311366275729,177010,367,2242.308859348297,-0.267270028591156,,0.7206027507781982,0.0
176,MetaDrive-test-conv-dropout-norm-lr-lesser,78,-3.0970101242278294,178006,406,2259.755528450012,-0.1954023241996765,,0.0010614227503538132,0.0
177,MetaDrive-test-conv-dropout-norm-lr-lesser,78,-3.100401686732892,179010,435,2277.0813109874725,-0.20301024615764618,,0.00033544565667398274,0.0
178,MetaDrive-test-conv-dropout-norm-lr-lesser,78,-3.041310895553458,180067,467,2294.788361310959,-0.210944265127182,0.21356980502605438,0.0002681106561794877,0.0
179,MetaDrive-test-conv-dropout-norm-lr-lesser,78,-2.936958284816965,181005,499,2309.8356556892395,-0.21801045536994934,0.2215186357498169,8.082164276856929e-05,0.0
180,MetaDrive-test-conv-dropout-norm-lr-lesser,78,-2.967290841464861,182015,538,2326.828116416931,-0.22255422174930573,0.23126175999641418,0.0011093809735029936,0.0
181,MetaDrive-test-conv-dropout-norm-lr-lesser,78,-3.0655223603942825,183028,576,2344.002186059952,-0.23678793013095856,,0.00020460935775190592,0.0
182,MetaDrive-test-conv-dropout-norm-lr-lesser,77,-3.1520548739409637,184024,615,2363.0744490623474,-0.2445506900548935,,0.00031530228443443775,0.0
183,MetaDrive-test-conv-dropout-norm-lr-lesser,77,-3.2056785060876,185014,653,2380.1252822875977,-0.24980536103248596,,0.002577618695795536,0.0
184,MetaDrive-test-conv-dropout-norm-lr-lesser,77,-3.119905387381676,186179,687,2398.4663054943085,-0.2699797451496124,0.28834712505340576,0.0023736117873340845,0.0
185,MetaDrive-test-conv-dropout-norm-lr-lesser,77,-3.06026894053972,187014,720,2412.674101829529,-0.2821079194545746,,0.007041181903332472,0.0
186,MetaDrive-test-conv-dropout-norm-lr-lesser,77,-2.8760102236175156,188213,748,2431.2409131526947,-0.2970418632030487,0.3105681836605072,0.001932403538376093,0.0
187,MetaDrive-test-conv-dropout-norm-lr-lesser,77,-2.98440511803375,189004,774,2443.9638493061066,-0.4490160346031189,,1.372544288635254,0.0
188,MetaDrive-test-conv-dropout-norm-lr-lesser,77,-3.04324219294263,190005,815,2459.5155594348907,-0.3242461681365967,0.3354463279247284,0.0054650441743433475,0.0
189,MetaDrive-test-conv-dropout-norm-lr-lesser,77,-3.2044301951908807,191006,847,2474.4632580280304,-0.3254399299621582,,0.003713372629135847,0.0
190,MetaDrive-test-conv-dropout-norm-lr-lesser,77,-3.1129844137489515,192024,883,2490.66233086586,-0.34486374258995056,,0.005145138129591942,0.0
191,MetaDrive-test-conv-dropout-norm-lr-lesser,77,-3.1248516947873206,193008,920,2506.1021184921265,-0.4329884648323059,,0.6704017519950867,0.0
192,MetaDrive-test-conv-dropout-norm-lr-lesser,76,-3.033339767513482,194022,959,2524.3275537490845,-0.3802209496498108,,0.006728884764015675,0.0
193,MetaDrive-test-conv-dropout-norm-lr-lesser,76,-2.9767705763154924,195021,996,2539.547005176544,-0.40222692489624023,0.4150666892528534,0.0005791381699964404,0.0
194,MetaDrive-test-conv-dropout-norm-lr-lesser,76,-3.0168585999114104,196005,1033,2554.6125228405,-0.40803849697113037,0.4343402087688446,0.006301768124103546,0.0
195,MetaDrive-test-conv-dropout-norm-lr-lesser,76,-3.041680069552289,197083,1070,2571.629240989685,-0.438020259141922,0.46280422806739807,0.002041524974629283,0.0
196,MetaDrive-test-conv-dropout-norm-lr-lesser,76,-2.9949061354124766,198002,1105,2585.187217235565,-0.45632192492485046,,0.010202980600297451,0.0
197,MetaDrive-test-conv-dropout-norm-lr-lesser,76,-2.936174059256544,199022,1146,2601.318437576294,-0.46728289127349854,,0.007951896637678146,0.0
198,MetaDrive-test-conv-dropout-norm-lr-lesser,76,-2.935082931251101,200015,1186,2616.354387521744,-0.4846654534339905,0.5072516202926636,0.0032160435803234577,0.0
199,MetaDrive-test-conv-dropout-norm-lr-lesser,76,-3.0389519296008998,201008,1216,2630.99942445755,-0.495513379573822,,0.004122549202293158,0.0
200,MetaDrive-test-conv-dropout-norm-lr-lesser,76,-3.024003699552424,202013,1254,2646.187124967575,-0.5893789529800415,0.5434085726737976,0.6230859756469727,0.0
201,MetaDrive-test-conv-dropout-norm-lr-lesser,76,-3.07790725559909,203005,1290,2660.882043838501,-0.6731663942337036,0.5620585680007935,1.236109972000122,0.0
202,MetaDrive-test-conv-dropout-norm-lr-lesser,76,-3.132050998485458,204011,1332,2677.649785757065,-0.7003464698791504,0.5876712203025818,1.2197884321212769,0.0
203,MetaDrive-test-conv-dropout-norm-lr-lesser,76,-2.9916987564779145,205011,1362,2693.3133096694946,-0.5698095560073853,0.6002386808395386,0.007087962701916695,0.0
204,MetaDrive-test-conv-dropout-norm-lr-lesser,76,-3.058403272343497,206002,1399,2708.223663330078,-0.6572232842445374,,0.6059849858283997,0.0
205,MetaDrive-test-conv-dropout-norm-lr-lesser,76,-2.991816944154489,207026,1430,2723.1687240600586,-0.6121159791946411,,0.007803645450621843,0.0
206,MetaDrive-test-conv-dropout-norm-lr-lesser,75,-3.046065194992963,208002,1465,2737.6817724704742,-0.6338292956352234,,0.009927941486239433,0.0
207,MetaDrive-test-conv-dropout-norm-lr-lesser,75,-2.9098642139674036,209004,1495,2752.034813642502,-0.6452634930610657,,0.0058855898678302765,0.0
208,MetaDrive-test-conv-dropout-norm-lr-lesser,75,-2.9965280927568654,210092,1525,2767.355406999588,-0.6650179624557495,,0.008713111281394958,0.0
209,MetaDrive-test-conv-dropout-norm-lr-lesser,75,-2.9598508268227572,211010,1551,2780.5512266159058,-0.6938380002975464,,0.00608536321669817,0.0
210,MetaDrive-test-conv-dropout-norm-lr-lesser,75,-2.9556198906081845,212027,1591,2795.5727500915527,-0.8999766111373901,0.7367498278617859,1.7137283086776733,0.0
211,MetaDrive-test-conv-dropout-norm-lr-lesser,75,-2.8711686381195123,213027,1629,2810.827198266983,-0.7241201996803284,0.7521734833717346,0.0049125137738883495,0.0
212,MetaDrive-test-conv-dropout-norm-lr-lesser,75,-2.8951866937688253,214005,1653,2824.863125562668,-0.740100085735321,0.7658936977386475,0.005963615141808987,0.0
213,MetaDrive-test-conv-dropout-norm-lr-lesser,75,-2.8927859609436912,215021,1688,2841.0387485027313,-0.7569799423217773,0.7744961380958557,0.0043536098673939705,0.0
214,MetaDrive-test-conv-dropout-norm-lr-lesser,75,-2.9718748357947136,216079,1726,2857.6235518455505,-0.768010139465332,0.7992644309997559,0.007510785944759846,0.0
215,MetaDrive-test-conv-dropout-norm-lr-lesser,75,-2.948783731614313,217008,1757,2871.547311067581,-0.7797901630401611,,0.011630726978182793,0.0
216,MetaDrive-test-conv-dropout-norm-lr-lesser,75,-3.029640789955469,218010,1796,2886.7343611717224,-0.8054572939872742,,0.007285002153366804,0.0
217,MetaDrive-test-conv-dropout-norm-lr-lesser,75,-3.0763852038755575,219009,1835,2901.3796825408936,-0.8195590972900391,0.8521091938018799,0.00839199312031269,0.0
218,MetaDrive-test-conv-dropout-norm-lr-lesser,75,-3.0646226475665497,220004,1867,2915.9643609523773,-0.9114115238189697,,0.5376027822494507,0.0
219,MetaDrive-test-conv-dropout-norm-lr-lesser,75,-2.940273860461198,221473,1891,2937.4804689884186,-0.8601841926574707,0.8943016529083252,0.00840042158961296,0.0
220,MetaDrive-test-conv-dropout-norm-lr-lesser,75,-2.9544431080542397,222145,1904,2946.767984390259,-0.86942058801651,0.909231960773468,0.007670970167964697,0.0
221,MetaDrive-test-conv-dropout-norm-lr-lesser,75,-2.9873445847712357,223008,1932,2959.49861741066,-1.0577973127365112,,1.585883378982544,0.0
222,MetaDrive-test-conv-dropout-norm-lr-lesser,75,-3.0680064337032253,224007,1973,2974.559226512909,-0.9106665253639221,0.9446647763252258,0.003886848222464323,0.0
223,MetaDrive-test-conv-dropout-norm-lr-lesser,75,-3.1854143781276396,225012,2011,2989.3717608451843,-1.0402222871780396,,1.030413031578064,0.0
224,MetaDrive-test-conv-dropout-norm-lr-lesser,75,-3.1186419132694105,226021,2053,3005.1595652103424,-0.9426331520080566,0.9753103256225586,0.007377053145319223,0.0
225,MetaDrive-test-conv-dropout-norm-lr-lesser,75,-3.0405939543274574,227002,2086,3021.129992723465,-1.021737813949585,,0.508470892906189,0.0
226,MetaDrive-test-conv-dropout-norm-lr-lesser,75,-2.98188771496765,228008,2117,3036.0647571086884,-1.0284874439239502,,0.5350083112716675,0.0
227,MetaDrive-test-conv-dropout-norm-lr-lesser,75,-2.8988369369289244,229043,2153,3051.24579000473,-1.0607950687408447,1.0324070453643799,0.4987209439277649,0.0
228,MetaDrive-test-conv-dropout-norm-lr-lesser,75,-2.9376276916482738,230019,2187,3065.4920370578766,-1.005167007446289,1.0545427799224854,0.011958092451095581,0.0
229,MetaDrive-test-conv-dropout-norm-lr-lesser,74,-2.90944530465631,231014,2222,3080.5907588005066,-1.1111226081848145,,0.4946132004261017,0.0
230,MetaDrive-test-conv-dropout-norm-lr-lesser,74,-3.015537390510855,232028,2259,3095.8989202976227,-1.1215252876281738,,0.49379250407218933,0.0
231,MetaDrive-test-conv-dropout-norm-lr-lesser,74,-2.9596629102843424,233007,2294,3110.8550283908844,-1.1188433170318604,1.1003905534744263,0.48409077525138855,0.0
232,MetaDrive-test-conv-dropout-norm-lr-lesser,74,-2.8878208363807194,234003,2332,3126.0640766620636,-1.0857763290405273,1.1213703155517578,0.009398533962666988,0.0
233,MetaDrive-test-conv-dropout-norm-lr-lesser,74,-2.9108834256000518,235016,2371,3141.262762069702,-1.1155600547790527,,0.01574239879846573,0.0
234,MetaDrive-test-conv-dropout-norm-lr-lesser,74,-3.097364146137295,236021,2407,3156.070369720459,-1.1804002523422241,1.1532245874404907,0.4743300676345825,0.0
235,MetaDrive-test-conv-dropout-norm-lr-lesser,74,-3.0465873608226572,237009,2433,3171.2507672309875,-1.1384680271148682,1.1645560264587402,0.006660104729235172,0.0
236,MetaDrive-test-conv-dropout-norm-lr-lesser,74,-2.991523966821774,238011,2454,3186.9351358413696,-1.2533944845199585,1.1759207248687744,0.9249014854431152,0.0
237,MetaDrive-test-conv-dropout-norm-lr-lesser,74,-2.9101713707907857,239018,2485,3201.9471554756165,-1.2711957693099976,,0.918608546257019,0.0
238,MetaDrive-test-conv-dropout-norm-lr-lesser,74,-3.0579942281495835,240015,2525,3216.490067958832,-1.2209300994873047,1.2123851776123047,0.46770966053009033,0.0
239,MetaDrive-test-conv-dropout-norm-lr-lesser,74,-2.9514975428118926,241160,2563,3233.5587046146393,-1.2941784858703613,,0.9098526239395142,0.0
240,MetaDrive-test-conv-dropout-norm-lr-lesser,74,-3.045339524135221,242010,2597,3246.7172422409058,-1.1958670616149902,,0.020633313804864883,0.0
241,MetaDrive-test-conv-dropout-norm-lr-lesser,74,-2.8633236991513935,243069,2628,3262.1588912010193,-1.2063136100769043,1.2489275932312012,0.01104662660509348,0.0
242,MetaDrive-test-conv-dropout-norm-lr-lesser,74,-2.9519425394286314,244023,2666,3276.635641336441,-1.3455185890197754,1.2516019344329834,0.8872601389884949,0.0
243,MetaDrive-test-conv-dropout-norm-lr-lesser,74,-3.0107542843159574,245002,2707,3291.6516778469086,-1.3994442224502563,,1.317852258682251,0.0
244,MetaDrive-test-conv-dropout-norm-lr-lesser,74,-3.151927744358458,246022,2732,3306.5837738513947,-1.3135313987731934,,0.4388100802898407,0.0
245,MetaDrive-test-conv-dropout-norm-lr-lesser,74,-3.1395416593291032,247006,2758,3320.929778814316,-1.267636775970459,,0.011303060688078403,0.0
246,MetaDrive-test-conv-dropout-norm-lr-lesser,74,-3.109525724188643,248015,2785,3336.42374253273,-1.3287919759750366,1.301863193511963,0.4536724090576172,0.0
247,MetaDrive-test-conv-dropout-norm-lr-lesser,74,-3.080793476215328,249016,2819,3352.847165822983,-1.252821445465088,,0.06852300465106964,0.0
248,MetaDrive-test-conv-dropout-norm-lr-lesser,74,-2.922938820542775,250032,2847,3367.8136534690857,-1.3285435438156128,,0.4444563388824463,0.0
249,MetaDrive-test-conv-dropout-norm-lr-lesser,74,-2.9829351309893513,251049,2884,3383.1517198085785,-1.287643551826477,1.3382282257080078,0.014248104766011238,0.0
250,MetaDrive-test-conv-dropout-norm-lr-lesser,74,-3.081821087549697,252018,2914,3397.5827169418335,-1.3710238933563232,,0.43366289138793945,0.0
251,MetaDrive-test-conv-dropout-norm-lr-lesser,74,-3.0134063392693493,253007,2941,3412.018873691559,-1.3174787759780884,1.3560774326324463,0.012940077111124992,0.0
252,MetaDrive-test-conv-dropout-norm-lr-lesser,74,-3.018993235395969,254057,2978,3427.299314022064,-1.3166730403900146,1.3690996170043945,0.016290482133626938,0.0
253,MetaDrive-test-conv-dropout-norm-lr-lesser,74,-3.06649928916442,255009,3016,3441.49569439888,-1.347168207168579,1.365285873413086,0.004332151263952255,0.0
254,MetaDrive-test-conv-dropout-norm-lr-lesser,74,-3.1393895079454057,256001,3052,3456.2825276851654,-1.3501263856887817,1.3900153636932373,0.009588323533535004,0.0
255,MetaDrive-test-conv-dropout-norm-lr-lesser,74,-3.1155117911850345,257184,3080,3473.1367156505585,-1.397179126739502,,0.4206552505493164,0.0
256,MetaDrive-test-conv-dropout-norm-lr-lesser,74,-2.983337505858093,258013,3107,3485.4806168079376,-1.4170417785644531,1.4084378480911255,0.4181141257286072,0.0
257,MetaDrive-test-conv-dropout-norm-lr-lesser,73,-3.0014722377964635,259009,3141,3500.269199848175,-1.427876353263855,1.4125418663024902,0.4151023030281067,0.0
258,MetaDrive-test-conv-dropout-norm-lr-lesser,73,-2.9510490832118577,260021,3176,3517.2392830848694,-1.4478509426116943,1.4317688941955566,0.41408270597457886,0.0
259,MetaDrive-test-conv-dropout-norm-lr-lesser,73,-2.986914904931402,261043,3199,3532.0021662712097,-1.4526276588439941,1.432858943939209,0.4073426425457001,0.0
260,MetaDrive-test-conv-dropout-norm-lr-lesser,73,-2.9221577703609416,262011,3220,3545.404501438141,-1.4060163497924805,1.436021327972412,0.010776086710393429,0.0
261,MetaDrive-test-conv-dropout-norm-lr-lesser,73,-2.897866945744818,263011,3251,3559.8214666843414,-1.4049971103668213,1.4503527879714966,0.02003016322851181,0.0
262,MetaDrive-test-conv-dropout-norm-lr-lesser,73,-2.8863206375480956,264003,3281,3574.4018528461456,-1.400639295578003,1.4460200071334839,0.018393272534012794,0.0
263,MetaDrive-test-conv-dropout-norm-lr-lesser,73,-2.9635271364130755,265036,3313,3588.891957759857,-1.4188432693481445,,0.017314713448286057,0.0
264,MetaDrive-test-conv-dropout-norm-lr-lesser,73,-3.032025466297622,266005,3337,3602.9662823677063,-1.5236494541168213,1.458282232284546,0.8027176856994629,0.0
265,MetaDrive-test-conv-dropout-norm-lr-lesser,73,-3.292406704114043,267025,3377,3618.106617450714,-1.4299389123916626,1.4698834419250488,0.012503597885370255,0.0
266,MetaDrive-test-conv-dropout-norm-lr-lesser,73,-3.2603988483899324,268002,3409,3632.0062901973724,-1.4998562335968018,,0.396729052066803,0.0
267,MetaDrive-test-conv-dropout-norm-lr-lesser,73,-3.245794844725913,269028,3446,3647.6464705467224,-1.4798167943954468,,0.4093858003616333,0.0
268,MetaDrive-test-conv-dropout-norm-lr-lesser,73,-3.1101355006041644,270083,3468,3661.8082830905914,-1.453351616859436,1.507312536239624,0.01482187770307064,0.0
269,MetaDrive-test-conv-dropout-norm-lr-lesser,73,-3.1681393132042417,271048,3497,3677.676953792572,-1.4762721061706543,,0.008298153057694435,0.0
270,MetaDrive-test-conv-dropout-norm-lr-lesser,73,-3.222601511940583,272001,3519,3690.63405752182,-1.488088607788086,1.524660587310791,0.01585255190730095,0.0
271,MetaDrive-test-conv-dropout-norm-lr-lesser,73,-3.308176544625626,273015,3546,3705.0968136787415,-1.5205118656158447,1.5338196754455566,0.3967325687408447,0.0
272,MetaDrive-test-conv-dropout-norm-lr-lesser,73,-3.2558868356828805,274121,3565,3719.7916831970215,-1.5130314826965332,1.5334899425506592,0.010417373850941658,0.0
273,MetaDrive-test-conv-dropout-norm-lr-lesser,73,-3.38513019635469,275137,3594,3734.3032178878784,-1.5480611324310303,1.557375192642212,0.4611073136329651,0.0
274,MetaDrive-test-conv-dropout-norm-lr-lesser,73,-3.3175566974423676,276011,3623,3747.073417186737,-1.5534825325012207,1.5518981218338013,0.38474535942077637,0.0
275,MetaDrive-test-conv-dropout-norm-lr-lesser,73,-3.171824803663297,277020,3655,3761.658624649048,-1.538849115371704,,0.016111299395561218,0.0
276,MetaDrive-test-conv-dropout-norm-lr-lesser,73,-2.9768854744831774,278109,3686,3776.685996055603,-1.5850412845611572,1.5679559707641602,0.3864316940307617,0.0
277,MetaDrive-test-conv-dropout-norm-lr-lesser,73,-2.8810420596379682,279028,3720,3790.5803513526917,-1.5272905826568604,,0.012045450508594513,0.0
278,MetaDrive-test-conv-dropout-norm-lr-lesser,73,-3.1356379341404694,280002,3760,3804.916454076767,-1.5741281509399414,,0.38661664724349976,0.0
279,MetaDrive-test-conv-dropout-norm-lr-lesser,73,-3.1857676020567762,281008,3800,3819.6808874607086,-1.5494768619537354,,0.013163257390260696,0.0
280,MetaDrive-test-conv-dropout-norm-lr-lesser,73,-3.033813662308282,282015,3838,3835.172624349594,-1.6057372093200684,1.614761471748352,0.3737921118736267,0.0
281,MetaDrive-test-conv-dropout-norm-lr-lesser,73,-3.201010762253895,283007,3877,3851.116648197174,-1.5962774753570557,1.6093380451202393,0.4566618800163269,0.0
282,MetaDrive-test-conv-dropout-norm-lr-lesser,73,-3.296746624414739,284012,3911,3865.8158614635468,-1.5794804096221924,,0.012833950109779835,0.0
283,MetaDrive-test-conv-dropout-norm-lr-lesser,73,-3.427034916903329,285013,3946,3880.3222739696503,-1.5844290256500244,1.6300846338272095,0.013281604275107384,0.0
284,MetaDrive-test-conv-dropout-norm-lr-lesser,73,-3.247451424198665,286008,3984,3895.1319320201874,-1.5894181728363037,,0.02250557951629162,0.0
285,MetaDrive-test-conv-dropout-norm-lr-lesser,73,-3.2562659768334488,287003,4028,3910.0959339141846,-1.6307742595672607,1.6135035753250122,0.3691968321800232,0.0
286,MetaDrive-test-conv-dropout-norm-lr-lesser,73,-3.027807731783729,288007,4066,3924.824054479599,-1.5992406606674194,1.6160331964492798,0.4538937211036682,0.0
287,MetaDrive-test-conv-dropout-norm-lr-lesser,73,-2.986106394372005,289016,4102,3939.4617733955383,-1.6424869298934937,,0.37688636779785156,0.0
288,MetaDrive-test-conv-dropout-norm-lr-lesser,73,-3.122871021836017,290027,4141,3954.3789863586426,-1.5976240634918213,1.6278071403503418,0.014548868872225285,0.0
289,MetaDrive-test-conv-dropout-norm-lr-lesser,73,-3.2650881923755297,291002,4180,3968.9915318489075,-1.7609944343566895,,1.0749297142028809,0.0
290,MetaDrive-test-conv-dropout-norm-lr-lesser,73,-3.2470597798282506,292022,4218,3984.201745033264,-1.5986278057098389,,0.0189692210406065,0.0
291,MetaDrive-test-conv-dropout-norm-lr-lesser,73,-3.2159109043050296,293023,4256,3999.1650836467743,-1.5938944816589355,1.6439259052276611,0.015889421105384827,0.0
292,MetaDrive-test-conv-dropout-norm-lr-lesser,73,-3.163647020917656,294010,4290,4015.9464707374573,-1.6039206981658936,,0.013082441873848438,0.0
293,MetaDrive-test-conv-dropout-norm-lr-lesser,73,-3.1246702352989923,295027,4324,4030.680493116379,-1.6815285682678223,1.6645195484161377,0.36722156405448914,0.0
294,MetaDrive-test-conv-dropout-norm-lr-lesser,73,-3.2056236496386608,296011,4362,4044.6908659934998,-1.7357542514801025,1.6716103553771973,0.7094308137893677,0.0
295,MetaDrive-test-conv-dropout-norm-lr-lesser,73,-3.2476722916360385,297026,4399,4059.5039122104645,-1.6966006755828857,,0.35739371180534363,0.0
296,MetaDrive-test-conv-dropout-norm-lr-lesser,73,-3.4339984446428553,298023,4435,4074.3595521450043,-1.6895145177841187,1.6692945957183838,0.35776209831237793,0.0
297,MetaDrive-test-conv-dropout-norm-lr-lesser,73,-3.3679731076721264,299062,4466,4089.2689878940582,-1.7069593667984009,,0.35633209347724915,0.0
298,MetaDrive-test-conv-dropout-norm-lr-lesser,73,-3.308629744593333,300011,4496,4102.915307998657,-1.737006664276123,1.6987313032150269,0.7007956504821777,0.0
299,MetaDrive-test-conv-dropout-norm-lr-lesser,73,-3.3857853088782077,301029,4521,4116.875080108643,-1.7117035388946533,1.6729834079742432,0.3571063280105591,0.0
300,MetaDrive-test-conv-dropout-norm-lr-lesser,73,-3.2297900330035514,302018,4534,4129.920838832855,-1.6458740234375,,0.022218581289052963,0.0
301,MetaDrive-test-conv-dropout-norm-lr-lesser,73,-3.206547937688454,303029,4544,4142.876682519913,-1.7072688341140747,1.720867395401001,0.361079603433609,0.0
302,MetaDrive-test-conv-dropout-norm-lr-lesser,73,-3.2438477569769337,304261,4550,4158.908185482025,-1.6751917600631714,1.7047988176345825,0.013707493431866169,0.0
303,MetaDrive-test-conv-dropout-norm-lr-lesser,73,-3.24960062793435,305040,4556,4171.329558610916,-1.6663258075714111,,0.015534769743680954,0.0
304,MetaDrive-test-conv-dropout-norm-lr-lesser,73,-3.2789853991069036,306179,4560,4185.507889509201,-1.6861250400543213,1.7228808403015137,0.009303294122219086,0.0
305,MetaDrive-test-conv-dropout-norm-lr-lesser,73,-3.2171653313468647,307083,4565,4196.789518594742,-1.6878160238265991,1.7207677364349365,0.013483698479831219,0.0
306,MetaDrive-test-conv-dropout-norm-lr-lesser,73,-3.223167032179804,308073,4571,4208.962611436844,-1.689192295074463,1.7582738399505615,0.02022373303771019,0.0
307,MetaDrive-test-conv-dropout-norm-lr-lesser,73,-3.3134740532944305,309029,4575,4221.194805145264,-1.6922951936721802,1.7301652431488037,0.014528941363096237,0.0
308,MetaDrive-test-conv-dropout-norm-lr-lesser,73,-3.294149201476352,310018,4581,4233.224285125732,-1.6898226737976074,,0.015862323343753815,0.0
309,MetaDrive-test-conv-dropout-norm-lr-lesser,73,-3.2050646716816287,311627,4584,4254.381165742874,-1.6943519115447998,1.7389709949493408,0.015356510877609253,0.0
310,MetaDrive-test-conv-dropout-norm-lr-lesser,73,-3.1956478285222985,312628,4585,4266.481875896454,-1.716530442237854,,0.009996848180890083,0.0
311,MetaDrive-test-conv-dropout-norm-lr-lesser,73,-3.2146483665917547,313503,4586,4278.317840576172,-1.7477269172668457,1.7397520542144775,0.34808486700057983,0.0
312,MetaDrive-test-conv-dropout-norm-lr-lesser,73,-3.1931154427948174,314176,4587,4285.8507788181305,-1.6999752521514893,,0.01744130067527294,0.0
313,MetaDrive-test-conv-dropout-norm-lr-lesser,73,-3.1692658042067,315336,4592,4299.892977714539,-1.7073187828063965,,0.01448783278465271,0.0
314,MetaDrive-test-conv-dropout-norm-lr-lesser,73,-3.151096718674522,316142,4594,4309.848150968552,-1.7677648067474365,,0.34726443886756897,0.0
315,MetaDrive-test-conv-dropout-norm-lr-lesser,73,-3.153724578609445,317239,4596,4323.5426206588745,-1.7121329307556152,1.749400019645691,0.013871382921934128,0.0
316,MetaDrive-test-conv-dropout-norm-lr-lesser,73,-3.1569809631863643,318059,4600,4336.136132001877,-1.7048227787017822,1.7563886642456055,0.013006425462663174,0.0
317,MetaDrive-test-conv-dropout-norm-lr-lesser,73,-3.0829310614988925,319821,4603,4358.629945516586,-1.7000200748443604,1.7440003156661987,0.020587902516126633,0.0
318,MetaDrive-test-conv-dropout-norm-lr-lesser,73,-3.0866795648931373,320461,4604,4366.758404493332,-1.709007740020752,1.7589102983474731,0.01919766515493393,0.0
319,MetaDrive-test-conv-dropout-norm-lr-lesser,73,-3.0763983925801015,321245,4605,4376.43154501915,-1.787603735923767,1.7442309856414795,0.682580828666687,0.0
320,MetaDrive-test-conv-dropout-norm-lr-lesser,73,-3.046500590659404,322246,4606,4389.310519695282,-1.7607250213623047,,0.35164695978164673,0.0
321,MetaDrive-test-conv-dropout-norm-lr-lesser,73,-3.0218988147930084,323531,4609,4404.620147705078,-1.789435863494873,1.7496693134307861,0.6781165599822998,0.0
322,MetaDrive-test-conv-dropout-norm-lr-lesser,73,-2.9693511299078614,324347,4610,4413.642549037933,-1.769383430480957,1.7433061599731445,0.3558838963508606,0.0
323,MetaDrive-test-conv-dropout-norm-lr-lesser,73,-2.945219724251325,325348,4611,4426.7228627204895,-1.7935197353363037,,0.6815850734710693,0.0
324,MetaDrive-test-conv-dropout-norm-lr-lesser,73,-3.004084673997825,326016,4613,4435.470758199692,-1.7645435333251953,,0.33798032999038696,0.0
325,MetaDrive-test-conv-dropout-norm-lr-lesser,73,-2.9544449513438478,327017,4614,4447.092898607254,-1.6889266967773438,1.7413511276245117,0.017196234315633774,0.0
326,MetaDrive-test-conv-dropout-norm-lr-lesser,73,-2.9353102030112304,328545,4617,4467.2003128528595,-1.6941542625427246,1.7536488771438599,0.026679977774620056,0.0
327,MetaDrive-test-conv-dropout-norm-lr-lesser,73,-2.8994873177952645,329546,4618,4478.185735702515,-1.8042240142822266,,0.6784356236457825,0.0
328,MetaDrive-test-conv-dropout-norm-lr-lesser,73,-2.883135898657132,330938,4620,4496.622662305832,-1.6872332096099854,,0.014982616528868675,0.0
329,MetaDrive-test-conv-dropout-norm-lr-lesser,73,-2.908374447902048,331072,4621,4499.06302022934,-1.7244980335235596,,0.3558571934700012,0.0
330,MetaDrive-test-conv-dropout-norm-lr-lesser,73,-2.9734257975641594,332097,4626,4512.327955007553,-1.7005280256271362,1.7413303852081299,0.018770761787891388,0.0
331,MetaDrive-test-conv-dropout-norm-lr-lesser,73,-2.99168664776508,333439,4629,4528.980685710907,-1.689721703529358,1.7421127557754517,0.012088103219866753,0.0
332,MetaDrive-test-conv-dropout-norm-lr-lesser,73,-3.0683677132646734,334356,4632,4540.245930671692,-1.736210584640503,,0.34757518768310547,0.0
333,MetaDrive-test-conv-dropout-norm-lr-lesser,73,-3.0402548772647977,335357,4633,4552.699504613876,-1.6861119270324707,1.7402515411376953,0.012868721038103104,0.0
334,MetaDrive-test-conv-dropout-norm-lr-lesser,73,-3.0734524705310537,336538,4635,4566.4531943798065,-1.7450119256973267,,0.34511008858680725,0.0
335,MetaDrive-test-conv-dropout-norm-lr-lesser,73,-3.0902789793471164,337019,4636,4572.416501045227,-1.6975091695785522,1.7587924003601074,0.02491682395339012,0.0
336,MetaDrive-test-conv-dropout-norm-lr-lesser,73,-3.081319857500585,338579,4639,4592.622309207916,-1.6839094161987305,1.7254022359848022,0.015748996287584305,0.0
337,MetaDrive-test-conv-dropout-norm-lr-lesser,73,-3.1225121427609484,339472,4641,4602.875680923462,-1.850316047668457,,0.9994419813156128,0.0
338,MetaDrive-test-conv-dropout-norm-lr-lesser,73,-3.1312107861040017,340113,4642,4610.662408351898,-1.7911430597305298,1.7451972961425781,0.6815057992935181,0.0
339,MetaDrive-test-conv-dropout-norm-lr-lesser,73,-3.1695074448278833,341636,4645,4629.0866758823395,-1.7316632270812988,,0.36728012561798096,0.0
340,MetaDrive-test-conv-dropout-norm-lr-lesser,73,-3.208431301978895,342052,4647,4634.1453511714935,-1.679341197013855,,0.015250025317072868,0.0
341,MetaDrive-test-conv-dropout-norm-lr-lesser,73,-3.209013762883152,343053,4648,4645.615447282791,-1.7503396272659302,1.7448077201843262,0.349983811378479,0.0
342,MetaDrive-test-conv-dropout-norm-lr-lesser,73,-3.1604055682858263,344578,4651,4666.330640554428,-1.746408462524414,,0.34829503297805786,0.0
343,MetaDrive-test-conv-dropout-norm-lr-lesser,73,-3.1511327056676794,345192,4654,4674.071537017822,-1.6923822164535522,,0.015602871775627136,0.0
344,MetaDrive-test-conv-dropout-norm-lr-lesser,73,-3.1292508075479595,346089,4656,4685.082399606705,-1.7894469499588013,1.7319674491882324,0.6827214956283569,0.0
345,MetaDrive-test-conv-dropout-norm-lr-lesser,73,-3.126598198907489,347193,4658,4699.266139984131,-1.8020246028900146,1.7310700416564941,0.6759351491928101,0.0
346,MetaDrive-test-conv-dropout-norm-lr-lesser,73,-3.082434373682328,348212,4662,4711.8626589775085,-1.7445483207702637,,0.3450986444950104,0.0
347,MetaDrive-test-conv-dropout-norm-lr-lesser,73,-3.1255093879795073,349003,4666,4721.55611371994,-1.7596031427383423,1.7526048421859741,0.34797391295433044,0.0
348,MetaDrive-test-conv-dropout-norm-lr-lesser,73,-3.100579218100379,350258,4670,4737.4901876449585,-1.7092227935791016,,0.006389074958860874,0.0
349,MetaDrive-test-conv-dropout-norm-lr-lesser,73,-3.1398650261737107,351027,4674,4746.5941689014435,-1.7965772151947021,1.7530268430709839,0.6736443042755127,0.0
350,MetaDrive-test-conv-dropout-norm-lr-lesser,73,-3.050349731285581,352639,4678,4766.524553537369,-1.6839120388031006,1.7533420324325562,0.10750621557235718,0.0
351,MetaDrive-test-conv-dropout-norm-lr-lesser,73,-3.0591122717442643,353073,4679,4771.951957941055,-1.84218430519104,1.7511756420135498,1.006847620010376,0.0
352,MetaDrive-test-conv-dropout-norm-lr-lesser,74,-3.0505000918719607,354074,4680,4783.879891872406,-1.7024447917938232,,0.00964780431240797,0.0
353,MetaDrive-test-conv-dropout-norm-lr-lesser,74,-3.0846737573240084,355298,4683,4799.602432250977,-1.6820995807647705,,0.10865385830402374,0.0
354,MetaDrive-test-conv-dropout-norm-lr-lesser,74,-3.116018949299569,356241,4685,4811.9978630542755,-1.7523090839385986,1.7374130487442017,0.34037041664123535,0.0
355,MetaDrive-test-conv-dropout-norm-lr-lesser,74,-3.125535631301563,357601,4688,4830.1178369522095,-1.7164373397827148,1.7357604503631592,0.029382919892668724,0.0
356,MetaDrive-test-conv-dropout-norm-lr-lesser,74,-3.108411027589613,358031,4689,4835.406146526337,-1.8071179389953613,1.736008644104004,0.6704443693161011,0.0
357,MetaDrive-test-conv-dropout-norm-lr-lesser,74,-3.07252479802996,359091,4691,4849.246860027313,-1.7301836013793945,1.7266793251037598,0.3470771014690399,0.0
358,MetaDrive-test-conv-dropout-norm-lr-lesser,74,-3.0885087495724606,360071,4693,4861.744825363159,-1.6751017570495605,1.7236123085021973,0.012594860047101974,0.0
359,MetaDrive-test-conv-dropout-norm-lr-lesser,74,-3.1315059385842825,361199,4696,4874.843692541122,-1.6800599098205566,1.7133758068084717,0.009924483485519886,0.0
360,MetaDrive-test-conv-dropout-norm-lr-lesser,74,-3.163237426857865,362901,4702,4896.350193738937,-1.6636757850646973,1.7070281505584717,0.010380573570728302,0.0
361,MetaDrive-test-conv-dropout-norm-lr-lesser,74,-3.1753888799080614,363069,4703,4898.3599100112915,-1.6661953926086426,1.7073047161102295,0.009844798594713211,0.0
362,MetaDrive-test-conv-dropout-norm-lr-lesser,74,-3.1149439583355956,364883,4705,4920.491480112076,-1.8087745904922485,1.712425708770752,1.0389244556427002,0.0
363,MetaDrive-test-conv-dropout-norm-lr-lesser,74,-3.144634378172887,365371,4706,4926.124723911285,-1.7139910459518433,1.7065889835357666,0.35148435831069946,0.0
364,MetaDrive-test-conv-dropout-norm-lr-lesser,74,-3.2269320485517006,366447,4711,4939.825582027435,-1.6750963926315308,1.6983873844146729,0.016729088500142097,0.0
365,MetaDrive-test-conv-dropout-norm-lr-lesser,74,-3.195264972259717,367169,4713,4949.562725067139,-1.7224221229553223,1.7028839588165283,0.350256085395813,0.0
366,MetaDrive-test-conv-dropout-norm-lr-lesser,74,-3.2140977791087137,368046,4715,4959.830164432526,-1.6720845699310303,,0.012874949723482132,0.0
367,MetaDrive-test-conv-dropout-norm-lr-lesser,74,-3.2318741359958607,369167,4718,4973.827736854553,-1.66205894947052,1.69496488571167,0.010282453149557114,0.0
368,MetaDrive-test-conv-dropout-norm-lr-lesser,74,-3.2203151632553744,370006,4720,4984.002170085907,-1.720184087753296,,0.35475701093673706,0.0
369,MetaDrive-test-conv-dropout-norm-lr-lesser,74,-3.1237661631394578,371284,4726,5001.52596116066,-1.729425311088562,,0.3504135310649872,0.0
370,MetaDrive-test-conv-dropout-norm-lr-lesser,74,-3.0673289903929635,372546,4728,5017.244308710098,-1.715321660041809,,0.35202956199645996,0.0
371,MetaDrive-test-conv-dropout-norm-lr-lesser,74,-3.0126910287990314,373848,4730,5032.486756801605,-1.7114744186401367,,0.350727379322052,0.0
372,MetaDrive-test-conv-dropout-norm-lr-lesser,74,-3.0109726164544384,374041,4731,5035.448681116104,-1.6998581886291504,1.7275902032852173,0.35675185918807983,0.0
373,MetaDrive-test-conv-dropout-norm-lr-lesser,74,-2.9313599974706706,376001,4736,5060.330221891403,-1.6524637937545776,1.7056013345718384,0.014979036524891853,0.0
374,MetaDrive-test-conv-dropout-norm-lr-lesser,74,-2.9864264170207586,377192,4739,5075.618479251862,-1.7032241821289062,,0.355898916721344,0.0
375,MetaDrive-test-conv-dropout-norm-lr-lesser,74,-2.926373825975689,378193,4740,5088.283074378967,-1.658902645111084,1.6883500814437866,0.015343583188951015,0.0
376,MetaDrive-test-conv-dropout-norm-lr-lesser,74,-2.8925583698413027,379116,4743,5099.1899790763855,-1.6601425409317017,,0.008239587768912315,0.0
377,MetaDrive-test-conv-dropout-norm-lr-lesser,74,-2.8168146697877203,380161,4745,5112.227350234985,-1.692906141281128,1.6903612613677979,0.3555631637573242,0.0
378,MetaDrive-test-conv-dropout-norm-lr-lesser,74,-2.7427975378094165,381162,4746,5125.6134033203125,-1.6927695274353027,,0.3547302186489105,0.0
379,MetaDrive-test-conv-dropout-norm-lr-lesser,74,-2.6661829704670645,382163,4747,5136.650453329086,-1.6843137741088867,1.6856849193572998,0.35777419805526733,0.0
380,MetaDrive-test-conv-dropout-norm-lr-lesser,74,-2.6308731387936373,383164,4748,5148.901298522949,-1.6302496194839478,,0.014418460428714752,0.0
381,MetaDrive-test-conv-dropout-norm-lr-lesser,74,-2.6055803676735803,384397,4750,5165.0704917907715,-1.6576645374298096,1.675550937652588,0.007246432360261679,0.0
382,MetaDrive-test-conv-dropout-norm-lr-lesser,74,-2.587949582535227,385398,4751,5177.989218235016,-1.638645887374878,,0.011348564177751541,0.0
383,MetaDrive-test-conv-dropout-norm-lr-lesser,74,-2.5759719833302612,386399,4752,5190.508828639984,-1.6409635543823242,1.6815816164016724,0.0115065798163414,0.0
384,MetaDrive-test-conv-dropout-norm-lr-lesser,74,-2.540747857180782,387565,4754,5204.83341050148,-1.6871004104614258,1.6673662662506104,0.35561248660087585,0.0
385,MetaDrive-test-conv-dropout-norm-lr-lesser,74,-2.487836068871088,388566,4755,5216.766800880432,-1.7496328353881836,,0.6992132663726807,0.0
386,MetaDrive-test-conv-dropout-norm-lr-lesser,74,-2.4867160957094057,389282,4756,5224.747061729431,-1.678287386894226,,0.36017951369285583,0.0
387,MetaDrive-test-conv-dropout-norm-lr-lesser,74,-2.4356510511845273,390283,4757,5236.800586462021,-1.6260420083999634,1.669020175933838,0.012362073175609112,0.0
388,MetaDrive-test-conv-dropout-norm-lr-lesser,74,-2.367605496746914,391284,4758,5250.071666955948,-1.6346975564956665,,0.008355934172868729,0.0
389,MetaDrive-test-conv-dropout-norm-lr-lesser,74,-2.302812062059969,392285,4759,5262.01566529274,-1.6374149322509766,1.6816120147705078,0.014106754213571548,0.0
390,MetaDrive-test-conv-dropout-norm-lr-lesser,74,-2.269671172608545,393404,4761,5275.544181585312,-1.6398881673812866,,0.020543090999126434,0.0
391,MetaDrive-test-conv-dropout-norm-lr-lesser,74,-2.2477888979189604,394564,4763,5290.092606544495,-1.683121681213379,,0.3554890751838684,0.0
392,MetaDrive-test-conv-dropout-norm-lr-lesser,74,-2.2147446298232167,395565,4764,5302.0343978405,-1.6331487894058228,1.6728994846343994,0.012898861430585384,0.0
393,MetaDrive-test-conv-dropout-norm-lr-lesser,74,-2.1252759882507872,396793,4766,5316.035500764847,-1.7465859651565552,1.666338324546814,0.7047030329704285,0.0
394,MetaDrive-test-conv-dropout-norm-lr-lesser,74,-2.114014849166592,397919,4768,5331.154313087463,-1.7370526790618896,1.6765856742858887,0.7081193923950195,0.0
395,MetaDrive-test-conv-dropout-norm-lr-lesser,74,-2.037032731827109,398920,4769,5343.061568260193,-1.6158695220947266,,0.022102346643805504,0.0
396,MetaDrive-test-conv-dropout-norm-lr-lesser,74,-1.988697812467975,399921,4770,5355.852708816528,-1.6980125904083252,1.66921865940094,0.3566757142543793,0.0
397,MetaDrive-test-conv-dropout-norm-lr-lesser,74,-1.9561887764970587,400922,4771,5367.851868152618,-1.6310797929763794,,0.008751822635531425,0.0
398,MetaDrive-test-conv-dropout-norm-lr-lesser,74,-1.8967934663182344,401923,4772,5379.437579154968,-1.6166331768035889,1.6678943634033203,0.017313389107584953,0.0
399,MetaDrive-test-conv-dropout-norm-lr-lesser,74,-1.874352214504783,402924,4773,5391.970527172089,-1.6759204864501953,,0.3604466915130615,0.0
400,MetaDrive-test-conv-dropout-norm-lr-lesser,74,-1.874670247511033,403274,4774,5396.346325874329,-1.7327570915222168,,0.7014951705932617,0.0
401,MetaDrive-test-conv-dropout-norm-lr-lesser,74,-1.803442681223442,404275,4775,5408.7737872600555,-1.669376254081726,1.6681461334228516,0.35973110795021057,0.0
402,MetaDrive-test-conv-dropout-norm-lr-lesser,74,-1.75298140196573,405276,4776,5420.548951387405,-1.6359002590179443,,0.008389737457036972,0.0
403,MetaDrive-test-conv-dropout-norm-lr-lesser,74,-1.7255157781099997,406277,4777,5433.100784540176,-1.6131088733673096,1.6559240818023682,0.01710641384124756,0.0
404,MetaDrive-test-conv-dropout-norm-lr-lesser,74,-1.7340698283609655,407611,4779,5449.565861701965,-1.706119179725647,1.6469054222106934,0.7159233689308167,0.0
405,MetaDrive-test-conv-dropout-norm-lr-lesser,74,-1.7720060364508257,408094,4780,5455.193863153458,-1.663482666015625,,0.35915112495422363,0.0
406,MetaDrive-test-conv-dropout-norm-lr-lesser,74,-1.7128390864692293,409095,4781,5466.392411470413,-1.624145746231079,1.64862060546875,0.010615110397338867,0.0
407,MetaDrive-test-conv-dropout-norm-lr-lesser,74,-1.6789164646563108,410096,4782,5478.476791381836,-1.6504020690917969,,0.36556148529052734,0.0
408,MetaDrive-test-conv-dropout-norm-lr-lesser,74,-1.675693378761483,411097,4783,5491.608958721161,-1.6550391912460327,1.638886570930481,0.3682894706726074,0.0
409,MetaDrive-test-conv-dropout-norm-lr-lesser,74,-1.634236869389579,412098,4784,5505.93608212471,-1.660601019859314,,0.3598616421222687,0.0
410,MetaDrive-test-conv-dropout-norm-lr-lesser,74,-1.595417083504205,413099,4785,5517.494056463242,-1.6082983016967773,1.623769760131836,0.011362478137016296,0.0
411,MetaDrive-test-conv-dropout-norm-lr-lesser,74,-1.5289648985361992,414100,4786,5529.722471952438,-1.6281622648239136,,0.370898962020874,0.0
412,MetaDrive-test-conv-dropout-norm-lr-lesser,74,-1.5016728242129764,415101,4787,5541.993686914444,-1.6012554168701172,1.6377921104431152,0.01233615167438984,0.0
413,MetaDrive-test-conv-dropout-norm-lr-lesser,74,-1.4589857755905529,416102,4788,5554.164358139038,-1.5899720191955566,,0.011213041841983795,0.0
414,MetaDrive-test-conv-dropout-norm-lr-lesser,74,-1.4151754848023006,417534,4790,5571.540991067886,-1.6012709140777588,,0.010309296660125256,0.0
415,MetaDrive-test-conv-dropout-norm-lr-lesser,74,-1.4071951462267174,418535,4791,5584.814717531204,-1.696932315826416,1.6216434240341187,0.7236278653144836,0.0
416,MetaDrive-test-conv-dropout-norm-lr-lesser,74,-1.3234321010377852,419536,4792,5597.025845050812,-1.6394598484039307,,0.36805862188339233,0.0
417,MetaDrive-test-conv-dropout-norm-lr-lesser,74,-1.2725837030250502,420678,4794,5610.959877252579,-1.5876258611679077,,0.008092780597507954,0.0
418,MetaDrive-test-conv-dropout-norm-lr-lesser,74,-1.2016733424305244,421779,4796,5624.333357810974,-1.6939270496368408,1.621019959449768,0.7202609777450562,0.0
419,MetaDrive-test-conv-dropout-norm-lr-lesser,75,-1.1012790050888315,422780,4797,5635.854275465012,-1.6321628093719482,,0.3716751039028168,0.0
420,MetaDrive-test-conv-dropout-norm-lr-lesser,75,-1.03937002448878,423935,4799,5650.1485867500305,-1.6941843032836914,1.611647605895996,0.7319871187210083,0.0
421,MetaDrive-test-conv-dropout-norm-lr-lesser,75,-1.0430592036346045,424160,4800,5652.9103672504425,-1.6352474689483643,,0.3666023015975952,0.0
422,MetaDrive-test-conv-dropout-norm-lr-lesser,75,-0.9883632049084765,425161,4801,5667.371292114258,-1.6265168190002441,1.6191527843475342,0.3711681365966797,0.0
423,MetaDrive-test-conv-dropout-norm-lr-lesser,75,-0.9871747402411662,426162,4802,5680.55703496933,-1.6293007135391235,,0.3715226650238037,0.0
424,MetaDrive-test-conv-dropout-norm-lr-lesser,75,-0.9803946293512706,427918,4804,5702.481350660324,-1.6746108531951904,,0.7287070751190186,0.0
425,MetaDrive-test-conv-dropout-norm-lr-lesser,75,-1.0365450053513716,428303,4805,5707.023945093155,-1.5724365711212158,1.5992274284362793,0.004278188571333885,0.0
426,MetaDrive-test-conv-dropout-norm-lr-lesser,75,-1.0332949296700045,429599,4807,5721.857239961624,-1.6625665426254272,1.5942020416259766,0.7371827363967896,0.0
427,MetaDrive-test-conv-dropout-norm-lr-lesser,75,-1.035239812541283,430275,4809,5729.846294403076,-1.5678576231002808,1.5860817432403564,0.014403989538550377,0.0
428,MetaDrive-test-conv-dropout-norm-lr-lesser,75,-0.9935415762002936,431613,4811,5746.615877866745,-1.6141618490219116,1.6041908264160156,0.3708844780921936,0.0
429,MetaDrive-test-conv-dropout-norm-lr-lesser,75,-0.9575880190555489,432614,4812,5758.699163913727,-1.5738615989685059,,0.010554242879152298,0.0
430,MetaDrive-test-conv-dropout-norm-lr-lesser,75,-0.9361955444237299,433615,4813,5771.549266576767,-1.5614137649536133,1.6005284786224365,0.023349998518824577,0.0
431,MetaDrive-test-conv-dropout-norm-lr-lesser,75,-0.9694192171336602,434153,4815,5778.127652168274,-1.5493911504745483,1.6018826961517334,0.013495920225977898,0.0
432,MetaDrive-test-conv-dropout-norm-lr-lesser,75,-0.9743271082362334,435597,4817,5795.989641189575,-1.6269519329071045,1.6013003587722778,0.3767583966255188,0.0
433,MetaDrive-test-conv-dropout-norm-lr-lesser,75,-0.9364297494981928,436598,4818,5808.911568403244,-1.531138300895691,,0.01939445175230503,0.0
434,MetaDrive-test-conv-dropout-norm-lr-lesser,75,-0.9960364346568983,437008,4820,5814.129726886749,-1.5475866794586182,,0.012391255237162113,0.0
435,MetaDrive-test-conv-dropout-norm-lr-lesser,75,-0.9603519958584333,438009,4821,5829.240926980972,-1.6113555431365967,1.572464942932129,0.36948102712631226,0.0
436,MetaDrive-test-conv-dropout-norm-lr-lesser,75,-0.954201953476033,439919,4825,5853.976908922195,-1.5448325872421265,1.5784482955932617,0.006116771139204502,0.0
437,MetaDrive-test-conv-dropout-norm-lr-lesser,75,-0.9602563063853732,440770,4826,5864.51162981987,-1.6712340116500854,,0.7394348382949829,0.0
438,MetaDrive-test-conv-dropout-norm-lr-lesser,75,-0.9380246912000031,441771,4827,5876.9163773059845,-1.5510910749435425,1.5860133171081543,0.01339293085038662,0.0
439,MetaDrive-test-conv-dropout-norm-lr-lesser,75,-0.9102639438234328,442772,4828,5889.707603216171,-1.556876540184021,,0.008200056850910187,0.0
440,MetaDrive-test-conv-dropout-norm-lr-lesser,75,-1.0083903570233683,443008,4830,5892.710700035095,-1.537473440170288,,0.015472421422600746,0.0
441,MetaDrive-test-conv-dropout-norm-lr-lesser,75,-0.9714019082549296,444009,4831,5906.000881910324,-1.5777628421783447,1.5777381658554077,0.3793832063674927,0.0
442,MetaDrive-test-conv-dropout-norm-lr-lesser,75,-0.9567636791617525,445010,4832,5919.281428813934,-1.6463723182678223,,0.7467649579048157,0.0
443,MetaDrive-test-conv-dropout-norm-lr-lesser,75,-0.8938253927441911,446011,4833,5931.462399482727,-1.537764072418213,1.566304326057434,0.005754960235208273,0.0
444,MetaDrive-test-conv-dropout-norm-lr-lesser,75,-0.8371664527410755,447986,4835,5953.831503868103,-1.5739338397979736,,0.3799430727958679,0.0
445,MetaDrive-test-conv-dropout-norm-lr-lesser,75,-0.9110822258940702,448576,4836,5961.322113752365,-1.68806791305542,,1.117017388343811,0.0
446,MetaDrive-test-conv-dropout-norm-lr-lesser,75,-0.92094364025068,449421,4838,5971.041774988174,-1.6420769691467285,1.5605636835098267,0.746084451675415,0.0
447,MetaDrive-test-conv-dropout-norm-lr-lesser,75,-0.9296256733312318,450209,4839,5981.631542921066,-1.5871483087539673,1.5555853843688965,0.38407623767852783,0.0
448,MetaDrive-test-conv-dropout-norm-lr-lesser,75,-0.9411879422387528,451210,4840,5996.442233085632,-1.5796403884887695,,0.37701815366744995,0.0
449,MetaDrive-test-conv-dropout-norm-lr-lesser,75,-0.9214720061302204,452635,4842,6015.362838029861,-1.5828644037246704,1.5520961284637451,0.37528151273727417,0.0
450,MetaDrive-test-conv-dropout-norm-lr-lesser,75,-0.9559566085678084,453632,4843,6027.227214813232,-1.5893415212631226,,0.3773095905780792,0.0
451,MetaDrive-test-conv-dropout-norm-lr-lesser,75,-0.9566201481182176,454113,4844,6033.125571012497,-1.5830268859863281,1.5637586116790771,0.37661153078079224,0.0
452,MetaDrive-test-conv-dropout-norm-lr-lesser,75,-1.084136504620783,455903,4846,6055.916123390198,-1.5157550573349,1.5565824508666992,0.011868826113641262,0.0
453,MetaDrive-test-conv-dropout-norm-lr-lesser,75,-1.1695356317562309,456156,4847,6059.189631938934,-1.5868414640426636,,0.37854480743408203,0.0
454,MetaDrive-test-conv-dropout-norm-lr-lesser,75,-1.1817831754463568,457157,4848,6071.4259305000305,-1.5252838134765625,1.5613981485366821,0.0126222288236022,0.0
455,MetaDrive-test-conv-dropout-norm-lr-lesser,75,-1.2497377665870395,458793,4850,6089.7637231349945,-1.5118099451065063,1.5541417598724365,0.011446415446698666,0.0
456,MetaDrive-test-conv-dropout-norm-lr-lesser,75,-1.3369074854200989,459594,4852,6099.004345655441,-1.5790481567382812,,0.38078367710113525,0.0
457,MetaDrive-test-conv-dropout-norm-lr-lesser,75,-1.2944479168060459,460595,4853,6110.7255423069,-1.522360920906067,1.5425901412963867,0.013186170719563961,0.0
458,MetaDrive-test-conv-dropout-norm-lr-lesser,75,-1.33632752530131,461596,4854,6122.620761871338,-1.523146629333496,,0.01539994403719902,0.0
459,MetaDrive-test-conv-dropout-norm-lr-lesser,75,-1.3856163798557655,462983,4856,6139.981321334839,-1.5259778499603271,1.5604496002197266,0.009833483025431633,0.0
460,MetaDrive-test-conv-dropout-norm-lr-lesser,75,-1.4462898865640108,463365,4857,6144.484794616699,-1.69010591506958,1.5619077682495117,1.1208542585372925,0.0
461,MetaDrive-test-conv-dropout-norm-lr-lesser,75,-1.5676164606840024,464544,4859,6160.987210512161,-1.5074065923690796,,0.01491493359208107,0.0
462,MetaDrive-test-conv-dropout-norm-lr-lesser,75,-1.54708638158437,465586,4861,6174.2327709198,-1.5592237710952759,,0.38897019624710083,0.0
463,MetaDrive-test-conv-dropout-norm-lr-lesser,75,-1.5452755272957766,466202,4862,6182.094348192215,-1.5105977058410645,,0.00969359464943409,0.0
464,MetaDrive-test-conv-dropout-norm-lr-lesser,75,-1.6740871311806973,467057,4866,6192.155601024628,-1.5148582458496094,1.555880069732666,0.007419691886752844,0.0
465,MetaDrive-test-conv-dropout-norm-lr-lesser,75,-1.6058332734815386,468058,4867,6205.168484687805,-1.5644806623458862,,0.37963032722473145,0.0
466,MetaDrive-test-conv-dropout-norm-lr-lesser,75,-1.8893956268421812,469099,4872,6218.314987659454,-1.5683742761611938,1.5505001544952393,0.38470131158828735,0.0
467,MetaDrive-test-conv-dropout-norm-lr-lesser,75,-1.9868972917396823,470740,4876,6237.937620639801,-1.4983322620391846,,0.016235388815402985,0.0
468,MetaDrive-test-conv-dropout-norm-lr-lesser,75,-1.9764872880861604,471741,4877,6249.3340039253235,-1.5672380924224854,1.5499091148376465,0.38180777430534363,0.0
469,MetaDrive-test-conv-dropout-norm-lr-lesser,75,-1.9296190931520143,472742,4878,6262.045370817184,-1.62897789478302,,0.7611611485481262,0.0
470,MetaDrive-test-conv-dropout-norm-lr-lesser,75,-1.9769426184228363,473374,4880,6270.247881889343,-1.5786995887756348,,0.3772461414337158,0.0
471,MetaDrive-test-conv-dropout-norm-lr-lesser,75,-2.240243391419445,474397,4884,6282.91629076004,-1.5039994716644287,1.5312235355377197,0.00931612029671669,0.0
472,MetaDrive-test-conv-dropout-norm-lr-lesser,75,-2.4107528331670367,475666,4887,6298.043287277222,-1.5536904335021973,,0.3887426555156708,0.0
473,MetaDrive-test-conv-dropout-norm-lr-lesser,75,-2.4076813573744693,476667,4888,6310.706190824509,-1.551260232925415,1.5201771259307861,0.38483119010925293,0.0
474,MetaDrive-test-conv-dropout-norm-lr-lesser,75,-2.3755674128741218,477668,4889,6324.2636432647705,-1.4649152755737305,,0.07969459891319275,0.0
475,MetaDrive-test-conv-dropout-norm-lr-lesser,75,-2.447385088654766,478011,4890,6329.975636482239,-1.541090726852417,1.523681640625,0.389959454536438,0.0
476,MetaDrive-test-conv-dropout-norm-lr-lesser,75,-2.546921001883702,479163,4892,6342.842446565628,-1.4836854934692383,1.5117226839065552,0.007832629606127739,0.0
477,MetaDrive-test-conv-dropout-norm-lr-lesser,75,-2.572978427186099,480479,4894,6358.496179819107,-1.554086685180664,1.5142991542816162,0.39004001021385193,0.0
478,MetaDrive-test-conv-dropout-norm-lr-lesser,75,-2.5882370290852816,481070,4895,6365.760937213898,-1.5478448867797852,,0.38483184576034546,0.0
479,MetaDrive-test-conv-dropout-norm-lr-lesser,75,-2.6256855679072326,482071,4896,6377.493118524551,-1.5463874340057373,1.529084324836731,0.3900105357170105,0.0
480,MetaDrive-test-conv-dropout-norm-lr-lesser,75,-2.738499458901949,483048,4898,6389.829529047012,-1.4794621467590332,,0.01586548611521721,0.0
481,MetaDrive-test-conv-dropout-norm-lr-lesser,75,-2.817681886860352,484396,4900,6407.817864656448,-1.5004634857177734,,0.0072313342243433,0.0
482,MetaDrive-test-conv-dropout-norm-lr-lesser,75,-2.825315193676206,485397,4901,6420.264447450638,-1.5470004081726074,1.521340250968933,0.3896612226963043,0.0
483,MetaDrive-test-conv-dropout-norm-lr-lesser,75,-2.862819791709888,486142,4902,6429.141553163528,-1.5313260555267334,,0.38831859827041626,0.0
484,MetaDrive-test-conv-dropout-norm-lr-lesser,75,-2.9224097033906506,487045,4904,6440.265662908554,-1.4705407619476318,1.5128852128982544,0.010768087580800056,0.0
485,MetaDrive-test-conv-dropout-norm-lr-lesser,75,-2.981473104687053,488374,4907,6456.026093959808,-1.4678425788879395,,0.010898740962147713,0.0
486,MetaDrive-test-conv-dropout-norm-lr-lesser,75,-2.911306329005672,489459,4909,6469.716693639755,-1.5366185903549194,1.5170260667800903,0.38785290718078613,0.0
487,MetaDrive-test-conv-dropout-norm-lr-lesser,75,-2.826611120637048,490460,4910,6482.306072950363,-1.5962316989898682,,0.768681526184082,0.0
488,MetaDrive-test-conv-dropout-norm-lr-lesser,75,-2.8687548389948496,491595,4912,6498.0728805065155,-1.591065764427185,1.5251967906951904,0.7638829946517944,0.0
489,MetaDrive-test-conv-dropout-norm-lr-lesser,75,-2.929978477669336,492229,4914,6506.194133043289,-1.4818508625030518,1.5160720348358154,0.005669852718710899,0.0
490,MetaDrive-test-conv-dropout-norm-lr-lesser,75,-2.845642538576754,493230,4915,6518.736815452576,-1.5097134113311768,,0.45845603942871094,0.0
491,MetaDrive-test-conv-dropout-norm-lr-lesser,75,-2.8221366435440505,494299,4917,6531.877339363098,-1.512314796447754,1.510019063949585,0.39561009407043457,0.0
492,MetaDrive-test-conv-dropout-norm-lr-lesser,75,-2.874470162632036,495271,4920,6543.482289075851,-1.58447265625,1.5041131973266602,0.7718658447265625,0.0
493,MetaDrive-test-conv-dropout-norm-lr-lesser,75,-2.907831162212754,496272,4921,6555.190219163895,-1.587328314781189,,0.7740180492401123,0.0
494,MetaDrive-test-conv-dropout-norm-lr-lesser,75,-2.8820017355313765,497448,4923,6568.9021418094635,-1.5798606872558594,,0.7698106169700623,0.0
495,MetaDrive-test-conv-dropout-norm-lr-lesser,75,-2.91926330040488,498315,4925,6578.602731704712,-1.4973113536834717,1.5011487007141113,0.010495984926819801,0.0
496,MetaDrive-test-conv-dropout-norm-lr-lesser,75,-2.9296403792483243,499706,4927,6595.612322807312,-1.4632093906402588,,0.012767504900693893,0.0
